滤镜资源/Professional Luts Collection/Triune-Digital-Cinematic-LUTs/3D LUTs (3DL)/ALEXA/Skyfall - Alexa.3dl
# Created by Benjamin (IWLTBAP) : http://luts.iwltbap.com
# Copyright: (C) Copyright 2016 Triune Films and IWLTBAP
# Blockbuster LUTs Pack
0 64 128 192 256 320 384 448 512 576 640 704 768 832 896 960 1023
39 47 59
38 47 111
38 46 175
47 51 258
61 66 376
66 96 584
68 140 852
77 188 1133
83 223 1452
91 249 1761
110 303 2050
140 365 2273
156 402 2405
162 416 2451
166 426 2482
170 436 2513
173 447 2545
40 109 60
41 102 110
41 90 175
49 80 258
62 90 378
66 120 590
68 168 860
79 221 1146
85 254 1465
94 282 1776
112 341 2067
140 403 2288
153 442 2420
158 457 2466
162 467 2497
166 478 2528
169 489 2560
50 196 61
48 188 108
49 177 177
55 166 265
64 139 384
67 143 594
69 198 868
80 254 1158
87 285 1479
98 317 1792
114 379 2085
137 443 2303
150 483 2434
154 500 2481
158 510 2512
162 521 2543
165 531 2575
79 313 67
78 309 107
77 306 177
70 300 274
65 280 408
66 207 609
69 228 874
82 286 1168
88 318 1493
99 354 1810
114 420 2102
135 487 2318
147 529 2448
152 545 2495
155 555 2526
158 566 2557
161 577 2588
103 478 90
102 475 114
101 474 182
91 482 292
75 487 449
64 467 670
68 336 900
82 319 1177
86 352 1504
99 391 1825
113 463 2118
133 530 2332
143 575 2461
148 591 2508
151 602 2539
155 613 2571
158 624 2602
127 768 157
124 766 181
120 763 211
103 768 327
82 797 518
65 814 760
62 791 1036
68 635 1278
83 414 1524
96 428 1834
112 501 2127
129 573 2342
139 621 2473
144 637 2521
147 649 2553
151 660 2585
154 671 2616
135 1263 314
132 1263 340
131 1263 365
126 1257 401
110 1260 586
98 1275 869
93 1277 1190
93 1245 1504
95 1114 1772
97 823 1967
109 598 2152
124 612 2346
135 661 2479
140 680 2532
143 692 2564
147 704 2597
151 715 2629
296 1748 516
292 1750 545
286 1750 572
278 1747 599
255 1732 659
200 1708 960
172 1710 1325
156 1696 1655
153 1658 1946
156 1586 2207
149 1424 2409
144 1217 2530
145 1072 2608
146 943 2623
149 941 2650
153 948 2681
157 952 2711
473 2180 748
459 2180 779
447 2180 809
439 2178 836
431 2173 862
369 2135 1053
297 2090 1414
260 2070 1752
247 2049 2041
243 2017 2301
236 1959 2522
230 1895 2685
228 1845 2789
226 1814 2841
225 1800 2866
227 1798 2892
228 1792 2917
558 2509 907
551 2508 931
545 2508 956
538 2507 982
532 2503 1007
511 2492 1083
409 2443 1447
358 2418 1791
332 2399 2097
316 2377 2361
305 2341 2585
293 2305 2750
288 2280 2862
290 2268 2933
292 2263 2963
294 2264 2991
297 2263 3019
663 2820 1043
655 2818 1064
646 2815 1084
634 2810 1103
622 2805 1122
611 2796 1140
506 2750 1422
427 2721 1801
389 2705 2121
372 2690 2400
370 2667 2632
362 2641 2801
356 2623 2913
355 2616 2988
358 2614 3027
360 2615 3054
362 2614 3080
774 3039 1145
756 3037 1165
742 3034 1185
729 3031 1205
715 3028 1226
701 3023 1245
603 2979 1412
487 2942 1810
438 2930 2135
419 2920 2426
416 2907 2663
411 2892 2837
415 2884 2956
419 2879 3030
422 2878 3075
426 2880 3107
429 2879 3134
815 3092 1172
795 3089 1193
776 3086 1213
757 3083 1233
741 3080 1253
727 3077 1274
669 3058 1370
526 3020 1804
476 3028 2145
461 3044 2443
459 3056 2686
453 3051 2861
456 3047 2982
468 3046 3057
480 3048 3105
487 3051 3140
494 3053 3175
851 3128 1191
832 3125 1212
811 3122 1233
791 3119 1252
771 3116 1272
750 3113 1293
695 3097 1376
546 3056 1798
491 3062 2144
475 3080 2445
478 3107 2692
484 3130 2874
496 3142 2997
505 3145 3074
516 3147 3121
527 3150 3155
539 3154 3195
891 3163 1210
873 3160 1231
853 3157 1251
832 3154 1271
811 3151 1291
790 3148 1311
723 3133 1392
564 3091 1804
506 3096 2152
488 3113 2452
491 3140 2699
498 3164 2881
516 3180 3003
529 3193 3083
540 3201 3132
553 3206 3166
573 3211 3206
931 3198 1228
913 3195 1249
895 3192 1270
874 3189 1290
853 3186 1310
833 3183 1330
757 3170 1411
581 3127 1816
521 3131 2165
502 3148 2461
504 3173 2707
514 3197 2888
533 3213 3010
546 3226 3089
556 3233 3138
569 3239 3174
589 3245 3213
973 3232 1247
955 3229 1268
936 3227 1289
917 3224 1309
896 3221 1329
877 3218 1349
800 3206 1429
598 3162 1827
535 3167 2177
517 3182 2469
518 3207 2715
529 3230 2896
550 3247 3017
565 3258 3095
575 3266 3144
594 3272 3181
614 3278 3220
110 50 60
106 48 112
102 47 176
106 51 259
107 68 376
90 96 583
88 141 853
96 186 1133
103 221 1450
111 248 1761
131 302 2049
164 362 2272
181 399 2404
186 413 2449
190 422 2481
194 432 2512
198 443 2544
98 113 60
96 106 111
92 94 177
94 80 259
95 92 378
88 121 589
88 170 860
98 220 1144
105 252 1463
114 280 1774
133 339 2066
164 400 2286
177 439 2418
182 454 2465
186 464 2496
190 474 2528
193 485 2559
93 199 62
89 190 109
86 179 178
85 166 265
88 140 384
88 145 595
88 200 869
100 253 1157
107 284 1477
118 315 1790
136 376 2083
161 439 2301
173 479 2433
178 495 2480
182 506 2512
186 516 2543
189 526 2574
104 315 67
102 310 108
100 306 178
94 299 274
87 279 410
88 207 609
89 230 876
102 287 1169
109 317 1492
121 351 1806
138 415 2100
159 480 2316
170 522 2447
175 539 2493
179 549 2525
182 560 2557
185 570 2588
126 478 89
125 475 113
123 476 182
113 482 293
95 488 450
84 466 672
89 336 901
104 320 1179
109 352 1505
121 389 1824
137 458 2116
156 524 2330
167 567 2459
171 584 2507
175 595 2539
178 607 2571
181 617 2602
151 772 156
148 769 180
145 767 212
128 770 329
103 801 519
85 818 762
82 793 1038
89 633 1280
106 414 1525
119 426 1834
136 499 2129
153 568 2341
162 613 2471
167 631 2521
171 642 2553
174 654 2584
178 664 2616
161 1270 315
158 1270 341
156 1270 366
152 1268 405
134 1266 590
121 1280 871
114 1281 1193
114 1247 1508
115 1113 1775
117 821 1969
131 596 2154
148 611 2348
158 658 2480
163 677 2534
167 689 2566
171 700 2598
175 711 2630
329 1757 521
323 1759 550
317 1758 578
310 1756 604
287 1745 670
227 1717 968
197 1714 1329
178 1699 1659
174 1660 1949
176 1587 2210
169 1424 2411
164 1217 2531
165 1071 2608
167 942 2624
171 940 2652
175 946 2683
179 951 2712
517 2186 745
502 2186 776
485 2186 809
472 2184 840
464 2179 866
400 2146 1065
325 2098 1421
285 2074 1756
271 2051 2044
265 2019 2303
258 1961 2524
252 1898 2687
249 1848 2791
247 1818 2844
246 1804 2868
248 1801 2895
249 1795 2920
592 2515 911
586 2514 935
579 2514 960
572 2512 986
564 2509 1012
542 2499 1091
438 2452 1455
385 2424 1795
357 2403 2100
341 2380 2363
329 2344 2587
316 2308 2752
311 2283 2865
312 2271 2935
314 2266 2965
316 2267 2994
319 2266 3022
698 2826 1048
688 2824 1070
678 2821 1090
667 2817 1109
655 2811 1128
643 2802 1147
535 2758 1430
454 2726 1805
414 2709 2124
397 2693 2402
395 2670 2634
386 2644 2803
379 2627 2915
379 2619 2990
381 2617 3030
383 2618 3056
385 2618 3082
818 3045 1150
799 3043 1170
781 3040 1191
766 3037 1211
750 3034 1231
735 3029 1250
633 2986 1419
514 2947 1814
464 2935 2138
444 2923 2428
440 2910 2665
434 2896 2839
438 2888 2958
442 2883 3033
445 2882 3077
449 2883 3109
452 2883 3136
865 3099 1177
845 3096 1198
824 3093 1219
805 3090 1239
785 3087 1259
766 3084 1279
702 3066 1377
554 3026 1810
503 3033 2148
486 3049 2446
483 3060 2688
477 3055 2863
479 3051 2984
492 3050 3060
505 3052 3108
512 3055 3142
519 3057 3178
901 3134 1196
882 3131 1217
861 3128 1238
840 3125 1258
819 3122 1278
799 3119 1298
734 3104 1383
574 3062 1803
518 3067 2147
500 3084 2447
502 3111 2695
507 3134 2876
521 3146 2999
530 3149 3077
542 3151 3123
553 3154 3158
565 3158 3198
940 3169 1215
923 3167 1236
902 3163 1257
881 3160 1277
861 3157 1297
841 3154 1317
764 3141 1399
592 3097 1809
532 3101 2155
513 3118 2454
515 3144 2701
522 3167 2883
541 3184 3005
554 3197 3085
565 3205 3134
578 3210 3169
600 3216 3208
981 3204 1233
964 3201 1254
945 3198 1275
923 3195 1296
904 3192 1316
885 3189 1336
807 3177 1418
609 3133 1822
546 3136 2168
528 3152 2463
528 3177 2709
538 3201 2891
559 3217 3012
572 3230 3091
581 3237 3141
594 3243 3177
615 3249 3216
1024 3239 1252
1006 3236 1273
987 3233 1294
967 3230 1315
947 3227 1335
929 3225 1355
852 3213 1436
627 3168 1833
561 3172 2180
543 3187 2472
542 3211 2717
554 3234 2898
577 3251 3019
594 3262 3097
606 3270 3147
628 3276 3183
651 3283 3223
208 57 62
205 54 114
198 51 179
197 54 261
199 71 378
164 100 583
115 142 853
116 185 1133
123 219 1450
131 246 1761
154 300 2048
187 359 2271
205 395 2403
210 409 2448
215 419 2479
219 428 2511
223 439 2543
197 120 61
194 112 113
188 97 179
186 81 261
186 95 380
150 124 589
112 171 861
118 218 1144
125 250 1462
134 279 1773
157 337 2065
188 397 2285
201 435 2417
206 451 2464
211 461 2495
215 470 2526
219 481 2558
190 209 63
185 200 111
181 190 180
178 173 268
170 143 384
134 148 594
109 201 869
120 252 1156
127 282 1475
138 314 1789
160 373 2081
185 436 2300
198 475 2431
202 491 2478
206 502 2511
211 512 2542
214 522 2573
184 324 69
179 318 110
175 310 179
162 302 277
140 279 412
114 207 609
109 232 877
122 285 1168
129 316 1490
142 350 1805
161 412 2098
182 476 2315
194 516 2445
199 532 2492
202 543 2524
206 553 2556
210 564 2587
155 479 89
154 476 113
150 477 183
139 484 294
116 489 453
105 465 674
110 336 902
124 320 1180
132 351 1505
145 386 1820
161 453 2114
180 517 2328
190 560 2457
195 577 2505
198 589 2538
203 599 2570
206 610 2601
176 776 155
173 773 179
171 770 212
153 774 332
125 805 522
105 822 765
102 795 1041
110 631 1282
129 413 1526
143 425 1834
160 494 2128
176 561 2340
186 606 2469
191 624 2519
195 635 2551
199 646 2583
203 656 2614
188 1277 316
185 1277 341
183 1277 367
179 1275 408
160 1272 595
144 1286 874
134 1285 1196
134 1249 1512
134 1112 1778
138 820 1971
154 594 2155
171 606 2348
181 652 2479
187 670 2533
191 682 2565
196 692 2597
200 704 2628
369 1767 524
358 1768 555
351 1768 584
342 1765 611
321 1755 679
254 1725 976
221 1718 1334
201 1701 1663
196 1661 1952
196 1587 2213
189 1424 2413
184 1217 2533
187 1070 2610
190 940 2625
194 937 2653
199 943 2684
202 948 2713
561 2192 742
546 2192 773
528 2191 807
510 2190 840
497 2186 869
432 2157 1077
354 2107 1428
312 2079 1760
295 2054 2048
288 2021 2306
280 1963 2526
273 1901 2690
271 1852 2794
269 1822 2846
268 1807 2871
269 1805 2898
270 1799 2922
629 2520 914
621 2520 940
614 2519 964
607 2518 990
598 2515 1015
573 2506 1098
467 2460 1463
412 2430 1799
381 2407 2102
365 2383 2366
352 2347 2589
340 2311 2754
334 2286 2867
335 2274 2937
336 2269 2968
338 2270 2996
341 2269 3024
734 2831 1053
723 2829 1074
712 2827 1096
700 2823 1115
688 2817 1134
676 2808 1153
566 2766 1438
482 2732 1810
440 2714 2127
421 2696 2405
420 2674 2637
410 2648 2806
402 2630 2917
402 2623 2992
404 2621 3032
406 2622 3058
408 2621 3084
867 3051 1154
849 3049 1175
828 3047 1196
808 3044 1216
790 3040 1236
773 3035 1256
665 2993 1426
542 2953 1818
489 2939 2141
468 2927 2430
464 2914 2667
458 2899 2841
461 2891 2960
466 2887 3035
469 2885 3080
472 2887 3111
475 2887 3138
913 3105 1182
895 3102 1203
874 3099 1224
853 3096 1245
833 3093 1265
813 3090 1285
740 3073 1384
583 3032 1815
529 3038 2151
511 3053 2448
507 3064 2690
500 3058 2865
503 3055 2986
517 3054 3062
530 3056 3111
537 3059 3145
544 3061 3181
949 3141 1201
932 3138 1222
912 3135 1243
890 3132 1264
869 3129 1284
848 3126 1304
772 3112 1390
603 3068 1809
544 3072 2151
526 3089 2450
526 3115 2697
531 3138 2878
546 3150 3001
556 3153 3079
568 3156 3126
578 3159 3161
591 3163 3201
989 3176 1219
973 3173 1241
953 3170 1262
930 3167 1283
910 3163 1303
890 3160 1322
813 3148 1406
620 3103 1814
559 3106 2159
539 3123 2456
539 3148 2704
547 3171 2885
566 3188 3007
580 3201 3087
591 3209 3137
605 3214 3172
633 3221 3212
1031 3211 1238
1014 3208 1259
996 3205 1280
974 3201 1301
953 3198 1322
933 3196 1341
858 3184 1425
638 3138 1827
573 3142 2172
553 3157 2466
553 3182 2712
562 3205 2892
584 3222 3014
598 3233 3093
610 3241 3143
628 3247 3179
658 3254 3219
1073 3246 1256
1056 3242 1278
1038 3240 1299
1017 3236 1320
997 3233 1340
979 3231 1360
905 3221 1443
657 3174 1839
587 3177 2184
568 3192 2474
569 3216 2720
579 3239 2900
605 3255 3021
632 3267 3100
644 3275 3150
672 3282 3186
695 3288 3227
383 86 70
372 81 125
366 75 187
351 74 266
330 83 391
296 111 600
229 162 873
153 191 1144
144 219 1453
152 245 1760
177 298 2048
211 356 2270
230 391 2402
235 405 2447
239 415 2478
244 425 2510
249 435 2541
375 151 68
369 137 123
358 120 188
339 97 265
320 106 392
285 135 601
217 186 875
150 219 1148
145 248 1461
155 278 1773
180 335 2064
211 394 2284
226 431 2416
231 447 2462
236 457 2494
240 466 2525
