滤镜资源/Professional Luts Collection/Triune-Digital-Cinematic-LUTs/3D LUTs (3DL)/ALEXA/Skyfall - Alexa.3dl
# Created by Benjamin (IWLTBAP) : http://luts.iwltbap.com
# Copyright: (C) Copyright 2016 Triune Films and IWLTBAP
# Blockbuster LUTs Pack
0 128 256 384 512 640 768 896 1023
39 47 59
38 46 175
61 66 376
68 140 852
83 223 1452
110 303 2050
156 402 2405
166 426 2482
173 447 2545
50 196 61
49 177 177
64 139 384
69 198 868
87 285 1479
114 379 2085
150 483 2434
158 510 2512
165 531 2575
103 478 90
101 474 182
75 487 449
68 336 900
86 352 1504
113 463 2118
143 575 2461
151 602 2539
158 624 2602
135 1263 314
131 1263 365
110 1260 586
93 1277 1190
95 1114 1772
109 598 2152
135 661 2479
143 692 2564
151 715 2629
473 2180 748
447 2180 809
431 2173 862
297 2090 1414
247 2049 2041
236 1959 2522
228 1845 2789
225 1800 2866
228 1792 2917
663 2820 1043
646 2815 1084
622 2805 1122
506 2750 1422
389 2705 2121
370 2667 2632
356 2623 2913
358 2614 3027
362 2614 3080
815 3092 1172
776 3086 1213
741 3080 1253
669 3058 1370
476 3028 2145
459 3056 2686
456 3047 2982
480 3048 3105
494 3053 3175
891 3163 1210
853 3157 1251
811 3151 1291
723 3133 1392
506 3096 2152
491 3140 2699
516 3180 3003
540 3201 3132
573 3211 3206
973 3232 1247
936 3227 1289
896 3221 1329
800 3206 1429
535 3167 2177
518 3207 2715
550 3247 3017
575 3266 3144
614 3278 3220
208 57 62
198 51 179
199 71 378
115 142 853
123 219 1450
154 300 2048
205 395 2403
215 419 2479
223 439 2543
190 209 63
181 190 180
170 143 384
109 201 869
127 282 1475
160 373 2081
198 475 2431
206 502 2511
214 522 2573
155 479 89
150 477 183
116 489 453
110 336 902
132 351 1505
161 453 2114
190 560 2457
198 589 2538
206 610 2601
188 1277 316
183 1277 367
160 1272 595
134 1285 1196
134 1112 1778
154 594 2155
181 652 2479
191 682 2565
200 704 2628
561 2192 742
528 2191 807
497 2186 869
354 2107 1428
295 2054 2048
280 1963 2526
271 1852 2794
268 1807 2871
270 1799 2922
734 2831 1053
712 2827 1096
688 2817 1134
566 2766 1438
440 2714 2127
420 2674 2637
402 2630 2917
404 2621 3032
408 2621 3084
913 3105 1182
874 3099 1224
833 3093 1265
740 3073 1384
529 3038 2151
507 3064 2690
503 3055 2986
530 3056 3111
544 3061 3181
989 3176 1219
953 3170 1262
910 3163 1303
813 3148 1406
559 3106 2159
539 3148 2704
566 3188 3007
591 3209 3137
633 3221 3212
1073 3246 1256
1038 3240 1299
997 3233 1340
905 3221 1443
587 3177 2184
569 3216 2720
605 3255 3021
644 3275 3150
695 3288 3227
659 129 88
634 118 206
598 113 413
437 186 908
256 229 1488
200 298 2048
254 389 2402
265 412 2479
276 432 2542
665 278 89
642 251 202
578 176 417
416 245 920
239 283 1492
206 370 2081
248 468 2429
258 494 2508
268 513 2571
611 556 103
602 550 195
550 534 479
358 360 931
195 347 1502
208 446 2111
240 547 2454
249 576 2535
257 597 2599
271 1294 321
256 1292 375
221 1284 610
177 1293 1204
175 1106 1783
200 583 2154
231 636 2476
241 666 2562
250 689 2626
663 2201 733
621 2201 800
578 2196 867
411 2124 1443
343 2060 2055
325 1968 2532
314 1858 2799
311 1814 2876
314 1805 2928
818 2841 1060
792 2837 1104
762 2829 1145
631 2782 1455
493 2723 2133
470 2682 2641
450 2638 2923
450 2629 3037
454 2629 3089
1016 3117 1190
972 3112 1234
932 3106 1276
822 3087 1399
582 3049 2158
556 3072 2695
551 3062 2991
581 3064 3116
596 3069 3187
1093 3188 1227
1053 3183 1271
1011 3176 1313
914 3163 1421
611 3118 2168
591 3157 2709
616 3197 3011
653 3217 3142
719 3232 3218
1178 3258 1264
1137 3252 1308
1099 3247 1350
1012 3235 1457
643 3189 2192
622 3225 2725
662 3264 3027
712 3283 3155
782 3298 3233
1582 306 175
1543 285 286
1526 274 478
1356 287 975
1098 241 1580
983 299 2132
919 376 2454
890 400 2527
890 420 2589
1622 423 175
1582 380 288
1538 326 478
1374 351 989
1107 303 1603
992 369 2158
924 456 2480
891 480 2553
885 499 2613
1747 790 188
1729 771 293
1660 717 528
1397 457 1007
1101 369 1628
979 447 2185
895 534 2501
853 561 2574
844 580 2636
1817 1536 332
1812 1535 385
1761 1530 658
1520 1465 1333
1045 1130 1887
801 574 2209
671 615 2502
637 639 2582
632 660 2646
1382 2265 626
1353 2269 705
1306 2266 787
804 2211 1522
553 2104 2089
411 1979 2543
369 1862 2805
356 1814 2880
358 1806 2933
918 2850 1064
883 2846 1111
849 2838 1153
695 2796 1474
548 2732 2141
521 2688 2647
497 2644 2928
496 2634 3042
500 2635 3095
1134 3129 1195
1083 3125 1244
1038 3119 1287
918 3102 1416
636 3060 2167
606 3079 2700
600 3068 2995
633 3071 3122
651 3076 3192
1208 3201 1233
1165 3196 1279
1117 3190 1323
1016 3176 1434
667 3130 2178
643 3167 2715
671 3206 3017
720 3226 3148
788 3240 3225
1286 3271 1269
1245 3266 1315
1201 3260 1361
1115 3249 1470
708 3201 2202
676 3235 2731
720 3274 3033
783 3292 3161
861 3308 3241
2475 576 299
2447 568 427
2417 564 638
2322 554 1125
2064 447 1653
1808 365 2174
1780 398 2482
1777 408 2554
1784 419 2617
2497 636 290
2472 634 424
2437 626 640
2339 621 1139
2081 507 1670
1825 428 2196
1790 455 2499
1788 466 2572
1794 478 2635
2615 976 281
2608 967 410
2554 916 648
2352 692 1150
2092 569 1685
1836 491 2217
1799 518 2518
1795 528 2593
1799 539 2655
2787 1636 333
2785 1635 379
2775 1643 633
2639 1625 1328
2271 1218 1902
1808 567 2237
1764 577 2534
1757 587 2613
1761 598 2675
2813 2349 414
2807 2354 472
2798 2355 539
2621 2431 1560
2422 2366 2217
2123 2195 2696
1975 2007 2960
1937 1926 3040
1930 1912 3105
2745 2943 484
2732 2947 559
2711 2950 647
2506 3007 1474
2071 2982 2318
1660 2881 2768
1496 2817 3044
1433 2796 3152
1426 2795 3210
2365 3190 857
2335 3198 962
2289 3206 1078
2089 3218 1407
1626 3221 2298
1279 3178 2762
1084 3133 3037
1099 3130 3162
1102 3132 3232
2241 3256 1001
2197 3263 1103
2144 3269 1214
2000 3274 1431
1501 3261 2288
1054 3227 2749
1004 3251 3046
1065 3267 3176
1134 3276 3255
2237 3323 1088
2199 3330 1183
2151 3335 1276
2011 3339 1475
1497 3318 2301
1045 3286 2760
1073 3316 3061
1131 3332 3189
1193 3345 3268
3113 729 427
3098 723 529
3082 730 714
3005 753 1232
2826 665 1788
2663 582 2287
2580 534 2542
2566 531 2605
2564 538 2665
3136 789 426
3118 782 531
3099 786 718
3023 820 1245
2847 734 1809
2679 648 2305
2591 593 2557
2578 593 2622
2577 600 2682
3187 957 409
3176 939 528
3132 885 716
3038 883 1253
2866 802 1827
2692 715 2322
2597 654 2572
2585 656 2639
2585 664 2700
3374 1721 423
3375 1722 489
3375 1733 767
3278 1741 1509
3033 1341 1991
2677 772 2327
2576 711 2579
2564 712 2653
2567 723 2716
3430 2420 574
3428 2429 641
3423 2435 723
3362 2559 1718
3291 2530 2350
3115 2314 2770
2911 2017 2961
2851 1897 3027
2833 1863 3089
3361 3035 851
3355 3045 929
3351 3050 999
3306 3115 1631
3221 3132 2414
3129 3064 2888
3042 2998 3175
3022 2986 3291
3019 2987 3348
3291 3296 1056
3286 3305 1134
3282 3313 1210
3261 3347 1518
3179 3414 2453
3090 3399 2921
3010 3356 3200
2993 3348 3325
2990 3349 3393
3265 3357 1125
3262 3365 1197
3257 3373 1271
3241 3394 1471
3159 3465 2451
3078 3478 2932
3008 3480 3209
2983 3475 3326
2979 3477 3398
3262 3421 1198
3259 3428 1270
3254 3436 1342
3241 3455 1523
3165 3519 2465
3085 3532 2944
3013 3535 3218
2992 3537 3335
2986 3542 3403
3235 745 472
3224 741 565
3212 752 743
3147 788 1265
3014 729 1840
2876 659 2335
2820 622 2600
2810 615 2659
2800 608 2710
3258 807 474
3245 801 569
3231 808 746
3167 857 1282
3037 800 1861
2896 729 2354
2834 687 2617
2823 678 2676
2813 669 2727
3290 901 463
3280 891 566
3252 867 741
3187 922 1292
3062 873 1879
2915 801 2373
2848 753 2634
2837 743 2693
2827 733 2744
3493 1719 466
3494 1724 569
3484 1741 869
3403 1736 1560
3214 1324 2015
2937 872 2384
2866 822 2648
2852 810 2711
2841 800 2763
3582 2469 742
3578 2483 828
3571 2499 944
3545 2600 1810
3504 2557 2407
3405 2350 2810
3260 2087 3003
3189 1944 3046
3150 1873 3087
3602 3119 1162
3602 3126 1221
3602 3131 1281
3592 3175 1806
3562 3173 2493
3538 3113 2947
3487 3042 3219
3445 3011 3319
3424 3000 3366
3597 3364 1301
3596 3369 1353
3595 3375 1408
3585 3398 1685
3545 3444 2508
3504 3431 2966
3472 3396 3248
3463 3386 3367
3455 3385 3429
3582 3418 1322
3581 3424 1375
3580 3431 1435
3572 3444 1606
3530 3496 2503
3492 3512 2975
3461 3521 3255
3453 3513 3367
3453 3514 3438
3580 3476 1357
3579 3483 1416
3577 3487 1472
3570 3499 1637
3532 3549 2517
3495 3564 2989
3466 3574 3264
3460 3576 3374
3457 3580 3440
3291 750 485
3281 746 579
3271 759 751
3209 799 1271
3088 753 1854
2955 690 2354
2899 652 2619
2887 645 2680
2877 637 2731
3315 815 491
3302 807 584
3290 816 755
3228 867 1288
3111 826 1877
2976 761 2373
2915 720 2638
2903 711 2699
2892 701 2750
3344 902 483
3331 886 581
3309 873 752
3248 934 1301
3138 900 1897
2997 832 2392
2931 787 2657
2918 776 2718
2906 766 2768
3537 1723 490
3538 1729 606
3525 1748 914
3450 1732 1573
3278 1329 2029
3019 903 2403
2950 858 2673
2933 843 2736
2921 832 2787
3621 2484 795
3616 2499 880
3610 2515 1003
3592 2606 1830
3554 2559 2418
3464 2354 2820
3330 2095 3015
3266 1966 3054
3226 1893 3094
3646 3130 1198
3646 3138 1257
3645 3142 1315
3638 3181 1827
3614 3177 2503
3596 3116 2955
3561 3049 3229
3530 3022 3328
3509 3008 3374
3663 3377 1341
3662 3383 1393
3662 3388 1446
3656 3410 1725
3633 3452 2528
3622 3440 2985
3611 3407 3260
3604 3395 3378
3600 3392 3437
3665 3433 1369
3665 3439 1423
3664 3443 1476
3661 3456 1647
3636 3503 2529
3626 3523 2998
3606 3529 3270
3599 3521 3378
3599 3520 3450
3670 3489 1403
3669 3493 1454
3668 3498 1511
3665 3510 1674
3641 3554 2539
3628 3575 3008
3606 3583 3282
3598 3588 3393
3598 3589 3461
3344 754 493
3335 750 586
3326 761 754
3269 805 1269
3165 781 1868
3035 721 2372
2979 683 2640
2965 673 2699
2953 665 2752
3368 820 500
3356 811 591
3346 819 758
3288 876 1291
3189 855 1891
3055 792 2391
2996 755 2661
2982 742 2720
2969 731 2772
3397 907 495
3384 889 590
3365 879 758
3308 945 1307
3215 931 1914
3077 862 2409
3014 824 2681
2999 810 2741
2985 796 2792
3583 1736 512
3582 1746 645
3567 1765 957
3499 1740 1589
3343 1352 2047
3099 933 2421
3036 898 2698
3018 882 2762
3002 867 2813
3660 2504 851
3655 2518 936
3652 2533 1052
3640 2613 1844
3604 2565 2429
3524 2364 2831
3399 2110 3027
3341 1989 3069
3306 1931 3105
3690 3144 1234
3691 3151 1292
3690 3154 1346
3684 3188 1843
3665 3183 2511
3647 3121 2963
3620 3055 3236
3594 3029 3336
3577 3019 3381
3707 3386 1365
3706 3391 1417
3706 3396 1469
3701 3416 1742
3681 3456 2535
3670 3444 3003
3658 3412 3276
3652 3400 3388
3647 3398 3444
3709 3441 1392
3709 3445 1444
3708 3450 1498
3705 3462 1666
3682 3507 2545
3670 3527 3030
3660 3536 3305
3658 3526 3407
3656 3524 3470
3714 3495 1423
3713 3499 1475
3712 3504 1531
3708 3515 1696
3681 3556 2578
3669 3576 3066
3660 3588 3336
3657 3590 3438
3656 3592 3499
