滤镜资源/Professional Luts Collection/Triune-Digital-Cinematic-LUTs/3D LUTs (3DL)/ALEXA/Skyfall - Alexa.3dl
# Created by Benjamin (IWLTBAP) : http://luts.iwltbap.com
# Copyright: (C) Copyright 2016 Triune Films and IWLTBAP
# Blockbuster LUTs Pack
0 256 512 768 1023
39 47 59
61 66 376
83 223 1452
156 402 2405
173 447 2545
103 478 90
75 487 449
86 352 1504
143 575 2461
158 624 2602
473 2180 748
431 2173 862
247 2049 2041
228 1845 2789
228 1792 2917
815 3092 1172
741 3080 1253
476 3028 2145
456 3047 2982
494 3053 3175
973 3232 1247
896 3221 1329
535 3167 2177
550 3247 3017
614 3278 3220
659 129 88
598 113 413
256 229 1488
254 389 2402
276 432 2542
611 556 103
550 534 479
195 347 1502
240 547 2454
257 597 2599
663 2201 733
578 2196 867
343 2060 2055
314 1858 2799
314 1805 2928
1016 3117 1190
932 3106 1276
582 3049 2158
551 3062 2991
596 3069 3187
1178 3258 1264
1099 3247 1350
643 3189 2192
662 3264 3027
782 3298 3233
2475 576 299
2417 564 638
2064 447 1653
1780 398 2482
1784 419 2617
2615 976 281
2554 916 648
2092 569 1685
1799 518 2518
1799 539 2655
2813 2349 414
2798 2355 539
2422 2366 2217
1975 2007 2960
1930 1912 3105
2365 3190 857
2289 3206 1078
1626 3221 2298
1084 3133 3037
1102 3132 3232
2237 3323 1088
2151 3335 1276
1497 3318 2301
1073 3316 3061
1193 3345 3268
3235 745 472
3212 752 743
3014 729 1840
2820 622 2600
2800 608 2710
3290 901 463
3252 867 741
3062 873 1879
2848 753 2634
2827 733 2744
3582 2469 742
3571 2499 944
3504 2557 2407
3260 2087 3003
3150 1873 3087
3597 3364 1301
3595 3375 1408
3545 3444 2508
3472 3396 3248
3455 3385 3429
3580 3476 1357
3577 3487 1472
3532 3549 2517
3466 3574 3264
3457 3580 3440
3344 754 493
3326 761 754
3165 781 1868
2979 683 2640
2953 665 2752
3397 907 495
3365 879 758
3215 931 1914
3014 824 2681
2985 796 2792
3660 2504 851
3652 2533 1052
3604 2565 2429
3399 2110 3027
3306 1931 3105
3707 3386 1365
3706 3396 1469
3681 3456 2535
3658 3412 3276
3647 3398 3444
3714 3495 1423
3712 3504 1531
3681 3556 2578
3660 3588 3336
3656 3592 3499
