滤镜资源/Professional Luts Collection/Triune-Digital-Cinematic-LUTs/3D LUTs (3DL)/ALEXA/Star Wars The Force Awakens - Alexa.3dl
# Created by Benjamin (IWLTBAP) : http://luts.iwltbap.com
# Copyright: (C) Copyright 2016 Triune Films and IWLTBAP
# Blockbuster LUTs Pack
0 64 128 192 256 320 384 448 512 576 640 704 768 832 896 960 1023
41 11 8
45 11 81
61 30 175
79 64 300
117 120 479
163 193 734
184 299 1064
226 434 1377
324 507 1713
419 550 2082
505 601 2434
564 665 2695
601 716 2859
613 737 2911
621 755 2946
629 772 2981
637 790 3016
47 112 17
50 101 82
60 102 171
79 110 296
114 157 476
165 233 735
182 350 1061
224 471 1373
317 545 1706
414 587 2071
498 636 2425
558 698 2686
596 747 2851
608 768 2903
616 785 2938
625 801 2974
632 820 3009
59 243 35
62 235 92
66 229 178
80 228 295
117 230 472
165 278 736
182 386 1058
220 507 1369
313 583 1698
407 627 2061
493 670 2416
553 729 2679
591 777 2843
603 799 2895
611 816 2931
619 833 2967
628 849 3002
78 388 58
79 383 103
85 384 192
93 383 314
119 380 478
163 353 732
182 419 1054
216 542 1365
305 624 1689
400 665 2049
487 702 2407
549 760 2671
586 808 2836
598 831 2888
606 847 2924
615 864 2960
624 881 2997
111 588 96
109 584 121
113 580 198
122 589 335
134 594 504
161 591 734
179 526 1044
211 577 1359
297 658 1679
392 701 2036
482 736 2398
544 791 2663
581 839 2829
594 862 2883
604 879 2919
612 895 2955
621 914 2991
124 877 142
124 875 165
125 871 196
127 873 314
142 893 537
149 902 778
150 883 1058
193 803 1358
276 712 1665
383 736 2020
475 770 2385
538 823 2653
577 871 2819
590 896 2875
600 913 2914
608 930 2950
618 948 2987
90 1235 176
91 1235 201
89 1235 227
90 1233 268
97 1243 480
131 1270 837
161 1260 1135
206 1245 1416
262 1192 1688
348 1028 1982
456 857 2349
531 855 2636
571 904 2805
586 931 2866
596 947 2906
606 964 2946
615 983 2982
125 1611 259
125 1611 284
126 1610 310
127 1607 336
131 1605 408
162 1627 807
219 1658 1211
266 1659 1503
336 1666 1781
414 1662 2073
481 1565 2357
532 1397 2601
576 1281 2781
593 1175 2860
604 1179 2903
616 1193 2946
630 1209 2988
248 2036 385
248 2034 408
248 2031 432
246 2027 456
245 2020 479
246 2002 734
306 2062 1229
385 2139 1597
432 2149 1886
486 2155 2177
552 2148 2472
610 2129 2707
653 2110 2867
680 2096 2950
692 2089 2987
707 2095 3027
723 2099 3064
340 2457 522
339 2456 545
340 2454 569
339 2451 593
339 2447 616
336 2430 701
372 2447 1177
480 2561 1645
553 2599 1992
597 2590 2290
653 2583 2579
724 2591 2815
785 2600 2972
825 2608 3067
844 2613 3107
863 2622 3144
881 2630 3181
460 2812 633
461 2812 656
461 2811 679
462 2811 703
462 2809 727
460 2802 749
473 2790 1103
572 2866 1615
688 2959 2076
743 2967 2404
798 2968 2690
868 2975 2909
926 2983 3056
965 2994 3152
989 3004 3206
1007 3013 3244
1025 3020 3279
572 3059 705
573 3059 728
573 3060 752
574 3060 775
575 3061 799
575 3061 823
585 3056 1052
664 3132 1589
781 3225 2108
877 3269 2491
935 3258 2769
991 3255 2980
1041 3261 3124
1077 3272 3218
1102 3285 3279
1120 3297 3325
1136 3308 3365
595 3129 729
596 3130 752
596 3130 776
597 3131 800
599 3133 824
600 3135 849
607 3141 972
691 3225 1568
820 3336 2097
957 3429 2532
1027 3442 2821
1080 3444 3036
1121 3453 3180
1150 3464 3275
1172 3477 3336
1189 3489 3383
1208 3502 3432
610 3180 748
611 3180 771
612 3181 795
612 3182 819
614 3183 843
616 3185 867
622 3191 973
704 3266 1556
833 3376 2085
978 3473 2538
1058 3505 2836
1124 3544 3068
1169 3573 3222
1195 3587 3316
1212 3598 3378
1227 3610 3425
1244 3621 3474
624 3229 763
625 3230 787
626 3231 810
627 3232 834
628 3233 858
630 3235 883
636 3241 986
721 3311 1562
852 3419 2088
997 3514 2547
1078 3548 2850
1143 3587 3082
1188 3621 3238
1217 3648 3337
1236 3666 3402
1248 3677 3447
1264 3692 3500
643 3280 787
644 3280 811
644 3281 835
645 3282 859
647 3283 883
649 3284 908
656 3291 1011
740 3357 1577
873 3463 2099
1016 3554 2558
1100 3592 2866
1160 3630 3098
1203 3664 3256
1232 3690 3354
1250 3708 3418
1263 3721 3465
1277 3733 3516
665 3330 820
665 3330 843
666 3330 866
667 3331 890
669 3333 915
671 3335 940
678 3340 1041
758 3402 1589
893 3506 2109
1036 3596 2570
1122 3636 2881
1178 3673 3115
1220 3707 3272
1247 3731 3371
1263 3749 3434
1277 3764 3484
1291 3775 3532
143 23 17
139 23 95
139 25 182
149 51 308
168 96 489
190 174 738
208 274 1067
254 406 1384
351 494 1723
446 537 2094
531 591 2446
591 656 2707
627 710 2869
638 733 2919
645 752 2952
653 770 2987
661 788 3020
117 115 25
113 96 89
119 84 178
130 87 305
153 137 484
187 217 738
206 326 1064
250 460 1378
345 533 1715
440 574 2085
525 626 2436
583 691 2696
619 743 2858
632 765 2910
639 784 2942
647 801 2978
655 818 3013
105 246 38
104 236 95
104 228 180
115 225 299
144 220 478
190 262 739
207 377 1062
248 498 1374
340 570 1708
434 613 2074
518 662 2427
577 724 2688
614 774 2850
627 796 2902
634 814 2935
642 831 2971
650 848 3006
103 389 58
106 383 104
109 385 193
119 382 316
144 381 483
189 347 737
207 413 1058
244 534 1370
334 611 1698
428 653 2062
512 696 2418
573 756 2680
610 805 2843
622 828 2895
629 846 2928
638 862 2964
647 880 3000
133 590 96
134 584 122
136 581 198
145 589 335
159 595 508
187 592 739
204 521 1049
239 569 1364
326 651 1688
419 691 2050
507 729 2408
568 787 2672
605 836 2836
618 859 2889
626 877 2922
634 894 2959
643 912 2995
147 879 142
149 876 166
149 872 197
152 873 313
166 894 533
175 903 780
172 884 1059
213 803 1361
310 708 1673
410 726 2034
500 763 2396
562 818 2662
600 867 2828
613 891 2884
622 909 2917
631 926 2954
640 945 2990
113 1236 172
113 1236 199
113 1235 225
114 1233 266
123 1243 475
150 1272 834
176 1262 1135
224 1246 1416
283 1193 1689
373 1024 1989
482 849 2362
556 848 2648
594 898 2815
609 925 2875
618 944 2910
628 960 2949
637 979 2985
149 1613 258
152 1612 282
152 1612 308
152 1610 334
156 1606 406
186 1629 800
239 1661 1210
289 1662 1504
358 1669 1783
436 1664 2075
502 1564 2360
554 1392 2606
596 1274 2787
614 1168 2866
625 1173 2906
637 1187 2949
651 1203 2990
271 2037 383
271 2035 407
271 2032 431
270 2028 454
269 2021 477
269 2004 731
328 2063 1223
406 2141 1597
454 2151 1887
508 2158 2179
575 2151 2474
633 2132 2710
677 2114 2870
705 2100 2953
716 2093 2990
732 2099 3029
747 2102 3067
362 2459 520
362 2456 544
362 2455 568
361 2452 591
362 2447 615
359 2432 700
393 2447 1174
501 2561 1642
575 2601 1992
620 2591 2291
677 2587 2581
748 2595 2817
810 2603 2974
850 2611 3068
869 2616 3109
888 2625 3146
906 2632 3182
483 2813 632
483 2812 655
485 2812 678
485 2811 702
484 2809 726
483 2802 748
496 2790 1101
594 2865 1611
710 2959 2074
767 2970 2404
823 2970 2689
894 2977 2909
951 2986 3057
991 2997 3153
1015 3006 3208
1033 3015 3244
1051 3022 3280
595 3060 704
596 3060 727
597 3060 751
597 3060 775
598 3061 798
598 3061 822
608 3057 1051
687 3132 1587
803 3224 2104
903 3272 2491
960 3260 2769
1016 3256 2979
1067 3264 3124
1103 3275 3219
1128 3287 3280
1145 3300 3327
1160 3310 3366
618 3130 728
618 3130 751
618 3131 775
620 3131 799
621 3134 823
623 3135 848
630 3142 972
714 3225 1567
843 3336 2092
982 3430 2532
1052 3443 2821
1105 3445 3035
1145 3454 3181
1176 3467 3277
1197 3479 3338
1213 3492 3384
1232 3504 3433
634 3180 749
634 3180 772
635 3181 796
636 3182 820
637 3183 844
639 3185 869
645 3191 976
727 3266 1557
856 3376 2081
1003 3474 2537
1084 3507 2837
1149 3546 3068
1193 3575 3222
1219 3588 3317
1236 3600 3379
1251 3612 3426
1268 3624 3475
648 3230 766
649 3230 789
649 3231 813
650 3232 836
652 3233 860
653 3235 885
660 3241 989
743 3310 1562
875 3419 2085
1021 3514 2546
1104 3551 2851
1168 3589 3082
1212 3624 3240
1241 3649 3338
1260 3668 3403
1273 3680 3450
1288 3695 3502
667 3280 790
667 3281 813
668 3281 837
669 3282 861
670 3283 885
673 3285 910
680 3291 1014
763 3357 1577
896 3463 2097
1040 3555 2557
1126 3594 2867
1185 3632 3099
1228 3666 3257
1256 3691 3355
1274 3710 3420
1288 3723 3467
1301 3736 3518
688 3330 822
689 3330 845
690 3330 868
691 3331 893
693 3333 917
695 3335 942
702 3341 1044
781 3402 1588
916 3506 2106
1060 3596 2568
1148 3639 2882
1203 3674 3115
1245 3709 3273
1272 3734 3372
1288 3751 3435
1302 3765 3484
1316 3778 3534
277 52 29
281 52 100
280 61 194
267 59 321
277 103 504
278 163 756
238 245 1070
282 373 1392
375 464 1732
473 522 2107
557 581 2457
617 647 2718
653 703 2878
663 726 2928
671 745 2961
679 766 2994
686 784 3028
254 138 30
252 123 98
251 117 190
246 92 320
259 128 503
259 185 750
234 299 1067
278 432 1386
372 519 1724
467 561 2097
551 616 2448
609 682 2708
645 738 2867
656 760 2918
663 779 2950
671 798 2983
679 816 3017
225 253 43
221 239 106
214 222 196
218 198 327
235 184 504
239 228 748
230 356 1064
274 487 1380
367 558 1717
461 600 2086
544 652 2439
603 717 2698
638 771 2857
650 794 2909
657 812 2941
665 830 2974
673 847 3009
188 395 58
187 392 107
188 390 197
192 384 324
201 380 492
218 338 743
231 405 1062
272 525 1375
361 598 1708
454 640 2075
538 688 2429
597 750 2689
633 803 2850
645 825 2902
653 843 2934
660 861 2968
670 879 3004
164 591 96
164 585 123
165 580 199
171 590 335
184 595 511
212 593 746
228 516 1054
266 561 1369
354 639 1697
447 681 2062
532 722 2419
592 782 2681
628 833 2843
641 856 2896
649 875 2929
657 892 2962
666 911 2998
172 880 140
173 877 165
174 873 197
175 874 312
188 895 530
200 904 781
198 885 1061
234 802 1364
340 703 1681
438 718 2047
525 756 2406
587 812 2672
624 864 2835
637 888 2890
645 907 2923
653 924 2957
663 942 2993
141 1237 169
140 1236 197
142 1234 223
143 1232 264
152 1242 472
173 1272 831
194 1264 1135
242 1247 1418
308 1195 1691
398 1021 1995
508 840 2374
580 842 2658
618 893 2824
633 920 2884
641 939 2917
650 957 2952
659 976 2988
179 1612 254
180 1614 280
182 1613 305
183 1610 331
185 1607 405
211 1630 794
262 1663 1209
313 1666 1504
380 1673 1785
458 1666 2078
524 1563 2364
576 1387 2613
618 1267 2793
635 1160 2872
646 1167 2911
657 1182 2952
672 1198 2993
295 2040 381
294 2037 405
294 2033 429
293 2030 453
292 2023 476
294 2005 728
349 2065 1219
428 2144 1596
476 2153 1889
530 2161 2182
597 2155 2477
655 2135 2713
701 2117 2873
728 2103 2955
740 2095 2992
756 2102 3032
772 2105 3070
385 2460 518
384 2457 542
384 2455 567
384 2452 590
384 2448 614
382 2434 698
414 2448 1170
522 2560 1639
598 2602 1993
643 2593 2292
701 2589 2584
773 2598 2819
836 2607 2976
876 2615 3071
895 2618 3110
914 2628 3147
932 2635 3184
507 2814 632
507 2813 655
508 2812 678
508 2812 702
508 2809 725
506 2803 748
518 2790 1099
616 2864 1607
733 2960 2073
792 2973 2404
849 2973 2689
920 2980 2911
977 2988 3058
1016 2999 3153
1040 3009 3208
1058 3017 3245
1076 3024 3281
620 3060 704
620 3060 727
621 3060 750
621 3061 774
621 3062 798
622 3061 821
631 3058 1051
709 3131 1584
826 3224 2099
928 3274 2491
987 3262 2768
1041 3258 2979
1093 3266 3124
1129 3277 3220
1153 3289 3281
1171 3303 3328
1185 3312 3367
641 3131 727
641 3131 750
642 3131 774
643 3133 798
644 3134 822
645 3136 847
653 3143 972
737 3225 1567
866 3336 2088
1008 3432 2532
1078 3445 2821
1131 3447 3035
1169 3456 3181
1201 3469 3278
1222 3482 3340
1239 3494 3386
1258 3507 3435
657 3181 749
657 3181 772
658 3182 796
659 3182 820
660 3184 844
662 3186 869
669 3192 977
750 3265 1556
880 3376 2079
1028 3476 2536
1110 3510 2837
1174 3548 3069
1218 3576 3223
1243 3590 3318
1261 3602 3381
1275 3613 3427
1292 3626 3478
671 3231 769
672 3231 792
673 3232 815
674 3232 839
675 3234 863
677 3235 888
684 3242 993
766 3310 1562
899 3419 2082
1046 3514 2544
1131 3553 2851
1193 3591 3083
1237 3625 3240
1265 3651 3339
1284 3669 3404
1297 3683 3452
1312 3697 3504
691 3281 793
691 3281 816
692 3282 840
693 3282 864
695 3283 888
697 3285 913
704 3292 1018
786 3356 1577
920 3463 2094
1065 3555 2555
1152 3597 2868
1211 3633 3100
1253 3668 3257
1280 3693 3356
1298 3711 3421
1312 3725 3468
1325 3739 3520
713 3331 825
713 3330 848
714 3331 871
715 3331 895
717 3333 920
718 3335 945
726 3341 1046
805 3401 1588
940 3507 2104
1085 3597 2567
1175 3641 2883
1228 3677 3116
1270 3711 3274
1296 3735 3373
1312 3753 3436
1326 3768 3485
1341 3781 3536
428 86 46
437 75 113
446 82 204
450 93 320
423 113 509
422 173 765
380 241 1087
329 332 1403
401 429 1741
498 493 2117
583 569 2468
642 639 2729
678 696 2887
690 719 2938
697 739 2969
705 759 3003
712 780 3036
397 161 47
417 147 107
429 139 200
435 123 319
410 139 512
409 197 770
361 264 1085
319 384 1397
398 489 1733
494 546 2109
578 605 2460
635 673 2719
671 729 2877
682 753 2927
689 772 2959
697 792 2991
