滤镜资源/Professional Luts Collection/Triune-Digital-Cinematic-LUTs/3D LUTs (3DL)/ALEXA/Star Wars The Force Awakens - Alexa.3dl
# Created by Benjamin (IWLTBAP) : http://luts.iwltbap.com
# Copyright: (C) Copyright 2016 Triune Films and IWLTBAP
# Blockbuster LUTs Pack
0 128 256 384 512 640 768 896 1023
41 11 8
61 30 175
117 120 479
184 299 1064
324 507 1713
505 601 2434
601 716 2859
621 755 2946
637 790 3016
59 243 35
66 229 178
117 230 472
182 386 1058
313 583 1698
493 670 2416
591 777 2843
611 816 2931
628 849 3002
111 588 96
113 580 198
134 594 504
179 526 1044
297 658 1679
482 736 2398
581 839 2829
604 879 2919
621 914 2991
90 1235 176
89 1235 227
97 1243 480
161 1260 1135
262 1192 1688
456 857 2349
571 904 2805
596 947 2906
615 983 2982
248 2036 385
248 2031 432
245 2020 479
306 2062 1229
432 2149 1886
552 2148 2472
653 2110 2867
692 2089 2987
723 2099 3064
460 2812 633
461 2811 679
462 2809 727
473 2790 1103
688 2959 2076
798 2968 2690
926 2983 3056
989 3004 3206
1025 3020 3279
595 3129 729
596 3130 776
599 3133 824
607 3141 972
820 3336 2097
1027 3442 2821
1121 3453 3180
1172 3477 3336
1208 3502 3432
624 3229 763
626 3231 810
628 3233 858
636 3241 986
852 3419 2088
1078 3548 2850
1188 3621 3238
1236 3666 3402
1264 3692 3500
665 3330 820
666 3330 866
669 3333 915
678 3340 1041
893 3506 2109
1122 3636 2881
1220 3707 3272
1263 3749 3434
1291 3775 3532
277 52 29
280 61 194
277 103 504
238 245 1070
375 464 1732
557 581 2457
653 703 2878
671 745 2961
686 784 3028
225 253 43
214 222 196
235 184 504
230 356 1064
367 558 1717
544 652 2439
638 771 2857
657 812 2941
673 847 3009
164 591 96
165 580 199
184 595 511
228 516 1054
354 639 1697
532 722 2419
628 833 2843
649 875 2929
666 911 2998
141 1237 169
142 1234 223
152 1242 472
194 1264 1135
308 1195 1691
508 840 2374
618 893 2824
641 939 2917
659 976 2988
295 2040 381
294 2033 429
292 2023 476
349 2065 1219
476 2153 1889
597 2155 2477
701 2117 2873
740 2095 2992
772 2105 3070
507 2814 632
508 2812 678
508 2809 725
518 2790 1099
733 2960 2073
849 2973 2689
977 2988 3058
1040 3009 3208
1076 3024 3281
641 3131 727
642 3131 774
644 3134 822
653 3143 972
866 3336 2088
1078 3445 2821
1169 3456 3181
1222 3482 3340
1258 3507 3435
671 3231 769
673 3232 815
675 3234 863
684 3242 993
899 3419 2082
1131 3553 2851
1237 3625 3240
1284 3669 3404
1312 3697 3504
713 3331 825
714 3331 871
717 3333 920
726 3341 1046
940 3507 2104
1175 3641 2883
1270 3711 3274
1312 3753 3436
1341 3781 3536
638 133 72
661 117 225
675 145 494
601 253 1081
528 366 1766
607 543 2477
704 691 2896
724 735 2978
740 776 3044
590 297 82
630 272 215
656 215 493
573 304 1091
504 440 1764
598 630 2463
689 758 2876
709 801 2957
723 841 3020
559 597 75
553 590 190
520 618 563
486 420 1111
436 587 1730
585 704 2443
676 829 2856
695 870 2939
711 908 3004
209 1242 157
210 1237 212
212 1242 468
243 1268 1136
356 1194 1696
562 822 2402
665 888 2837
687 934 2928
704 972 2993
345 2044 377
343 2038 425
340 2027 474
390 2066 1211
521 2157 1891
643 2161 2482
749 2122 2879
789 2100 2999
821 2109 3075
559 2818 631
559 2816 677
558 2812 726
565 2791 1096
779 2961 2069
899 2977 2690
1029 2993 3060
1092 3013 3210
1129 3029 3283
690 3134 727
690 3134 774
692 3136 823
700 3145 975
913 3337 2081
1131 3450 2821
1221 3460 3182
1273 3487 3343
1307 3511 3438
720 3234 773
721 3234 819
724 3235 867
733 3244 998
946 3419 2078
1184 3559 2853
1286 3628 3242
1333 3674 3407
1362 3703 3509
762 3334 833
764 3334 879
766 3335 927
776 3342 1054
988 3507 2099
1227 3647 2886
1319 3715 3277
1360 3756 3439
1391 3786 3540
1366 203 147
1373 206 296
1438 233 528
1360 264 1013
1236 396 1730
1290 469 2425
1337 587 2879
1340 632 2994
1371 680 3085
1354 312 134
1372 287 283
1434 280 524
1350 308 1008
1220 442 1754
1289 519 2442
1334 649 2897
1337 695 3013
1365 744 3102
1278 670 151
1263 655 284
1376 600 501
1333 390 1004
1201 489 1776
1268 567 2465
1304 708 2926
1305 765 3036
1334 820 3122
1289 1296 142
1289 1296 191
1284 1307 418
1126 1322 1211
1113 1066 1930
1102 651 2509
1093 811 2931
1090 863 3032
1105 906 3106
766 2077 269
750 2082 324
734 2073 388
669 2133 1190
704 2183 1918
727 2168 2495
808 2121 2888
838 2096 3002
872 2105 3078
614 2821 629
612 2819 676
610 2814 724
613 2790 1099
826 2961 2068
951 2980 2691
1082 2995 3062
1145 3014 3212
1180 3030 3284
743 3141 729
743 3140 775
743 3141 824
750 3150 981
963 3340 2078
1185 3453 2823
1270 3461 3183
1323 3490 3346
1356 3515 3441
771 3239 783
772 3239 829
774 3239 876
784 3249 1010
996 3422 2076
1238 3565 2857
1338 3635 3246
1383 3679 3411
1414 3709 3514
813 3336 841
815 3337 888
817 3338 936
827 3346 1064
1038 3510 2098
1280 3653 2891
1369 3721 3281
1411 3762 3443
1442 3792 3545
2363 464 357
2398 475 484
2459 489 658
2529 543 1055
2291 652 1657
2413 769 2358
2587 947 2834
2626 989 2947
2670 1028 3047
2351 507 346
2383 515 474
2453 535 657
2544 603 1063
2293 708 1662
2404 822 2363
2582 1003 2840
2622 1045 2953
2668 1083 3053
2222 816 324
2321 791 449
2406 739 650
2539 654 1064
2290 762 1666
2386 869 2367
2567 1055 2843
2611 1098 2959
2658 1136 3061
2296 1446 311
2312 1449 363
2367 1514 689
2431 1520 1345
2358 1285 1801
2303 903 2363
2486 1083 2843
2542 1138 2975
2589 1175 3078
2317 2193 313
2335 2206 362
2350 2214 411
2453 2424 1125
2288 2352 2129
2321 2268 2742
2352 2147 3153
2360 2090 3280
2377 2085 3372
2127 3005 320
2122 3010 367
2113 3012 417
2076 3052 991
1888 3054 2140
1873 3104 2798
1879 3096 3138
1898 3115 3288
1915 3132 3364
1660 3358 662
1653 3352 727
1638 3342 801
1567 3302 1050
1490 3391 2115
1634 3520 2876
1598 3502 3217
1608 3526 3378
1622 3547 3469
1504 3412 752
1499 3408 815
1488 3401 884
1441 3362 1071
1396 3448 2099
1499 3606 2890
1543 3666 3268
1579 3704 3430
1610 3732 3534
1483 3475 828
1478 3470 890
1470 3463 952
1428 3436 1126
1396 3532 2123
1501 3688 2921
1567 3751 3303
1600 3788 3462
1630 3817 3563
3068 652 498
3076 652 597
3092 668 758
3117 796 1250
3137 967 1915
3262 1156 2612
3363 1240 2998
3384 1254 3092
3408 1268 3180
3071 707 492
3078 704 594
3097 723 760
3120 857 1258
3142 1021 1919
3260 1210 2616
3362 1292 3001
3384 1307 3096
3408 1321 3183
3081 893 472
3092 860 583
3107 831 760
3126 918 1262
3145 1075 1921
3255 1262 2618
3357 1345 3003
3379 1360 3099
3404 1374 3187
3168 1749 522
3152 1753 593
3111 1816 1024
3204 1771 1552
3245 1546 2052
3220 1303 2601
3320 1388 2989
3346 1406 3094
3371 1417 3182
3279 2478 467
3277 2477 521
3270 2468 582
3230 2552 1627
3277 2565 2315
3297 2437 2805
3319 2288 3135
3327 2220 3232
3346 2205 3313
3193 3191 687
3189 3184 744
3182 3172 802
3165 3131 1283
3233 3272 2227
3246 3300 2968
3271 3305 3359
3281 3302 3496
3291 3312 3567
3078 3491 760
3075 3484 817
3071 3479 872
3060 3462 1102
3145 3645 2235
3147 3742 3019
3093 3785 3483
3112 3793 3619
3128 3807 3698
3048 3558 782
3046 3554 836
3043 3550 891
3034 3539 1044
3104 3704 2210
3113 3859 3027
3055 3946 3523
3074 3947 3651
3100 3956 3730
3043 3623 817
3041 3619 871
3039 3616 924
3034 3609 1070
3104 3772 2225
3118 3931 3039
3054 4010 3537
3072 4020 3669
3099 4032 3746
3234 710 548
3236 721 645
3242 754 817
3258 884 1340
3328 1045 1992
3447 1214 2675
3577 1310 3079
3609 1335 3177
3637 1359 3265
3230 763 545
3232 771 643
3238 804 818
3256 938 1342
3332 1098 1991
3447 1268 2679
3579 1365 3086
3610 1392 3182
3639 1416 3271
3229 853 528
3232 852 631
3237 860 812
3258 994 1343
3338 1154 1992
3447 1321 2680
3580 1421 3092
3612 1449 3188
3641 1475 3277
3344 1814 616
3333 1828 746
3315 1862 1129
3407 1790 1580
3436 1547 2093
3445 1373 2674
3579 1475 3091
3616 1505 3195
3645 1530 3284
3523 2528 621
3512 2518 686
3498 2503 778
3469 2635 1783
3585 2619 2385
3638 2505 2871
3665 2397 3239
3692 2329 3342
3718 2319 3418
3579 3184 873
3577 3180 925
3574 3172 978
3566 3164 1433
3705 3344 2393
3739 3427 3086
3792 3416 3436
3815 3396 3574
3830 3389 3648
3602 3543 953
3600 3541 1004
3597 3539 1058
3591 3538 1309
3686 3698 2344
3720 3822 3059
3740 3831 3494
3756 3840 3642
3782 3859 3736
3583 3640 965
3581 3638 1017
3578 3636 1071
3567 3632 1226
3648 3791 2341
3712 3929 3067
3737 3985 3529
3744 4001 3700
3761 4012 3784
3575 3720 984
3573 3718 1036
3570 3716 1089
3562 3714 1238
3647 3871 2356
3725 3993 3079
3740 4048 3537
3750 4079 3708
3767 4091 3800
3314 758 578
3311 770 677
3316 804 858
3328 928 1384
3407 1080 2022
3515 1235 2695
3651 1340 3116
3678 1364 3205
3706 1389 3294
3311 811 575
3307 819 675
3313 854 859
3328 982 1388
3411 1132 2021
3515 1289 2699
3653 1396 3123
3679 1421 3210
3708 1446 3299
3311 888 557
3310 885 661
3313 905 851
3330 1037 1387
3413 1187 2024
3515 1343 2701
3654 1452 3130
3680 1478 3216
3710 1503 3304
3418 1840 662
3403 1855 824
3387 1877 1166
3480 1793 1590
3498 1552 2111
3513 1395 2694
3653 1507 3129
3683 1535 3224
3714 1560 3311
3576 2528 649
3565 2519 713
3549 2503 814
3546 2646 1793
3663 2639 2408
3725 2533 2897
3729 2413 3255
3756 2341 3361
3781 2330 3437
3636 3188 888
3634 3184 940
3632 3177 992
3625 3170 1452
3775 3358 2415
3823 3445 3109
3885 3428 3451
3908 3412 3588
3925 3405 3660
3698 3550 964
3697 3548 1016
3695 3546 1069
3694 3545 1328
3816 3717 2399
3882 3831 3108
3936 3858 3529
3955 3864 3666
3973 3877 3745
3718 3641 987
3716 3639 1038
3714 3638 1092
3710 3637 1255
3825 3789 2391
3892 3943 3094
3953 4011 3548
3957 4022 3695
3973 4036 3777
3727 3721 1009
3726 3720 1056
3724 3719 1109
3721 3720 1272
3833 3872 2406
3910 4021 3118
3958 4086 3568
3974 4095 3783
3986 4095 3907
3390 801 598
3384 814 701
3384 845 887
3386 945 1401
3467 1099 2042
3574 1250 2709
3709 1357 3135
3739 1385 3229
3763 1403 3309
3386 852 594
3381 863 698
3382 895 888
3386 1000 1405
3471 1153 2040
3574 1304 2712
3709 1413 3141
3739 1442 3233
3765 1460 3315
3387 923 574
3385 923 683
3383 946 881
3388 1054 1405
3474 1207 2043
3574 1358 2714
3710 1470 3148
3741 1499 3239
3766 1517 3319
3483 1874 720
3484 1884 873
3492 1888 1167
3534 1800 1599
3555 1563 2126
3573 1410 2708
3709 1524 3145
3745 1556 3247
3771 1573 3327
3622 2527 669
3612 2518 732
3596 2503 833
3645 2588 1662
3730 2651 2420
3785 2548 2910
3782 2425 3261
3814 2360 3376
3836 2344 3448
3689 3194 896
3688 3190 946
3685 3183 998
3678 3177 1460
3831 3362 2418
3887 3454 3120
3940 3437 3459
3963 3426 3595
3980 3416 3665
3754 3558 970
3753 3557 1019
3751 3555 1072
3749 3554 1338
3870 3724 2410
3940 3838 3125
3996 3867 3537
4014 3873 3675
4028 3880 3749
3771 3647 995
3769 3646 1043
3768 3644 1094
3764 3644 1262
3880 3795 2399
3946 3949 3107
4023 4015 3554
4037 4027 3701
4051 4038 3781
3779 3725 1026
3777 3724 1080
3777 3724 1133
3775 3726 1290
3891 3878 2418
3964 4020 3123
4033 4088 3567
4052 4095 3819
4068 4095 3964
