滤镜资源/Professional Luts Collection/Triune-Digital-Cinematic-LUTs/3D LUTs (3DL)/ALEXA/Star Wars The Force Awakens - Alexa.3dl
# Created by Benjamin (IWLTBAP) : http://luts.iwltbap.com
# Copyright: (C) Copyright 2016 Triune Films and IWLTBAP
# Blockbuster LUTs Pack
0 256 512 768 1023
41 11 8
117 120 479
324 507 1713
601 716 2859
637 790 3016
111 588 96
134 594 504
297 658 1679
581 839 2829
621 914 2991
248 2036 385
245 2020 479
432 2149 1886
653 2110 2867
723 2099 3064
595 3129 729
599 3133 824
820 3336 2097
1121 3453 3180
1208 3502 3432
665 3330 820
669 3333 915
893 3506 2109
1220 3707 3272
1291 3775 3532
638 133 72
675 145 494
528 366 1766
704 691 2896
740 776 3044
559 597 75
520 618 563
436 587 1730
676 829 2856
711 908 3004
345 2044 377
340 2027 474
521 2157 1891
749 2122 2879
821 2109 3075
690 3134 727
692 3136 823
913 3337 2081
1221 3460 3182
1307 3511 3438
762 3334 833
766 3335 927
988 3507 2099
1319 3715 3277
1391 3786 3540
2363 464 357
2459 489 658
2291 652 1657
2587 947 2834
2670 1028 3047
2222 816 324
2406 739 650
2290 762 1666
2567 1055 2843
2658 1136 3061
2317 2193 313
2350 2214 411
2288 2352 2129
2352 2147 3153
2377 2085 3372
1660 3358 662
1638 3342 801
1490 3391 2115
1598 3502 3217
1622 3547 3469
1483 3475 828
1470 3463 952
1396 3532 2123
1567 3751 3303
1630 3817 3563
3234 710 548
3242 754 817
3328 1045 1992
3577 1310 3079
3637 1359 3265
3229 853 528
3237 860 812
3338 1154 1992
3580 1421 3092
3641 1475 3277
3523 2528 621
3498 2503 778
3585 2619 2385
3665 2397 3239
3718 2319 3418
3602 3543 953
3597 3539 1058
3686 3698 2344
3740 3831 3494
3782 3859 3736
3575 3720 984
3570 3716 1089
3647 3871 2356
3740 4048 3537
3767 4091 3800
3390 801 598
3384 845 887
3467 1099 2042
3709 1357 3135
3763 1403 3309
3387 923 574
3383 946 881
3474 1207 2043
3710 1470 3148
3766 1517 3319
3622 2527 669
3596 2503 833
3730 2651 2420
3782 2425 3261
3836 2344 3448
3754 3558 970
3751 3555 1072
3870 3724 2410
3996 3867 3537
4028 3880 3749
3779 3725 1026
3777 3724 1133
3891 3878 2418
4033 4088 3567
4068 4095 3964
