滤镜资源/Professional Luts Collection/Triune-Digital-Cinematic-LUTs/3D LUTs (3DL)/ALEXA/The Grand Budapest Hotel - Alexa.3dl
# Created by Benjamin (IWLTBAP) : http://luts.iwltbap.com
# Copyright: (C) Copyright 2016 Triune Films and IWLTBAP
# Blockbuster LUTs Pack
0 64 128 192 256 320 384 448 512 576 640 704 768 832 896 960 1023
0 0 0
44 26 157
73 48 297
117 78 461
174 112 668
233 150 922
300 257 1278
362 375 1620
417 450 1955
453 474 2251
492 510 2507
551 719 2689
566 754 2770
567 750 2793
567 747 2807
567 744 2819
566 741 2831
28 75 14
44 81 123
75 89 272
117 102 445
175 130 659
236 175 916
303 283 1273
367 411 1617
431 501 1952
470 549 2241
499 561 2487
543 710 2664
569 784 2752
570 782 2773
570 782 2783
570 782 2792
570 782 2806
63 166 36
64 164 112
86 172 252
125 182 415
178 177 634
237 198 909
307 309 1268
373 446 1613
444 551 1948
483 623 2231
510 621 2471
544 730 2638
568 798 2730
572 809 2752
572 809 2761
565 789 2756
564 786 2762
100 274 59
99 269 108
102 271 224
130 279 375
178 295 584
242 268 873
312 350 1255
380 485 1599
447 585 1931
488 659 2211
514 670 2446
539 737 2601
559 791 2686
562 800 2707
561 797 2709
554 778 2702
546 755 2698
155 402 85
155 401 114
160 406 225
169 413 362
202 437 551
261 457 815
315 441 1201
383 516 1574
445 610 1901
489 686 2179
515 718 2407
536 752 2554
546 775 2630
547 777 2646
547 779 2650
548 788 2644
546 786 2640
228 584 126
229 585 158
231 586 202
240 599 336
255 618 525
290 661 789
348 703 1127
401 683 1486
443 647 1855
491 717 2145
520 762 2369
543 805 2512
550 814 2585
550 814 2599
552 822 2602
555 834 2598
555 840 2594
337 853 194
337 852 220
337 852 250
339 853 295
353 880 497
373 912 775
416 976 1112
463 1011 1441
485 978 1735
505 886 2040
529 825 2323
551 843 2490
559 855 2564
561 858 2584
561 860 2586
560 863 2582
559 865 2577
444 1143 254
441 1141 282
442 1141 314
443 1143 346
448 1150 422
464 1193 760
490 1241 1106
540 1295 1445
562 1308 1730
581 1286 1986
586 1208 2207
587 1112 2382
584 1040 2476
576 977 2521
575 973 2525
573 971 2516
569 967 2507
538 1413 314
536 1410 339
536 1410 371
536 1412 404
538 1414 438
554 1447 698
577 1502 1106
604 1542 1441
628 1575 1741
653 1582 2003
671 1565 2224
681 1534 2375
678 1500 2455
670 1471 2482
667 1458 2486
665 1452 2485
662 1443 2483
623 1650 374
620 1645 387
617 1640 402
618 1641 430
621 1646 475
624 1662 599
648 1729 1079
668 1771 1445
687 1797 1739
714 1819 2011
737 1826 2247
747 1819 2408
748 1800 2495
746 1785 2538
743 1774 2549
740 1765 2554
737 1756 2558
689 1845 428
684 1837 438
680 1829 448
676 1825 467
675 1827 499
674 1829 536
692 1899 985
723 1955 1433
737 1981 1737
756 2007 2012
779 2024 2255
794 2028 2425
797 2015 2518
795 2002 2568
795 1998 2597
796 1997 2617
794 1991 2631
704 1928 441
700 1921 450
695 1913 458
691 1908 474
689 1907 499
689 1913 535
700 1973 881
745 2054 1408
761 2093 1735
782 2124 2007
806 2153 2253
825 2162 2427
828 2152 2523
828 2143 2581
829 2141 2615
834 2147 2651
838 2152 2680
700 1935 438
696 1928 446
692 1922 455
689 1919 475
687 1921 507
686 1924 541
691 1957 743
741 2068 1378
760 2119 1727
782 2161 1996
805 2195 2235
826 2213 2405
838 2220 2520
845 2225 2585
849 2228 2629
853 2233 2665
859 2243 2703
696 1937 434
692 1930 443
688 1924 452
685 1921 472
684 1926 510
683 1931 551
689 1961 728
736 2070 1359
758 2125 1719
782 2171 1998
804 2209 2232
827 2238 2404
847 2267 2525
854 2276 2592
859 2282 2637
863 2288 2674
867 2293 2714
684 1925 424
682 1920 434
678 1914 442
675 1912 466
674 1918 508
675 1926 556
682 1958 732
730 2068 1357
754 2127 1723
780 2178 2006
807 2222 2239
831 2254 2412
851 2288 2534
860 2304 2601
865 2313 2643
869 2318 2680
874 2327 2720
665 1900 407
664 1897 418
661 1892 427
659 1891 452
660 1900 506
661 1907 555
670 1948 740
723 2064 1368
748 2124 1734
778 2184 2020
811 2237 2255
838 2276 2428
855 2305 2546
865 2324 2610
869 2331 2644
872 2336 2682
877 2343 2724
645 1874 390
644 1872 401
642 1869 412
642 1870 438
645 1880 494
648 1890 554
658 1937 746
713 2060 1381
744 2124 1746
775 2189 2032
813 2250 2268
844 2297 2445
860 2323 2558
869 2343 2621
872 2349 2650
875 2354 2682
879 2360 2726
263 7 3
218 29 149
208 52 290
215 79 456
222 112 667
250 150 921
306 229 1272
364 314 1612
416 374 1952
466 409 2260
510 450 2524
548 630 2709
564 682 2790
565 683 2811
565 680 2825
564 679 2836
564 676 2848
136 77 16
153 96 134
171 103 279
177 107 448
203 130 661
250 166 916
307 245 1267
368 342 1611
418 405 1946
455 434 2242
494 460 2495
540 628 2669
573 744 2759
573 741 2781
574 743 2789
574 745 2796
574 744 2810
103 169 39
103 169 119
119 175 253
149 184 416
195 175 636
251 189 909
312 271 1263
372 377 1607
427 456 1942
470 511 2232
501 514 2478
539 651 2641
563 732 2726
566 740 2747
565 737 2752
555 708 2744
554 704 2750
120 274 58
119 272 109
121 272 226
149 281 380
195 296 584
255 259 873
319 318 1251
379 433 1594
445 528 1926
490 608 2209
517 613 2446
538 671 2598
556 737 2677
559 744 2696
556 739 2694
548 717 2685
544 707 2680
171 403 83
170 401 112
174 406 224
183 413 362
215 436 551
273 452 814
326 425 1199
383 471 1569
447 565 1894
492 645 2174
520 678 2403
540 717 2548
547 736 2621
549 743 2637
553 762 2636
557 783 2626
555 783 2623
242 584 124
243 585 156
245 587 201
253 598 336
269 617 524
301 658 789
360 700 1125
411 673 1483
452 630 1851
499 693 2138
526 736 2363
547 775 2506
554 788 2575
556 795 2591
559 812 2590
564 832 2581
563 836 2576
349 851 192
350 852 218
350 851 247
351 853 294
364 878 497
384 910 777
427 976 1113
474 1010 1441
497 977 1735
515 882 2036
535 807 2315
557 829 2482
567 846 2554
569 853 2570
569 856 2572
568 859 2564
566 859 2557
453 1139 249
452 1140 277
452 1140 310
453 1141 342
457 1147 419
474 1191 761
500 1239 1107
550 1295 1445
573 1308 1732
592 1286 1984
596 1208 2202
596 1110 2372
592 1037 2464
584 973 2507
583 968 2509
579 966 2498
575 962 2488
546 1406 310
545 1405 329
544 1404 358
545 1407 396
547 1410 435
564 1444 697
587 1501 1109
614 1541 1442
638 1575 1742
663 1582 2002
681 1565 2222
691 1535 2370
688 1500 2448
681 1473 2476
677 1460 2481
675 1454 2480
672 1445 2477
630 1644 370
627 1639 382
624 1634 397
624 1634 423
628 1640 467
632 1655 593
656 1724 1080
677 1768 1446
697 1796 1743
724 1818 2012
746 1823 2244
755 1817 2404
757 1800 2490
755 1785 2532
755 1779 2551
754 1775 2563
751 1766 2567
696 1837 423
692 1831 434
687 1823 444
684 1819 461
682 1819 488
681 1822 526
699 1893 986
732 1953 1436
746 1981 1742
765 2006 2014
787 2021 2253
802 2025 2420
805 2013 2514
806 2005 2571
809 2005 2604
811 2008 2628
809 2002 2642
710 1920 437
706 1914 445
701 1906 454
697 1899 464
694 1895 481
694 1900 515
708 1969 881
755 2053 1412
770 2094 1740
792 2125 2011
815 2150 2253
833 2159 2427
840 2157 2529
844 2155 2591
845 2153 2626
850 2159 2662
854 2164 2691
707 1928 434
702 1921 442
698 1914 451
696 1910 463
693 1909 483
692 1912 516
698 1953 739
751 2068 1383
770 2120 1733
794 2164 2005
819 2203 2245
843 2228 2420
856 2236 2533
862 2240 2598
865 2244 2642
869 2249 2677
875 2259 2715
702 1929 430
698 1923 439
694 1916 447
692 1912 460
690 1913 484
689 1918 525
697 1957 724
745 2069 1363
768 2126 1724
792 2172 2005
821 2221 2247
847 2258 2423
864 2283 2541
871 2292 2607
876 2298 2653
880 2305 2687
883 2308 2725
693 1922 422
690 1917 431
686 1910 440
684 1909 461
683 1913 493
683 1920 540
691 1958 732
741 2071 1365
767 2134 1732
796 2189 2018
826 2240 2255
851 2276 2430
870 2307 2549
878 2324 2619
883 2331 2662
887 2338 2695
892 2346 2734
675 1900 407
674 1897 417
671 1892 427
670 1892 451
671 1903 503
672 1909 553
681 1951 745
736 2071 1380
766 2139 1747
799 2205 2036
833 2260 2272
858 2298 2446
874 2328 2561
884 2346 2631
888 2353 2667
891 2358 2700
896 2365 2739
656 1875 390
654 1872 400
652 1869 411
653 1871 437
656 1882 492
658 1892 551
669 1941 751
726 2067 1393
760 2139 1760
796 2210 2048
835 2273 2285
863 2319 2462
879 2346 2573
888 2365 2642
892 2371 2672
894 2375 2700
898 2382 2741
457 24 5
425 34 146
383 64 289
369 87 450
372 114 665
365 151 921
324 203 1264
366 251 1604
416 297 1944
473 335 2258
524 391 2534
555 543 2731
570 608 2810
572 611 2831
573 612 2844
573 611 2855
573 610 2866
365 97 20
379 111 130
351 114 275
344 118 441
349 137 661
334 167 916
318 220 1260
372 283 1605
423 333 1943
464 358 2247
509 395 2508
548 542 2689
573 674 2778
573 672 2800
573 676 2808
574 679 2814
574 680 2829
261 175 41
284 188 141
281 203 269
273 204 430
301 186 646
307 183 911
314 235 1254
374 310 1602
425 367 1937
461 399 2232
497 414 2486
537 551 2648
557 645 2727
557 641 2748
555 637 2753
548 612 2738
547 612 2740
186 276 60
189 279 118
178 277 234
196 287 387
230 296 585
272 249 875
325 283 1245
381 367 1588
434 442 1920
478 508 2208
512 525 2450
535 583 2602
551 665 2672
551 661 2689
549 654 2686
545 641 2674
542 628 2667
191 404 84
190 403 110
193 407 223
200 413 363
230 435 554
286 448 812
334 396 1195
385 421 1564
444 509 1889
495 595 2170
525 632 2401
543 661 2546
549 685 2614
551 695 2629
554 717 2627
560 755 2613
560 762 2607
255 584 123
257 585 154
258 587 199
267 598 336
282 616 524
313 655 788
372 698 1124
420 661 1480
458 601 1847
504 653 2131
530 702 2358
551 743 2500
558 761 2565
563 776 2582
566 794 2581
571 824 2566
571 832 2556
361 849 190
361 850 216
362 850 245
364 852 292
375 875 498
395 909 776
438 974 1113
484 1008 1440
508 977 1734
525 876 2031
542 790 2308
561 801 2475
571 825 2543
576 841 2559
576 847 2559
575 852 2547
573 853 2535
464 1135 244
462 1136 271
462 1137 303
463 1137 335
467 1144 417
484 1188 760
511 1238 1108
561 1293 1444
584 1309 1734
603 1286 1982
606 1207 2198
605 1108 2362
600 1033 2452
592 968 2493
590 962 2495
586 961 2481
581 958 2467
554 1402 305
554 1401 325
553 1400 350
554 1402 387
557 1406 429
573 1441 696
597 1500 1112
623 1540 1443
648 1575 1744
673 1583 2001
691 1566 2219
701 1535 2366
697 1500 2442
691 1474 2470
688 1461 2475
686 1456 2473
682 1447 2470
637 1637 366
634 1632 378
631 1628 390
630 1627 414
636 1634 460
641 1649 587
664 1719 1081
685 1764 1446
706 1794 1746
734 1817 2013
756 1822 2241
764 1815 2399
766 1800 2486
765 1786 2527
764 1780 2546
766 1780 2565
764 1774 2575
702 1830 419
699 1823 429
694 1815 439
690 1811 455
688 1811 482
688 1814 519
707 1888 987
740 1950 1438
756 1981 1746
775 2005 2016
796 2020 2251
809 2021 2414
813 2010 2510
816 2005 2570
819 2006 2604
824 2013 2633
825 2013 2653
717 1913 433
712 1906 441
708 1899 450
704 1892 460
700 1886 472
699 1887 497
716 1966 881
763 2051 1415
779 2093 1744
801 2124 2016
823 2147 2253
841 2156 2424
850 2157 2531
856 2160 2596
861 2164 2638
865 2171 2673
869 2176 2703
713 1920 429
709 1913 438
704 1906 447
702 1903 459
699 1899 473
697 1898 496
706 1946 731
759 2066 1387
779 2120 1736
805 2168 2014
832 2209 2253
857 2236 2429
871 2248 2543
877 2254 2611
882 2259 2655
886 2265 2690
890 2273 2727
708 1922 426
704 1915 434
700 1908 443
698 1904 455
696 1904 472
695 1905 498
704 1950 714
754 2068 1366
778 2126 1728
802 2174 2012
836 2232 2260
866 2277 2442
881 2300 2556
888 2309 2623
893 2315 2668
897 2322 2702
900 2326 2737
699 1914 418
696 1909 427
692 1902 436
690 1902 457
689 1902 477
689 1907 511
698 1952 722
751 2071 1368
777 2134 1736
806 2191 2024
842 2250 2269
870 2296 2450
886 2324 2565
895 2340 2635
900 2348 2677
903 2354 2710
908 2362 2745
684 1896 404
682 1893 415
679 1888 424
678 1888 449
679 1899 497
680 1905 537
690 1950 741
747 2074 1387
779 2146 1756
814 2216 2047
851 2277 2287
877 2320 2464
892 2347 2576
902 2365 2649
906 2372 2686
909 2377 2718
913 2385 2753
666 1875 389
664 1872 400
662 1869 411
663 1871 436
667 1883 490
669 1894 548
680 1942 753
739 2073 1403
777 2152 1773
817 2230 2064
857 2297 2303
883 2343 2479
897 2367 2587
908 2387 2661
911 2394 2694
913 2398 2722
917 2404 2757
712 46 6
694 50 124
661 60 289
597 108 462
580 118 664
557 155 931
513 205 1280
438 248 1607
463 293 1952
527 331 2266
584 380 2544
622 506 2768
625 551 2848
620 548 2866
619 549 2878
616 548 2888
616 547 2899
628 117 10
623 135 111
619 112 261
564 136 450
553 146 658
532 172 923
481 220 1269
419 267 1602
455 315 1944
509 349 2252
552 379 2513
593 488 2714
603 606 2802
602 609 2824
599 620 2826
598 625 2831
