滤镜资源/Professional Luts Collection/Triune-Digital-Cinematic-LUTs/3D LUTs (3DL)/ALEXA/The Conjuring - Alexa.3dl
# Created by Benjamin (IWLTBAP) : http://luts.iwltbap.com
# Copyright: (C) Copyright 2016 Triune Films and IWLTBAP
# Blockbuster LUTs Pack
0 256 512 768 1023
28 33 42
28 33 264
80 149 919
156 301 1491
167 325 1583
72 409 121
75 377 425
99 243 972
175 399 1548
187 424 1643
537 1426 301
455 1387 377
292 1316 1461
341 1193 1970
345 1156 2048
1075 2346 599
973 2297 670
479 2146 1655
571 2123 2352
591 2126 2512
1197 2528 667
1099 2484 734
523 2292 1670
617 2307 2419
646 2337 2599
329 72 71
319 78 334
189 151 914
203 282 1464
216 309 1560
394 460 116
367 454 486
173 261 993
236 418 1571
248 445 1667
667 1464 300
643 1460 393
364 1348 1490
412 1222 2002
416 1184 2081
1227 2397 616
1168 2397 722
570 2199 1683
655 2172 2397
675 2177 2559
1359 2585 689
1297 2585 795
626 2356 1701
705 2366 2468
730 2391 2645
1470 291 256
1438 295 489
1285 348 1089
1143 497 1681
1125 514 1766
1813 637 312
1713 624 615
1357 451 1137
1160 601 1740
1129 612 1821
2292 1740 476
2315 1782 575
2029 2075 2019
1370 1639 2420
1292 1552 2461
2166 2697 643
2159 2733 767
1523 2673 1899
1014 2403 2593
970 2363 2721
2113 2832 704
2084 2851 833
1324 2681 1822
931 2523 2596
953 2546 2775
2118 406 402
2103 429 606
2051 495 1187
1861 560 1703
1854 604 1827
2278 549 428
2206 534 631
2157 624 1250
1962 682 1774
1954 735 1907
3178 2021 766
3211 2084 907
3277 2392 2229
2760 1916 2508
2574 1796 2571
3537 2960 903
3554 3010 1001
3662 3412 2459
3629 3514 3366
3605 3517 3528
3566 3114 910
3582 3162 999
3686 3539 2432
3665 3710 3404
3614 3723 3593
2229 423 423
2213 445 618
2177 521 1203
2002 574 1706
1957 601 1811
2364 551 444
2316 551 645
2289 653 1265
2119 701 1780
2069 725 1882
3281 2051 792
3319 2116 940
3380 2385 2217
2934 1937 2513
2757 1804 2552
3654 2998 955
3674 3050 1061
3813 3453 2467
3810 3549 3417
3775 3534 3547
3696 3138 958
3713 3185 1049
3850 3558 2419
3893 3756 3489
3873 3783 3680
