滤镜资源/Professional Luts Collection/Triune-Digital-Cinematic-LUTs/3D LUTs (3DL)/ALEXA/The Conjuring - Alexa.3dl
# Created by Benjamin (IWLTBAP) : http://luts.iwltbap.com
# Copyright: (C) Copyright 2016 Triune Films and IWLTBAP
# Blockbuster LUTs Pack
0 128 256 384 512 640 768 896 1023
28 33 42
28 29 120
28 33 264
36 63 545
80 149 919
125 239 1269
156 301 1491
162 315 1542
167 325 1583
43 170 70
42 152 174
35 90 296
45 108 573
89 195 945
135 287 1298
165 350 1520
172 364 1571
177 375 1613
72 409 121
62 401 202
75 377 425
65 211 634
99 243 972
145 337 1328
175 399 1548
182 413 1600
187 424 1643
208 842 186
187 832 224
131 826 420
161 803 890
179 688 1204
161 418 1371
184 447 1573
192 463 1630
197 474 1673
537 1426 301
495 1408 340
455 1387 377
246 1358 986
292 1316 1461
327 1261 1798
341 1193 1970
341 1161 2013
345 1156 2048
886 2047 500
835 2022 535
785 1994 566
523 1876 839
411 1841 1604
458 1803 2000
484 1783 2224
495 1779 2311
502 1782 2355
1075 2346 599
1024 2323 634
973 2297 670
844 2215 757
479 2146 1655
539 2131 2100
571 2123 2352
583 2122 2451
591 2126 2512
1136 2436 632
1086 2415 666
1035 2389 700
912 2320 783
499 2217 1655
557 2207 2117
602 2245 2396
620 2264 2508
629 2272 2571
1197 2528 667
1149 2508 701
1099 2484 734
979 2419 816
523 2292 1670
572 2269 2136
617 2307 2419
637 2329 2535
646 2337 2599
128 38 47
129 39 144
113 43 290
69 65 548
107 146 914
150 231 1258
180 291 1477
187 306 1530
192 316 1571
132 184 75
127 167 192
102 101 313
76 115 583
119 203 955
165 295 1308
195 358 1530
202 373 1582
207 383 1624
110 415 123
101 410 209
106 383 432
96 219 644
130 253 984
175 346 1339
206 409 1560
213 423 1613
218 435 1655
251 852 185
253 859 231
173 842 428
192 815 902
210 699 1217
191 428 1383
215 457 1585
222 472 1642
227 483 1684
601 1446 302
590 1445 347
542 1422 385
284 1376 995
328 1332 1475
364 1277 1813
376 1207 1986
377 1175 2029
380 1170 2064
960 2072 506
930 2066 556
876 2037 589
592 1903 850
451 1862 1618
498 1822 2017
523 1802 2242
534 1798 2329
541 1801 2373
1151 2371 608
1120 2371 660
1071 2347 696
929 2264 785
523 2171 1668
579 2153 2118
612 2147 2374
624 2147 2475
634 2152 2536
1212 2462 642
1183 2463 694
1133 2441 728
1006 2373 812
545 2244 1668
597 2230 2136
644 2270 2417
661 2289 2530
669 2296 2592
1276 2557 680
1247 2556 731
1198 2536 764
1076 2472 846
572 2322 1684
615 2296 2157
661 2336 2443
680 2356 2559
687 2363 2621
329 72 71
347 77 179
319 78 334
273 107 596
189 151 914
175 226 1249
203 282 1464
210 297 1517
216 309 1560
396 224 100
393 214 222
334 138 355
272 149 617
188 201 949
190 288 1297
219 347 1515
226 362 1568
231 374 1611
394 460 116
413 474 219
367 454 486
248 240 667
173 261 993
206 356 1350
236 418 1571
243 433 1625
248 445 1667
309 866 182
309 872 229
228 864 444
224 828 914
241 710 1231
222 438 1395
245 467 1598
253 483 1655
258 494 1698
667 1464 300
657 1465 349
643 1460 393
326 1396 1005
364 1348 1490
400 1292 1829
412 1222 2002
412 1190 2046
416 1184 2081
1039 2098 512
1009 2095 564
978 2086 615
669 1933 864
493 1884 1634
538 1842 2035
562 1821 2261
573 1817 2348
580 1821 2392
1227 2397 616
1197 2398 670
1168 2397 722
1020 2315 815
570 2199 1683
621 2180 2139
655 2172 2397
666 2172 2498
675 2177 2559
1292 2490 651
1262 2492 706
1233 2491 758
1103 2425 842
595 2274 1685
640 2257 2157
688 2298 2442
705 2316 2554
712 2323 2616
1359 2585 689
1328 2587 745
1297 2585 795
1175 2525 877
626 2356 1701
658 2326 2181
705 2366 2468
724 2385 2583
730 2391 2645
852 175 144
849 171 242
831 177 407
746 200 685
682 270 1035
600 314 1335
539 341 1514
518 344 1554
513 351 1592
955 283 166
916 258 264
865 227 419
776 248 706
694 317 1061
601 362 1362
540 390 1545
519 394 1586
515 402 1626
1155 575 232
1170 599 344
1103 579 552
814 329 741
693 364 1086
590 411 1390
530 439 1578
508 445 1623
504 454 1663
1211 991 204
1228 1004 259
1286 1081 532
974 1108 1129
701 864 1380
504 474 1424
438 479 1602
426 491 1657
426 502 1700
1118 1553 298
1114 1564 350
1100 1569 401
718 1563 1087
526 1426 1559
467 1319 1856
455 1235 2019
447 1200 2060
451 1194 2095
1118 2120 516
1087 2119 569
1057 2114 623
750 1964 884
535 1906 1652
578 1861 2053
602 1839 2280
612 1835 2367
619 1839 2412
1308 2424 622
1277 2426 679
1249 2427 734
1114 2367 849
620 2230 1702
664 2205 2161
697 2197 2420
708 2196 2520
717 2201 2581
1373 2518 658
1343 2520 716
1313 2521 771
1201 2476 873
650 2309 1706
685 2287 2181
732 2327 2466
750 2347 2580
756 2352 2641
1444 2613 695
1412 2617 756
1382 2619 813
1275 2577 910
684 2392 1720
702 2357 2205
747 2394 2491
768 2414 2608
775 2421 2670
1470 291 256
1448 288 346
1438 295 489
1407 314 760
1285 348 1089
1192 450 1469
1143 497 1681
1130 506 1726
1125 514 1766
1541 354 274
1497 339 359
1484 348 508
1444 367 783
1321 399 1113
1219 505 1503
1154 548 1710
1138 555 1753
1131 563 1793
1813 637 312
1796 662 447
1713 624 615
1484 425 807
1357 451 1137
1239 562 1537
1160 601 1740
1139 605 1782
1129 612 1821
2126 1152 412
2133 1168 459
2163 1268 743
2075 1349 1258
1617 1001 1435
1219 624 1567
1126 641 1755
1104 647 1802
1093 654 1841
2292 1740 476
2305 1763 524
2315 1782 575
2342 2030 1369
2029 2075 2019
1532 1802 2315
1370 1639 2420
1313 1571 2436
1292 1552 2461
2429 2469 598
2436 2492 646
2440 2514 697
2395 2608 1180
2020 2655 2062
1480 2401 2500
1331 2268 2662
1297 2240 2734
1289 2235 2773
2166 2697 643
2166 2716 702
2159 2733 767
2081 2757 1011
1523 2673 1899
1101 2503 2394
1014 2403 2593
980 2371 2671
970 2363 2721
2095 2752 670
2088 2765 732
2073 2777 798
2006 2792 988
1357 2645 1833
932 2465 2319
924 2463 2577
936 2474 2687
940 2475 2747
2113 2832 704
2101 2843 767
2084 2851 833
2013 2862 1019
1324 2681 1822
914 2512 2325
931 2523 2596
946 2537 2709
953 2546 2775
2002 385 364
1994 393 448
1983 409 583
1942 422 838
1899 463 1165
1766 492 1471
1701 562 1724
1690 588 1791
1683 609 1846
2065 439 377
2041 441 458
2031 460 598
1990 480 862
1947 522 1195
1811 548 1500
1743 624 1762
1730 651 1831
1722 673 1887
2234 608 401
2194 594 499
2119 552 622
2041 538 885
1997 585 1225
1860 609 1534
1787 691 1804
1769 719 1874
1757 740 1930
2670 1292 535
2691 1323 603
2773 1445 915
2672 1447 1330
2355 1091 1484
1888 669 1564
1802 757 1844
1776 784 1916
1756 803 1970
2980 1969 717
2990 1995 773
3001 2020 839
3111 2334 1684
3049 2357 2202
2702 2098 2395
2240 1831 2515
2100 1735 2532
2039 1705 2561
3165 2591 777
3175 2615 825
3185 2637 876
3235 2817 1448
3238 2999 2328
3154 3026 2856
2910 2914 3066
2823 2879 3155
2793 2874 3205
3225 2902 788
3236 2929 833
3246 2956 882
3268 3059 1151
3279 3318 2252
3205 3396 2887
3025 3336 3205
2962 3307 3311
2941 3300 3369
3226 2985 795
3238 3012 842
3247 3038 889
3260 3105 1058
3264 3377 2236
3178 3469 2881
2981 3458 3228
2946 3443 3354
2930 3434 3416
3247 3067 809
3258 3095 857
3267 3120 905
3278 3183 1064
3278 3448 2251
3181 3524 2890
2967 3506 3236
2935 3506 3370
2932 3505 3442
2118 406 402
2114 415 479
2103 429 606
2074 446 855
2051 495 1187
1960 520 1487
1861 560 1703
1856 582 1768
1854 604 1827
2172 455 411
2160 461 488
2153 481 621
2125 504 879
2101 556 1216
2008 581 1519
1909 617 1735
1904 642 1802
1903 666 1865
2278 549 428
2234 532 498
2206 534 631
2179 565 903
2157 624 1250
2066 650 1557
1962 682 1774
1955 708 1843
1954 735 1907
2779 1300 558
2813 1347 660
2890 1458 962
2785 1407 1306
2479 1049 1462
2127 720 1592
2022 751 1812
2010 779 1887
2007 807 1952
3178 2021 766
3191 2046 820
3211 2084 907
3328 2402 1755
3277 2392 2229
3057 2150 2426
2760 1916 2508
2637 1823 2534
2574 1796 2571
3462 2680 894
3472 2704 948
3481 2726 1006
3550 2940 1647
3590 3119 2477
3572 3132 2964
3439 3036 3136
3378 3001 3201
3360 2995 3242
3537 2960 903
3545 2984 951
3554 3010 1001
3591 3130 1326
3662 3412 2459
3677 3524 3081
3629 3514 3366
3610 3514 3473
3605 3517 3528
3546 3036 902
3554 3061 950
3562 3086 999
3585 3158 1182
3666 3473 2436
3695 3617 3089
3658 3654 3398
3618 3647 3506
3611 3650 3573
3566 3114 910
3574 3137 954
3582 3162 999
3606 3231 1169
3686 3539 2432
3712 3675 3096
3665 3710 3404
3623 3715 3515
3614 3723 3593
2174 415 415
2170 423 489
2159 438 614
2131 457 862
2115 508 1195
2030 535 1497
1932 565 1703
1909 581 1760
1905 603 1819
2224 462 423
2215 470 498
2208 489 628
2184 515 885
2167 570 1225
2082 599 1530
1982 623 1734
1958 638 1792
1957 663 1854
2317 547 438
2275 530 505
2259 541 638
2241 576 909
2225 639 1258
2142 669 1568
2041 689 1774
2014 703 1830
2013 729 1893
2823 1305 569
2861 1357 683
2933 1459 973
2824 1390 1294
2529 1042 1458
2204 740 1603
2104 759 1814
2071 774 1874
2067 800 1938
3229 2034 778
3243 2059 832
3266 2099 925
3377 2408 1764
3328 2387 2223
3123 2152 2428
2848 1922 2506
2724 1821 2519
2664 1795 2559
3512 2695 917
3521 2720 972
3530 2743 1032
3602 2958 1677
3647 3136 2488
3628 3142 2974
3526 3057 3153
3456 3014 3209
3437 3009 3250
3607 2982 934
3615 3006 984
3625 3032 1037
3668 3156 1378
3757 3436 2466
3784 3540 3110
3759 3540 3405
3732 3527 3490
3727 3529 3543
3628 3052 936
3636 3076 983
3645 3101 1036
3671 3174 1221
3776 3490 2441
3817 3629 3115
3806 3681 3449
3783 3682 3562
3780 3689 3626
3653 3130 943
3660 3152 985
3669 3176 1033
3696 3248 1212
3801 3554 2439
3838 3688 3124
3826 3744 3468
3804 3759 3586
3787 3762 3649
2229 423 423
2224 431 496
2213 445 618
2190 468 869
2177 521 1203
2101 553 1508
2002 574 1706
1980 586 1758
1957 601 1811
2278 470 430
2271 479 506
2265 499 634
2244 526 892
2231 584 1232
2156 618 1542
2056 635 1740
2032 645 1791
2010 660 1844
2364 551 444
2327 537 511
2316 551 645
2301 588 915
2289 653 1265
2218 689 1580
2119 701 1780
2092 710 1830
2069 725 1882
2870 1315 579
2909 1370 698
2980 1466 983
2870 1386 1289
2591 1051 1461
2281 761 1615
2184 770 1818
2156 782 1874
2129 796 1925
3281 2051 792
3296 2075 846
3319 2116 940
3427 2415 1767
3380 2385 2217
3190 2159 2433
2934 1937 2513
2822 1836 2519
2757 1804 2552
3561 2712 940
3571 2737 997
3580 2761 1058
3655 2977 1701
3704 3154 2498
3678 3153 2983
3593 3072 3165
3536 3039 3227
3499 3020 3256
3654 2998 955
3664 3024 1006
3674 3050 1061
3720 3175 1409
3813 3453 2467
3833 3548 3122
3810 3549 3417
3789 3537 3502
3775 3534 3547
3675 3068 957
3684 3093 1007
3694 3119 1059
3721 3192 1248
3832 3504 2433
3867 3637 3122
3868 3694 3468
3853 3697 3581
3843 3696 3635
3696 3138 958
3704 3161 1001
3713 3185 1049
3739 3255 1225
3850 3558 2419
3887 3691 3117
3893 3756 3489
3880 3773 3610
3873 3783 3680
