滤镜资源/Professional Luts Collection/Triune-Digital-Cinematic-LUTs/3D LUTs (3DL)/ALEXA/The Lord of the Rings - Alexa.3dl
# Created by Benjamin (IWLTBAP) : http://luts.iwltbap.com
# Copyright: (C) Copyright 2016 Triune Films and IWLTBAP
# Blockbuster LUTs Pack
0 256 512 768 1023
21 19 18
65 48 340
279 209 1420
692 396 3003
711 410 3096
114 415 97
163 445 436
298 288 1538
581 400 2707
582 405 2752
598 1709 533
616 1749 604
687 1745 1751
714 1426 2564
702 1339 2646
1077 2765 931
1069 2752 976
1177 2882 1995
1261 2890 2972
1298 2895 3213
1097 2836 949
1087 2819 997
1204 2964 2019
1347 3108 3044
1396 3148 3288
428 75 66
485 137 432
465 200 1655
719 378 2929
741 393 3027
484 495 177
520 521 513
401 282 1652
689 432 2858
694 441 2920
686 1788 555
698 1818 622
755 1788 1801
783 1459 2633
778 1382 2731
1126 2769 934
1138 2802 991
1244 2926 2030
1352 2967 3037
1388 2972 3277
1145 2839 951
1162 2881 1017
1300 3054 2085
1453 3210 3120
1497 3241 3360
1952 443 480
2116 505 782
2141 515 1893
2144 615 2922
1980 553 2856
2057 732 502
2203 717 804
2105 539 1867
1921 548 2648
1835 527 2702
2443 2318 967
2483 2339 1032
2435 2350 2274
2165 1988 3144
2040 1869 3284
1880 3133 1166
1876 3145 1214
1785 3295 2290
1691 3237 3243
1684 3211 3467
1729 3158 1146
1731 3179 1199
1683 3365 2292
1688 3411 3273
1723 3433 3510
3086 839 917
3116 853 1112
3217 894 2130
2688 655 2555
2687 661 2672
3104 896 892
3056 865 1070
2946 814 1954
2902 785 2755
2925 805 2914
3746 2583 1337
3791 2614 1413
3875 2748 2690
3704 2293 3473
3675 2187 3624
4016 3670 1720
4025 3707 1792
4042 3895 2968
3994 3850 3723
3984 3853 3931
4028 3803 1753
4035 3840 1813
4030 4005 2974
3991 4053 3776
3988 4054 3958
3208 876 960
3201 873 1139
3217 878 2064
2823 698 2577
2854 710 2735
3149 894 904
3051 846 1068
2956 802 1922
3052 835 2795
3082 847 2959
3870 2599 1368
3905 2645 1455
3968 2791 2746
3848 2335 3518
3811 2215 3652
4065 3669 1790
4073 3699 1866
4095 3895 3146
4095 3912 3847
4095 3894 3972
4086 3795 1849
4093 3825 1924
4095 3994 3259
4095 4070 3962
4095 4090 4087
