滤镜资源/Professional Luts Collection/Triune-Digital-Cinematic-LUTs/3D LUTs (3DL)/ALEXA/The Conjuring - Alexa.3dl
# Created by Benjamin (IWLTBAP) : http://luts.iwltbap.com
# Copyright: (C) Copyright 2016 Triune Films and IWLTBAP
# Blockbuster LUTs Pack
0 64 128 192 256 320 384 448 512 576 640 704 768 832 896 960 1023
28 33 42
28 31 77
28 29 120
28 31 181
28 33 264
31 41 385
36 63 545
55 102 730
80 149 919
104 195 1100
125 239 1269
143 276 1403
156 301 1491
160 309 1521
162 315 1542
165 320 1563
167 325 1583
35 89 54
35 82 96
33 70 138
31 55 193
30 52 274
33 61 397
41 85 559
60 126 745
84 172 932
108 218 1113
130 263 1283
148 300 1417
160 325 1505
165 334 1535
167 339 1556
170 345 1577
172 350 1598
43 170 70
43 163 112
42 152 174
39 128 234
35 90 296
36 81 407
45 108 573
65 149 759
89 195 945
112 240 1126
135 287 1298
153 324 1432
165 350 1520
170 358 1550
172 364 1571
175 369 1592
177 375 1613
52 274 92
51 268 126
51 260 192
51 247 280
50 211 359
43 134 438
50 131 586
70 172 773
94 218 958
117 264 1139
140 311 1313
158 349 1446
170 374 1534
174 382 1564
177 388 1586
180 394 1607
182 399 1628
72 409 121
67 405 141
62 401 202
70 393 302
75 377 425
76 329 541
65 211 634
76 196 787
99 243 972
122 289 1154
145 337 1328
163 374 1461
175 399 1548
179 407 1579
182 413 1600
185 419 1622
187 424 1643
119 595 151
113 592 170
104 589 193
90 587 291
101 584 454
112 563 626
117 510 778
112 396 891
107 286 994
126 313 1166
150 362 1342
168 399 1475
179 423 1561
184 432 1594
187 438 1615
190 444 1637
192 449 1658
208 842 186
197 837 206
187 832 224
172 825 252
131 826 420
143 826 673
161 803 890
173 764 1066
179 688 1204
169 537 1288
161 418 1371
172 422 1485
184 447 1573
189 457 1608
192 463 1630
194 468 1652
197 474 1673
357 1128 239
340 1122 258
325 1115 277
308 1107 295
269 1090 347
184 1092 658
200 1081 956
219 1059 1176
236 1031 1362
247 984 1515
246 887 1618
236 765 1668
226 679 1698
215 602 1690
217 600 1707
219 603 1727
221 605 1746
537 1426 301
516 1417 322
495 1408 340
476 1399 358
455 1387 377
318 1353 566
246 1358 986
269 1334 1251
292 1316 1461
313 1294 1645
327 1261 1798
336 1224 1904
341 1193 1970
341 1171 2000
341 1161 2013
343 1160 2031
345 1156 2048
697 1733 398
676 1722 413
655 1710 427
635 1698 440
614 1684 453
552 1644 509
334 1622 941
322 1608 1308
350 1583 1539
374 1566 1740
397 1551 1917
412 1532 2041
421 1519 2121
426 1511 2168
428 1507 2189
431 1508 2208
433 1507 2227
886 2047 500
861 2035 517
835 2022 535
810 2008 552
785 1994 566
758 1975 577
523 1876 839
389 1875 1329
411 1841 1604
437 1818 1815
458 1803 2000
473 1790 2135
484 1783 2224
491 1779 2279
495 1779 2311
499 1781 2333
502 1782 2355
1032 2281 577
1007 2270 595
981 2257 613
956 2244 630
931 2231 649
905 2216 666
720 2095 796
471 2077 1294
457 2050 1645
485 2017 1868
508 2001 2062
524 1990 2206
534 1982 2299
542 1981 2360
548 1984 2399
553 1987 2427
556 1988 2451
1075 2346 599
1050 2335 616
1024 2323 634
999 2310 652
973 2297 670
948 2283 688
844 2215 757
518 2145 1249
479 2146 1655
511 2130 1891
539 2131 2100
558 2125 2252
571 2123 2352
577 2120 2412
583 2122 2451
587 2125 2481
591 2126 2512
1106 2391 615
1080 2380 632
1055 2368 649
1029 2356 667
1004 2342 685
978 2330 703
881 2270 766
544 2171 1218
488 2182 1651
517 2164 1893
550 2177 2110
575 2195 2273
594 2210 2385
602 2212 2449
607 2213 2488
610 2214 2516
614 2217 2549
1136 2436 632
1111 2425 648
1086 2415 666
1061 2402 683
1035 2389 700
1009 2376 718
912 2320 783
567 2201 1205
499 2217 1655
524 2197 1901
557 2207 2117
582 2226 2283
602 2245 2396
614 2259 2467
620 2264 2508
624 2267 2538
629 2272 2571
1167 2482 650
1142 2472 666
1118 2462 683
1093 2450 700
1067 2437 717
1041 2423 734
944 2370 800
590 2233 1203
510 2255 1663
532 2231 1912
564 2237 2126
590 2258 2295
610 2275 2407
623 2290 2480
629 2296 2521
632 2299 2551
637 2304 2585
1197 2528 667
1173 2518 684
1149 2508 701
1125 2497 717
1099 2484 734
1073 2471 751
979 2419 816
616 2266 1199
523 2292 1670
541 2266 1922
572 2269 2136
598 2291 2308
617 2307 2419
631 2323 2493
637 2329 2535
641 2332 2565
646 2337 2599
73 34 45
71 34 85
68 32 129
65 34 191
57 36 272
46 43 389
50 64 546
68 101 728
93 147 916
116 193 1096
138 235 1263
155 271 1396
168 296 1484
172 305 1515
175 311 1536
177 316 1557
180 321 1577
74 92 55
71 86 103
67 74 145
61 59 199
52 56 280
49 64 400
56 89 564
75 130 751
100 176 937
123 222 1118
145 267 1288
163 304 1422
175 330 1510
179 338 1540
182 343 1561
185 349 1582
187 354 1603
72 174 72
70 167 118
67 156 178
59 131 237
50 93 299
51 84 411
61 112 578
81 153 765
104 199 950
127 245 1131
150 291 1303
168 328 1437
180 354 1525
185 363 1556
187 368 1577
190 374 1598
193 379 1619
69 277 94
68 271 130
67 264 196
67 249 283
65 214 362
58 137 442
65 135 592
86 177 780
109 223 964
132 269 1145
155 316 1318
173 354 1452
185 379 1540
190 388 1570
192 393 1592
195 399 1613
197 404 1634
90 412 123
88 411 145
80 405 205
85 397 305
91 380 428
91 333 544
81 216 639
91 201 793
114 248 978
137 294 1160
160 341 1334
178 379 1467
190 404 1554
194 412 1585
197 418 1607
200 424 1628
203 429 1649
136 598 150
137 600 174
129 597 199
109 593 295
116 589 458
127 568 630
132 514 784
128 401 897
123 291 1000
141 318 1172
165 367 1348
183 404 1481
195 428 1567
199 437 1600
202 443 1622
205 449 1643
208 455 1665
229 848 185
230 851 209
221 846 228
204 839 257
151 834 424
159 832 677
177 809 896
189 770 1072
194 693 1210
184 543 1294
176 423 1377
187 427 1491
199 452 1579
204 461 1614
207 467 1635
209 473 1657
212 478 1678
386 1136 237
382 1138 261
365 1132 281
347 1123 300
303 1104 353
203 1100 662
216 1089 962
235 1065 1181
252 1037 1368
263 991 1521
262 893 1625
252 770 1674
242 683 1704
231 607 1696
232 604 1712
234 608 1732
236 610 1751
569 1436 302
563 1436 325
542 1427 344
519 1417 363
498 1405 381
349 1363 569
265 1367 990
287 1342 1257
310 1324 1469
330 1302 1652
346 1269 1805
354 1231 1912
359 1200 1978
359 1178 2008
359 1168 2021
361 1167 2039
362 1163 2056
736 1746 400
724 1744 425
704 1733 440
683 1720 452
660 1706 464
594 1664 518
360 1630 942
341 1617 1314
368 1592 1547
393 1575 1748
416 1559 1924
430 1540 2049
439 1527 2129
445 1520 2176
446 1516 2196
449 1517 2216
451 1516 2234
922 2059 503
907 2056 528
882 2044 545
856 2030 562
829 2015 577
802 1996 589
557 1890 845
412 1886 1333
431 1851 1611
457 1828 1824
478 1812 2008
493 1800 2144
504 1792 2233
510 1789 2288
515 1789 2320
518 1790 2343
521 1792 2364
1070 2294 581
1054 2293 607
1029 2281 625
1003 2268 643
978 2255 661
952 2240 678
762 2116 807
499 2090 1299
478 2062 1653
505 2027 1875
528 2011 2071
545 2001 2216
554 1993 2309
562 1992 2370
568 1994 2409
573 1997 2437
576 1999 2461
1113 2358 603
1098 2358 629
1072 2347 647
1047 2334 665
1022 2322 683
996 2309 701
886 2239 771
548 2157 1254
501 2159 1662
531 2142 1899
559 2141 2108
578 2136 2261
591 2135 2363
598 2133 2423
603 2134 2463
608 2137 2493
613 2139 2524
1144 2404 620
1128 2403 645
1103 2393 663
1078 2381 680
1052 2368 698
1027 2355 716
925 2297 781
575 2182 1221
510 2194 1657
537 2176 1902
569 2187 2118
595 2207 2284
614 2222 2395
623 2224 2460
627 2225 2498
630 2226 2527
634 2228 2559
1174 2449 637
1159 2449 663
1134 2439 680
1110 2428 697
1084 2415 714
1058 2402 732
959 2347 798
600 2212 1207
522 2231 1661
545 2210 1910
577 2218 2127
603 2239 2294
623 2258 2407
636 2271 2478
641 2277 2519
644 2280 2549
649 2284 2582
1205 2495 655
1190 2496 681
1166 2486 699
1142 2475 715
1117 2463 731
1091 2450 749
992 2396 815
625 2245 1206
535 2268 1670
553 2245 1922
585 2250 2136
611 2271 2307
631 2289 2418
644 2304 2491
650 2309 2533
653 2313 2563
658 2317 2596
1236 2542 674
1221 2542 699
1198 2532 716
1173 2522 732
1149 2511 749
1123 2498 766
1027 2446 830
652 2279 1202
547 2307 1678
562 2280 1933
593 2282 2146
620 2305 2320
639 2321 2431
653 2337 2505
659 2342 2547
662 2346 2577
666 2350 2610
128 38 47
130 38 91
129 39 144
124 41 208
113 43 290
93 48 400
69 65 548
82 102 727
107 146 914
130 191 1093
150 231 1258
168 266 1390
180 291 1477
184 300 1508
187 306 1530
189 311 1551
192 316 1571
133 99 59
131 92 110
128 79 159
119 64 215
107 62 297
89 69 409
72 90 565
89 130 750
113 175 934
136 220 1115
158 263 1283
175 299 1416
187 325 1504
192 334 1535
194 339 1555
197 344 1576
199 350 1597
132 184 75
130 178 124
127 167 192
118 141 250
102 101 313
83 89 418
76 115 583
96 158 771
119 203 955
142 250 1137
165 295 1308
183 332 1442
195 358 1530
200 367 1561
202 373 1582
205 378 1603
207 383 1624
124 287 96
122 282 136
118 274 207
112 259 292
100 221 370
76 140 445
81 139 597
101 182 786
124 227 969
147 274 1151
170 320 1324
188 358 1458
201 384 1545
205 393 1576
208 398 1598
210 404 1619
213 409 1640
110 415 123
110 413 148
101 410 209
103 400 309
106 383 432
106 335 548
96 219 644
106 206 799
130 253 984
152 299 1166
175 346 1339
194 384 1473
206 409 1560
210 418 1591
213 423 1613
215 429 1634
218 435 1655
153 602 150
154 603 174
153 604 203
127 599 299
131 594 462
142 572 634
147 519 789
143 405 903
138 296 1006
157 323 1179
180 371 1354
198 409 1487
210 433 1573
215 442 1606
218 448 1628
220 454 1650
223 460 1671
251 852 185
252 856 208
253 859 231
235 851 262
173 842 428
174 839 682
192 815 902
205 776 1079
210 699 1217
199 548 1301
191 428 1383
203 432 1497
215 457 1585
219 466 1620
222 472 1642
225 478 1663
227 483 1684
416 1143 234
412 1146 260
407 1148 284
387 1140 304
340 1119 358
224 1109 665
232 1096 968
251 1072 1187
269 1044 1375
280 997 1528
279 899 1632
268 775 1681
258 687 1710
246 611 1701
247 609 1718
250 612 1738
252 614 1757
601 1446 302
596 1446 326
590 1445 347
567 1435 366
542 1422 385
381 1374 573
284 1376 995
304 1350 1264
328 1332 1475
348 1310 1659
364 1277 1813
372 1239 1920
376 1207 1986
377 1185 2016
377 1175 2029
379 1174 2047
380 1170 2064
773 1758 402
762 1756 428
752 1754 452
731 1743 465
709 1728 475
640 1685 527
387 1639 943
360 1627 1320
387 1601 1554
412 1584 1755
435 1568 1932
448 1548 2056
457 1535 2136
462 1528 2183
464 1524 2204
467 1525 2223
469 1524 2242
960 2072 506
946 2070 531
930 2066 556
904 2053 574
876 2037 589
848 2018 601
592 1903 850
435 1897 1337
451 1862 1618
476 1838 1832
498 1822 2017
513 1809 2153
523 1802 2242
530 1798 2297
534 1798 2329
537 1800 2352
541 1801 2373
1108 2306 585
1093 2306 612
1077 2305 638
1052 2293 656
1026 2280 673
1000 2265 691
805 2137 819
526 2102 1303
499 2073 1659
524 2037 1882
548 2021 2080
565 2012 2226
574 2004 2319
582 2003 2380
588 2005 2419
593 2008 2448
596 2010 2471
1151 2371 608
1136 2371 634
1120 2371 660
1096 2360 678
1071 2347 696
1045 2334 713
929 2264 785
577 2169 1257
523 2171 1668
551 2153 1907
579 2153 2118
599 2148 2272
612 2147 2374
619 2145 2435
624 2147 2475
629 2150 2505
634 2152 2536
1181 2416 624
1166 2416 650
1151 2416 676
1126 2406 694
1101 2393 711
1076 2381 729
972 2323 796
609 2194 1223
533 2207 1664
558 2188 1911
589 2199 2127
615 2219 2294
635 2234 2406
643 2237 2471
648 2237 2509
651 2239 2538
654 2241 2570
1212 2462 642
1197 2463 668
1183 2463 694
1159 2453 712
1133 2441 728
1108 2428 746
1006 2373 812
635 2225 1211
545 2244 1668
566 2223 1920
597 2230 2136
623 2251 2304
644 2270 2417
656 2283 2489
661 2289 2530
665 2292 2559
669 2296 2592
1244 2510 661
1230 2510 687
1215 2510 713
1190 2499 730
1166 2489 746
1141 2476 763
1040 2422 829
661 2258 1209
559 2282 1677
575 2258 1931
606 2263 2146
632 2285 2317
652 2302 2430
666 2317 2503
671 2322 2544
674 2326 2574
678 2329 2607
1276 2557 680
1261 2556 705
1247 2556 731
1223 2546 748
1198 2536 764
1173 2524 781
1076 2472 846
688 2292 1205
572 2322 1684
584 2295 1944
615 2296 2157
641 2319 2331
661 2336 2443
675 2351 2517
680 2356 2559
683 2359 2588
687 2363 2621
201 48 54
209 50 102
214 53 161
210 53 228
199 56 311
179 63 422
144 77 562
107 103 727
120 145 911
143 189 1090
163 229 1254
180 262 1384
191 286 1471
196 295 1502
199 302 1524
202 307 1545
204 313 1566
217 113 65
217 105 118
219 94 173
211 76 235
198 78 319
177 84 431
141 99 574
111 131 749
126 173 932
149 218 1112
170 260 1278
187 295 1409
199 319 1496
203 328 1527
206 334 1549
209 340 1570
