滤镜资源/Professional Luts Collection/Triune-Digital-Cinematic-LUTs/3D LUTs (3DL)/ALEXA/The Grand Budapest Hotel - Alexa.3dl
# Created by Benjamin (IWLTBAP) : http://luts.iwltbap.com
# Copyright: (C) Copyright 2016 Triune Films and IWLTBAP
# Blockbuster LUTs Pack
0 256 512 768 1023
0 0 0
174 112 668
417 450 1955
566 754 2770
566 741 2831
155 402 85
202 437 551
445 610 1901
546 775 2630
546 786 2640
538 1413 314
538 1414 438
628 1575 1741
678 1500 2455
662 1443 2483
700 1935 438
687 1921 507
760 2119 1727
838 2220 2520
859 2243 2703
645 1874 390
645 1880 494
744 2124 1746
860 2323 2558
879 2360 2726
1034 64 5
877 136 689
661 298 1978
666 495 2864
649 489 2915
558 447 96
554 508 599
462 410 1881
563 633 2600
573 741 2574
574 1398 301
576 1405 420
673 1585 1755
719 1506 2436
708 1461 2473
732 1917 427
719 1898 463
806 2134 1756
903 2277 2569
922 2302 2749
692 1886 395
690 1888 474
818 2194 1805
933 2407 2621
952 2441 2790
2846 166 141
2862 85 554
2503 366 2154
2484 425 3039
2273 396 2898
2729 538 46
2707 393 505
2362 396 2007
2112 397 2578
1992 389 2559
2460 1928 466
2540 1963 514
2402 2230 2222
1751 1864 3038
1592 1777 3095
1535 2300 513
1535 2299 564
1203 2496 1927
1150 2524 2752
1132 2514 2916
1317 2226 482
1314 2231 522
1110 2487 1948
1107 2591 2754
1119 2618 2926
3556 476 402
3532 361 733
3230 588 2299
2664 358 2439
2667 359 2539
3392 386 188
3339 195 629
2874 403 1953
2756 410 2550
2764 412 2675
3550 2080 359
3584 2124 427
3806 2369 2190
3461 2043 3318
3402 1926 3424
3665 2902 723
3669 2944 790
3942 3495 2311
4002 3835 3742
3937 3844 3999
3660 2988 754
3666 3033 814
3935 3598 2397
3943 3953 3685
3668 3939 3964
3650 542 465
3608 420 749
3162 463 2148
2744 364 2442
2751 365 2559
3375 331 180
3288 140 690
2843 395 1918
2833 416 2571
2837 418 2695
3614 2083 357
3654 2137 432
3868 2387 2221
3537 2073 3343
3482 1954 3438
3713 2915 733
3719 2952 793
4004 3526 2377
4090 3859 3744
4080 3849 4021
3721 3004 762
3726 3044 819
4010 3630 2473
4083 3955 3630
4091 4057 4059
