滤镜资源/Professional Luts Collection/Triune-Digital-Cinematic-LUTs/3D LUTs (3DL)/ALEXA/The Grand Budapest Hotel - Alexa.3dl
# Created by Benjamin (IWLTBAP) : http://luts.iwltbap.com
# Copyright: (C) Copyright 2016 Triune Films and IWLTBAP
# Blockbuster LUTs Pack
0 128 256 384 512 640 768 896 1023
0 0 0
73 48 297
174 112 668
300 257 1278
417 450 1955
492 510 2507
566 754 2770
567 747 2807
566 741 2831
63 166 36
86 172 252
178 177 634
307 309 1268
444 551 1948
510 621 2471
568 798 2730
572 809 2761
564 786 2762
155 402 85
160 406 225
202 437 551
315 441 1201
445 610 1901
515 718 2407
546 775 2630
547 779 2650
546 786 2640
337 853 194
337 852 250
353 880 497
416 976 1112
485 978 1735
529 825 2323
559 855 2564
561 860 2586
559 865 2577
538 1413 314
536 1410 371
538 1414 438
577 1502 1106
628 1575 1741
671 1565 2224
678 1500 2455
667 1458 2486
662 1443 2483
689 1845 428
680 1829 448
675 1827 499
692 1899 985
737 1981 1737
779 2024 2255
797 2015 2518
795 1998 2597
794 1991 2631
700 1935 438
692 1922 455
687 1921 507
691 1957 743
760 2119 1727
805 2195 2235
838 2220 2520
849 2228 2629
859 2243 2703
684 1925 424
678 1914 442
674 1918 508
682 1958 732
754 2127 1723
807 2222 2239
851 2288 2534
865 2313 2643
874 2327 2720
645 1874 390
642 1869 412
645 1880 494
658 1937 746
744 2124 1746
813 2250 2268
860 2323 2558
872 2349 2650
879 2360 2726
457 24 5
383 64 289
372 114 665
324 203 1264
416 297 1944
524 391 2534
570 608 2810
573 612 2844
573 610 2866
261 175 41
281 203 269
301 186 646
314 235 1254
425 367 1937
497 414 2486
557 645 2727
555 637 2753
547 612 2740
191 404 84
193 407 223
230 435 554
334 396 1195
444 509 1889
525 632 2401
549 685 2614
554 717 2627
560 762 2607
361 849 190
362 850 245
375 875 498
438 974 1113
508 977 1734
542 790 2308
571 825 2543
576 847 2559
573 853 2535
554 1402 305
553 1400 350
557 1406 429
597 1500 1112
648 1575 1744
691 1566 2219
697 1500 2442
688 1461 2475
682 1447 2470
702 1830 419
694 1815 439
688 1811 482
707 1888 987
756 1981 1746
796 2020 2251
813 2010 2510
819 2006 2604
825 2013 2653
713 1920 429
704 1906 447
699 1899 473
706 1946 731
779 2120 1736
832 2209 2253
871 2248 2543
882 2259 2655
890 2273 2727
699 1914 418
692 1902 436
689 1902 477
698 1952 722
777 2134 1736
842 2250 2269
886 2324 2565
900 2348 2677
908 2362 2745
666 1875 389
662 1869 411
667 1883 490
680 1942 753
777 2152 1773
857 2297 2303
897 2367 2587
911 2394 2694
917 2404 2757
1034 64 5
1015 32 231
877 136 689
819 211 1312
661 298 1978
633 373 2549
666 495 2864
654 489 2894
649 489 2915
841 223 18
839 249 240
819 216 664
755 241 1286
579 333 1946
560 392 2492
600 522 2749
590 525 2758
554 480 2726
558 447 96
596 482 247
554 508 599
532 339 1213
462 410 1881
544 574 2401
563 633 2600
567 671 2606
573 741 2574
389 845 182
391 850 245
402 877 502
462 978 1120
530 977 1735
558 768 2298
585 805 2522
593 838 2534
585 843 2498
574 1398 301
572 1396 340
576 1405 420
620 1506 1122
673 1585 1755
714 1572 2221
719 1506 2436
711 1470 2470
708 1461 2473
720 1825 415
712 1811 434
706 1801 459
728 1889 993
779 1987 1758
820 2028 2259
840 2025 2521
851 2031 2623
859 2041 2676
732 1917 427
724 1907 446
719 1898 463
727 1948 728
806 2134 1756
866 2237 2281
903 2277 2569
915 2293 2683
922 2302 2749
719 1914 417
714 1906 436
710 1901 465
720 1955 716
809 2159 1761
879 2288 2303
921 2361 2595
934 2382 2710
941 2395 2774
692 1886 395
688 1879 411
690 1888 474
705 1953 755
818 2194 1805
897 2345 2342
933 2407 2621
947 2432 2731
952 2441 2790
1976 101 57
1985 48 179
1937 79 640
1720 258 1378
1646 317 2100
1632 382 2667
1603 410 2951
1547 410 2973
1526 410 2991
1870 235 20
1889 178 174
1899 105 599
1667 283 1344
1569 341 2045
1474 396 2554
1323 405 2734
1196 396 2704
1051 378 2610
1634 543 50
1688 562 150
1672 597 576
1565 371 1302
1428 365 1970
1253 417 2447
1021 429 2591
860 443 2552
717 647 2418
1285 1035 225
1309 1046 253
1390 1112 515
1231 1175 1283
952 1011 1871
854 560 2319
731 653 2497
698 766 2468
689 823 2389
805 1464 274
810 1468 303
804 1468 343
775 1585 1179
777 1636 1799
760 1592 2236
747 1515 2439
735 1478 2473
735 1475 2489
742 1826 416
733 1812 433
728 1803 455
754 1901 1005
806 2000 1775
847 2044 2274
872 2049 2541
886 2061 2651
893 2069 2702
758 1928 431
750 1915 449
744 1906 466
752 1959 731
837 2160 1777
903 2274 2308
937 2312 2596
949 2325 2712
956 2337 2776
746 1926 422
740 1918 441
735 1910 458
746 1968 715
842 2189 1786
917 2329 2333
957 2400 2627
970 2423 2738
977 2433 2806
722 1906 404
718 1898 419
715 1895 448
734 1972 751
858 2237 1833
938 2387 2374
970 2449 2654
983 2473 2760
991 2481 2825
2846 166 141
2848 101 232
2862 85 554
2672 233 1404
2503 366 2154
2465 394 2748
2484 425 3039
2410 417 3013
2273 396 2898
2834 223 126
2826 158 226
2822 120 520
2627 256 1370
2434 385 2076
2333 396 2576
2196 396 2703
2121 384 2664
2038 371 2601
2729 538 46
2742 506 147
2707 393 505
2561 278 1346
2362 396 2007
2251 400 2463
2112 397 2578
2045 389 2559
1992 389 2559
2614 1223 159
2650 1232 184
2757 1239 357
2693 1323 1287
2399 1122 2077
2148 430 2398
2017 429 2548
1941 441 2571
1898 484 2637
2460 1928 466
2515 1956 494
2540 1963 514
2640 2108 1240
2402 2230 2222
2003 2065 2821
1751 1864 3038
1653 1791 3072
1592 1777 3095
2210 2428 598
2240 2432 624
2254 2438 647
2172 2505 973
1639 2581 2014
1419 2526 2614
1345 2462 2885
1325 2442 2977
1316 2431 3011
1535 2300 513
1538 2301 538
1535 2299 564
1482 2322 739
1203 2496 1927
1182 2542 2476
1150 2524 2752
1137 2518 2862
1132 2514 2916
1350 2237 493
1369 2246 520
1365 2246 540
1300 2260 659
1119 2454 1911
1088 2499 2436
1099 2547 2734
1106 2568 2849
1110 2571 2913
1317 2226 482
1320 2228 503
1314 2231 522
1217 2255 668
1110 2487 1948
1084 2531 2467
1107 2591 2754
1113 2610 2863
1119 2618 2926
3447 399 304
3432 354 433
3429 275 680
3324 351 1464
3084 472 2255
3021 427 2823
2836 397 2837
2645 364 2631
2521 344 2512
3410 391 228
3379 363 386
3355 238 625
3193 270 1382
2919 413 2064
2781 405 2453
2671 387 2590
2617 380 2583
2578 374 2584
3299 405 143
3266 356 259
3249 191 576
3104 265 1353
2839 415 1988
2709 412 2358
2627 400 2528
2624 400 2589
2628 400 2645
3370 1267 133
3382 1281 168
3459 1259 331
3391 1326 1278
3088 969 2032
2684 427 2338
2645 423 2568
2645 428 2638
2648 433 2698
3388 2082 376
3413 2106 407
3430 2117 433
3687 2245 1160
3628 2348 2167
3399 2266 3010
3199 2025 3296
3129 1942 3355
3105 1942 3410
3396 2693 679
3421 2701 698
3439 2709 717
3547 2845 1033
3675 3171 2222
3578 3340 3195
3395 3308 3637
3310 3267 3749
3250 3247 3789
3345 2859 732
3370 2872 755
3387 2888 779
3407 2948 886
3525 3410 2220
3334 3609 3129
3043 3571 3548
2852 3525 3667
2709 3481 3706
3319 2888 738
3341 2903 761
3358 2923 786
3367 2965 855
3459 3447 2239
3210 3626 3097
2813 3582 3482
2542 3517 3578
2402 3465 3619
3324 2920 742
3346 2941 768
3361 2964 795
3367 3006 862
3439 3500 2305
3165 3651 3122
2741 3590 3475
2479 3530 3570
2230 3447 3571
3556 476 402
3534 446 532
3532 361 733
3459 435 1484
3230 588 2299
3074 437 2752
2664 358 2439
2659 357 2481
2667 359 2539
3483 426 286
3448 381 439
3424 270 674
3250 279 1396
2950 394 2012
2819 399 2373
2712 384 2494
2714 385 2548
2722 386 2608
3392 386 188
3349 314 320
3339 195 629
3143 265 1373
2874 403 1953
2767 410 2312
2756 410 2550
2758 411 2615
2764 412 2675
3475 1244 128
3480 1270 179
3560 1249 382
3478 1295 1300
3141 883 2026
2793 433 2338
2789 435 2595
2791 439 2668
2797 444 2732
3550 2080 359
3569 2106 391
3584 2124 427
3851 2288 1235
3806 2369 2190
3621 2253 3008
3461 2043 3318
3409 1932 3368
3402 1926 3424
3662 2699 636
3666 2713 664
3667 2726 693
3770 2865 1036
3990 3176 2204
4018 3377 3169
3952 3387 3681
3910 3384 3835
3894 3378 3889
3665 2902 723
3665 2924 759
3669 2944 790
3682 3014 912
3942 3495 2311
4010 3754 3240
4002 3835 3742
3978 3854 3925
3937 3844 3999
3658 2945 741
3663 2969 773
3665 2988 802
3672 3034 877
3934 3539 2328
3996 3805 3226
3973 3930 3727
3917 3947 3910
3848 3930 3989
3660 2988 754
3663 3010 784
3666 3033 814
3674 3076 884
3935 3598 2397
3987 3840 3244
3943 3953 3685
3827 3967 3901
3668 3939 3964
3610 521 449
3581 504 580
3578 400 743
3507 457 1473
3239 559 2264
3014 412 2599
2700 360 2431
2698 360 2489
2711 363 2547
3501 425 291
3462 361 438
3433 249 692
3221 256 1396
2936 383 1973
2838 399 2355
2749 387 2495
2750 387 2554
2762 389 2618
3402 374 195
3360 263 320
3340 169 655
3122 266 1386
2861 398 1933
2794 412 2309
2794 413 2554
2791 413 2619
2802 415 2683
3503 1245 131
3505 1274 185
3595 1258 411
3511 1291 1316
3160 869 2030
2830 436 2346
2824 439 2606
2828 444 2677
2837 449 2742
3583 2076 355
3604 2105 388
3621 2128 428
3883 2279 1249
3839 2380 2208
3656 2258 3015
3497 2051 3325
3446 1936 3372
3436 1924 3423
3688 2691 629
3688 2711 662
3687 2729 696
3793 2874 1055
4012 3172 2210
4046 3369 3167
3994 3390 3686
3961 3395 3843
3954 3386 3896
3694 2909 729
3695 2929 763
3699 2951 793
3720 3028 928
3981 3509 2343
4058 3768 3273
4066 3847 3744
4065 3863 3930
4060 3865 4021
3697 2956 748
3700 2974 776
3703 2995 805
3713 3045 881
3982 3557 2361
4055 3829 3278
4064 3947 3726
4064 3981 3930
4056 3994 4043
3701 3004 762
3704 3021 789
3707 3044 819
3719 3090 890
3986 3616 2441
4054 3859 3276
4059 3978 3700
4059 4029 3920
3987 4023 4028
3650 542 465
3615 534 601
3608 420 749
3535 464 1464
3162 463 2148
2743 363 2202
2744 364 2442
2746 365 2498
2751 365 2559
3494 399 278
3449 288 410
3404 176 696
3131 245 1392
2897 374 1932
2790 389 2270
2794 390 2510
2795 391 2567
2798 392 2631
3375 331 180
3323 187 298
3288 140 690
3019 269 1404
2843 395 1918
2830 414 2326
2833 416 2571
2832 416 2632
2837 418 2695
3511 1253 134
3510 1289 189
3630 1272 435
3541 1299 1342
3194 879 2051
2867 439 2361
2861 443 2619
2870 450 2689
2877 454 2753
3614 2083 357
3636 2118 393
3654 2137 432
3911 2287 1264
3868 2387 2221
3689 2273 3035
3537 2073 3343
3487 1959 3385
3482 1954 3438
3708 2704 638
3708 2713 664
3706 2733 699
3819 2892 1083
4034 3199 2257
4073 3354 3157
4033 3422 3736
3982 3367 3823
3996 3414 3906
3713 2915 733
3714 2932 765
3719 2952 793
3750 3040 945
4004 3526 2377
4077 3778 3295
4090 3859 3744
4090 3871 3920
4080 3849 4021
3717 2962 751
3720 2979 778
3722 2998 806
3733 3049 883
4003 3571 2396
4076 3840 3303
4086 3934 3679
4093 3971 3908
4091 3999 4057
3721 3004 762
3723 3021 789
3726 3044 819
3739 3091 890
4010 3630 2473
4075 3863 3279
4083 3955 3630
4092 4011 3846
4091 4057 4059
