滤镜资源/Professional Luts Collection/Triune-Digital-Cinematic-LUTs/3D LUTs (3DL)/ALEXA/The Lord of the Rings - Alexa.3dl
# Created by Benjamin (IWLTBAP) : http://luts.iwltbap.com
# Copyright: (C) Copyright 2016 Triune Films and IWLTBAP
# Blockbuster LUTs Pack
0 128 256 384 512 640 768 896 1023
21 19 18
28 25 100
65 48 340
170 141 784
279 209 1420
559 313 2535
692 396 3003
706 406 3064
711 410 3096
29 130 26
33 136 124
84 127 357
177 191 796
289 247 1490
537 335 2487
639 399 2861
640 400 2887
633 397 2890
114 415 97
131 427 191
163 445 436
203 312 826
298 288 1538
515 358 2435
581 400 2707
592 408 2760
582 405 2752
296 924 282
304 931 324
335 979 529
327 1005 1005
360 777 1617
477 411 2321
547 419 2610
553 425 2651
552 429 2667
598 1709 533
608 1734 569
616 1749 604
660 1793 1108
687 1745 1751
721 1600 2298
714 1426 2564
706 1357 2627
702 1339 2646
965 2506 831
962 2501 856
962 2501 886
982 2518 1172
1043 2556 1942
1072 2505 2536
1093 2437 2870
1092 2395 2975
1091 2378 3022
1077 2765 931
1071 2755 950
1069 2752 976
1079 2764 1089
1177 2882 1995
1230 2912 2613
1261 2890 2972
1281 2886 3119
1298 2895 3213
1094 2812 946
1090 2804 967
1087 2799 992
1095 2810 1089
1195 2931 1996
1258 2986 2629
1315 3033 3008
1351 3067 3171
1371 3079 3272
1097 2836 949
1090 2825 970
1087 2819 997
1097 2832 1096
1204 2964 2019
1283 3045 2660
1347 3108 3044
1384 3146 3194
1396 3148 3288
145 25 24
176 31 127
212 78 370
214 149 793
329 208 1496
598 319 2567
712 390 2982
724 398 3035
731 403 3073
165 164 32
171 164 151
191 147 381
218 199 806
331 246 1540
571 340 2502
707 424 2976
725 436 3051
729 438 3082
159 423 106
175 438 204
203 455 446
245 320 836
338 284 1585
553 365 2462
666 434 2873
681 443 2936
667 440 2923
337 936 293
343 943 335
367 996 532
356 1018 1019
395 786 1663
533 425 2412
630 449 2776
636 456 2816
624 455 2804
642 1751 542
649 1769 578
657 1783 613
695 1820 1121
719 1763 1772
756 1621 2332
748 1441 2598
741 1374 2663
739 1359 2686
993 2514 835
1001 2534 866
1000 2531 895
1013 2538 1177
1076 2579 1961
1097 2514 2548
1119 2446 2883
1126 2417 3006
1136 2417 3071
1100 2763 931
1106 2781 959
1100 2771 980
1111 2786 1095
1207 2900 2007
1268 2943 2644
1309 2934 3011
1329 2933 3160
1344 2937 3251
1117 2812 946
1123 2828 974
1120 2822 997
1126 2831 1094
1227 2953 2011
1304 3028 2668
1364 3079 3046
1402 3111 3210
1418 3121 3303
1119 2833 947
1125 2852 979
1122 2845 1004
1132 2860 1105
1248 3006 2050
1340 3107 2706
1402 3163 3082
1438 3197 3239
1449 3200 3325
428 75 66
448 97 200
485 137 432
517 201 885
465 200 1655
636 323 2595
719 378 2929
733 386 2983
741 393 3027
449 227 102
469 233 232
487 203 447
506 242 907
444 240 1662
609 345 2525
732 422 2970
748 432 3038
746 432 3056
484 495 177
496 506 274
520 521 513
457 339 922
401 282 1652
584 369 2469
689 432 2858
702 443 2917
694 441 2920
394 953 308
399 961 347
405 1014 537
386 1026 1030
430 792 1695
564 426 2416
663 456 2796
677 466 2857
670 469 2861
686 1788 555
694 1806 590
698 1818 622
731 1849 1134
755 1788 1801
793 1643 2371
783 1459 2633
773 1390 2692
778 1382 2731
1024 2526 841
1033 2549 872
1039 2565 906
1048 2565 1186
1112 2606 1986
1131 2537 2572
1157 2474 2915
1173 2458 3050
1187 2464 3123
1126 2769 934
1132 2786 962
1138 2802 991
1144 2811 1102
1244 2926 2030
1310 2973 2672
1352 2967 3037
1375 2971 3190
1388 2972 3277
1143 2817 950
1150 2835 978
1156 2851 1007
1162 2859 1102
1268 2984 2040
1350 3065 2700
1414 3122 3081
1449 3152 3244
1464 3159 3334
1145 2839 951
1158 2869 986
1162 2881 1017
1172 2896 1119
1300 3054 2085
1394 3155 2746
1453 3210 3120
1486 3238 3277
1497 3241 3360
932 203 205
967 234 346
1085 247 564
1242 214 1090
1212 263 1798
1172 349 2437
1117 391 2775
1083 393 2834
1043 379 2827
961 312 231
989 323 366
1108 288 568
1230 251 1091
1230 301 1867
1158 377 2501
1088 418 2847
1044 416 2894
985 395 2865
1101 608 284
1151 602 371
1200 568 582
1201 325 1081
1183 334 1848
1099 407 2492
1007 439 2792
962 441 2824
910 435 2790
1205 1188 382
1213 1193 410
1214 1195 590
1151 1141 1128
1021 898 1799
906 454 2423
865 468 2751
844 475 2796
820 481 2788
1015 1920 620
1014 1937 651
1003 1944 678
954 1955 1204
903 1872 1877
860 1678 2423
829 1479 2690
808 1403 2733
819 1396 2788
1058 2541 850
1063 2558 878
1075 2587 914
1088 2594 1204
1148 2624 2005
1166 2556 2592
1197 2501 2942
1218 2494 3085
1232 2499 3157
1159 2784 943
1164 2799 970
1171 2821 999
1181 2834 1115
1283 2951 2050
1355 3008 2699
1397 3003 3066
1422 3009 3223
1436 3012 3309
1177 2833 959
1181 2849 985
1190 2873 1017
1198 2883 1114
1310 3014 2063
1400 3108 2733
1465 3168 3118
1498 3195 3276
1511 3199 3367
1181 2860 963
1186 2876 990
1198 2905 1025
1213 2927 1135
1348 3095 2115
1445 3201 2781
1503 3255 3155
1535 3282 3310
1546 3284 3396
1952 443 480
2075 487 611
2116 505 782
2123 509 1208
2141 515 1893
2132 563 2530
2144 615 2922
2085 596 2932
1980 553 2856
2001 489 488
2102 524 612
2139 536 783
2148 540 1219
2122 526 1878
2079 557 2469
1966 548 2698
1880 517 2669
1805 488 2633
2057 732 502
2190 747 629
2203 717 804
2153 564 1221
2105 539 1867
2038 559 2426
1921 548 2648
1858 528 2656
1835 527 2702
2230 1387 667
2267 1395 700
2338 1420 886
2324 1408 1405
2199 1083 1968
2020 601 2468
1911 587 2731
1877 589 2797
1871 607 2872
2443 2318 967
2477 2339 1005
2483 2339 1032
2509 2390 1600
2435 2350 2274
2310 2190 2824
2165 1988 3144
2087 1895 3226
2040 1869 3284
2353 3048 1206
2368 3054 1234
2375 3058 1260
2360 3088 1564
2211 3115 2383
2021 3032 2951
1896 2954 3298
1867 2930 3439
1861 2925 3505
1880 3133 1166
1883 3146 1194
1876 3145 1214
1839 3154 1321
1785 3295 2290
1745 3311 2916
1691 3237 3243
1686 3221 3390
1684 3211 3467
1750 3132 1145
1758 3144 1172
1752 3147 1195
1723 3153 1273
1675 3299 2253
1637 3304 2871
1656 3330 3240
1683 3350 3397
1693 3348 3485
1729 3158 1146
1734 3171 1174
1731 3179 1199
1701 3194 1289
1683 3365 2292
1646 3367 2902
1688 3411 3273
1712 3430 3423
1723 3433 3510
2900 775 835
2917 783 907
2939 792 1044
2956 801 1422
3010 823 2074
3102 858 2774
2868 770 2909
2607 661 2715
2470 606 2627
2940 812 840
2942 813 908
2938 812 1036
2921 804 1406
2895 792 1994
2794 744 2486
2671 702 2700
2615 684 2718
2584 676 2746
2896 866 802
2991 887 905
2954 852 1027
2886 809 1389
2845 789 1960
2735 738 2429
2668 720 2695
2671 729 2776
2681 740 2853
3111 1570 939
3171 1583 990
3209 1610 1168
3205 1598 1645
3050 1234 2127
2736 761 2440
2729 771 2778
2745 787 2884
2761 801 2970
3468 2545 1264
3495 2565 1300
3511 2570 1332
3586 2678 1910
3556 2673 2596
3444 2471 3102
3343 2244 3404
3300 2151 3487
3297 2145 3562
3593 3334 1506
3621 3343 1538
3643 3350 1570
3683 3427 1888
3645 3479 2716
3569 3423 3295
3536 3390 3663
3534 3393 3818
3530 3401 3843
3546 3605 1573
3576 3622 1608
3595 3639 1641
3611 3695 1768
3578 3832 2732
3518 3852 3349
3453 3813 3690
3436 3813 3849
3471 3795 3886
3512 3658 1582
3538 3676 1617
3556 3696 1651
3562 3736 1734
3540 3897 2739
3480 3947 3366
3420 3960 3710
3392 3957 3853
3433 3921 3897
3522 3719 1601
3544 3740 1636
3560 3763 1670
3567 3806 1754
3536 3964 2772
3477 4007 3391
3425 4008 3719
3413 4008 3853
3421 3984 3903
3086 839 917
3104 847 986
3116 853 1112
3132 860 1478
3217 894 2130
3230 894 2733
2688 655 2555
2681 654 2609
2687 661 2672
3106 868 915
3102 866 975
3091 861 1095
3045 841 1440
2975 807 1971
2899 769 2443
2798 720 2657
2799 724 2723
2819 738 2804
3104 896 892
3088 887 950
3056 865 1070
3005 842 1425
2946 814 1954
2872 776 2417
2902 785 2755
2915 795 2839
2925 805 2914
3300 1585 995
3363 1601 1062
3380 1625 1235
3378 1603 1694
3203 1208 2139
2961 835 2482
2997 845 2837
3019 859 2942
3039 874 3032
3746 2583 1337
3771 2604 1373
3791 2614 1413
3871 2738 2004
3875 2748 2690
3797 2547 3194
3704 2293 3473
3671 2191 3550
3675 2187 3624
3980 3383 1626
3984 3396 1662
3986 3405 1695
4011 3494 2083
4045 3567 2899
4050 3526 3407
4036 3462 3733
4023 3449 3865
3991 3478 3888
4016 3670 1720
4021 3690 1756
4025 3707 1792
4037 3764 1943
4042 3895 2968
4032 3897 3425
3994 3850 3723
3987 3848 3876
3984 3853 3931
4020 3738 1735
4024 3758 1770
4028 3776 1804
4034 3810 1884
4033 3952 2969
4013 3984 3419
3987 4000 3744
3964 3984 3873
3977 3983 3945
4028 3803 1753
4032 3822 1785
4035 3840 1813
4035 3871 1916
4030 4005 2974
4010 4041 3444
3991 4053 3776
3972 4052 3888
3988 4054 3958
3173 869 951
3182 873 1016
3186 875 1137
3179 872 1489
3284 916 2140
3152 853 2614
2750 674 2557
2759 677 2635
2774 686 2703
3160 883 936
3150 878 993
3129 869 1108
3060 839 1440
2963 794 1939
2948 783 2440
2862 741 2663
2873 745 2744
2896 760 2825
3143 900 907
3116 887 962
3078 866 1077
3016 839 1424
2948 807 1934
2934 796 2428
2969 807 2764
2981 811 2849
3005 827 2935
3357 1588 1011
3422 1609 1084
3439 1634 1258
3447 1613 1719
3253 1205 2147
3041 861 2506
3069 869 2856
3093 879 2959
3123 898 3056
3807 2585 1350
3835 2609 1388
3858 2625 1433
3919 2756 2046
3929 2771 2721
3869 2564 3215
3773 2306 3491
3736 2196 3562
3738 2186 3632
4000 3380 1649
4003 3396 1687
4007 3409 1723
4032 3497 2128
4067 3575 2943
4073 3542 3434
4074 3488 3734
4074 3460 3859
4056 3477 3891
4045 3668 1758
4050 3685 1796
4054 3703 1835
4068 3761 2013
4076 3891 3080
4076 3909 3573
4076 3894 3819
4076 3882 3920
4076 3887 3961
4056 3734 1787
4060 3750 1824
4064 3768 1864
4073 3805 1967
4076 3947 3134
4076 3994 3638
4071 4019 3888
4070 4009 3957
4069 4010 4007
4067 3801 1815
4071 3815 1850
4075 3831 1887
4076 3864 2010
4076 3995 3191
4074 4043 3688
4069 4066 3929
4067 4067 3989
4067 4072 4043
3208 876 960
3211 877 1023
3201 873 1139
3153 853 1474
3217 878 2064
2770 679 2251
2823 698 2577
2839 704 2655
2854 710 2735
3172 880 934
3149 869 987
3093 845 1092
2971 791 1405
2938 775 1903
2899 753 2363
2944 769 2693
2955 772 2770
2974 781 2852
3149 894 904
3102 871 951
3051 846 1068
2985 816 1415
2956 802 1922
3016 823 2460
3052 835 2795
3065 840 2876
3082 847 2959
3403 1600 1023
3477 1628 1102
3509 1656 1285
3517 1636 1752
3320 1224 2169
3113 885 2528
3152 898 2885
3183 910 2989
3204 920 3079
3870 2599 1368
3890 2629 1408
3905 2645 1455
3948 2789 2099
3968 2791 2746
3929 2592 3238
3848 2335 3518
3808 2222 3583
3811 2215 3652
4022 3391 1679
4024 3399 1713
4027 3414 1751
4055 3508 2178
4089 3589 2989
4095 3560 3458
4095 3532 3750
4093 3476 3833
4095 3490 3894
4065 3669 1790
4069 3683 1826
4073 3699 1866
4089 3760 2065
4095 3895 3146
4095 3914 3608
4095 3912 3847
4095 3898 3922
4095 3894 3972
4076 3734 1819
4079 3749 1858
4083 3765 1899
4092 3802 2014
4095 3947 3192
4095 3997 3682
4095 4023 3914
4095 4019 3986
4095 4028 4039
4086 3795 1849
4089 3809 1886
4093 3825 1924
4095 3859 2057
4095 3994 3259
4095 4042 3737
4095 4070 3962
4095 4078 4032
4095 4090 4087
