滤镜资源/Professional Luts Collection/Triune-Digital-Cinematic-LUTs/3D LUTs (3DL)/ALEXA/The Lord of the Rings - Alexa.3dl
# Created by Benjamin (IWLTBAP) : http://luts.iwltbap.com
# Copyright: (C) Copyright 2016 Triune Films and IWLTBAP
# Blockbuster LUTs Pack
0 64 128 192 256 320 384 448 512 576 640 704 768 832 896 960 1023
21 19 18
24 22 52
28 25 100
31 29 199
65 48 340
120 95 540
170 141 784
211 175 1054
279 209 1420
406 238 2003
559 313 2535
663 378 2886
692 396 3003
700 401 3034
706 406 3064
714 411 3092
711 410 3096
24 57 20
26 55 52
29 51 106
36 45 204
76 71 344
126 119 545
176 163 790
218 201 1061
282 228 1453
404 254 2009
547 324 2510
646 386 2846
665 398 2933
668 400 2953
676 405 2984
684 409 3012
683 409 3020
29 130 26
31 133 54
33 136 124
58 138 227
84 127 357
130 143 550
177 191 796
221 229 1067
289 247 1490
404 271 2018
537 335 2487
614 383 2761
639 399 2861
641 400 2880
640 400 2887
640 401 2900
633 397 2890
56 255 41
63 257 80
74 261 155
88 266 255
117 270 393
143 208 566
183 219 804
228 257 1074
296 265 1523
404 289 2029
529 347 2469
585 384 2684
609 399 2782
618 405 2819
621 409 2837
623 410 2853
613 406 2833
114 415 97
113 418 120
131 427 191
149 443 301
163 445 436
193 430 618
203 312 826
228 281 1089
298 288 1538
406 307 2035
515 358 2435
561 387 2618
581 400 2707
588 405 2740
592 408 2760
596 410 2779
582 405 2752
192 636 176
196 638 198
200 643 226
216 659 331
239 681 491
265 695 689
259 650 945
253 486 1224
305 327 1572
403 328 2033
499 370 2395
540 393 2560
560 405 2647
564 409 2675
564 410 2683
569 413 2705
561 411 2695
296 924 282
300 928 303
304 931 324
309 938 357
335 979 529
336 1029 738
327 1005 1005
338 924 1302
360 777 1617
398 555 1951
477 411 2321
527 406 2520
547 419 2610
552 422 2638
553 425 2651
557 427 2670
552 429 2667
420 1256 400
424 1266 420
428 1274 441
431 1281 462
440 1312 515
469 1401 760
476 1383 1040
488 1348 1349
507 1278 1652
517 1162 1920
519 980 2161
527 789 2357
536 666 2491
535 568 2546
537 561 2562
538 564 2577
538 563 2581
598 1709 533
603 1722 550
608 1734 569
614 1745 587
616 1749 604
636 1777 773
660 1793 1108
674 1781 1433
687 1745 1751
710 1688 2047
721 1600 2298
722 1506 2470
714 1426 2564
710 1380 2610
706 1357 2627
705 1350 2638
702 1339 2646
802 2154 695
805 2157 711
807 2160 728
809 2163 743
808 2161 757
810 2160 810
835 2183 1162
862 2198 1526
878 2185 1859
894 2150 2166
914 2101 2437
919 2038 2619
917 1985 2728
914 1951 2787
910 1932 2807
905 1919 2819
902 1905 2831
965 2506 831
963 2503 843
962 2501 856
962 2502 871
962 2501 886
961 2495 900
982 2518 1172
1018 2551 1588
1043 2556 1942
1056 2538 2258
1072 2505 2536
1089 2472 2744
1093 2437 2870
1091 2406 2935
1092 2395 2975
1093 2389 3002
1091 2378 3022
1059 2720 915
1055 2714 924
1053 2709 934
1051 2706 945
1053 2710 962
1055 2713 981
1068 2725 1158
1108 2768 1608
1148 2803 1992
1172 2807 2318
1183 2784 2600
1200 2761 2815
1209 2737 2950
1209 2712 3023
1209 2700 3067
1219 2705 3115
1226 2708 3154
1077 2765 931
1074 2759 940
1071 2755 950
1069 2751 961
1069 2752 976
1073 2756 995
1079 2764 1089
1134 2835 1593
1177 2882 1995
1213 2916 2331
1230 2912 2613
1241 2894 2818
1261 2890 2972
1273 2886 3059
1281 2886 3119
1288 2889 3164
1298 2895 3213
1086 2789 939
1084 2785 949
1082 2782 959
1079 2777 970
1079 2776 984
1080 2779 1002
1086 2786 1082
1140 2856 1578
1185 2906 1989
1222 2942 2331
1247 2957 2619
1264 2961 2828
1298 2989 2992
1314 2996 3087
1324 2998 3147
1333 3004 3196
1340 3004 3247
1094 2812 946
1091 2806 955
1090 2804 967
1088 2802 978
1087 2799 992
1088 2801 1010
1095 2810 1089
1146 2875 1575
1195 2931 1996
1230 2964 2339
1258 2986 2629
1279 2998 2842
1315 3033 3008
1340 3058 3112
1351 3067 3171
1360 3072 3218
1371 3079 3272
1098 2829 950
1095 2823 959
1094 2819 971
1090 2815 982
1090 2814 997
1091 2816 1015
1098 2824 1094
1154 2898 1591
1201 2950 2009
1236 2983 2351
1271 3017 2646
1298 3040 2865
1331 3069 3025
1358 3100 3131
1368 3108 3183
1375 3112 3230
1385 3116 3283
1097 2836 949
1093 2829 957
1090 2825 970
1088 2820 983
1087 2819 997
1090 2823 1017
1097 2832 1096
1159 2915 1600
1204 2964 2019
1241 3000 2360
1283 3045 2660
1317 3082 2887
1347 3108 3044
1374 3138 3146
1384 3146 3194
1391 3149 3237
1396 3148 3288
63 21 20
66 23 55
78 26 109
94 30 209
117 57 349
144 100 544
188 145 788
231 181 1058
303 208 1454
430 241 2030
577 317 2550
678 378 2888
711 399 3017
724 408 3062
723 408 3070
725 410 3086
728 412 3103
59 59 23
68 56 55
75 52 117
85 50 213
110 79 352
145 123 550
192 169 794
233 200 1081
306 228 1478
426 257 2026
563 326 2515
666 390 2859
716 420 3033
727 427 3079
735 432 3109
744 435 3139
744 438 3153
65 143 28
70 145 60
72 143 132
84 146 233
106 131 362
147 149 554
197 195 801
240 227 1089
311 247 1512
425 273 2034
553 337 2492
648 395 2815
694 424 2979
701 429 3012
703 430 3026
703 428 3035
695 425 3023
81 259 46
84 262 87
95 267 159
113 270 262
142 273 400
163 212 571
204 223 808
244 256 1096
316 263 1545
425 291 2044
544 350 2473
630 401 2771
664 423 2902
668 426 2924
672 429 2942
677 433 2966
664 426 2940
133 419 101
137 419 124
150 433 196
168 450 306
183 450 441
212 434 624
222 317 831
247 278 1109
318 286 1559
424 309 2044
537 364 2457
610 408 2721
631 421 2814
636 425 2840
640 426 2856
642 429 2871
624 422 2839
210 640 181
215 643 202
218 648 232
236 663 336
259 687 496
279 699 694
274 651 953
270 486 1236
322 326 1588
422 328 2040
528 379 2437
591 414 2666
607 425 2747
611 427 2770
609 428 2777
611 430 2792
605 428 2781
316 930 287
319 934 308
322 938 329
328 944 363
350 988 530
350 1035 739
341 1012 1013
355 931 1319
378 782 1642
419 560 1977
511 420 2384
571 421 2611
591 435 2700
596 438 2727
593 439 2730
594 440 2741
588 441 2735
441 1270 405
444 1283 422
447 1293 444
453 1301 465
459 1329 516
487 1413 762
492 1393 1046
502 1354 1356
522 1285 1666
535 1169 1940
539 987 2188
549 797 2393
561 673 2533
565 578 2600
565 570 2612
567 571 2624
564 571 2625
620 1731 537
623 1738 554
629 1750 572
634 1762 591
637 1765 608
655 1792 776
677 1805 1114
689 1790 1440
702 1752 1760
725 1696 2059
738 1610 2313
739 1513 2487
731 1432 2581
726 1387 2626
724 1365 2645
723 1359 2657
719 1348 2664
822 2172 700
824 2173 716
826 2176 732
828 2178 748
828 2177 762
829 2176 815
850 2192 1165
875 2204 1528
891 2189 1865
909 2159 2177
927 2106 2445
932 2043 2628
933 1994 2741
929 1959 2799
928 1944 2823
927 1935 2843
922 1920 2854
980 2512 833
983 2520 848
981 2517 861
980 2515 875
981 2515 891
978 2509 904
996 2525 1173
1033 2559 1592
1058 2566 1951
1071 2545 2266
1084 2509 2542
1100 2475 2748
1107 2443 2878
1107 2417 2950
1112 2410 2995
1116 2409 3026
1113 2395 3045
1070 2719 914
1072 2726 927
1069 2721 937
1066 2715 947
1067 2716 963
1069 2719 980
1083 2734 1159
1124 2778 1612
1162 2810 1997
1186 2814 2325
1197 2790 2608
1214 2766 2823
1227 2749 2964
1231 2733 3045
1233 2723 3092
1243 2728 3139
1250 2729 3177
1088 2762 930
1090 2771 944
1088 2766 953
1084 2760 963
1083 2758 976
1086 2762 995
1094 2774 1092
1147 2842 1596
1192 2890 2000
1230 2927 2342
1250 2929 2630
1266 2918 2841
1287 2916 2995
1298 2911 3083
1306 2912 3144
1314 2915 3188
1323 2918 3235
1096 2787 938
1099 2795 951
1097 2791 962
1094 2786 972
1093 2783 985
1093 2784 1002
1101 2795 1084
1154 2863 1581
1200 2914 1995
1239 2954 2343
1268 2977 2639
1292 2992 2856
1323 3015 3017
1339 3020 3111
1349 3024 3171
1358 3028 3217
1365 3028 3268
1104 2808 944
1106 2816 958
1105 2814 969
1103 2811 980
1101 2808 993
1102 2808 1009
1110 2819 1090
1161 2885 1579
1211 2942 2004
1252 2985 2356
1284 3012 2651
1308 3030 2870
1342 3061 3031
1366 3082 3134
1378 3092 3194
1386 3096 3237
1396 3103 3289
1107 2824 948
1110 2831 962
1108 2828 973
1105 2824 984
1104 2822 997
1105 2823 1014
1113 2833 1096
1170 2908 1595
1223 2970 2024
1264 3014 2372
1300 3049 2670
1329 3074 2893
1359 3099 3047
1386 3126 3152
1396 3134 3206
1403 3137 3250
1411 3141 3300
1105 2829 945
1107 2836 959
1105 2832 972
1102 2829 984
1103 2828 998
1105 2832 1017
1113 2843 1099
1178 2930 1609
1226 2986 2035
1269 3031 2382
1312 3078 2684
1346 3113 2912
1375 3137 3065
1401 3163 3167
1411 3171 3217
1417 3174 3257
1422 3173 3306
145 25 24
160 28 58
176 31 127
189 45 232
212 78 370
215 117 562
214 149 793
251 188 1065
329 208 1496
454 243 2058
598 319 2567
689 374 2882
712 390 2982
724 400 3028
724 398 3035
729 402 3058
731 403 3073
158 66 27
168 69 64
177 69 140
185 73 237
202 101 372
207 137 563
214 174 799
255 207 1088
330 227 1518
450 260 2053
584 330 2533
682 390 2864
729 419 3030
741 428 3080
747 431 3106
755 435 3136
755 435 3146
165 164 32
169 165 80
171 164 151
185 165 255
191 147 381
192 158 564
218 199 806
260 230 1109
331 246 1540
446 277 2050
571 340 2502
662 395 2813
707 424 2976
720 432 3025
725 436 3051
732 440 3079
729 438 3082
166 277 64
167 279 105
166 288 178
174 289 278
189 284 412
189 216 578
225 227 813
263 258 1115
336 263 1572
447 294 2060
560 352 2480
644 401 2770
688 429 2925
698 435 2970
704 440 2994
710 444 3022
702 441 3013
159 423 106
162 423 129
175 438 204
191 455 313
203 455 446
232 439 631
245 320 836
267 280 1127
338 284 1585
444 311 2059
553 365 2462
628 410 2730
666 434 2873
676 440 2914
681 443 2936
683 447 2955
667 440 2923
233 642 185
234 647 206
239 652 236
256 669 341
278 693 503
294 705 700
289 652 962
288 486 1250
341 324 1607
441 330 2051
545 380 2442
617 422 2704
647 441 2826
655 446 2860
656 447 2872
656 449 2882
642 443 2853
337 936 293
339 940 314
343 943 335
347 949 369
367 996 532
364 1042 740
356 1018 1019
370 938 1336
395 786 1663
440 564 2002
533 425 2412
605 433 2672
630 449 2776
637 455 2811
636 456 2816
634 457 2821
624 455 2804
462 1284 412
466 1298 429
469 1312 446
474 1320 467
478 1346 515
504 1425 764
507 1403 1052
517 1363 1365
538 1292 1681
553 1178 1961
559 994 2216
573 805 2433
587 680 2574
596 587 2653
594 581 2666
593 581 2669
588 579 2664
642 1751 542
646 1760 560
649 1769 578
655 1780 596
657 1783 613
673 1807 780
695 1820 1121
707 1804 1452
719 1763 1772
743 1707 2074
756 1621 2332
756 1522 2503
748 1441 2598
741 1392 2639
741 1374 2663
742 1369 2678
739 1359 2686
841 2186 703
844 2192 721
845 2193 737
846 2194 753
846 2192 767
847 2191 820
867 2206 1170
892 2216 1536
908 2201 1876
927 2171 2191
942 2113 2455
946 2048 2639
948 2002 2754
945 1968 2811
944 1954 2838
945 1947 2861
942 1934 2877
993 2514 835
999 2529 852
1001 2534 866
999 2532 879
1000 2531 895
997 2525 909
1013 2538 1177
1050 2572 1600
1076 2579 1961
1085 2552 2274
1097 2514 2548
1112 2478 2752
1119 2446 2883
1122 2424 2961
1126 2417 3006
1135 2422 3044
1136 2417 3071
1083 2720 915
1085 2727 928
1086 2734 941
1084 2729 951
1083 2727 966
1085 2730 984
1100 2748 1164
1142 2793 1621
1177 2820 2005
1199 2819 2332
1208 2792 2614
1226 2771 2830
1240 2754 2972
1249 2744 3059
1257 2744 3116
1267 2750 3164
1273 2751 3201
1100 2763 931
1103 2772 945
1106 2781 959
1103 2776 968
1100 2771 980
1102 2773 998
1111 2786 1095
1166 2856 1605
1207 2900 2007
1246 2937 2353
1268 2943 2644
1286 2935 2858
1309 2934 3011
1320 2930 3101
1329 2933 3160
1337 2935 3205
1344 2937 3251
1109 2789 939
1112 2797 953
1116 2806 967
1112 2801 977
1110 2797 989
1110 2798 1006
1118 2808 1088
1173 2878 1589
1215 2923 2000
1255 2963 2353
1289 2993 2655
1318 3017 2879
1346 3034 3033
1361 3038 3126
1373 3043 3188
1381 3048 3234
1389 3051 3283
1117 2812 946
1120 2820 960
1123 2828 974
1122 2826 985
1120 2822 997
1119 2822 1014
1126 2831 1094
1181 2902 1589
1227 2953 2011
1269 2995 2367
1304 3028 2668
1335 3055 2892
1364 3079 3046
1389 3101 3149
1402 3111 3210
1409 3115 3253
1418 3121 3303
1121 2827 949
1124 2837 964
1127 2845 979
1125 2841 990
1124 2839 1003
1124 2839 1020
1132 2850 1102
1192 2929 1607
1240 2984 2033
1285 3032 2388
1324 3070 2687
1355 3098 2912
1384 3123 3065
1411 3148 3171
1421 3156 3225
1428 3159 3268
1435 3162 3316
1119 2833 947
1121 2840 961
1125 2852 979
1123 2847 991
1122 2845 1004
1123 2848 1022
1132 2860 1105
1199 2951 1621
1248 3006 2050
1296 3060 2403
1340 3107 2706
1372 3137 2930
1402 3163 3082
1428 3189 3187
1438 3197 3239
1444 3200 3279
1449 3200 3325
265 30 30
276 35 78
292 49 157
305 70 258
325 104 395
342 143 590
326 176 822
292 200 1076
350 206 1535
476 245 2084
618 322 2584
698 371 2871
716 384 2956
728 391 2997
726 391 3003
734 396 3033
734 398 3047
278 95 36
286 94 93
295 100 166
299 95 259
321 126 398
335 166 592
321 200 825
288 216 1103
351 224 1555
473 263 2077
605 333 2551
696 390 2868
739 417 3025
752 424 3072
757 427 3097
765 432 3129
