滤镜资源/Professional Luts Collection/Triune-Digital-Cinematic-LUTs/3D LUTs (3DL)/ALEXA/Tron - Alexa.3dl
# Created by Benjamin (IWLTBAP) : http://luts.iwltbap.com
# Copyright: (C) Copyright 2016 Triune Films and IWLTBAP
# Blockbuster LUTs Pack
0 256 512 768 1023
0 0 0
12 27 779
7 54 2164
14 70 3275
15 67 3418
5 527 58
0 585 778
4 199 2372
23 156 3427
26 158 3558
10 2058 276
8 2076 430
0 2284 2526
0 1750 3526
0 1632 3662
25 3200 436
24 3212 554
1 3464 2262
0 3475 3555
0 3444 3724
28 3341 481
27 3350 587
3 3571 2203
0 3697 3567
0 3696 3738
682 116 91
709 35 869
158 75 2420
97 70 3365
101 71 3498
508 588 74
372 578 762
96 209 2448
115 179 3487
119 183 3614
83 2086 267
81 2101 423
72 2311 2536
72 1759 3531
72 1642 3667
99 3214 434
98 3226 548
74 3469 2252
72 3486 3560
72 3457 3729
101 3350 476
100 3360 582
76 3574 2189
72 3704 3570
72 3702 3741
2601 248 394
2568 145 766
2544 70 2575
2025 106 3541
1892 102 3649
2796 714 207
2814 661 820
2528 179 2582
2016 196 3546
1890 195 3654
2453 2419 232
2440 2416 361
1546 2395 2580
965 1641 3599
919 1504 3719
822 3328 316
792 3335 463
459 3485 2173
327 3527 3586
291 3492 3748
537 3427 369
529 3435 502
364 3588 2141
241 3722 3582
236 3718 3752
3787 394 668
3721 338 976
3877 163 2562
3748 154 3548
3719 146 3653
3849 672 669
3782 541 982
3897 344 2557
3767 271 3555
3739 264 3658
3988 2573 207
4007 2623 412
3956 2637 2598
3810 1737 3634
3786 1549 3741
3969 3625 442
3971 3633 582
3932 3777 2512
3845 3790 3746
3829 3756 3903
3927 3738 484
3928 3745 619
3889 3872 2417
3794 3986 3754
3695 3980 3911
3937 455 713
3887 393 1018
3986 246 2546
3931 177 3563
3917 163 3663
3967 703 723
3927 604 1032
3995 426 2534
3937 286 3571
3924 268 3671
4080 2626 265
4081 2642 473
4036 2711 2689
3965 1765 3642
3952 1574 3746
4088 3649 480
4089 3658 624
4085 3802 2552
4061 3831 3809
4056 3791 3961
4087 3765 512
4088 3773 652
4086 3907 2478
4083 4063 3876
4089 4076 4063
