滤镜资源/Professional Luts Collection/Triune-Digital-Cinematic-LUTs/3D LUTs (3DL)/ALEXA/Tron - Alexa.3dl
# Created by Benjamin (IWLTBAP) : http://luts.iwltbap.com
# Copyright: (C) Copyright 2016 Triune Films and IWLTBAP
# Blockbuster LUTs Pack
0 128 256 384 512 640 768 896 1023
0 0 0
17 18 355
12 27 779
2 43 1445
7 54 2164
11 66 2883
14 70 3275
15 67 3355
15 67 3418
5 225 15
1 227 327
4 157 791
0 129 1523
6 119 2279
11 127 2986
17 111 3359
17 109 3435
18 110 3496
5 527 58
2 551 261
0 585 778
0 297 1559
4 199 2372
12 180 3068
23 156 3427
24 158 3501
26 158 3558
1 1157 168
0 1169 246
0 1244 630
0 1332 1591
0 1031 2503
15 277 3149
30 219 3476
32 225 3555
34 225 3612
10 2058 276
9 2070 351
8 2076 430
0 2265 1508
0 2284 2526
0 2016 3233
0 1750 3526
0 1658 3611
0 1632 3662
21 2914 378
20 2921 447
20 2926 523
12 2987 1122
0 3162 2429
0 3119 3248
0 2928 3537
0 2892 3644
0 2886 3695
25 3200 436
25 3206 494
24 3212 554
22 3236 772
1 3464 2262
0 3584 3238
0 3475 3555
0 3445 3659
0 3444 3724
26 3271 455
26 3276 513
26 3282 568
24 3299 736
2 3516 2219
0 3665 3221
0 3629 3564
0 3623 3669
0 3626 3735
28 3341 481
28 3346 533
27 3350 587
25 3366 736
3 3571 2203
0 3724 3213
0 3697 3567
0 3693 3673
0 3696 3738
285 41 14
291 40 378
177 28 820
51 59 1521
45 58 2245
49 74 2951
55 68 3323
56 68 3399
57 69 3460
209 242 26
158 235 327
118 155 795
38 129 1540
43 126 2346
51 125 3039
61 112 3394
64 112 3468
66 113 3527
56 532 58
52 555 259
38 581 772
36 297 1562
42 205 2417
56 175 3111
70 164 3455
73 165 3527
74 166 3584
37 1166 168
36 1177 245
36 1249 627
36 1340 1594
36 1036 2507
57 276 3170
75 234 3502
75 237 3577
76 239 3633
46 2072 272
46 2083 349
45 2089 427
36 2276 1505
36 2298 2532
36 2027 3237
36 1755 3529
36 1663 3613
36 1638 3664
57 2924 378
57 2931 446
56 2935 521
49 2993 1115
36 3169 2426
36 3131 3251
36 2936 3538
36 2900 3645
36 2894 3696
62 3208 435
62 3214 493
61 3219 551
59 3242 766
37 3466 2257
36 3588 3238
36 3480 3558
36 3452 3662
36 3451 3726
63 3277 454
63 3283 511
62 3288 567
61 3305 731
39 3517 2213
36 3668 3221
36 3634 3565
36 3627 3671
36 3630 3737
64 3345 478
64 3350 528
63 3354 583
62 3370 733
40 3572 2195
36 3727 3212
36 3700 3569
36 3696 3674
36 3699 3740
682 116 91
718 84 333
709 35 869
364 62 1567
158 75 2420
89 78 3013
97 70 3365
98 71 3439
101 71 3498
646 288 48
700 270 301
638 146 840
319 122 1565
139 141 2436
94 125 3088
107 114 3430
111 115 3500
115 115 3558
508 588 74
495 591 279
372 578 762
235 278 1569
96 209 2448
101 172 3148
115 179 3487
118 181 3558
119 183 3614
85 1171 165
82 1182 243
77 1254 628
72 1347 1597
72 1039 2510
98 274 3186
112 240 3515
113 243 3589
114 246 3644
83 2086 267
82 2097 345
81 2101 423
72 2284 1501
72 2311 2536
72 2038 3241
72 1759 3531
72 1668 3615
72 1642 3667
94 2933 376
94 2939 443
93 2943 515
86 2999 1109
72 3175 2424
72 3142 3255
72 2943 3540
72 2908 3646
72 2902 3697
99 3214 434
99 3221 491
98 3226 548
96 3247 759
74 3469 2252
72 3593 3238
72 3486 3560
72 3459 3665
72 3457 3729
100 3284 453
100 3290 510
100 3295 566
98 3311 725
75 3519 2208
72 3671 3221
72 3638 3567
72 3631 3673
72 3634 3739
101 3350 476
101 3356 528
100 3360 582
99 3376 731
76 3574 2189
72 3729 3210
72 3704 3570
72 3699 3676
72 3702 3741
1525 174 203
1526 134 345
1643 76 784
1538 48 1657
1025 72 2504
894 80 3182
734 90 3506
687 90 3571
672 90 3625
1584 284 131
1588 265 361
1651 142 745
1517 114 1655
993 122 2508
866 119 3185
705 143 3512
660 143 3575
645 143 3629
1554 673 42
1695 674 237
1595 645 721
1459 234 1644
936 179 2506
803 174 3191
637 200 3518
595 201 3583
584 201 3636
1297 1351 159
1290 1352 237
1210 1354 644
843 1331 1584
527 993 2538
556 267 3196
425 254 3524
391 255 3594
383 257 3647
338 2130 196
333 2137 280
324 2137 367
272 2300 1468
210 2349 2548
137 2052 3248
116 1754 3535
108 1661 3617
108 1635 3669
131 2938 370
130 2945 437
130 2949 507
122 3004 1107
108 3180 2423
108 3149 3258
108 2948 3542
108 2912 3648
108 2905 3699
136 3221 429
135 3226 488
135 3232 544
133 3253 755
110 3471 2248
108 3596 3239
108 3490 3564
108 3463 3668
108 3462 3732
137 3291 453
137 3297 509
137 3302 566
135 3318 724
111 3521 2204
108 3674 3222
108 3642 3570
108 3635 3675
108 3637 3741
138 3356 476
138 3362 529
138 3368 582
136 3383 732
113 3575 2184
108 3731 3210
108 3707 3573
108 3702 3678
108 3705 3743
2601 248 394
2562 205 524
2568 145 766
2725 78 1614
2544 70 2575
2261 86 3242
2025 106 3541
1924 100 3598
1892 102 3649
2642 344 397
2634 301 540
2599 214 757
2759 141 1604
2542 123 2580
2260 133 3248
2030 149 3544
1930 145 3601
1900 147 3652
2796 714 207
2855 737 500
2814 661 820
2776 223 1581
2528 179 2582
2249 181 3251
2016 196 3546
1915 194 3603
1890 195 3654
2745 1461 73
2811 1475 139
2937 1518 596
2709 1456 1527
2402 928 2622
2154 253 3245
1890 250 3540
1818 254 3604
1788 255 3654
2453 2419 232
2448 2420 293
2440 2416 361
2194 2435 1504
1546 2395 2580
1060 2028 3339
965 1641 3599
921 1537 3669
919 1504 3719
1683 3174 266
1669 3176 337
1644 3175 413
1356 3177 1100
704 3233 2361
629 3247 3298
584 3058 3598
568 3009 3695
563 2997 3744
822 3328 316
811 3331 388
792 3335 463
701 3349 740
459 3485 2173
393 3626 3245
327 3527 3586
301 3496 3687
291 3492 3748
580 3369 348
573 3373 418
561 3377 486
527 3388 685
392 3531 2144
276 3690 3223
247 3661 3581
243 3651 3686
242 3650 3751
537 3427 369
535 3431 436
529 3435 502
493 3446 691
364 3588 2141
253 3743 3211
241 3722 3582
238 3715 3687
236 3718 3752
3606 385 598
3551 344 710
3526 309 919
3589 202 1528
3695 103 2578
3552 118 3265
3399 105 3543
3366 105 3601
3345 105 3652
3641 485 601
3611 450 725
3560 409 930
3608 279 1509
3716 167 2581
3563 178 3268
3407 164 3545
3374 163 3603
3353 163 3653
3685 735 568
3705 714 744
3623 574 933
3622 355 1483
3728 245 2578
3568 247 3270
3406 226 3546
3374 226 3605
3353 226 3655
3808 1602 154
3839 1619 266
3873 1670 759
3778 1600 1605
3741 939 2533
3529 310 3264
3355 285 3544
3322 285 3608
3300 282 3659
3738 2519 157
3756 2533 229
3767 2538 315
3803 2638 1476
3689 2555 2531
3422 2121 3365
3228 1683 3635
3186 1552 3699
3166 1510 3744
3549 3335 398
3552 3339 463
3551 3339 529
3520 3369 1253
3300 3405 2543
3030 3364 3369
2900 3187 3708
2819 3127 3805
2802 3112 3852
3338 3589 453
3339 3593 519
3339 3597 591
3325 3617 940
3112 3694 2374
2815 3741 3312
2574 3709 3696
2179 3685 3802
2108 3684 3860
3243 3638 464
3244 3642 530
3243 3645 599
3230 3657 822
3032 3732 2294
2704 3813 3283
2013 3832 3683
1579 3814 3791
1552 3813 3853
3199 3692 474
3200 3695 540
3198 3699 609
3184 3708 818
2994 3773 2233
2686 3860 3262
1804 3883 3679
1446 3872 3786
1413 3874 3848
3787 394 668
3740 358 769
3721 338 976
3766 215 1531
3877 163 2562
3843 162 3275
3748 154 3548
3733 152 3604
3719 146 3653
3821 511 679
3791 465 784
3751 437 982
3783 297 1514
3889 250 2563
3849 225 3279
3758 211 3552
3743 210 3607
3729 204 3655
3849 672 669
3838 635 796
3782 541 982
3798 391 1498
3897 344 2557
3856 291 3282
3767 271 3555
3752 270 3610
3739 264 3658
3968 1626 216
3977 1661 407
3976 1699 916
3918 1628 1691
3916 912 2505
3863 360 3277
3776 335 3554
3761 331 3613
3748 326 3661
3988 2573 207
4000 2605 296
4007 2623 412
4010 2708 1557
3956 2637 2598
3921 2121 3359
3810 1737 3634
3796 1599 3697
3786 1549 3741
3994 3363 375
3995 3366 445
3996 3367 515
4001 3392 1264
3991 3467 2572
3958 3425 3380
3868 3242 3713
3850 3187 3803
3848 3173 3848
3969 3625 442
3970 3629 511
3971 3633 582
3972 3660 974
3932 3777 2512
3854 3822 3385
3845 3790 3746
3823 3761 3848
3829 3756 3903
3941 3681 462
3942 3685 529
3943 3689 600
3940 3704 829
3904 3826 2461
3845 3907 3361
3831 3935 3757
3799 3918 3857
3791 3915 3913
3927 3738 484
3928 3741 551
3928 3745 619
3926 3758 835
3889 3872 2417
3856 3960 3345
3794 3986 3754
3716 3980 3853
3695 3980 3911
3862 422 695
3827 372 794
3810 358 1000
3844 223 1532
3932 204 2555
3918 173 3281
3860 173 3552
3847 171 3607
3834 165 3656
3892 538 707
3866 499 811
3834 460 1006
3855 320 1520
3942 293 2554
3922 235 3285
3865 230 3556
3855 228 3611
3843 222 3659
3910 681 701
3896 639 820
3856 566 1006
3865 424 1507
3949 385 2547
3926 300 3288
3870 286 3561
3863 285 3615
3851 279 3663
4013 1647 251
4018 1681 465
4015 1718 979
3964 1645 1727
3963 926 2503
3931 368 3283
3875 346 3561
3868 343 3619
3859 338 3667
4039 2594 233
4043 2621 320
4045 2634 445
4046 2724 1618
3997 2670 2642
3978 2134 3356
3896 1745 3637
3887 1604 3699
3881 1552 3742
4042 3372 391
4043 3375 462
4044 3377 536
4048 3407 1316
4042 3483 2608
4010 3442 3401
3960 3245 3719
3950 3192 3806
3950 3179 3851
4042 3639 459
4043 3644 529
4044 3648 602
4047 3676 1011
4039 3789 2530
4008 3846 3423
4012 3818 3781
4003 3784 3885
4005 3781 3941
4043 3698 476
4043 3702 545
4044 3706 616
4046 3722 852
4041 3844 2490
4019 3937 3409
4016 3975 3817
4010 3963 3925
4013 3961 3991
4042 3755 496
4043 3759 565
4043 3763 635
4045 3777 857
4040 3895 2459
4028 3995 3403
4017 4041 3832
4004 4040 3929
3999 4039 3983
3937 455 713
3905 407 813
3887 393 1018
3908 258 1531
3986 246 2546
3975 186 3286
3931 177 3563
3924 172 3616
3917 163 3663
3954 564 726
3939 537 837
3906 502 1030
3918 362 1529
3991 337 2542
3978 245 3289
3934 231 3567
3927 225 3620
3920 214 3667
3967 703 723
3958 665 842
3927 604 1032
3928 469 1523
3995 426 2534
3982 306 3292
3937 286 3571
3930 279 3624
3924 268 3671
4056 1681 281
4057 1704 505
4053 1748 1028
4009 1682 1768
4003 961 2501
3985 370 3287
3942 348 3571
3935 338 3629
3929 327 3676
4080 2626 265
4080 2634 343
4081 2642 473
4081 2747 1677
4036 2711 2689
4025 2180 3357
3965 1765 3642
3957 1625 3703
3952 1574 3746
4087 3382 410
4088 3387 485
4088 3388 563
4091 3427 1372
4080 3500 2669
4045 3466 3430
4017 3258 3728
4010 3200 3814
4009 3187 3859
4088 3649 480
4088 3653 550
4089 3658 624
4090 3687 1043
4085 3802 2552
4062 3858 3447
4061 3831 3809
4055 3795 3906
4056 3791 3961
4087 3708 493
4088 3712 562
4088 3716 635
4089 3732 877
4086 3855 2511
4071 3952 3443
4073 3992 3850
4076 3984 3971
4078 3979 4039
4087 3765 512
4087 3769 582
4088 3773 652
4089 3787 874
4086 3907 2478
4077 4006 3426
4083 4063 3876
4086 4072 3997
4089 4076 4063
