滤镜资源/Professional Luts Collection/Triune-Digital-Cinematic-LUTs/3D LUTs (3DL)/ALEXA/Tron - Alexa.3dl
# Created by Benjamin (IWLTBAP) : http://luts.iwltbap.com
# Copyright: (C) Copyright 2016 Triune Films and IWLTBAP
# Blockbuster LUTs Pack
0 64 128 192 256 320 384 448 512 576 640 704 768 832 896 960 1023
0 0 0
6 7 190
17 18 355
23 33 547
12 27 779
0 24 1080
2 43 1445
4 54 1802
7 54 2164
9 56 2535
11 66 2883
13 74 3133
14 70 3275
14 68 3322
15 67 3355
15 67 3387
15 67 3418
2 108 6
2 108 176
8 107 345
13 88 543
9 74 784
0 71 1106
1 85 1485
4 89 1854
6 81 2222
8 84 2590
11 96 2935
14 96 3179
15 90 3317
16 89 3363
16 88 3395
17 88 3425
17 88 3457
5 225 15
3 228 162
1 227 327
2 212 529
4 157 791
0 121 1128
0 129 1523
3 126 1903
6 119 2279
7 126 2645
11 127 2986
15 117 3226
17 111 3359
17 110 3404
17 109 3435
18 109 3465
18 110 3496
9 353 35
8 360 146
0 367 310
0 368 512
0 341 781
0 216 1138
0 168 1547
3 167 1945
5 162 2328
7 165 2697
11 155 3031
16 137 3265
19 132 3396
20 131 3442
20 131 3471
21 131 3500
21 131 3529
5 527 58
5 533 116
2 551 261
0 573 491
0 585 778
0 522 1139
0 297 1559
2 205 1977
4 199 2372
7 194 2743
12 180 3068
19 160 3297
23 156 3427
24 158 3472
24 158 3501
25 158 3530
26 158 3558
0 786 96
0 794 145
0 802 204
0 838 406
0 889 735
0 902 1137
0 812 1578
0 558 2023
3 273 2421
7 225 2783
13 205 3103
21 186 3326
27 187 3457
28 191 3503
29 191 3531
30 191 3559
31 192 3588
1 1157 168
0 1163 206
0 1169 246
0 1178 307
0 1244 630
0 1323 1095
0 1332 1591
0 1251 2067
0 1031 2503
2 618 2876
15 277 3149
25 213 3345
30 219 3476
32 224 3526
32 225 3555
33 225 3583
34 225 3612
4 1582 222
4 1590 261
3 1597 301
3 1602 340
2 1619 450
0 1736 1013
0 1808 1556
0 1800 2067
0 1717 2527
0 1546 2922
1 1232 3218
9 899 3422
14 678 3527
15 502 3562
15 487 3591
15 484 3618
16 478 3645
10 2058 276
9 2064 314
9 2070 351
8 2074 390
8 2076 430
3 2153 830
0 2265 1508
0 2307 2034
0 2284 2526
0 2189 2934
0 2016 3233
0 1854 3417
0 1750 3526
0 1686 3584
0 1658 3611
0 1647 3636
0 1632 3662
16 2520 340
15 2524 377
15 2529 415
15 2533 452
14 2534 489
12 2547 626
2 2663 1352
0 2749 1974
0 2780 2497
0 2739 2937
0 2632 3247
0 2496 3431
0 2418 3539
0 2384 3603
0 2371 3631
0 2367 3657
0 2360 3682
21 2914 378
20 2918 411
20 2921 447
20 2924 485
20 2926 523
19 2923 562
12 2987 1122
2 3087 1838
0 3162 2429
0 3179 2917
0 3119 3248
0 3010 3432
0 2928 3537
0 2899 3604
0 2892 3644
0 2890 3670
0 2886 3695
24 3146 423
24 3149 453
24 3152 483
23 3155 513
23 3158 542
23 3160 572
19 3193 932
8 3290 1704
0 3383 2325
0 3439 2870
0 3422 3249
0 3342 3442
0 3268 3540
0 3242 3602
0 3237 3646
0 3237 3678
0 3234 3704
25 3200 436
25 3203 465
25 3206 494
24 3209 524
24 3212 554
24 3216 584
22 3236 772
11 3346 1608
1 3464 2262
0 3556 2829
0 3584 3238
0 3534 3450
0 3475 3555
0 3449 3617
0 3445 3659
0 3445 3691
0 3444 3724
26 3236 445
25 3238 475
25 3241 504
25 3245 532
25 3247 560
25 3250 590
23 3267 742
12 3370 1555
2 3489 2233
0 3585 2803
0 3635 3227
0 3620 3451
0 3588 3562
0 3568 3625
0 3565 3667
0 3564 3698
0 3563 3733
26 3271 455
26 3273 484
26 3276 513
26 3279 541
26 3282 568
25 3285 596
24 3299 736
14 3398 1528
2 3516 2219
0 3613 2789
0 3665 3221
0 3654 3451
0 3629 3564
0 3621 3627
0 3623 3669
0 3624 3701
0 3626 3735
27 3306 467
27 3308 494
27 3311 523
27 3313 551
26 3316 577
26 3318 604
24 3332 733
14 3427 1516
3 3544 2212
0 3640 2782
0 3694 3218
0 3686 3452
0 3663 3566
0 3656 3629
0 3658 3671
0 3660 3703
0 3661 3737
28 3341 481
28 3344 506
28 3346 533
27 3348 561
27 3350 587
27 3352 613
25 3366 736
15 3456 1500
3 3571 2203
0 3666 2772
0 3724 3213
0 3717 3452
0 3697 3567
0 3691 3630
0 3693 3673
0 3694 3704
0 3696 3738
133 11 8
130 15 195
122 27 371
99 36 564
61 23 807
25 31 1107
24 51 1480
23 60 1840
26 56 2204
28 60 2574
30 70 2917
33 74 3161
34 69 3299
35 67 3345
35 67 3377
36 68 3408
36 68 3439
90 115 6
74 114 175
74 110 347
70 88 547
45 73 791
22 71 1107
21 87 1494
22 92 1887
25 80 2256
28 87 2624
31 98 2964
35 95 3199
38 90 3334
38 89 3380
39 89 3411
40 89 3442
40 90 3473
56 229 18
48 232 163
41 230 326
35 213 529
28 157 791
21 121 1129
19 129 1531
22 128 1936
24 121 2312
27 129 2678
31 126 3012
36 116 3245
39 112 3376
40 111 3420
40 111 3451
41 111 3481
41 111 3511
34 355 35
33 361 146
24 369 309
23 368 512
23 340 781
20 215 1139
19 170 1552
21 170 1966
24 165 2355
27 164 2726
32 153 3055
39 137 3282
42 133 3411
43 132 3455
43 132 3484
44 133 3513
44 133 3542
27 529 57
28 535 115
25 552 260
21 573 489
19 583 775
18 521 1138
18 297 1560
20 206 1979
23 201 2390
27 191 2767
35 178 3088
43 161 3311
47 159 3439
48 161 3483
48 161 3512
49 162 3540
49 162 3569
20 789 94
20 796 144
20 805 203
19 839 403
18 889 733
18 903 1136
18 814 1580
18 560 2025
21 275 2435
27 222 2807
35 203 3122
45 188 3341
50 193 3469
52 195 3514
52 196 3543
53 196 3571
54 197 3600
19 1161 169
19 1167 206
18 1173 245
18 1182 307
18 1247 629
18 1326 1095
18 1336 1592
18 1254 2070
18 1033 2505
20 620 2880
36 277 3158
47 219 3359
51 228 3489
51 232 3538
51 233 3566
52 233 3593
52 234 3621
23 1589 221
22 1595 260
22 1602 302
21 1608 340
20 1625 450
18 1740 1012
18 1814 1556
18 1807 2069
18 1722 2529
18 1550 2924
19 1235 3219
27 902 3423
31 678 3527
33 507 3568
33 491 3596
33 487 3623
34 482 3650
28 2065 274
28 2071 312
27 2076 350
27 2081 388
26 2083 428
21 2158 828
18 2270 1506
18 2314 2036
18 2291 2529
18 2195 2937
18 2022 3235
18 1859 3418
18 1753 3527
18 1689 3586
18 1660 3612
18 1650 3637
18 1635 3663
34 2526 339
34 2530 376
33 2535 413
33 2539 451
32 2540 488
31 2553 625
21 2668 1349
18 2754 1972
18 2787 2498
18 2746 2939
18 2638 3249
18 2500 3432
18 2422 3540
18 2388 3603
18 2375 3632
18 2371 3657
18 2364 3683
39 2919 378
39 2923 412
39 2926 446
38 2929 484
38 2930 522
38 2927 561
31 2990 1119
20 3090 1836
18 3166 2428
18 3183 2917
18 3125 3249
18 3014 3433
18 2932 3538
18 2903 3604
18 2896 3644
18 2894 3670
18 2890 3696
42 3150 422
42 3153 452
42 3156 483
42 3159 512
42 3161 542
41 3163 571
38 3195 929
26 3291 1699
18 3385 2322
18 3442 2868
18 3426 3250
18 3346 3444
18 3271 3541
18 3246 3604
18 3241 3648
18 3241 3679
18 3238 3705
44 3204 437
43 3207 466
43 3210 494
43 3213 524
43 3216 553
42 3220 583
41 3239 770
29 3347 1605
19 3465 2260
18 3558 2827
18 3586 3238
18 3537 3451
18 3477 3556
18 3452 3618
18 3448 3660
18 3448 3692
18 3447 3725
44 3240 445
44 3243 474
44 3245 504
44 3248 532
43 3251 560
43 3254 589
42 3270 739
31 3371 1552
20 3490 2231
18 3587 2801
18 3636 3227
18 3622 3451
18 3590 3563
18 3570 3625
18 3567 3668
18 3566 3699
18 3565 3734
45 3274 454
45 3276 482
44 3279 512
44 3282 540
44 3284 567
44 3287 595
42 3302 733
32 3399 1524
20 3516 2216
18 3614 2787
18 3667 3221
18 3656 3451
18 3631 3564
18 3623 3628
18 3625 3670
18 3626 3701
18 3628 3736
45 3308 465
45 3310 492
45 3313 520
45 3316 549
44 3318 576
44 3321 603
43 3335 731
33 3429 1512
21 3544 2209
18 3641 2779
18 3696 3217
18 3687 3452
18 3665 3566
18 3657 3630
18 3660 3672
18 3661 3703
18 3663 3738
46 3343 480
46 3346 505
46 3348 531
45 3350 558
45 3352 586
45 3355 612
43 3368 735
34 3457 1496
22 3571 2199
18 3667 2770
18 3725 3212
18 3719 3453
18 3699 3568
18 3692 3631
18 3694 3673
18 3696 3705
18 3697 3739
285 41 14
291 34 176
291 40 378
254 45 575
177 28 820
105 38 1143
51 59 1521
42 65 1877
45 58 2245
47 65 2612
49 74 2951
52 73 3188
55 68 3323
55 68 3368
56 68 3399
56 69 3429
57 69 3460
248 136 9
262 127 152
244 113 350
216 89 556
152 70 809
88 77 1142
43 93 1534
42 95 1924
44 84 2296
47 96 2663
50 100 2995
55 94 3225
58 90 3358
59 90 3402
60 90 3433
60 91 3464
61 91 3494
209 242 26
192 240 167
158 235 327
143 216 532
118 155 795
69 121 1141
38 129 1540
41 131 1967
43 126 2346
46 131 2712
51 125 3039
57 115 3263
61 112 3394
62 112 3437
64 112 3468
65 112 3497
66 113 3527
130 366 43
123 369 149
101 375 310
91 372 512
75 340 781
47 213 1139
37 170 1559
40 175 1997
42 169 2389
46 163 2759
53 152 3081
60 137 3301
65 133 3429
67 134 3471
68 134 3500
69 134 3529
70 134 3559
56 532 58
56 538 115
52 555 259
44 575 488
38 581 772
36 520 1138
36 297 1562
38 209 1998
42 205 2417
47 190 2796
56 175 3111
65 162 3329
70 164 3455
72 165 3498
73 165 3527
73 166 3555
74 166 3584
40 791 93
40 799 143
41 807 201
38 840 400
36 888 729
36 903 1136
36 815 1582
36 562 2027
40 278 2448
47 219 2832
58 201 3141
69 191 3357
74 198 3482
76 199 3526
77 200 3555
78 200 3583
78 201 3611
37 1166 168
37 1171 206
36 1177 245
36 1186 307
36 1249 627
36 1328 1093
36 1340 1594
36 1257 2072
36 1036 2507
39 622 2885
57 276 3170
70 223 3375
75 234 3502
75 237 3550
75 237 3577
75 238 3605
76 239 3633
41 1595 220
41 1602 259
40 1608 301
39 1613 341
38 1630 451
36 1744 1011
36 1820 1558
36 1813 2072
36 1727 2531
36 1554 2926
37 1238 3221
44 905 3424
48 681 3528
53 511 3573
53 495 3601
52 491 3627
53 485 3654
46 2072 272
46 2078 311
46 2083 349
45 2088 387
45 2089 427
39 2163 827
36 2276 1505
36 2321 2036
36 2298 2532
36 2202 2939
36 2027 3237
36 1863 3420
36 1755 3529
36 1692 3587
36 1663 3613
36 1654 3639
36 1638 3664
52 2532 339
52 2537 375
52 2541 413
51 2545 451
51 2546 488
49 2559 624
39 2672 1347
36 2759 1971
36 2794 2499
36 2753 2941
36 2645 3250
36 2504 3433
36 2426 3541
36 2392 3604
36 2378 3633
36 2374 3658
36 2367 3684
57 2924 378
57 2928 412
57 2931 446
57 2934 483
56 2935 521
56 2932 559
49 2993 1115
38 3093 1833
36 3169 2426
36 3188 2918
36 3131 3251
36 3018 3434
36 2936 3538
36 2907 3605
36 2900 3645
36 2898 3671
36 2894 3696
61 3153 421
61 3156 451
60 3159 481
60 3162 512
60 3164 541
60 3166 571
56 3198 925
45 3292 1694
36 3387 2320
36 3445 2868
36 3430 3251
36 3349 3445
36 3275 3542
36 3249 3605
36 3245 3649
36 3244 3680
36 3242 3706
62 3208 435
62 3211 464
62 3214 493
61 3217 522
61 3219 551
61 3222 581
59 3242 766
48 3349 1600
37 3466 2257
36 3560 2825
36 3588 3238
36 3539 3452
36 3480 3558
36 3456 3620
36 3452 3662
36 3452 3693
36 3451 3726
63 3243 445
63 3246 474
62 3249 503
62 3252 532
62 3255 559
62 3257 588
60 3273 737
49 3373 1547
38 3491 2227
36 3588 2799
36 3638 3227
36 3624 3452
36 3592 3564
36 3572 3627
36 3569 3669
36 3569 3700
36 3568 3735
63 3277 454
63 3280 482
63 3283 511
63 3285 540
62 3288 567
62 3291 594
61 3305 731
50 3401 1520
39 3517 2213
36 3615 2785
36 3668 3221
36 3658 3452
36 3634 3565
36 3625 3629
36 3627 3671
36 3628 3702
36 3630 3737
64 3311 465
63 3313 490
63 3316 518
63 3318 547
63 3320 574
63 3323 601
61 3338 730
51 3430 1507
39 3545 2206
36 3642 2777
36 3697 3217
36 3689 3453
36 3667 3567
36 3659 3630
36 3661 3673
36 3663 3704
36 3665 3739
64 3345 478
64 3348 503
64 3350 528
64 3352 556
63 3354 583
63 3356 609
62 3370 733
52 3459 1492
40 3572 2195
36 3668 2768
36 3727 3212
36 3720 3453
36 3700 3569
36 3694 3632
36 3696 3674
36 3697 3705
36 3699 3740
450 78 44
461 65 162
489 52 363
461 53 587
393 32 841
260 39 1154
162 63 1549
76 70 1936
64 61 2286
66 69 2651
69 77 2983
73 73 3212
75 69 3345
76 69 3389
77 69 3420
77 70 3450
78 70 3480
425 161 29
465 151 149
473 117 338
434 94 571
356 74 829
237 75 1152
144 94 1554
71 97 1957
63 90 2330
66 102 2698
71 102 3023
76 94 3247
80 91 3379
81 91 3423
81 91 3453
83 92 3482
