滤镜资源/Professional Luts Collection/Lutify.me Professional/Vintage Films/Flower Stone.cube
# Created by: Lutify.me
# Copyright: (c) Copyright Lutify.me 2015
# Website: https://lutify.me
#LUT size
LUT_3D_SIZE 9
#LUT data points
0.000000 0.000000 0.000000
0.058960 0.005402 0.003418
0.144226 0.018188 0.012970
0.242859 0.038055 0.030823
0.362885 0.056061 0.059296
0.494598 0.071259 0.090271
0.628693 0.090149 0.121765
0.758423 0.121552 0.152649
0.878662 0.166443 0.182526
0.002350 0.076874 0.003479
0.074005 0.076385 0.009521
0.157837 0.083832 0.021149
0.254578 0.096802 0.041687
0.371643 0.111267 0.069580
0.501404 0.125305 0.098907
0.633972 0.143677 0.128540
0.762360 0.170929 0.158356
0.881561 0.208496 0.187378
0.000000 0.180847 0.008545
0.077545 0.180725 0.014130
0.174377 0.181061 0.031311
0.279327 0.187958 0.052917
0.396667 0.198792 0.080933
0.522064 0.213654 0.110046
0.649414 0.232880 0.139893
0.773254 0.257538 0.169373
0.889160 0.288544 0.197235
0.000000 0.309357 0.002686
0.022766 0.310944 0.003387
0.177338 0.309021 0.027161
0.300537 0.310699 0.060303
0.426086 0.318146 0.085052
0.551910 0.328888 0.116028
0.676819 0.344116 0.146271
0.797211 0.363861 0.175262
0.910065 0.388306 0.201324
0.000000 0.454193 0.000000
0.000000 0.455322 0.000000
0.161591 0.455688 0.000244
0.316376 0.451172 0.052734
0.449615 0.454224 0.089233
0.580261 0.461609 0.116333
0.704865 0.471680 0.149170
0.822540 0.485962 0.180023
0.931824 0.504456 0.205353
0.000000 0.601013 0.000000
0.000000 0.601776 0.000000
0.151855 0.603180 0.000000
0.332336 0.596527 0.027740
0.473083 0.593933 0.095215
0.603912 0.598022 0.126801
0.729492 0.605042 0.154358
0.845337 0.614288 0.186707
0.950317 0.627686 0.212708
0.000000 0.740784 0.000000
0.000000 0.741180 0.000000
0.190674 0.741974 0.000000
0.362030 0.734894 0.036377
0.502228 0.729736 0.111877
0.629974 0.729065 0.155609
0.751373 0.733551 0.180908
0.864380 0.739929 0.206970
0.964081 0.748962 0.231903
0.067322 0.865540 0.006775
0.161560 0.865662 0.009338
0.285797 0.863739 0.041321
0.419678 0.856689 0.112213
0.545807 0.850769 0.161682
0.665192 0.847473 0.200745
0.777954 0.847778 0.230347
0.882568 0.851868 0.250183
0.975677 0.857697 0.270233
0.303925 0.968536 0.144958
0.339355 0.966583 0.155792
0.411133 0.962494 0.177429
0.505310 0.957153 0.205536
0.608246 0.951996 0.235474
0.711945 0.948334 0.264252
0.811340 0.947235 0.289337
0.903137 0.949066 0.309601
0.987854 0.953735 0.325287
0.000000 0.000000 0.096649
0.078979 0.001953 0.081787
0.164520 0.017365 0.083588
0.259552 0.040070 0.096619
0.376343 0.059204 0.116455
0.505310 0.075104 0.140198
0.637054 0.095093 0.166016
0.764771 0.127472 0.192902
0.883423 0.172485 0.219513
0.000000 0.084076 0.084290
0.079224 0.083618 0.083405
0.161774 0.093018 0.092590
0.259827 0.105927 0.106628
0.380249 0.117554 0.124603
0.511322 0.129059 0.146027
0.641785 0.147980 0.171265
0.768280 0.175934 0.197479
0.885925 0.213928 0.223785
0.000000 0.188263 0.084747
0.078369 0.185974 0.089203
0.179199 0.185669 0.100952
0.282562 0.192810 0.116699
0.398804 0.204865 0.136902
0.524261 0.220215 0.159424
0.652039 0.239166 0.183685
0.776489 0.263000 0.208527
0.892365 0.293457 0.233246
0.000000 0.313843 0.087097
0.019623 0.315186 0.088013
0.180634 0.313324 0.101288
0.305054 0.314026 0.122253
0.429626 0.321350 0.141052
0.554840 0.332611 0.164948
0.679779 0.348022 0.189392
0.800415 0.367676 0.214081
0.912964 0.391937 0.237518
0.000000 0.456146 0.082672
0.000000 0.457245 0.083649
0.167175 0.457520 0.092926
0.320465 0.453522 0.124451
0.453308 0.456787 0.146942
0.583496 0.464264 0.167328
0.707825 0.474457 0.193634
0.825226 0.488831 0.220154
0.934204 0.507355 0.242950
0.000000 0.602600 0.071564
0.000000 0.603271 0.072998
0.158508 0.604584 0.077972
0.336060 0.598236 0.121857
0.476135 0.596039 0.157532
0.606598 0.600250 0.180206
0.731842 0.607269 0.202454
0.847443 0.616669 0.229523
0.952179 0.630066 0.252441
0.000000 0.742096 0.082489
0.000427 0.742523 0.084167
0.195709 0.743256 0.089294
0.365051 0.736328 0.135803
0.504639 0.731476 0.175751
0.632111 0.730957 0.207123
0.753296 0.735504 0.227631
0.865967 0.741913 0.249573
0.965454 0.750946 0.271332
0.077332 0.866608 0.130554
0.166412 0.866760 0.131927
0.288818 0.864807 0.145203
0.421906 0.857941 0.181061
0.547638 0.852234 0.215302
0.666809 0.849060 0.245972
0.779388 0.849457 0.270813
0.883728 0.853546 0.288330
0.976624 0.859375 0.306183
0.306061 0.969513 0.206299
0.341431 0.967560 0.213806
0.412964 0.963501 0.229889
0.506775 0.958313 0.251862
0.609497 0.953278 0.276611
0.713104 0.949738 0.301208
0.812317 0.948669 0.323456
0.903870 0.950592 0.341705
0.988525 0.955231 0.356171
0.000000 0.000000 0.220215
0.061584 0.000000 0.209015
0.180176 0.003601 0.193146
0.289581 0.015869 0.192841
0.407532 0.038269 0.201935
0.533875 0.059753 0.219086
0.662567 0.084229 0.240326
0.787506 0.121246 0.263458
0.905182 0.167114 0.286499
0.000000 0.079102 0.208893
0.051422 0.074341 0.210999
0.182983 0.086761 0.195068
0.289948 0.101166 0.195557
0.410370 0.112091 0.206696
0.539185 0.123016 0.223358
0.666809 0.143402 0.244415
0.790741 0.173096 0.267334
0.907379 0.211060 0.290009
0.000000 0.194458 0.200348
0.046295 0.194702 0.199921
0.184692 0.194641 0.199036
0.289612 0.204742 0.208008
0.407257 0.217499 0.223175
0.533966 0.232178 0.241272
0.663147 0.249512 0.261139
0.789459 0.270752 0.281525
0.905518 0.299866 0.303009
0.000000 0.326996 0.197693
0.000397 0.327850 0.197784
0.183105 0.322388 0.204559
0.314423 0.321289 0.218811
0.435120 0.329041 0.236267
0.557220 0.342346 0.256134
0.680389 0.359314 0.276886
0.799835 0.379974 0.298370
0.911163 0.404846 0.319611
0.000000 0.469604 0.199799
0.000000 0.470306 0.200195
0.166992 0.465973 0.209320
0.326996 0.462646 0.224304
0.461212 0.462952 0.244995
0.588409 0.470001 0.264130
0.709473 0.481293 0.286865
0.824829 0.496887 0.309265
0.932220 0.516235 0.329346
0.000000 0.613098 0.207550
0.000000 0.613617 0.208160
0.154083 0.612427 0.213806
0.338593 0.607239 0.231750
0.482635 0.602753 0.257324
0.612579 0.605621 0.276978
0.735901 0.612274 0.296478
0.849213 0.622009 0.319672
0.952240 0.635895 0.339264
0.000000 0.750244 0.223907
0.000000 0.750549 0.224670
0.193481 0.749573 0.229919
0.365295 0.744354 0.248077
0.508636 0.738464 0.273956
0.637085 0.736237 0.299683
0.757507 0.740143 0.317139
0.868805 0.746277 0.336090
0.966827 0.755371 0.354767
0.043182 0.873779 0.252747
0.152405 0.873871 0.253448
0.289124 0.869781 0.265045
0.420258 0.865692 0.279602
0.549408 0.859253 0.303589
0.670319 0.854614 0.329224
0.782715 0.853851 0.351501
0.886292 0.857574 0.366669
0.978333 0.863281 0.382294
0.303467 0.974274 0.304840
0.337616 0.973206 0.307861
0.406708 0.971497 0.313599
0.503113 0.966827 0.327972
0.609283 0.960876 0.348267
0.714996 0.955780 0.370911
0.814636 0.953308 0.392365
0.905670 0.954407 0.409943
0.989899 0.958832 0.422882
0.000000 0.000000 0.378357
0.000000 0.000000 0.375122
0.158142 0.000000 0.352600
0.301819 0.000000 0.335266
0.440308 0.000000 0.334198
0.572479 0.001862 0.339203
0.700928 0.028809 0.351959
0.823730 0.089630 0.369171
0.940857 0.142792 0.387177
0.000000 0.062836 0.369873
0.000000 0.058868 0.368439
0.156067 0.055145 0.358978
0.306824 0.080811 0.337158
0.444519 0.079987 0.336365
0.576782 0.093781 0.342194
0.704437 0.119446 0.355103
0.826416 0.155426 0.372192
0.942719 0.194794 0.389984
0.000000 0.191223 0.357178
0.000000 0.190796 0.356445
0.149353 0.183502 0.362549
0.316772 0.195923 0.341736
0.446625 0.211029 0.340302
0.571320 0.229340 0.350403
0.698151 0.247253 0.365723
0.822479 0.268127 0.382690
0.938293 0.295654 0.400146
0.000000 0.332336 0.349396
0.000000 0.332672 0.349091
0.148224 0.333008 0.348358
0.320587 0.331696 0.348083
0.444641 0.344574 0.354645
0.567078 0.358948 0.369873
0.690338 0.375824 0.387146
0.809357 0.396210 0.405701
0.918945 0.421082 0.424774
0.000000 0.483063 0.346588
0.000000 0.483368 0.346497
0.117950 0.481964 0.347046
0.330170 0.474640 0.354004
0.471832 0.472870 0.368866
0.594482 0.480713 0.386597
0.712555 0.494171 0.404907
0.826385 0.511108 0.423248
0.931580 0.531250 0.440948
0.000000 0.629425 0.349243
0.000000 0.629639 0.349396
0.092468 0.628479 0.351166
0.340668 0.617310 0.365662
0.490234 0.613953 0.379333
0.621063 0.614227 0.398041
0.741150 0.620667 0.416321
0.851105 0.631439 0.436310
0.951416 0.646210 0.453217
0.000000 0.766785 0.359558
0.000000 0.766907 0.359833
0.144684 0.765228 0.362793
0.366333 0.753235 0.381378
0.511993 0.749939 0.393463
0.644043 0.745087 0.415558
0.763611 0.747620 0.432007
0.872437 0.753387 0.449371
0.967987 0.762695 0.465881
0.000000 0.889252 0.378815
0.055695 0.889191 0.379150
0.272583 0.881378 0.391144
0.419342 0.874329 0.404358
0.550018 0.870148 0.416382
0.674774 0.863739 0.437317
0.787598 0.860962 0.458191
0.889862 0.864105 0.471924
0.980560 0.869537 0.485657
0.279480 0.986389 0.417480
0.325775 0.982727 0.423370
0.405945 0.977844 0.431915
0.500183 0.975861 0.437500
0.608582 0.970795 0.450256
0.717194 0.964508 0.468933
0.817749 0.960449 0.488617
0.908203 0.960480 0.505188
0.991791 0.964600 0.516479
0.000000 0.000000 0.556274
0.000000 0.000000 0.553802
0.013214 0.000000 0.542267
0.288635 0.000000 0.510620
0.450989 0.000000 0.493591
0.601593 0.000000 0.492432
0.737976 0.000000 0.494110
0.862610 0.001556 0.501984
0.980591 0.076385 0.513336
0.000000 0.032654 0.549255
0.000000 0.026001 0.547577
0.013275 0.005890 0.544556
0.293518 0.022217 0.513489
0.455688 0.047333 0.494720
0.605194 0.020386 0.493958
0.740631 0.051666 0.496002
0.864594 0.109650 0.504028
0.981781 0.156372 0.515259
0.000000 0.178955 0.535614
0.000000 0.177765 0.534546
0.024109 0.167358 0.538971
0.299957 0.166534 0.523071
0.465332 0.192963 0.498047
0.609131 0.201721 0.496002
0.739227 0.224304 0.499695
0.862000 0.249908 0.509277
0.977692 0.277649 0.521057
0.000000 0.330475 0.520264
0.000000 0.330383 0.519653
0.042999 0.328552 0.521545
0.294037 0.319000 0.528107
0.475464 0.334717 0.502716
0.610260 0.352356 0.500000
0.729950 0.375092 0.508209
0.844421 0.398560 0.521851
0.952179 0.423523 0.536713
0.000000 0.486206 0.511536
0.000000 0.486237 0.511230
0.029999 0.486176 0.510529
0.303070 0.485565 0.509552
0.479279 0.482178 0.510162
0.605133 0.497498 0.513550
0.722290 0.512115 0.527618
0.835236 0.529144 0.542908
0.938049 0.549530 0.558563
0.000000 0.639313 0.508057
0.000000 0.639313 0.507904
0.006897 0.638916 0.507538
0.312286 0.634613 0.508179
0.493896 0.626984 0.514374
0.631042 0.625214 0.528381
0.746155 0.632751 0.545105
0.853058 0.645569 0.560944
0.950592 0.661377 0.575348
0.000000 0.779846 0.509460
0.000000 0.779755 0.509460
0.048035 0.778717 0.509918
0.345612 0.769379 0.516785
0.514343 0.760803 0.527405
0.651337 0.756836 0.540405
0.770874 0.757233 0.556549
0.876221 0.762970 0.572662
0.968536 0.772980 0.587036
0.000000 0.902832 0.518921
0.000000 0.902618 0.519043
0.226288 0.896790 0.524078
0.409302 0.886658 0.534515
0.550995 0.879974 0.544556
0.678497 0.875244 0.556458
0.793365 0.870270 0.575348
0.894012 0.872528 0.588257
0.982727 0.877716 0.600677
0.232544 0.999512 0.541595
0.290039 0.997406 0.545074
0.387177 0.991272 0.551971
0.498779 0.983978 0.561371
0.607574 0.980621 0.567993
0.718384 0.975281 0.579895
0.820953 0.969757 0.596893
0.911041 0.968384 0.612640
0.993896 0.972076 0.622833
0.000000 0.000000 0.731140
0.000000 0.000000 0.729034
0.000000 0.000000 0.724091
0.238556 0.000000 0.691559
0.451202 0.000000 0.661530
0.612244 0.000000 0.648438
0.761536 0.000000 0.647461
0.892975 0.000000 0.647156
1.000000 0.000000 0.651947
0.000000 0.000732 0.725128
0.000000 0.000000 0.723511
0.000000 0.000000 0.720123
0.246246 0.000000 0.692383
0.456329 0.000122 0.661072
0.615692 0.000427 0.649139
0.763733 0.000000 0.648285
0.894348 0.011719 0.648254
1.000000 0.084076 0.653076
0.000000 0.159668 0.711121
0.000000 0.157227 0.709930
0.000000 0.147034 0.709320
0.249176 0.129974 0.702026
0.465210 0.158997 0.668091
0.622528 0.184113 0.650940
0.766754 0.189362 0.649475
0.894135 0.218109 0.650116
1.000000 0.247528 0.655457
0.000000 0.322205 0.692108
0.000000 0.321625 0.691254
0.000000 0.318329 0.691742
0.249237 0.303406 0.701080
0.471527 0.310883 0.677277
0.630432 0.338043 0.653473
0.767639 0.353302 0.650665
0.884918 0.381989 0.652557
0.993378 0.407867 0.660095
0.000000 0.484894 0.675079
0.000000 0.484680 0.674652
0.000000 0.483978 0.674042
0.263123 0.480408 0.678802
0.463379 0.470001 0.683807
0.637146 0.488159 0.656525
0.764648 0.506714 0.653656
0.872772 0.529999 0.660278
0.973083 0.551483 0.670929
0.000000 0.640533 0.665771
0.000000 0.640381 0.665497
0.000000 0.639923 0.664886
0.282349 0.638977 0.663879
0.475220 0.637299 0.662628
0.641907 0.633575 0.661987
0.756287 0.649048 0.665741
0.861023 0.662964 0.678009
0.955444 0.679230 0.690491
0.000000 0.785828 0.661163
0.000000 0.785583 0.660980
0.000488 0.784851 0.660553
0.305756 0.781830 0.659973
0.496857 0.777069 0.660431
0.656281 0.769226 0.666382
0.779480 0.767883 0.679138
0.879333 0.774841 0.693604
0.967773 0.786285 0.705597
0.000000 0.911163 0.661194
0.000000 0.910858 0.661163
0.159180 0.907715 0.661987
0.379120 0.901703 0.664398
0.542297 0.893555 0.669647
0.681152 0.886108 0.678192
0.799683 0.881195 0.690735
0.898834 0.881836 0.703552
0.984589 0.886993 0.715057
0.173309 1.000000 0.670105
0.243408 1.000000 0.671265
0.354645 1.000000 0.673950
0.480164 0.998535 0.678772
0.605652 0.990326 0.686615
0.718781 0.985687 0.693695
0.823578 0.980652 0.704987
0.914459 0.977478 0.719696
0.996368 0.980408 0.729370
0.000000 0.000000 0.887115
0.000000 0.000000 0.885193
0.000000 0.000000 0.880646
0.156067 0.000000 0.852661
0.446533 0.000000 0.818085
0.622559 0.000000 0.794678
0.773560 0.000000 0.786652
0.912170 0.000000 0.785217
1.000000 0.000000 0.785675
0.000000 0.000000 0.882019
0.000000 0.000000 0.880463
0.000000 0.000000 0.876862
0.182037 0.000000 0.850006
0.452637 0.000000 0.816437
0.625824 0.000000 0.794342
0.775574 0.000000 0.786865
0.913177 0.000000 0.785583
1.000000 0.000702 0.786102
0.000000 0.132324 0.867737
0.000000 0.128021 0.866516
0.000000 0.114502 0.864014
0.184509 0.079895 0.859070
0.458527 0.110504 0.824799
0.632660 0.155731 0.796722
0.779541 0.173920 0.787445
0.914368 0.186371 0.785889
1.000000 0.215607 0.786530
0.000000 0.309723 0.846649
0.000000 0.308624 0.845764
0.000000 0.304810 0.844635
0.199371 0.285339 0.854980
0.460693 0.288330 0.833862
0.640289 0.319183 0.801208
0.783997 0.341278 0.788055
0.912598 0.359467 0.785126
1.000000 0.384399 0.785858
0.000000 0.479675 0.824432
0.000000 0.479248 0.823822
0.000000 0.477722 0.823303
0.226105 0.469513 0.832275
0.451843 0.456970 0.836182
0.644257 0.471039 0.807343
0.787323 0.494507 0.788452
0.908051 0.514160 0.784729
1.000000 0.536560 0.786713
0.000000 0.639313 0.807007
0.000000 0.639038 0.806671
0.000000 0.638336 0.806030
0.261658 0.636688 0.807922
0.460815 0.632385 0.810944
0.636475 0.622772 0.813324
0.789551 0.640930 0.788483
0.898407 0.660492 0.785980
0.990356 0.679352 0.791565
0.000000 0.785736 0.796387
0.000000 0.785431 0.796143
0.003174 0.784698 0.795532
0.297760 0.783386 0.794495
0.486572 0.781433 0.793091
0.647186 0.778961 0.791321
0.792297 0.777679 0.788544
0.885895 0.789520 0.796783
0.970947 0.801758 0.806366
0.000000 0.913849 0.789337
0.000000 0.913452 0.789185
0.128815 0.911835 0.788666
0.360077 0.909119 0.787964
0.526398 0.905029 0.787384
0.676361 0.898865 0.788361
0.805969 0.892151 0.794189
0.905457 0.890961 0.805481
0.986786 0.896729 0.815979
0.152863 1.000000 0.786560
0.224243 1.000000 0.786682
0.337006 1.000000 0.786987
0.464691 1.000000 0.787842
0.595001 1.000000 0.790100
0.719666 0.995239 0.795410
0.826660 0.990631 0.801727
0.919586 0.986603 0.812958
0.999939 0.988312 0.822510
0.000000 0.000000 0.999084
0.000000 0.000000 0.998871
0.000000 0.000000 0.997101
0.169464 0.000000 0.969452
0.463776 0.000000 0.935944
0.642609 0.000000 0.909668
0.791870 0.000000 0.894928
0.928101 0.000000 0.891693
1.000000 0.000000 0.890839
0.000000 0.000000 0.998291
0.000000 0.000000 0.997131
0.000000 0.000000 0.993927
0.200562 0.000000 0.965637
0.470276 0.000000 0.933624
0.645782 0.000000 0.908539
0.793640 0.000000 0.894501
0.928833 0.000000 0.891510
1.000000 0.000000 0.890686
0.000000 0.091827 0.985840
0.000000 0.083771 0.984772
0.000000 0.056000 0.984650
0.202545 0.031006 0.973846
0.474884 0.063873 0.940704
0.651764 0.121094 0.910675
0.797333 0.163086 0.894073
0.930176 0.174347 0.890839
1.000000 0.198273 0.889954
0.000000 0.295746 0.963989
0.000000 0.294312 0.963043
0.000000 0.285004 0.966705
0.216095 0.266052 0.971558
0.475983 0.272125 0.948364
0.657715 0.302338 0.915680
0.801849 0.335266 0.894073
0.930664 0.349945 0.889282
1.000000 0.369354 0.887787
0.000000 0.472656 0.938171
0.000000 0.472076 0.937500
0.000000 0.467590 0.941467
0.244781 0.456757 0.949768
0.468414 0.445404 0.949310
0.658905 0.459473 0.920654
0.805176 0.489075 0.893372
0.929077 0.504700 0.886719
1.000000 0.522827 0.884705
0.000000 0.636444 0.914703
0.000000 0.636108 0.914276
0.003387 0.634583 0.916016
0.283722 0.630890 0.919952
0.473755 0.623474 0.924805
0.649506 0.614380 0.923218
0.806702 0.634247 0.892883
0.924744 0.650818 0.882996
1.000000 0.668457 0.881012
0.000000 0.784302 0.896729
0.000000 0.783997 0.896454
0.083527 0.783356 0.896301
0.333771 0.782043 0.895996
0.502869 0.779846 0.895874
0.654022 0.775787 0.897125
0.803253 0.769897 0.894348
0.917877 0.786743 0.878632
0.999481 0.802551 0.880066
0.000000 0.912903 0.884125
0.015167 0.912476 0.883881
0.219757 0.911438 0.883270
0.389984 0.909668 0.882263
0.540009 0.907135 0.880859
0.680237 0.904053 0.879028
0.810242 0.900665 0.877106
0.915710 0.898651 0.881897
0.991608 0.906738 0.889801
0.226837 1.000000 0.874023
0.275269 1.000000 0.873840
0.366180 1.000000 0.873444
0.479858 1.000000 0.872864
0.601410 1.000000 0.872406
0.722137 1.000000 0.872833
0.834686 0.997559 0.876465
0.928497 0.994263 0.882965
1.000000 0.992798 0.896759
0.000000 0.000000 1.000000
0.000000 0.000000 1.000000
0.000000 0.000000 1.000000
0.306244 0.000000 1.000000
0.517975 0.000000 1.000000
0.680908 0.000000 0.985840
0.821899 0.000000 0.970001
0.949890 0.000000 0.963989
1.000000 0.000000 0.963379
0.000000 0.000000 1.000000
0.000000 0.000000 1.000000
0.000000 0.000000 1.000000
0.319733 0.000000 1.000000
0.523407 0.000000 1.000000
0.683685 0.000000 0.984436
0.823303 0.000000 0.969269
0.950409 0.000000 0.963562
1.000000 0.000000 0.962982
0.000000 0.040558 1.000000
0.000000 0.025208 1.000000
0.000000 0.005402 1.000000
0.320740 0.007843 1.000000
0.527802 0.039581 1.000000
0.688812 0.098938 0.985840
0.826447 0.153137 0.968414
0.951202 0.178711 0.962402
1.000000 0.199554 0.961823
0.000000 0.281189 1.000000
0.000000 0.273560 1.000000
0.005585 0.259827 1.000000
0.321259 0.251221 1.000000
0.528778 0.264740 1.000000
0.693390 0.295624 0.990814
0.830322 0.330383 0.968719
0.951141 0.352905 0.960327
1.000000 0.367523 0.959564
0.000000 0.465088 1.000000
0.000000 0.460846 1.000000
0.069122 0.453766 1.000000
0.329041 0.443237 1.000000
0.521851 0.438110 1.000000
0.693726 0.455505 0.994843
0.832489 0.485077 0.967987
0.948853 0.506714 0.957001
1.000000 0.518890 0.956024
0.000000 0.632294 0.992493
0.000000 0.631073 0.994507
0.160706 0.628265 0.997009
0.354675 0.622925 0.998871
0.518799 0.613800 1.000000
0.684814 0.609467 0.996735
0.831879 0.630066 0.967651
0.944031 0.651489 0.952515
1.000000 0.662231 0.951050
0.000000 0.782501 0.970459
0.048340 0.782166 0.970734
0.245544 0.781250 0.971222
0.397400 0.779358 0.971985
0.540680 0.775909 0.973572
0.680603 0.769257 0.976746
0.824799 0.765900 0.968719
0.938141 0.785095 0.947296
1.000000 0.795349 0.945129
0.166595 0.910858 0.953949
0.228302 0.910492 0.953735
0.332428 0.909576 0.953186
0.454468 0.907959 0.952301
0.581421 0.905701 0.951080
0.706421 0.903015 0.949738
0.823975 0.900146 0.949097
0.935608 0.900940 0.942657
1.000000 0.911469 0.942810
0.327148 1.000000 0.941895
0.358948 1.000000 0.941681
0.426849 1.000000 0.941162
0.520538 1.000000 0.940338
0.626801 1.000000 0.939148
0.736084 1.000000 0.937836
0.842682 1.000000 0.937042
0.941101 0.999969 0.940094
1.000000 0.997406 0.964813
