滤镜资源/Professional Luts Collection/Lutify.me Professional/Vintage Films/Flower Stone.cube
# Created by: Lutify.me
# Copyright: (c) Copyright Lutify.me 2015
# Website: https://lutify.me
#LUT size
LUT_3D_SIZE 33
#LUT data points
0.000000 0.000000 0.000000
0.010101 0.001160 0.000397
0.022217 0.001953 0.001160
0.039185 0.003479 0.001953
0.058960 0.005402 0.003418
0.079559 0.007965 0.004974
0.100708 0.010559 0.007141
0.121918 0.014313 0.009613
0.144226 0.018188 0.012970
0.167175 0.022614 0.016266
0.191071 0.027588 0.020111
0.216156 0.032776 0.025055
0.242859 0.038055 0.030823
0.271088 0.043060 0.037323
0.300659 0.047668 0.044434
0.331360 0.051941 0.051758
0.362885 0.056061 0.059296
0.395081 0.060150 0.067017
0.427917 0.063904 0.074677
0.461151 0.067413 0.082367
0.494598 0.071259 0.090271
0.528168 0.075409 0.098175
0.561859 0.079620 0.105988
0.595367 0.084656 0.113892
0.628693 0.090149 0.121765
0.661743 0.096497 0.129547
0.694427 0.104095 0.137299
0.726654 0.112610 0.145081
0.758423 0.121552 0.152649
0.789551 0.131775 0.160309
0.820007 0.142670 0.167877
0.849762 0.154083 0.175262
0.878662 0.166443 0.182526
0.000397 0.014832 0.000793
0.013275 0.014465 0.001892
0.026062 0.014893 0.002350
0.043518 0.016357 0.004120
0.062195 0.018585 0.005371
0.082581 0.020966 0.007233
0.103149 0.024017 0.009216
0.124451 0.027710 0.011902
0.146301 0.031982 0.014984
0.169159 0.036621 0.018341
0.192902 0.041595 0.022552
0.217896 0.046509 0.027466
0.244537 0.051239 0.033447
0.272736 0.055756 0.039978
0.302246 0.060028 0.046753
0.332886 0.063995 0.053925
0.364349 0.067780 0.061218
0.396454 0.071594 0.068756
0.429199 0.075195 0.076477
0.462372 0.078583 0.084106
0.495789 0.082214 0.091827
0.529297 0.086243 0.099640
0.562836 0.090515 0.107452
0.596344 0.095245 0.115173
0.629639 0.100616 0.122864
0.662567 0.107056 0.130707
0.695190 0.114380 0.138428
0.727417 0.122192 0.146027
0.759064 0.131104 0.153717
0.790161 0.140717 0.161163
0.820587 0.151245 0.168671
0.850311 0.162415 0.176117
0.879181 0.174225 0.183502
0.000793 0.031158 0.001221
0.015503 0.030792 0.002319
0.029236 0.030396 0.003479
0.047974 0.031219 0.004944
0.066406 0.033417 0.006561
0.086029 0.036133 0.008789
0.106445 0.039215 0.011200
0.127228 0.042786 0.013672
0.149078 0.046753 0.016754
0.171692 0.050751 0.020630
0.195282 0.055115 0.024963
0.220093 0.059814 0.030090
0.246521 0.064209 0.035950
0.274567 0.068237 0.042480
0.304016 0.072296 0.049286
0.334534 0.076111 0.056305
0.365936 0.079742 0.063477
0.398041 0.083252 0.070801
0.430725 0.086609 0.078308
0.463806 0.090088 0.085938
0.497131 0.093719 0.093597
0.530579 0.097534 0.101227
0.564087 0.101654 0.109039
0.597473 0.106323 0.116699
0.630646 0.111755 0.124359
0.663544 0.118011 0.132111
0.696106 0.125092 0.139679
0.728271 0.132782 0.147308
0.759888 0.141144 0.154816
0.790894 0.150513 0.162323
0.821289 0.160675 0.169739
0.850952 0.171234 0.177155
0.879761 0.182678 0.184265
0.001526 0.053253 0.002258
0.016327 0.053223 0.003082
0.031891 0.052612 0.004272
0.050964 0.052826 0.005798
0.070984 0.054108 0.007690
0.090637 0.055725 0.010010
0.110718 0.058136 0.012756
0.131592 0.060791 0.015564
0.153107 0.064117 0.018890
0.175537 0.067688 0.022949
0.198914 0.071472 0.027527
0.223663 0.075409 0.032654
0.249969 0.079407 0.038666
0.277679 0.083282 0.045349
0.306793 0.087067 0.052429
0.337006 0.090759 0.059418
0.368164 0.094269 0.066467
0.400208 0.097687 0.073700
0.432800 0.101044 0.080963
0.465759 0.104553 0.088348
0.498962 0.108154 0.095825
0.532349 0.111908 0.103363
0.565704 0.116058 0.110992
0.598999 0.120728 0.118591
0.632111 0.126129 0.126160
0.664917 0.132172 0.133728
0.697357 0.138947 0.141388
0.729462 0.146423 0.148865
0.760956 0.154541 0.156281
0.791962 0.163300 0.163818
0.822235 0.172882 0.171173
0.851776 0.183289 0.178558
0.880493 0.194153 0.185730
0.002350 0.076874 0.003479
0.016479 0.077271 0.004181
0.033722 0.076630 0.005341
0.053558 0.076141 0.006989
0.074005 0.076385 0.009521
0.094574 0.077820 0.011353
0.115356 0.079132 0.014313
0.136200 0.081299 0.017426
0.157837 0.083832 0.021149
0.180206 0.086823 0.025299
0.203674 0.090057 0.029999
0.228363 0.093353 0.035461
0.254578 0.096802 0.041687
0.282227 0.100433 0.048248
0.311096 0.104034 0.055237
0.340973 0.107666 0.062408
0.371643 0.111267 0.069580
0.403168 0.114807 0.077026
0.435486 0.118256 0.084381
0.468323 0.121735 0.091614
0.501404 0.125305 0.098907
0.534637 0.129181 0.106323
0.567871 0.133484 0.113708
0.601013 0.138275 0.121124
0.633972 0.143677 0.128540
0.666687 0.149536 0.136017
0.699036 0.156006 0.143555
0.730988 0.163147 0.150940
0.762360 0.170929 0.158356
0.793243 0.179321 0.165710
0.823456 0.188385 0.172913
0.852966 0.198151 0.180176
0.881561 0.208496 0.187378
0.002411 0.101440 0.004913
0.016785 0.101562 0.005066
0.034210 0.101471 0.006226
0.055389 0.100769 0.008423
0.076660 0.100372 0.011200
0.097687 0.100952 0.013947
0.119263 0.102264 0.015930
0.140808 0.103821 0.019012
0.162811 0.105591 0.023315
0.185364 0.107849 0.027802
0.208984 0.110504 0.032745
0.233734 0.113495 0.038574
0.260071 0.116516 0.044952
0.287720 0.119629 0.051453
0.316498 0.122955 0.058319
0.346222 0.126373 0.065430
0.376709 0.129913 0.072571
0.407837 0.133514 0.079956
0.439606 0.137177 0.087494
0.471832 0.140991 0.095001
0.504486 0.144928 0.102356
0.537415 0.149048 0.109711
0.570496 0.153473 0.116974
0.603546 0.158264 0.124298
0.636353 0.163574 0.131622
0.668884 0.169250 0.138885
0.701080 0.175537 0.146179
0.732910 0.182404 0.153503
0.764191 0.189819 0.160767
0.794922 0.197876 0.168060
0.825012 0.206451 0.175293
0.854370 0.215759 0.182373
0.882843 0.225586 0.189484
0.001343 0.126801 0.006378
0.016357 0.127106 0.006470
0.033539 0.127075 0.007294
0.056213 0.126373 0.009583
0.078339 0.125793 0.012695
0.100220 0.125641 0.016174
0.122284 0.126373 0.019165
0.144745 0.127869 0.021484
0.167419 0.129395 0.025208
0.190613 0.131042 0.029968
0.214539 0.133118 0.035370
0.239716 0.135529 0.041290
0.266205 0.138306 0.047913
0.293976 0.141144 0.054565
0.322754 0.144104 0.061462
0.352386 0.147339 0.068451
0.382751 0.150665 0.075531
0.413757 0.154175 0.082886
0.445251 0.157928 0.090302
0.477142 0.161896 0.097778
0.509277 0.166077 0.105286
0.541626 0.170563 0.112885
0.574066 0.175354 0.120422
0.606628 0.180328 0.127747
0.639160 0.185638 0.135040
0.671509 0.191284 0.142273
0.703552 0.197357 0.149445
0.735199 0.204010 0.156647
0.766327 0.211060 0.163788
0.796906 0.218689 0.170898
0.826813 0.226898 0.178009
0.856018 0.235626 0.185089
0.884369 0.244995 0.192017
0.000244 0.153137 0.007690
0.014343 0.153381 0.007721
0.031128 0.153656 0.008423
0.054993 0.153198 0.010376
0.078857 0.152466 0.013611
0.102203 0.151978 0.017487
0.124969 0.152069 0.021606
0.147766 0.153015 0.025055
0.171387 0.154541 0.027710
0.195282 0.156036 0.032227
0.220093 0.157745 0.037872
0.245880 0.159729 0.044098
0.272766 0.161957 0.050659
0.300659 0.164520 0.057526
0.329529 0.167328 0.064270
0.359131 0.170349 0.071289
0.389435 0.173615 0.078430
0.420349 0.177032 0.085663
0.451691 0.180725 0.092926
0.483398 0.184692 0.100281
0.515320 0.188904 0.107819
0.547394 0.193390 0.115326
0.579468 0.198181 0.122833
0.611572 0.203278 0.130432
0.643555 0.208710 0.137878
0.675323 0.214447 0.145325
0.706848 0.220581 0.152649
0.738068 0.227112 0.160004
0.768860 0.234009 0.167145
0.799225 0.241302 0.174133
0.828979 0.249115 0.181183
0.857971 0.257355 0.188171
0.886108 0.266266 0.194946
0.000000 0.180847 0.008545
0.008667 0.181213 0.008820
0.026520 0.181488 0.009186
0.051392 0.181488 0.010529
0.077545 0.180725 0.014130
0.102631 0.180023 0.018097
0.126648 0.179779 0.022766
0.150421 0.180023 0.027588
0.174377 0.181061 0.031311
0.199493 0.182709 0.034943
0.225281 0.184296 0.040131
0.251892 0.185944 0.046295
0.279327 0.187958 0.052917
0.307617 0.190247 0.059662
0.336639 0.192841 0.066772
0.366394 0.195648 0.073792
0.396667 0.198792 0.080933
0.427490 0.202148 0.088074
0.458740 0.205719 0.095306
0.490295 0.209534 0.102692
0.522064 0.213654 0.110046
0.553955 0.217987 0.117523
0.585846 0.222656 0.124939
0.617706 0.227600 0.132446
0.649414 0.232880 0.139893
0.680847 0.238495 0.147369
0.712006 0.244446 0.154724
0.742828 0.250793 0.162140
0.773254 0.257538 0.169373
0.803192 0.264648 0.176514
0.832550 0.272186 0.183624
0.861237 0.280090 0.190491
0.889160 0.288544 0.197235
0.000000 0.210358 0.008911
0.001862 0.210693 0.009033
0.017639 0.211060 0.009247
0.043427 0.211426 0.009918
0.072845 0.210999 0.012787
0.100342 0.210236 0.017548
0.126465 0.209686 0.022766
0.151733 0.209595 0.028320
0.176849 0.209991 0.034149
0.202576 0.211182 0.038696
0.229675 0.212921 0.042542
0.257416 0.214508 0.048035
0.285614 0.216278 0.054413
0.314392 0.218292 0.061340
0.343811 0.220612 0.068390
0.373749 0.223206 0.075623
0.404144 0.226074 0.082794
0.434967 0.229248 0.090088
0.466156 0.232666 0.097321
0.497650 0.236267 0.104706
0.529266 0.240173 0.112152
0.561005 0.244324 0.119507
0.592712 0.248810 0.126953
0.624359 0.253571 0.134369
0.655853 0.258575 0.141724
0.687073 0.263977 0.149078
0.718048 0.269653 0.156433
0.748627 0.275726 0.163727
0.778778 0.282104 0.170929
0.808441 0.288910 0.178101
0.837463 0.296143 0.185150
0.866028 0.303650 0.191925
0.893860 0.311493 0.198547
0.000000 0.241852 0.008026
0.000000 0.242157 0.008301
0.004700 0.242523 0.008514
0.029388 0.243011 0.008942
0.062653 0.243225 0.010101
0.094604 0.242554 0.014709
0.123657 0.241760 0.020721
0.151093 0.241333 0.027069
0.178314 0.241272 0.033966
0.205475 0.241791 0.040771
0.233246 0.243103 0.046295
0.262054 0.244904 0.049744
0.291290 0.246521 0.055542
0.320831 0.248352 0.062286
0.350769 0.250336 0.069458
0.381073 0.252625 0.076813
0.411652 0.255249 0.084167
0.442566 0.258118 0.091553
0.473785 0.261292 0.098999
0.505188 0.264709 0.106415
0.536743 0.268372 0.113892
0.568359 0.272308 0.121307
0.599884 0.276520 0.128723
0.631348 0.281067 0.136078
0.662628 0.285858 0.143433
0.693665 0.290955 0.150757
0.724426 0.296356 0.158020
0.754822 0.302094 0.165283
0.784729 0.308105 0.172424
0.814148 0.314545 0.179565
0.842987 0.321381 0.186493
0.871399 0.328430 0.193146
0.899139 0.335754 0.199432
0.000000 0.274933 0.005981
0.000000 0.275208 0.006287
0.000305 0.275543 0.006470
0.010376 0.276093 0.006683
0.046448 0.276611 0.007111
0.083893 0.276550 0.009949
0.117737 0.275665 0.016357
0.148743 0.274872 0.023682
0.178375 0.274414 0.031708
0.207581 0.274414 0.040039
0.236603 0.275024 0.047363
0.266022 0.276337 0.053375
0.296234 0.278198 0.057068
0.326691 0.279907 0.062958
0.357330 0.281677 0.069946
0.388153 0.283722 0.077332
0.419037 0.286011 0.084930
0.450134 0.288574 0.092468
0.481445 0.291443 0.100098
0.512848 0.294586 0.107635
0.544312 0.298004 0.115173
0.575836 0.301666 0.122650
0.607269 0.305634 0.130157
0.638550 0.309875 0.137573
0.669678 0.314423 0.144928
0.700500 0.319214 0.152313
0.731018 0.324341 0.159546
0.761200 0.329742 0.166779
0.790863 0.335419 0.173920
0.820068 0.341492 0.180969
0.848694 0.347931 0.187897
0.876953 0.354523 0.194366
0.904541 0.361420 0.200409
0.000000 0.309357 0.002686
0.000000 0.309601 0.002930
0.000000 0.309937 0.002838
0.001526 0.310394 0.003052
0.022766 0.310944 0.003387
0.068176 0.311462 0.004486
0.108612 0.310852 0.009979
0.144318 0.309845 0.018311
0.177338 0.309021 0.027161
0.208649 0.308594 0.037079
0.239441 0.308655 0.046326
0.269836 0.309326 0.054291
0.300537 0.310699 0.060303
0.331879 0.312561 0.064331
0.363281 0.314331 0.070282
0.394714 0.316101 0.077484
0.426086 0.318146 0.085052
0.457520 0.320404 0.092865
0.488953 0.322968 0.100616
0.520447 0.325806 0.108337
0.551910 0.328888 0.116028
0.583374 0.332306 0.123688
0.614685 0.335938 0.131287
0.645874 0.339905 0.138824
0.676819 0.344116 0.146271
0.707458 0.348633 0.153625
0.737793 0.353424 0.160919
0.767731 0.358521 0.168121
0.797211 0.363861 0.175262
0.826141 0.369568 0.182343
0.854553 0.375641 0.189270
0.882629 0.381805 0.195526
0.910065 0.388306 0.201324
0.000000 0.344666 0.000488
0.000000 0.344940 0.000580
0.000000 0.345245 0.000488
0.000000 0.345642 0.000580
0.005005 0.346191 0.000702
0.047272 0.346832 0.000946
0.096313 0.346985 0.002350
0.137970 0.345856 0.010559
0.174835 0.344727 0.020844
0.209015 0.343933 0.031921
0.241577 0.343536 0.043121
0.273346 0.343689 0.053040
0.304810 0.344452 0.061188
0.336487 0.345886 0.067200
0.368713 0.347778 0.071442
0.400757 0.349579 0.077576
0.432648 0.351379 0.084900
0.464478 0.353333 0.092743
0.496277 0.355591 0.100708
0.527893 0.358124 0.108643
0.559418 0.360931 0.116455
0.590851 0.363983 0.124329
0.622101 0.367340 0.132050
0.653168 0.370972 0.139740
0.683990 0.374878 0.147339
0.714447 0.379059 0.154724
0.744598 0.383484 0.162109
0.774353 0.388275 0.169373
0.803619 0.393311 0.176544
0.832306 0.398651 0.183655
0.860443 0.404297 0.190582
0.888367 0.410095 0.196655
0.915619 0.416168 0.202271
0.000000 0.380768 0.000000
0.000000 0.381012 0.000000
0.000000 0.381287 0.000000
0.000000 0.381653 0.000000
0.000061 0.382172 0.000000
0.023712 0.382751 0.000000
0.081757 0.383362 0.000000
0.129883 0.382660 0.002014
0.171265 0.381256 0.012421
0.208374 0.380127 0.024811
0.243134 0.379395 0.037750
0.276398 0.379089 0.049866
0.308929 0.379364 0.060028
0.341187 0.380188 0.068329
0.373505 0.381683 0.074158
0.406281 0.383636 0.078705
0.438812 0.385376 0.084991
0.471039 0.387207 0.092468
0.503143 0.389160 0.100433
0.535034 0.391388 0.108459
0.566681 0.393890 0.116547
0.598145 0.396606 0.124573
0.629395 0.399628 0.132507
0.660400 0.402954 0.140320
0.691101 0.406525 0.148102
0.721466 0.410370 0.155640
0.751404 0.414459 0.163116
0.780975 0.418884 0.170502
0.809998 0.423553 0.177795
0.838470 0.428589 0.184906
0.866364 0.433838 0.191833
0.894104 0.439240 0.197815
0.921112 0.444946 0.203308
0.000000 0.417358 0.000000
0.000000 0.417603 0.000000
0.000000 0.417847 0.000000
0.000000 0.418213 0.000000
0.000000 0.418610 0.000000
0.007446 0.419189 0.000000
0.064941 0.419830 0.000000
0.120422 0.419769 0.000031
0.166718 0.418365 0.003021
0.207153 0.416962 0.015839
0.244110 0.415894 0.030273
0.279022 0.415222 0.044617
0.312744 0.415009 0.057220
0.345795 0.415405 0.067444
0.378571 0.416321 0.075714
0.411285 0.417908 0.081512
0.444366 0.419830 0.086182
0.477203 0.421570 0.092651
0.509644 0.423370 0.100250
0.541779 0.425354 0.108185
0.573639 0.427521 0.116394
0.605225 0.429962 0.124603
0.636475 0.432617 0.132721
0.667480 0.435608 0.140747
0.698090 0.438843 0.148682
0.728302 0.442352 0.156372
0.758118 0.446136 0.164032
0.787506 0.450195 0.171509
0.816345 0.454498 0.178894
0.844604 0.459137 0.186157
0.872223 0.464050 0.193115
0.899750 0.469116 0.198975
0.926575 0.474426 0.204315
0.000000 0.454193 0.000000
0.000000 0.454407 0.000000
0.000000 0.454651 0.000000
0.000000 0.454956 0.000000
0.000000 0.455322 0.000000
0.000977 0.455841 0.000000
0.048737 0.456451 0.000000
0.110626 0.456848 0.000000
0.161591 0.455688 0.000244
0.205475 0.454071 0.005798
0.244873 0.452728 0.021362
0.281464 0.451752 0.037659
0.316376 0.451172 0.052734
0.350250 0.451111 0.065155
0.383636 0.451569 0.075348
0.416626 0.452576 0.083405
0.449615 0.454224 0.089233
0.482849 0.456085 0.094025
0.515747 0.457855 0.100647
0.548187 0.459656 0.108246
0.580261 0.461609 0.116333
0.611969 0.463745 0.124573
0.643280 0.466125 0.132812
0.674255 0.468781 0.141083
0.704865 0.471680 0.149170
0.734985 0.474854 0.157043
0.764648 0.478302 0.164825
0.793884 0.481995 0.172516
0.822540 0.485962 0.180023
0.850586 0.490234 0.187347
0.877960 0.494751 0.194427
0.905243 0.499481 0.200165
0.931824 0.504456 0.205353
0.000000 0.491150 0.000000
0.000000 0.491302 0.000000
0.000000 0.491516 0.000000
0.000000 0.491791 0.000000
0.000000 0.492188 0.000000
0.000000 0.492615 0.000000
0.034088 0.493164 0.000000
0.101196 0.493713 0.000000
0.156860 0.492981 0.000000
0.203888 0.491272 0.001099
0.245544 0.489716 0.011566
0.283813 0.488495 0.029388
0.320007 0.487610 0.046997
0.354736 0.487183 0.061737
0.388672 0.487244 0.073822
0.422089 0.487762 0.083862
0.455170 0.488861 0.091736
0.488251 0.490509 0.097473
0.521454 0.492340 0.102478
0.554230 0.494110 0.109100
0.586517 0.495941 0.116760
0.618408 0.497833 0.124969
0.649841 0.499939 0.133148
0.680847 0.502258 0.141479
0.711365 0.504883 0.149750
0.741455 0.507721 0.157806
0.770996 0.510803 0.165710
0.800110 0.514160 0.173492
0.828583 0.517822 0.181183
0.856384 0.521698 0.188660
0.883545 0.525879 0.195801
0.910522 0.530273 0.201538
0.936890 0.534943 0.206604
0.000000 0.528015 0.000000
0.000000 0.528198 0.000000
0.000000 0.528351 0.000000
0.000000 0.528595 0.000000
0.000000 0.528961 0.000000
0.000000 0.529327 0.000000
0.021729 0.529846 0.000000
0.093018 0.530396 0.000000
0.153015 0.530090 0.000000
0.202942 0.528442 0.000000
0.246582 0.526703 0.003876
0.286316 0.525238 0.020691
0.323639 0.524109 0.040253
0.359314 0.523376 0.057648
0.393829 0.523102 0.071716
0.427643 0.523254 0.083496
0.460907 0.523865 0.093170
0.493958 0.525024 0.100861
0.526978 0.526672 0.106415
0.559967 0.528534 0.111511
0.592499 0.530243 0.118317
0.624542 0.532013 0.125916
0.656067 0.533905 0.134064
0.687134 0.535980 0.142242
0.717682 0.538269 0.150604
0.747681 0.540833 0.158752
0.777130 0.543579 0.166840
0.806091 0.546600 0.174774
0.834381 0.549896 0.182526
0.862000 0.553467 0.190125
0.888885 0.557281 0.197388
0.915588 0.561371 0.203156
0.941650 0.565735 0.208130
0.000000 0.564697 0.000000
0.000000 0.564850 0.000000
0.000000 0.565002 0.000000
0.000000 0.565216 0.000000
0.000000 0.565521 0.000000
0.000000 0.565887 0.000000
0.013947 0.566315 0.000000
0.087952 0.566864 0.000000
0.151001 0.566895 0.000000
0.202972 0.565338 0.000000
0.248474 0.563446 0.000641
0.289429 0.561829 0.012451
0.327637 0.560486 0.033539
0.364044 0.559509 0.053284
0.399200 0.558899 0.069641
0.433380 0.558716 0.082947
0.466888 0.558960 0.094177
0.499939 0.559692 0.103394
0.532776 0.560883 0.110840
0.565582 0.562561 0.116089
0.598267 0.564392 0.121399
0.630432 0.566101 0.128204
0.662079 0.567841 0.135681
0.693146 0.569702 0.143799
0.723663 0.571747 0.151947
0.753662 0.574005 0.160248
0.783051 0.576447 0.168396
0.811859 0.579163 0.176453
0.839996 0.582123 0.184326
0.867401 0.585358 0.191986
0.893982 0.588837 0.199402
0.920349 0.592621 0.205200
0.946136 0.596680 0.210083
0.000000 0.601013 0.000000
0.000000 0.601166 0.000000
0.000000 0.601318 0.000000
0.000000 0.601501 0.000000
0.000000 0.601776 0.000000
0.000000 0.602112 0.000000
0.011963 0.602478 0.000000
0.087280 0.602936 0.000000
0.151855 0.603180 0.000000
0.204773 0.601776 0.000000
0.251434 0.599792 0.000000
0.293365 0.598022 0.007446
0.332336 0.596527 0.027740
0.369293 0.595337 0.049408
0.404846 0.594513 0.067719
0.439362 0.594025 0.082733
0.473083 0.593933 0.095215
0.506165 0.594299 0.105743
0.538910 0.595123 0.114502
0.571411 0.596375 0.121613
0.603912 0.598022 0.126801
0.636139 0.599792 0.132233
0.667816 0.601501 0.138947
0.698944 0.603210 0.146393
0.729492 0.605042 0.154358
0.759369 0.607025 0.162567
0.788727 0.609222 0.170715
0.817352 0.611664 0.178772
0.845337 0.614288 0.186707
0.872528 0.617218 0.194489
0.898834 0.620392 0.201996
0.924835 0.623901 0.207886
0.950317 0.627686 0.212708
0.000000 0.636902 0.000000
0.000000 0.637024 0.000000
0.000000 0.637146 0.000000
0.000000 0.637329 0.000000
0.000000 0.637573 0.000000
0.000000 0.637848 0.000000
0.017242 0.638214 0.000000
0.091705 0.638611 0.000000
0.156097 0.638885 0.000000
0.209015 0.637604 0.000000
0.256073 0.635620 0.000000
0.298462 0.633759 0.004730
0.337860 0.632111 0.023956
0.375183 0.630798 0.047363
0.411041 0.629730 0.067078
0.445770 0.629059 0.083313
0.479584 0.628693 0.096924
0.512726 0.628723 0.108582
0.545380 0.629181 0.118500
0.577667 0.630035 0.126740
0.609741 0.631317 0.133484
0.641785 0.632965 0.138611
0.673462 0.634705 0.144104
0.704559 0.636353 0.150787
0.735046 0.638031 0.158234
0.764893 0.639862 0.166046
0.794098 0.641815 0.174103
0.822662 0.643951 0.182068
0.850403 0.646362 0.190002
0.877350 0.648956 0.197815
0.903381 0.651855 0.205322
0.929047 0.655060 0.211273
0.954193 0.658569 0.216095
0.000000 0.672241 0.000000
0.000000 0.672333 0.000000
0.000000 0.672455 0.000000
0.000000 0.672577 0.000000
0.000000 0.672791 0.000000
0.000000 0.673035 0.000000
0.031525 0.673370 0.000000
0.102417 0.673706 0.000000
0.164124 0.673981 0.000000
0.215942 0.672760 0.000000
0.262634 0.670776 0.000000
0.305054 0.668854 0.004333
0.344513 0.667145 0.023346
0.381989 0.665649 0.048004
0.417908 0.664459 0.068756
0.452698 0.663574 0.085663
0.486542 0.662994 0.100006
0.519653 0.662750 0.112305
0.552185 0.662903 0.123077
0.584290 0.663452 0.132355
0.616028 0.664337 0.140228
0.647614 0.665649 0.146637
0.679077 0.667328 0.151703
0.710083 0.668976 0.157257
0.740540 0.670563 0.163849
0.770264 0.672241 0.171173
0.799347 0.674011 0.178711
0.827698 0.675934 0.186554
0.855255 0.678101 0.194366
0.881927 0.680450 0.202057
0.907684 0.683014 0.209534
0.932953 0.685974 0.215454
0.957764 0.689209 0.220276
0.000000 0.706909 0.000000
0.000000 0.706970 0.000000
0.000000 0.707062 0.000000
0.000000 0.707214 0.000000
0.000000 0.707397 0.000000
0.001648 0.707611 0.000000
0.052887 0.707886 0.000000
0.119049 0.708191 0.000000
0.175598 0.708405 0.000000
0.225647 0.707153 0.000000
0.271423 0.705170 0.000000
0.313324 0.703217 0.007050
0.352478 0.701447 0.027252
0.389709 0.699890 0.052124
0.425598 0.698578 0.073120
0.460266 0.697510 0.090210
0.494019 0.696747 0.104889
0.527039 0.696289 0.117676
0.559448 0.696167 0.128967
0.591309 0.696411 0.138885
0.622772 0.696991 0.147491
0.653961 0.697937 0.154938
0.684875 0.699249 0.160980
0.715668 0.700867 0.165833
0.745911 0.702484 0.171387
0.775513 0.704071 0.177917
0.804413 0.705688 0.184967
0.832611 0.707428 0.192383
0.859894 0.709351 0.199982
0.886261 0.711456 0.207520
0.911682 0.713745 0.214783
0.936584 0.716431 0.220825
0.961029 0.719421 0.225464
0.000000 0.740784 0.000000
0.000000 0.740845 0.000000
0.000000 0.740936 0.000000
0.000000 0.741058 0.000000
0.000000 0.741180 0.000000
0.013977 0.741394 0.000000
0.078278 0.741638 0.000000
0.139893 0.741882 0.000000
0.190674 0.741974 0.000000
0.238220 0.740631 0.000000
0.282593 0.738647 0.000946
0.323547 0.736694 0.013519
0.362030 0.734894 0.036377
0.398804 0.733276 0.060699
0.434326 0.731873 0.080719
0.468719 0.730682 0.097443
0.502228 0.729736 0.111877
0.534973 0.729126 0.124756
0.567169 0.728790 0.136292
0.598785 0.728760 0.146576
0.629974 0.729065 0.155609
0.660736 0.729675 0.163574
0.691223 0.730652 0.170593
0.721466 0.731964 0.176208
0.751373 0.733551 0.180908
0.780823 0.735077 0.186554
0.809448 0.736603 0.192871
0.837402 0.738220 0.199799
0.864380 0.739929 0.206970
0.890442 0.741791 0.214142
0.915497 0.743835 0.221252
0.940063 0.746246 0.227264
0.964081 0.748962 0.231903
0.000000 0.773743 0.000000
0.000000 0.773804 0.000000
0.000000 0.773895 0.000000
0.000000 0.773987 0.000000
0.006592 0.774109 0.000000
0.047882 0.774261 0.000000
0.110535 0.774445 0.000000
0.163849 0.774689 0.000000
0.209351 0.774567 0.000000
0.253967 0.773071 0.000336
0.296265 0.771088 0.006683
0.335785 0.769165 0.025360
0.373260 0.767334 0.050415
0.409302 0.765686 0.072906
0.444214 0.764191 0.091309
0.478180 0.762909 0.107117
0.511292 0.761871 0.121185
0.543671 0.761078 0.133759
0.575531 0.760529 0.145172
0.606812 0.760284 0.155548
0.637604 0.760345 0.164917
0.668030 0.760712 0.173248
0.698029 0.761353 0.180634
0.727753 0.762329 0.187012
0.757172 0.763611 0.192474
0.786194 0.765137 0.197083
0.814545 0.766571 0.202637
0.842133 0.768066 0.208801
0.868805 0.769592 0.215393
0.894501 0.771271 0.222229
0.919220 0.773102 0.229065
0.943329 0.775208 0.234924
0.966980 0.777649 0.239502
0.000000 0.805695 0.000000
0.000000 0.805695 0.000000
0.001373 0.805756 0.000000
0.010223 0.805847 0.000000
0.040192 0.805939 0.000000
0.097046 0.806091 0.000000
0.147400 0.806213 0.000000
0.190338 0.806396 0.000000
0.231598 0.805878 0.000519
0.273010 0.804230 0.005646
0.312744 0.802277 0.021606
0.350372 0.800385 0.045624
0.386536 0.798553 0.068909
0.421539 0.796906 0.088257
0.455597 0.795380 0.104767
0.488892 0.794006 0.119324
0.521423 0.792877 0.132568
0.553375 0.791931 0.144684
0.584747 0.791229 0.155823
0.615631 0.790771 0.166107
0.645996 0.790619 0.175446
0.675934 0.790741 0.183899
0.705505 0.791077 0.191620
0.734680 0.791748 0.198456
0.763458 0.792725 0.204407
