滤镜资源/Professional Luts Collection/Lutify.me Professional/Vintage Films/Flower Stone.cube
# Created by: Lutify.me
# Copyright: (c) Copyright Lutify.me 2015
# Website: https://lutify.me
#LUT size
LUT_3D_SIZE 5
#LUT data points
0.000000 0.000000 0.000000
0.144226 0.018188 0.012970
0.362885 0.056061 0.059296
0.628693 0.090149 0.121765
0.878662 0.166443 0.182526
0.000000 0.180847 0.008545
0.174377 0.181061 0.031311
0.396667 0.198792 0.080933
0.649414 0.232880 0.139893
0.889160 0.288544 0.197235
0.000000 0.454193 0.000000
0.161591 0.455688 0.000244
0.449615 0.454224 0.089233
0.704865 0.471680 0.149170
0.931824 0.504456 0.205353
0.000000 0.740784 0.000000
0.190674 0.741974 0.000000
0.502228 0.729736 0.111877
0.751373 0.733551 0.180908
0.964081 0.748962 0.231903
0.303925 0.968536 0.144958
0.411133 0.962494 0.177429
0.608246 0.951996 0.235474
0.811340 0.947235 0.289337
0.987854 0.953735 0.325287
0.000000 0.000000 0.220215
0.180176 0.003601 0.193146
0.407532 0.038269 0.201935
0.662567 0.084229 0.240326
0.905182 0.167114 0.286499
0.000000 0.194458 0.200348
0.184692 0.194641 0.199036
0.407257 0.217499 0.223175
0.663147 0.249512 0.261139
0.905518 0.299866 0.303009
0.000000 0.469604 0.199799
0.166992 0.465973 0.209320
0.461212 0.462952 0.244995
0.709473 0.481293 0.286865
0.932220 0.516235 0.329346
0.000000 0.750244 0.223907
0.193481 0.749573 0.229919
0.508636 0.738464 0.273956
0.757507 0.740143 0.317139
0.966827 0.755371 0.354767
0.303467 0.974274 0.304840
0.406708 0.971497 0.313599
0.609283 0.960876 0.348267
0.814636 0.953308 0.392365
0.989899 0.958832 0.422882
0.000000 0.000000 0.556274
0.013214 0.000000 0.542267
0.450989 0.000000 0.493591
0.737976 0.000000 0.494110
0.980591 0.076385 0.513336
0.000000 0.178955 0.535614
0.024109 0.167358 0.538971
0.465332 0.192963 0.498047
0.739227 0.224304 0.499695
0.977692 0.277649 0.521057
0.000000 0.486206 0.511536
0.029999 0.486176 0.510529
0.479279 0.482178 0.510162
0.722290 0.512115 0.527618
0.938049 0.549530 0.558563
0.000000 0.779846 0.509460
0.048035 0.778717 0.509918
0.514343 0.760803 0.527405
0.770874 0.757233 0.556549
0.968536 0.772980 0.587036
0.232544 0.999512 0.541595
0.387177 0.991272 0.551971
0.607574 0.980621 0.567993
0.820953 0.969757 0.596893
0.993896 0.972076 0.622833
0.000000 0.000000 0.887115
0.000000 0.000000 0.880646
0.446533 0.000000 0.818085
0.773560 0.000000 0.786652
1.000000 0.000000 0.785675
0.000000 0.132324 0.867737
0.000000 0.114502 0.864014
0.458527 0.110504 0.824799
0.779541 0.173920 0.787445
1.000000 0.215607 0.786530
0.000000 0.479675 0.824432
0.000000 0.477722 0.823303
0.451843 0.456970 0.836182
0.787323 0.494507 0.788452
1.000000 0.536560 0.786713
0.000000 0.785736 0.796387
0.003174 0.784698 0.795532
0.486572 0.781433 0.793091
0.792297 0.777679 0.788544
0.970947 0.801758 0.806366
0.152863 1.000000 0.786560
0.337006 1.000000 0.786987
0.595001 1.000000 0.790100
0.826660 0.990631 0.801727
0.999939 0.988312 0.822510
0.000000 0.000000 1.000000
0.000000 0.000000 1.000000
0.517975 0.000000 1.000000
0.821899 0.000000 0.970001
1.000000 0.000000 0.963379
0.000000 0.040558 1.000000
0.000000 0.005402 1.000000
0.527802 0.039581 1.000000
0.826447 0.153137 0.968414
1.000000 0.199554 0.961823
0.000000 0.465088 1.000000
0.069122 0.453766 1.000000
0.521851 0.438110 1.000000
0.832489 0.485077 0.967987
1.000000 0.518890 0.956024
0.000000 0.782501 0.970459
0.245544 0.781250 0.971222
0.540680 0.775909 0.973572
0.824799 0.765900 0.968719
1.000000 0.795349 0.945129
0.327148 1.000000 0.941895
0.426849 1.000000 0.941162
0.626801 1.000000 0.939148
0.842682 1.000000 0.937042
1.000000 0.997406 0.964813
