滤镜资源/Professional Luts Collection/Lutify.me Professional/Vintage Films/Fluorite Venus.cube
# Created by: Lutify.me
# Copyright: (c) Copyright Lutify.me 2015
# Website: https://lutify.me
#LUT size
LUT_3D_SIZE 33
#LUT data points
0.000000 0.000000 0.000000
0.024506 0.001526 0.000031
0.051819 0.003143 0.001160
0.079742 0.006104 0.001953
0.108734 0.009308 0.003082
0.137634 0.013885 0.004639
0.167023 0.018951 0.006439
0.196442 0.024994 0.008575
0.226532 0.032196 0.011169
0.257141 0.039948 0.014496
0.288544 0.047455 0.017883
0.320648 0.054565 0.021667
0.353607 0.061401 0.026062
0.387451 0.067841 0.031067
0.422089 0.073578 0.036682
0.457428 0.078827 0.042664
0.493195 0.083832 0.048645
0.529327 0.088440 0.054810
0.565674 0.092682 0.061035
0.602020 0.096771 0.067108
0.638245 0.101013 0.073212
0.674133 0.105469 0.079163
0.709564 0.110046 0.085083
0.744354 0.115204 0.091095
0.778381 0.121002 0.096954
0.811401 0.127563 0.102753
0.843323 0.135406 0.108612
0.873871 0.144073 0.114227
0.902924 0.153748 0.119812
0.930145 0.164948 0.125519
0.955475 0.177521 0.130768
0.978607 0.191437 0.136047
0.999786 0.206116 0.141327
0.000427 0.031006 0.002319
0.025177 0.034119 0.002319
0.052124 0.036133 0.003052
0.080566 0.039490 0.003876
0.109009 0.042847 0.005341
0.138062 0.046997 0.006897
0.167358 0.051544 0.008545
0.197083 0.056335 0.011047
0.227112 0.061737 0.013794
0.257751 0.067352 0.016418
0.289124 0.072906 0.019989
0.321289 0.078400 0.024048
0.354279 0.083618 0.028564
0.388092 0.088593 0.033478
0.422791 0.093353 0.038849
0.458130 0.097809 0.044739
0.493927 0.101837 0.050659
0.530060 0.105652 0.056519
0.566406 0.109436 0.062592
0.602722 0.113037 0.068634
0.638885 0.116699 0.074524
0.674713 0.120575 0.080444
0.710083 0.124725 0.086517
0.744873 0.129486 0.092346
0.778870 0.134644 0.098114
0.811829 0.140686 0.103973
0.843628 0.147736 0.109680
0.874146 0.155792 0.115295
0.903107 0.165070 0.120880
0.930298 0.175568 0.126190
0.955536 0.187378 0.131653
0.978668 0.200378 0.136749
0.999756 0.214478 0.142029
0.000793 0.061829 0.004669
0.026001 0.063843 0.005402
0.052490 0.066071 0.005737
0.081024 0.068695 0.006592
0.109558 0.071533 0.008026
0.138458 0.074554 0.009277
0.167786 0.078308 0.011261
0.197449 0.081970 0.013611
0.227631 0.086304 0.016266
0.258331 0.090668 0.019257
0.289703 0.095154 0.022675
0.321869 0.099609 0.026733
0.354950 0.103943 0.031311
0.388824 0.108185 0.036194
0.423523 0.112244 0.041382
0.458862 0.115936 0.047150
0.494659 0.119476 0.053009
0.530823 0.122803 0.058685
0.567139 0.126007 0.064453
0.603455 0.129242 0.070343
0.639557 0.132599 0.076172
0.675385 0.136047 0.082062
0.710693 0.139801 0.087982
0.745392 0.143982 0.093689
0.779327 0.148804 0.099304
0.812256 0.154297 0.105011
0.844025 0.160767 0.110657
0.874481 0.168243 0.116302
0.903381 0.176788 0.121735
0.930481 0.186798 0.127106
0.955658 0.197815 0.132446
0.978668 0.210205 0.137665
0.999664 0.223602 0.142731
0.002197 0.092804 0.008423
0.027435 0.094086 0.008881
0.053436 0.096039 0.009644
0.081299 0.098541 0.010040
0.109772 0.100861 0.011292
0.139008 0.103333 0.012878
0.168243 0.106415 0.015015
0.198059 0.109528 0.017059
0.228271 0.113007 0.019531
0.259094 0.116516 0.022766
0.290588 0.120026 0.026276
0.322784 0.123901 0.030334
0.355865 0.127563 0.034973
0.389862 0.131104 0.039764
0.424591 0.134491 0.045135
0.459900 0.137695 0.050446
0.495667 0.140717 0.055939
0.531769 0.143646 0.061584
0.568054 0.146515 0.067169
0.604309 0.149353 0.072784
0.640381 0.152283 0.078369
0.676178 0.155273 0.084015
0.711456 0.158569 0.089783
0.746155 0.162262 0.095428
0.779999 0.166656 0.101013
0.812836 0.171692 0.106659
0.844543 0.177551 0.112213
0.874878 0.184387 0.117767
0.903687 0.192261 0.123138
0.930695 0.201324 0.128540
0.955750 0.211639 0.133759
0.978638 0.223328 0.138947
0.999512 0.235901 0.144104
0.003113 0.123810 0.012878
0.028412 0.125031 0.013947
0.054749 0.126404 0.014679
0.082062 0.128571 0.014862
0.110748 0.130707 0.015808
0.139587 0.132996 0.017456
0.169128 0.135468 0.019653
0.198792 0.138184 0.021698
0.229187 0.141022 0.024323
0.260010 0.144104 0.027527
0.291687 0.147217 0.030945
0.324005 0.150299 0.035126
0.357178 0.153473 0.039581
0.391174 0.156433 0.044342
0.425903 0.159393 0.049377
0.461243 0.162262 0.054596
0.496979 0.164917 0.059723
0.533020 0.167450 0.065277
0.569275 0.169952 0.070709
0.605499 0.172455 0.076050
0.641479 0.175049 0.081482
0.677124 0.177795 0.086914
0.712372 0.180786 0.092499
0.746948 0.184174 0.097931
0.780701 0.188019 0.103363
0.813446 0.192505 0.108948
0.845032 0.197845 0.114380
0.875305 0.204010 0.119720
0.903961 0.211151 0.125000
0.930878 0.219360 0.130524
0.955750 0.228882 0.135620
0.978485 0.239594 0.140839
0.999237 0.251465 0.145813
0.005066 0.154999 0.018890
0.030243 0.155914 0.019775
0.056976 0.156921 0.020538
0.083954 0.158752 0.021210
0.111816 0.161011 0.021942
0.140930 0.163025 0.023071
0.170288 0.165253 0.024811
0.200043 0.167572 0.027344
0.230377 0.170044 0.030487
0.261444 0.172699 0.033539
0.293060 0.175446 0.037262
0.325500 0.178162 0.041229
0.358734 0.180878 0.045593
0.392792 0.183594 0.049927
0.427612 0.186127 0.054504
0.462952 0.188599 0.059418
0.498657 0.191010 0.064362
0.534637 0.193298 0.069427
0.570801 0.195526 0.074738
0.606903 0.197784 0.079926
0.642822 0.200165 0.085205
0.678375 0.202667 0.090546
0.713470 0.205322 0.095886
0.747925 0.208374 0.101227
0.781555 0.211853 0.106598
0.814178 0.215881 0.111877
0.845612 0.220673 0.117126
0.875763 0.226166 0.122375
0.904266 0.232605 0.127716
0.930969 0.240234 0.132843
0.955688 0.248840 0.137909
0.978302 0.258698 0.143066
0.998871 0.269592 0.148010
0.007507 0.186279 0.026398
0.033386 0.187042 0.027283
0.059448 0.187866 0.028320
0.086151 0.189362 0.028839
0.113800 0.191254 0.029236
0.142395 0.193359 0.030365
0.171906 0.195435 0.031677
0.201691 0.197540 0.034241
0.232025 0.199768 0.037506
0.263092 0.202087 0.040710
0.294891 0.204437 0.044220
0.327393 0.206970 0.047974
0.360748 0.209442 0.051941
0.394867 0.211823 0.056152
0.429657 0.214142 0.060577
0.464996 0.216370 0.065033
0.500702 0.218506 0.069763
0.536621 0.220581 0.074463
0.572662 0.222687 0.079407
0.608643 0.224762 0.084473
0.644440 0.226868 0.089447
0.679871 0.229156 0.094635
0.714844 0.231628 0.099854
0.749146 0.234406 0.104980
0.782593 0.237610 0.110138
0.815063 0.241241 0.115295
0.846344 0.245483 0.120483
0.876282 0.250519 0.125610
0.904572 0.256409 0.130676
0.931091 0.263214 0.135712
0.955658 0.271057 0.140778
0.978058 0.280090 0.145844
0.998474 0.290100 0.150696
0.011780 0.217499 0.035065
0.037720 0.218109 0.035858
0.062653 0.218811 0.037231
0.088898 0.220032 0.037964
0.116150 0.221771 0.038177
0.144653 0.223724 0.038910
0.173767 0.225769 0.040344
0.203857 0.227783 0.042114
0.234283 0.229767 0.044952
0.265350 0.231873 0.048309
0.297211 0.234070 0.051758
0.329865 0.236237 0.055176
0.363281 0.238464 0.058807
0.397400 0.240662 0.062805
0.432190 0.242798 0.066833
0.467468 0.244904 0.071228
0.503082 0.246887 0.075653
0.538940 0.248840 0.080200
0.574860 0.250732 0.084717
0.610718 0.252686 0.089539
0.646362 0.254700 0.094452
0.681641 0.256805 0.099365
0.716400 0.259094 0.104279
0.750519 0.261627 0.109222
0.783783 0.264526 0.114258
0.816071 0.267853 0.119263
0.847137 0.271698 0.124207
0.876862 0.276245 0.129242
0.904968 0.281586 0.134155
0.931274 0.287781 0.139038
0.955566 0.294922 0.144043
0.977753 0.303162 0.148895
0.997955 0.312317 0.153625
0.017303 0.248779 0.044769
0.043335 0.249359 0.045624
0.067108 0.249908 0.046722
0.092743 0.250946 0.047699
0.119324 0.252563 0.048065
0.147430 0.254303 0.048431
0.176422 0.256317 0.049408
0.206390 0.258240 0.050781
0.237000 0.260162 0.052979
0.268219 0.262085 0.055969
0.300079 0.264008 0.059448
0.332825 0.266052 0.062897
0.366272 0.268127 0.066345
0.400421 0.270142 0.069855
0.435181 0.272125 0.073700
0.470428 0.274078 0.077698
0.505920 0.275940 0.081848
0.541626 0.277771 0.086182
0.577423 0.279602 0.090668
0.613098 0.281433 0.095184
0.648560 0.283295 0.099792
0.683685 0.285248 0.104492
0.718231 0.287384 0.109253
0.752167 0.289734 0.114044
0.785217 0.292358 0.118835
0.817261 0.295441 0.123657
0.848083 0.298981 0.128387
0.877563 0.303131 0.133240
0.905426 0.307953 0.138092
0.931427 0.313599 0.142914
0.955444 0.320190 0.147736
0.977386 0.327667 0.152374
0.997375 0.336090 0.156982
0.023834 0.280304 0.054901
0.049805 0.280762 0.055603
0.072662 0.281250 0.056610
0.097473 0.282074 0.057556
0.123779 0.283447 0.057983
0.151184 0.285126 0.058441
0.179901 0.287018 0.059174
0.209625 0.288910 0.059967
0.240265 0.290771 0.061768
0.271576 0.292633 0.063995
0.303680 0.294464 0.067078
0.336334 0.296265 0.070496
0.369843 0.298157 0.073761
0.403931 0.300049 0.077393
0.438660 0.301880 0.080872
0.473785 0.303741 0.084656
0.509186 0.305511 0.088593
0.544739 0.307220 0.092682
0.580353 0.308960 0.096832
0.615875 0.310669 0.101135
0.651093 0.312439 0.105591
0.686005 0.314270 0.110046
0.720337 0.316254 0.114532
0.753998 0.318451 0.119141
0.786804 0.320862 0.123810
0.818573 0.323669 0.128448
0.849152 0.326965 0.133087
0.878326 0.330780 0.137695
0.905884 0.335236 0.142365
0.931610 0.340393 0.147095
0.955292 0.346466 0.151733
0.976959 0.353302 0.156342
0.996674 0.361023 0.160889
0.033112 0.311890 0.064728
0.057861 0.312286 0.065521
0.079376 0.312714 0.066528
0.103424 0.313354 0.067444
0.128967 0.314575 0.067932
0.156006 0.316132 0.068359
0.184235 0.317902 0.068787
0.213684 0.319733 0.069550
0.244263 0.321503 0.070679
0.275665 0.323334 0.072510
0.307861 0.325104 0.075043
0.340637 0.326752 0.078064
0.374023 0.328461 0.081451
0.408112 0.330231 0.084900
0.442719 0.331940 0.088440
0.477692 0.333649 0.091919
0.512909 0.335358 0.095673
0.548309 0.336975 0.099518
0.583710 0.338593 0.103424
0.618958 0.340240 0.107452
0.653992 0.341919 0.111694
0.688599 0.343658 0.116028
0.722687 0.345551 0.120331
0.756073 0.347595 0.124725
0.788574 0.349854 0.129242
0.820068 0.352448 0.133728
0.850311 0.355469 0.138184
0.879150 0.359009 0.142639
0.906403 0.363129 0.147095
0.931793 0.367889 0.151733
0.955109 0.373444 0.156219
0.976440 0.379761 0.160706
0.995911 0.386810 0.165070
0.045776 0.343414 0.074799
0.067871 0.343781 0.075439
0.087769 0.344147 0.076324
0.110626 0.344757 0.077301
0.135437 0.345764 0.077911
0.161865 0.347198 0.078125
0.189758 0.348846 0.078430
0.218933 0.350555 0.079041
0.249176 0.352325 0.080048
0.280548 0.354065 0.081390
0.312744 0.355774 0.083344
0.345581 0.357391 0.086029
0.378967 0.358917 0.089264
0.412872 0.360504 0.092499
0.447357 0.362122 0.096069
0.482208 0.363708 0.099426
0.517181 0.365295 0.102936
0.552277 0.366882 0.106598
0.587463 0.368378 0.110382
0.622467 0.369934 0.114197
0.657196 0.371552 0.118195
0.691528 0.373169 0.122345
0.725311 0.374969 0.126465
0.758362 0.376923 0.130707
0.790527 0.379089 0.135010
0.821686 0.381500 0.139313
0.851562 0.384308 0.143646
0.880066 0.387573 0.147919
0.906952 0.391357 0.152252
0.931915 0.395813 0.156616
0.954865 0.400909 0.161041
0.975861 0.406738 0.165405
0.995026 0.413239 0.169708
0.060699 0.374878 0.084900
0.079926 0.375214 0.085449
0.098145 0.375580 0.086182
0.119629 0.376068 0.087067
0.143738 0.376953 0.087860
0.169220 0.378296 0.088013
0.196716 0.379791 0.088196
0.225494 0.381409 0.088715
0.255524 0.383087 0.089355
0.286530 0.384827 0.090576
0.318604 0.386444 0.092102
0.351379 0.388000 0.094299
0.384674 0.389465 0.097137
0.418396 0.390930 0.100464
0.452637 0.392365 0.103699
0.487213 0.393860 0.107086
0.521973 0.395355 0.110382
0.556824 0.396820 0.113922
0.591644 0.398285 0.117523
0.626373 0.399750 0.121277
0.660797 0.401276 0.125092
0.694794 0.402863 0.128998
0.728180 0.404510 0.132965
0.760895 0.406342 0.136963
0.792725 0.408386 0.141113
0.823456 0.410675 0.145203
0.852936 0.413300 0.149353
0.881042 0.416351 0.153534
0.907501 0.419891 0.157654
0.932037 0.423981 0.161896
0.954559 0.428741 0.166199
0.975189 0.434082 0.170441
0.994049 0.440094 0.174622
0.077362 0.406219 0.094879
0.094269 0.406494 0.095428
0.110840 0.406830 0.096039
0.130890 0.407257 0.097076
0.153748 0.408051 0.097717
0.178467 0.409302 0.097809
0.205200 0.410706 0.097931
0.233490 0.412231 0.098328
0.263123 0.413788 0.098969
0.293854 0.415436 0.099792
0.325531 0.417023 0.101105
0.358063 0.418518 0.102875
0.391205 0.419952 0.105286
0.424744 0.421295 0.108307
0.458679 0.422638 0.111603
0.492920 0.423981 0.114899
0.527313 0.425385 0.118195
0.561859 0.426758 0.121490
0.596375 0.428131 0.125000
0.630676 0.429596 0.128540
0.664734 0.431000 0.132202
0.698364 0.432495 0.135925
0.731384 0.434082 0.139740
0.763672 0.435822 0.143585
0.795074 0.437744 0.147552
0.825409 0.439880 0.151459
0.854462 0.442352 0.155396
0.882080 0.445190 0.159485
0.908051 0.448486 0.163483
0.932159 0.452271 0.167572
0.954193 0.456696 0.171692
0.974457 0.461670 0.175842
0.992950 0.467194 0.179810
0.096100 0.437378 0.104950
0.110901 0.437653 0.105438
0.125885 0.437897 0.106079
0.144440 0.438324 0.106964
0.165955 0.439026 0.107574
0.189697 0.440186 0.107666
0.215485 0.441498 0.107697
0.243042 0.442902 0.107971
0.272125 0.444397 0.108582
0.302399 0.445923 0.109375
0.333679 0.447449 0.110352
0.365784 0.448914 0.111786
0.398560 0.450317 0.113739
0.431854 0.451599 0.116425
0.465454 0.452820 0.119537
0.499359 0.454041 0.122864
0.533356 0.455322 0.126099
0.567413 0.456635 0.129364
0.601562 0.457916 0.132690
0.635468 0.459229 0.136139
0.669067 0.460663 0.139587
0.702271 0.462036 0.143127
0.734863 0.463562 0.146759
0.766724 0.465179 0.150513
0.797638 0.467010 0.154297
0.827484 0.469025 0.158051
0.856049 0.471344 0.161804
0.883209 0.473999 0.165710
0.908630 0.477081 0.169617
0.932220 0.480591 0.173523
0.953796 0.484680 0.177460
0.973602 0.489319 0.181549
0.991760 0.494415 0.185486
0.116760 0.468292 0.115173
0.129761 0.468536 0.115662
0.143219 0.468750 0.116241
0.160400 0.469116 0.117004
0.180420 0.469818 0.117401
0.202911 0.470856 0.117462
0.227753 0.472076 0.117554
0.254425 0.473389 0.117737
0.282654 0.474792 0.118195
0.312286 0.476227 0.118896
0.343018 0.477692 0.119812
0.374603 0.479095 0.120972
0.406921 0.480408 0.122650
0.439789 0.481659 0.124847
0.473022 0.482819 0.127655
0.506409 0.483948 0.130890
0.539978 0.485077 0.134186
0.573639 0.486298 0.137329
0.607239 0.487518 0.140533
0.640717 0.488770 0.143829
0.673828 0.490051 0.147186
0.706543 0.491394 0.150604
0.738617 0.492798 0.154083
0.769989 0.494354 0.157654
0.800415 0.496063 0.161285
0.829712 0.497955 0.164917
0.857727 0.500122 0.168610
0.884338 0.502625 0.172241
0.909210 0.505524 0.175995
0.932220 0.508789 0.179749
0.953339 0.512604 0.183624
0.972717 0.516876 0.187531
0.990509 0.521576 0.191406
0.139526 0.498779 0.125458
0.150848 0.498993 0.125977
0.162842 0.499207 0.126465
0.178467 0.499542 0.127106
0.196930 0.500275 0.127258
0.218201 0.501251 0.127319
0.241791 0.502380 0.127380
0.267548 0.503571 0.127594
0.294891 0.504883 0.127899
0.323639 0.506226 0.128448
0.353699 0.507568 0.129242
0.384644 0.508911 0.130371
0.416321 0.510162 0.131805
0.448578 0.511383 0.133667
0.481384 0.512482 0.136047
0.514282 0.513519 0.139038
0.547272 0.514587 0.142242
0.580414 0.515625 0.145477
0.613525 0.516785 0.148590
0.646454 0.517944 0.151764
0.679047 0.519135 0.154999
0.711182 0.520416 0.158295
0.742737 0.521759 0.161621
0.773529 0.523193 0.165100
0.803375 0.524811 0.168488
0.832092 0.526611 0.172058
0.859558 0.528625 0.175598
0.885529 0.530975 0.179138
0.909821 0.533630 0.182709
0.932251 0.536743 0.186279
0.952820 0.540253 0.190094
0.971741 0.544189 0.193817
0.989136 0.548523 0.197601
0.163910 0.528809 0.135895
0.173798 0.529022 0.136322
0.184479 0.529266 0.136810
0.198456 0.529663 0.137207
0.215424 0.530365 0.137177
0.235413 0.531250 0.137146
0.257782 0.532318 0.137238
0.282379 0.533386 0.137421
0.308685 0.534576 0.137695
0.336517 0.535858 0.138153
0.365662 0.537109 0.138885
0.395844 0.538330 0.139862
0.426849 0.539520 0.141174
0.458435 0.540680 0.142792
0.490509 0.541779 0.144836
0.522919 0.542755 0.147400
0.555389 0.543671 0.150574
0.587830 0.544678 0.153717
0.620331 0.545685 0.156830
0.652679 0.546722 0.159973
0.684692 0.547882 0.163086
0.716217 0.549042 0.166260
0.747131 0.550323 0.169464
0.777344 0.551636 0.172760
0.806549 0.553162 0.176056
0.834656 0.554840 0.179474
0.861450 0.556763 0.182892
0.886780 0.558929 0.186279
0.910400 0.561432 0.189728
0.932220 0.564301 0.193176
0.952240 0.567566 0.196808
0.970703 0.571198 0.200470
0.987671 0.575195 0.204132
0.189453 0.558441 0.146484
0.198242 0.558624 0.146820
0.207733 0.558868 0.147125
0.220276 0.559357 0.147217
0.235840 0.560028 0.147125
0.254364 0.560852 0.147064
0.275513 0.561798 0.147186
0.298889 0.562805 0.147308
0.324097 0.563873 0.147552
0.350891 0.565033 0.147980
0.379028 0.566193 0.148651
0.408264 0.567352 0.149536
0.438416 0.568451 0.150726
0.469238 0.569550 0.152161
0.500580 0.570587 0.153992
0.532349 0.571533 0.156281
0.564148 0.572418 0.158936
0.596008 0.573242 0.162170
0.627777 0.574158 0.165253
0.659424 0.575134 0.168335
0.690796 0.576141 0.171417
0.721680 0.577240 0.174438
0.751953 0.578400 0.177521
0.781433 0.579651 0.180725
0.809967 0.581085 0.183929
0.837402 0.582642 0.187164
0.863495 0.584412 0.190460
0.888062 0.586456 0.193695
0.910980 0.588776 0.196991
0.932159 0.591431 0.200378
0.951660 0.594452 0.203857
0.969604 0.597778 0.207428
0.986145 0.601471 0.210968
0.216187 0.587494 0.157013
0.223907 0.587708 0.157166
0.232208 0.588043 0.157227
0.243561 0.588501 0.157104
0.257843 0.589142 0.157013
0.275085 0.589874 0.157043
0.294922 0.590729 0.157166
0.316986 0.591644 0.157288
0.341003 0.592651 0.157532
0.366669 0.593689 0.157959
0.393738 0.594727 0.158569
0.421967 0.595795 0.159363
0.451141 0.596832 0.160400
0.481110 0.597839 0.161743
0.511597 0.598816 0.163391
0.542572 0.599701 0.165466
0.573730 0.600525 0.167908
0.604828 0.601288 0.170715
0.635895 0.602081 0.173828
0.666779 0.602936 0.176849
0.697418 0.603851 0.179871
0.727570 0.604828 0.182892
0.757080 0.605896 0.185822
0.785858 0.607056 0.188934
0.813629 0.608368 0.192047
0.840271 0.609833 0.195190
0.865601 0.611481 0.198303
0.889435 0.613403 0.201477
0.911591 0.615570 0.204590
0.932129 0.618011 0.207855
0.951050 0.620758 0.211273
0.968536 0.623840 0.214691
0.984619 0.627197 0.218140
0.243591 0.615967 0.167297
0.250336 0.616302 0.167206
0.257812 0.616608 0.167267
0.268127 0.617035 0.167145
0.281342 0.617584 0.167084
0.297333 0.618225 0.167145
0.315887 0.618988 0.167236
0.336609 0.619843 0.167358
0.359344 0.620728 0.167664
0.383820 0.621643 0.168060
0.409760 0.622589 0.168640
0.436920 0.623566 0.169373
0.465057 0.624542 0.170319
0.494019 0.625458 0.171509
0.523621 0.626343 0.173035
0.553680 0.627197 0.174896
0.584015 0.627930 0.177124
0.614380 0.628662 0.179688
0.644623 0.629364 0.182648
0.674683 0.630096 0.185608
0.704529 0.630890 0.188629
0.733887 0.631775 0.191559
0.762604 0.632721 0.194489
0.790558 0.633820 0.197388
0.817535 0.635010 0.200439
0.843353 0.636353 0.203461
0.867859 0.637848 0.206482
0.890869 0.639618 0.209595
0.912292 0.641632 0.212555
0.932129 0.643921 0.215637
0.950470 0.646423 0.218933
0.967438 0.649200 0.222321
0.983124 0.652313 0.225647
0.271606 0.643860 0.177460
0.277710 0.644104 0.177399
0.284546 0.644379 0.177399
0.293915 0.644745 0.177368
0.306122 0.645264 0.177368
0.320892 0.645813 0.177399
0.338196 0.646484 0.177460
0.357635 0.647247 0.177612
0.379059 0.648041 0.177887
0.402313 0.648865 0.178314
0.427032 0.649719 0.178864
0.453033 0.650604 0.179565
0.480103 0.651459 0.180450
0.508026 0.652313 0.181519
0.536621 0.653107 0.182922
0.565704 0.653870 0.184662
0.595093 0.654602 0.186615
0.624603 0.655243 0.189026
0.654053 0.655853 0.191711
0.683258 0.656494 0.194733
0.712158 0.657166 0.197601
0.740662 0.657928 0.200470
0.768494 0.658783 0.203400
0.795593 0.659760 0.206207
0.821686 0.660858 0.209106
0.846649 0.662079 0.212006
0.870239 0.663483 0.214935
0.892395 0.665100 0.217896
0.913025 0.666931 0.220825
0.932190 0.669006 0.223785
0.949921 0.671295 0.226929
0.966370 0.673828 0.230194
0.981659 0.676605 0.233429
0.300415 0.670837 0.187622
0.306000 0.671051 0.187744
0.312225 0.671295 0.187653
0.320770 0.671600 0.187714
0.332031 0.672028 0.187714
0.345642 0.672546 0.187775
0.361755 0.673126 0.187866
0.379944 0.673767 0.188049
0.400116 0.674500 0.188354
0.422089 0.675232 0.188690
0.445526 0.675995 0.189270
0.470337 0.676788 0.189911
0.496246 0.677551 0.190826
0.523041 0.678284 0.191895
0.550598 0.679016 0.193115
0.578674 0.679688 0.194702
0.607025 0.680328 0.196594
0.635559 0.680908 0.198700
0.664093 0.681488 0.201233
0.692383 0.682007 0.203979
0.720337 0.682587 0.206909
0.747894 0.683228 0.209717
0.774780 0.683990 0.212555
0.800934 0.684814 0.215302
0.826111 0.685791 0.218048
0.850067 0.686890 0.220917
0.872772 0.688171 0.223724
0.893982 0.689667 0.226501
0.913849 0.691345 0.229370
0.932343 0.693207 0.232239
0.949493 0.695282 0.235321
0.965424 0.697571 0.238373
0.980286 0.700043 0.241547
0.330017 0.696808 0.198059
0.335083 0.696960 0.198181
0.340729 0.697205 0.198151
0.348633 0.697479 0.198242
0.358917 0.697845 0.198242
0.371490 0.698273 0.198334
0.386414 0.698761 0.198456
0.403381 0.699341 0.198669
0.422302 0.699982 0.198975
0.443054 0.700623 0.199402
0.465271 0.701263 0.199890
0.488800 0.701965 0.200562
0.513489 0.702637 0.201416
0.539124 0.703308 0.202454
0.565521 0.703918 0.203644
0.592468 0.704498 0.205078
0.619781 0.705048 0.206787
0.647278 0.705597 0.208801
0.674805 0.706055 0.211060
0.702118 0.706543 0.213654
0.729065 0.707001 0.216400
0.755615 0.707520 0.219208
0.781494 0.708191 0.221954
0.806580 0.708954 0.224731
0.830750 0.709778 0.227386
0.853729 0.710724 0.230103
0.875427 0.711914 0.232819
0.895782 0.713226 0.235504
0.914825 0.714722 0.238251
0.932617 0.716431 0.241058
0.949188 0.718292 0.243958
0.964630 0.720337 0.246918
0.979034 0.722565 0.250000
0.360199 0.721619 0.208832
0.364777 0.721771 0.208832
0.369965 0.721954 0.208893
0.377197 0.722198 0.208954
0.386627 0.722504 0.209045
0.398224 0.722870 0.209106
0.412048 0.723297 0.209229
0.427887 0.723785 0.209503
0.445618 0.724335 0.209808
0.465057 0.724884 0.210236
0.486053 0.725464 0.210754
0.508331 0.726013 0.211426
0.531769 0.726593 0.212219
0.556183 0.727173 0.213196
0.581421 0.727722 0.214355
0.607208 0.728210 0.215729
0.633362 0.728668 0.217316
0.659729 0.729126 0.219147
0.686157 0.729553 0.221283
0.712402 0.729950 0.223694
0.738342 0.730316 0.226288
0.763794 0.730743 0.228973
0.788605 0.731262 0.231628
0.812622 0.731903 0.234314
0.835663 0.732666 0.236969
0.857574 0.733521 0.239594
0.878235 0.734558 0.242188
0.897736 0.735748 0.244873
0.916016 0.737061 0.247467
0.933075 0.738586 0.250153
0.949066 0.740265 0.252930
0.963989 0.742065 0.255829
0.977966 0.744049 0.258789
0.390839 0.745209 0.219727
0.395050 0.745361 0.219818
0.399780 0.745483 0.219818
0.406433 0.745697 0.219879
0.415161 0.745941 0.219971
0.425812 0.746246 0.220093
0.438599 0.746613 0.220337
0.453308 0.747009 0.220612
0.469849 0.747467 0.220917
0.488068 0.747955 0.221313
0.507782 0.748444 0.221863
0.528809 0.748932 0.222504
0.550995 0.749390 0.223328
0.574158 0.749878 0.224243
0.598145 0.750336 0.225342
0.622711 0.750763 0.226685
0.647675 0.751129 0.228210
0.672882 0.751495 0.229889
0.698120 0.751831 0.231842
0.723267 0.752167 0.234039
0.748047 0.752472 0.236511
0.772369 0.752808 0.239136
0.796051 0.753235 0.241699
0.818939 0.753754 0.244263
0.840820 0.754395 0.246796
0.861603 0.755188 0.249390
0.881287 0.756104 0.251862
0.899841 0.757172 0.254425
0.917328 0.758392 0.256989
0.933716 0.759705 0.259583
0.949097 0.761200 0.262268
0.963531 0.762817 0.265076
0.977051 0.764587 0.267883
0.421875 0.767548 0.230957
0.425751 0.767670 0.230957
0.430054 0.767761 0.231018
0.436096 0.767914 0.231110
0.444092 0.768158 0.231293
0.453979 0.768402 0.231354
0.465820 0.768677 0.231567
0.479462 0.769043 0.231873
0.494812 0.769409 0.232208
0.511871 0.769775 0.232605
0.530334 0.770203 0.233185
0.550110 0.770599 0.233826
0.571014 0.770996 0.234589
0.592926 0.771393 0.235565
0.615631 0.771759 0.236633
0.638947 0.772095 0.237885
0.662659 0.772430 0.239288
0.686646 0.772705 0.240906
0.710663 0.772980 0.242706
0.734589 0.773254 0.244812
0.758179 0.773499 0.247070
0.781281 0.773773 0.249542
0.803772 0.774109 0.252075
0.825470 0.774567 0.254578
0.846130 0.775116 0.256989
