滤镜资源/Professional Luts Collection/Lutify.me Professional/Vintage Films/Fluorite Blue Sky.cube
# Created by: Lutify.me
# Copyright: (c) Copyright Lutify.me 2015
# Website: https://lutify.me
#LUT size
LUT_3D_SIZE 5
#LUT data points
0.000000 0.000000 0.000000
0.130615 0.009430 0.013153
0.340607 0.021027 0.060425
0.612152 0.003693 0.125183
0.875061 0.074677 0.189331
0.020905 0.147125 0.025238
0.165588 0.147644 0.046021
0.373383 0.163239 0.091766
0.632172 0.190186 0.149414
0.885895 0.239197 0.206696
0.000000 0.420471 0.032227
0.151825 0.422607 0.047150
0.433105 0.423859 0.113342
0.694580 0.443085 0.168732
0.929504 0.479462 0.222351
0.000000 0.732880 0.000000
0.082367 0.734711 0.000000
0.476593 0.724457 0.128326
0.743073 0.728271 0.194916
0.962677 0.745117 0.243103
0.232117 0.971191 0.147125
0.366791 0.966217 0.173767
0.591095 0.953735 0.237061
0.805847 0.947876 0.292542
0.986755 0.953949 0.328308
0.000000 0.000000 0.231476
0.158875 0.000000 0.204468
0.387695 0.000000 0.208038
0.649658 0.000000 0.244720
0.904877 0.055450 0.291840
0.000000 0.156494 0.216614
0.171661 0.151855 0.217560
0.394836 0.177246 0.225494
0.664307 0.191589 0.259918
0.913727 0.239258 0.304291
0.000000 0.437927 0.216888
0.143280 0.435669 0.223053
0.444275 0.432800 0.255615
0.697845 0.453766 0.298340
0.928406 0.492645 0.340179
0.000000 0.743622 0.232544
0.063202 0.744965 0.234741
0.482666 0.733734 0.276703
0.749481 0.734741 0.322296
0.965240 0.751373 0.359619
0.217407 0.980286 0.294373
0.364197 0.973907 0.310577
0.592255 0.962677 0.345520
0.809387 0.953827 0.391510
0.988892 0.958893 0.422272
0.000000 0.000000 0.558289
0.000000 0.000000 0.550232
0.422699 0.000000 0.495453
0.724457 0.000000 0.493622
0.979645 0.000000 0.512390
0.000000 0.132355 0.542938
0.001465 0.117371 0.543823
0.442505 0.138763 0.500183
0.735718 0.140381 0.500153
0.984863 0.196564 0.519196
0.000000 0.450256 0.515869
0.005005 0.450684 0.514832
0.463165 0.445435 0.515533
0.719574 0.482819 0.523590
0.941376 0.523987 0.555115
0.000000 0.772522 0.508148
0.000000 0.772491 0.508026
0.489014 0.755219 0.523773
0.764160 0.751526 0.553436
0.967407 0.768768 0.584229
0.072754 1.000000 0.531128
0.339294 0.994873 0.543640
0.592712 0.981415 0.562317
0.816559 0.969971 0.591644
0.993317 0.971832 0.618042
0.000000 0.000000 0.881500
0.000000 0.000000 0.876465
0.410217 0.000000 0.817169
0.762634 0.000000 0.780457
1.000000 0.000000 0.779297
0.000000 0.065002 0.867584
0.000000 0.032654 0.863495
0.433899 0.016876 0.817932
0.772369 0.060364 0.781525
1.000000 0.084869 0.780853
0.000000 0.442474 0.823242
0.000000 0.440979 0.821014
0.438293 0.418793 0.832733
0.785736 0.460693 0.782532
1.000000 0.505829 0.780457
0.000000 0.778900 0.789124
0.000000 0.778137 0.788177
0.465179 0.775269 0.785400
0.787476 0.772308 0.780670
0.970520 0.797455 0.799438
0.000000 1.000000 0.776825
0.298187 1.000000 0.777405
0.584503 1.000000 0.780975
0.824219 0.990387 0.793274
1.000000 0.987762 0.814575
0.000000 0.000000 1.000000
0.000000 0.000000 1.000000
0.484528 0.000000 1.000000
0.815308 0.000000 0.968597
1.000000 0.000000 0.961761
0.000000 0.000000 1.000000
0.000000 0.000000 1.000000
0.507996 0.000000 1.000000
0.822815 0.013123 0.966278
1.000000 0.051788 0.960571
0.000000 0.426727 1.000000
0.004364 0.414764 1.000000
0.511902 0.399628 1.000000
0.833008 0.451843 0.965973
1.000000 0.488068 0.955139
0.000000 0.776154 0.969086
0.176514 0.775055 0.970337
0.524231 0.769897 0.972900
0.821625 0.760315 0.967804
1.000000 0.791595 0.943970
0.285126 1.000000 0.941589
0.400543 1.000000 0.940857
0.615753 1.000000 0.938873
0.839172 1.000000 0.936798
1.000000 0.997406 0.964813
