滤镜资源/Professional Luts Collection/Lutify.me Professional/Vintage Films/Fluorite.cube
# Created by: Lutify.me
# Copyright: (c) Copyright Lutify.me 2015
# Website: https://lutify.me
#LUT size
LUT_3D_SIZE 9
#LUT data points
0.000000 0.000000 0.000000
0.019684 0.003448 0.003479
0.068817 0.012970 0.013153
0.135406 0.029572 0.032837
0.228912 0.051849 0.065247
0.353546 0.070801 0.103699
0.497467 0.088745 0.146393
0.643921 0.118317 0.190857
0.777771 0.169403 0.234863
0.003754 0.033997 0.005035
0.034698 0.033386 0.010834
0.084442 0.042664 0.023651
0.148376 0.060181 0.046234
0.239136 0.081696 0.078064
0.365082 0.099884 0.113831
0.508484 0.120758 0.154816
0.652863 0.153015 0.198395
0.784454 0.202301 0.241638
0.006165 0.108246 0.017029
0.044403 0.108429 0.021881
0.107727 0.108948 0.040802
0.180298 0.119385 0.065033
0.274078 0.138031 0.097870
0.394348 0.162323 0.135742
0.530670 0.192078 0.177124
0.668976 0.229248 0.219482
0.793121 0.277954 0.262329
0.000000 0.219421 0.028198
0.003510 0.221191 0.029114
0.113831 0.219818 0.051758
0.215118 0.223175 0.084656
0.327881 0.237732 0.115753
0.451477 0.260071 0.156097
0.582764 0.290558 0.198303
0.711334 0.328308 0.240723
0.827240 0.372894 0.280945
0.000000 0.378601 0.027069
0.000000 0.379974 0.027069
0.026459 0.382507 0.029358
0.237671 0.375244 0.090668
0.376434 0.382568 0.132172
0.514618 0.399658 0.168304
0.645355 0.422760 0.213745
0.765839 0.453644 0.257904
0.870850 0.490723 0.296936
0.000000 0.558197 0.002899
0.000000 0.559113 0.002838
0.000000 0.562164 0.004211
0.249756 0.552765 0.066162
0.422211 0.547211 0.148987
0.566467 0.557709 0.190155
0.700745 0.574341 0.228668
0.815399 0.595154 0.274475
0.909241 0.622040 0.313843
0.000000 0.725372 0.000000
0.000000 0.725861 0.000000
0.005341 0.727814 0.000061
0.302612 0.716919 0.076447
0.480103 0.705780 0.177185
0.620300 0.706177 0.234344
0.746002 0.717041 0.268982
0.853271 0.730621 0.306274
0.936584 0.747528 0.342834
0.011658 0.856262 0.053436
0.053955 0.856628 0.058716
0.259033 0.854156 0.093506
0.428528 0.840088 0.183899
0.566864 0.829926 0.248291
0.687775 0.826508 0.297729
0.794373 0.829437 0.336761
0.885406 0.837860 0.364410
0.957581 0.847870 0.393433
0.391022 0.940491 0.232697
0.423431 0.937317 0.246063
0.488770 0.932007 0.270111
0.576172 0.925476 0.302460
0.671661 0.918823 0.340942
0.763916 0.914612 0.379578
0.846161 0.914673 0.413422
0.916595 0.919220 0.439911
0.977234 0.926910 0.461273
0.000000 0.000000 0.078979
0.037842 0.000092 0.054962
0.093842 0.012695 0.055176
0.157654 0.032013 0.071991
0.250488 0.052917 0.098480
0.373566 0.071381 0.132751
0.515137 0.089600 0.172577
0.658875 0.120972 0.215149
0.790253 0.173340 0.257904
0.000000 0.042297 0.059784
0.036774 0.040466 0.059784
0.092987 0.052917 0.065887
0.158508 0.069885 0.084381
0.254211 0.088165 0.109894
0.384033 0.101990 0.141174
0.525299 0.122833 0.180084
0.667175 0.156342 0.222137
0.796417 0.206757 0.264526
0.000061 0.119324 0.062775
0.040405 0.116669 0.067413
0.113739 0.115479 0.082275
0.184448 0.127075 0.103455
0.278961 0.147064 0.131317
0.400879 0.171509 0.165466
0.538940 0.200348 0.203827
0.677948 0.236603 0.244202
0.800995 0.285309 0.286285
0.000000 0.228149 0.074921
0.000305 0.229675 0.075653
0.115173 0.227631 0.091248
0.221680 0.228973 0.120178
0.333466 0.243622 0.149658
0.456360 0.267212 0.186951
0.587738 0.298340 0.226593
0.716370 0.336212 0.267395
0.831421 0.380707 0.306824
0.000000 0.382507 0.078949
0.000000 0.383850 0.079529
0.033112 0.386719 0.087555
0.243591 0.381348 0.128998
0.383209 0.387756 0.166748
0.520050 0.404785 0.201599
0.649597 0.428467 0.244781
0.769165 0.459900 0.287262
0.873260 0.497223 0.325256
0.000000 0.560852 0.060272
0.000000 0.561707 0.061707
0.000000 0.564758 0.067963
0.257812 0.556152 0.129730
0.428375 0.552063 0.188049
0.572052 0.562378 0.225800
0.704834 0.578766 0.263580
0.818176 0.599915 0.307159
0.911102 0.627014 0.344818
0.000000 0.727600 0.069305
0.000000 0.728088 0.071045
0.011017 0.730103 0.080048
0.310455 0.719604 0.152679
0.485474 0.709656 0.221344
0.625153 0.710419 0.270294
0.749969 0.720978 0.303253
0.856018 0.734436 0.339081
0.938385 0.751312 0.373962
0.013824 0.858398 0.150909
0.075653 0.858795 0.153473
0.267883 0.856110 0.173523
0.433655 0.842987 0.233673
0.570496 0.834534 0.283630
0.691559 0.830353 0.330170
0.797455 0.832733 0.367798
0.887604 0.841034 0.394318
0.959137 0.850983 0.422089
0.390320 0.945557 0.271179
0.422363 0.942932 0.281036
0.489075 0.937347 0.302795
0.578217 0.929749 0.334198
0.674347 0.922394 0.370850
0.766510 0.917755 0.407776
0.848297 0.917542 0.440338
0.918060 0.922058 0.465759
0.978424 0.929596 0.486237
0.000000 0.000000 0.200043
0.001038 0.000000 0.186066
0.109833 0.000000 0.151489
0.197266 0.010529 0.148438
0.296204 0.034058 0.161713
0.420135 0.054657 0.189728
0.559601 0.074921 0.226318
0.699554 0.111816 0.266998
0.827393 0.168823 0.308197
0.000000 0.029999 0.182434
0.000122 0.024994 0.184479
0.113647 0.040283 0.155487
0.199036 0.061523 0.152588
0.300720 0.080475 0.168854
0.430511 0.092926 0.196655
0.569031 0.115448 0.233185
0.707336 0.152100 0.273621
0.833069 0.205170 0.314240
0.000000 0.127106 0.164459
0.000977 0.127167 0.164001
0.112183 0.124756 0.165039
0.202271 0.141266 0.168732
0.300659 0.162567 0.192017
0.426208 0.185944 0.223389
0.566711 0.212952 0.259521
0.706970 0.247040 0.297852
0.827179 0.296448 0.338776
0.000000 0.250824 0.161804
0.000000 0.251678 0.161865
0.105682 0.245087 0.169739
0.235992 0.242310 0.192139
0.343964 0.258820 0.221710
0.465027 0.285736 0.255890
0.595459 0.318695 0.293427
0.722839 0.357574 0.332977
0.835907 0.402466 0.371857
0.000000 0.409149 0.167511
0.000000 0.410004 0.167877
0.004608 0.407471 0.176605
0.252930 0.399323 0.205048
0.398712 0.400513 0.243256
0.530731 0.417328 0.279480
0.655365 0.443420 0.320557
0.772064 0.476715 0.360474
0.873901 0.514862 0.396820
0.000000 0.582031 0.180817
0.000000 0.582703 0.181458
0.000000 0.583008 0.187500
0.260284 0.574951 0.219116
0.441956 0.566681 0.267273
0.585175 0.573883 0.305420
0.713654 0.589691 0.342896
0.822601 0.611633 0.384186
0.912476 0.639435 0.419312
0.000000 0.743530 0.209442
0.000000 0.743958 0.210144
0.005157 0.744415 0.216431
0.311340 0.736084 0.249451
0.494629 0.724945 0.299042
0.636475 0.721375 0.347443
0.759094 0.730591 0.379272
0.861755 0.743500 0.413666
0.941254 0.760406 0.446167
0.006195 0.873077 0.260284
0.027985 0.873383 0.261780
0.270905 0.866547 0.282684
0.433044 0.858795 0.311310
0.577057 0.847656 0.354767
0.700256 0.840393 0.399628
0.804626 0.840973 0.436615
0.892731 0.848755 0.461517
0.962402 0.858398 0.487457
0.391296 0.954742 0.356201
0.421661 0.953461 0.360687
0.487122 0.950043 0.372009
0.579498 0.942474 0.396667
0.678955 0.933563 0.430115
0.772308 0.926880 0.466217
0.853241 0.925110 0.498749
0.921600 0.928772 0.523926
0.981110 0.936127 0.542847
0.000000 0.000000 0.391724
0.000000 0.000000 0.387360
0.004974 0.000000 0.352478
0.206787 0.000000 0.301605
0.351624 0.000000 0.294373
0.491180 0.000000 0.302704
0.631500 0.003510 0.327911
0.766815 0.056946 0.361877
0.888977 0.140564 0.397552
0.000000 0.001984 0.377777
0.000000 0.001190 0.376099
0.003815 0.000031 0.360321
0.214294 0.021118 0.304596
0.359009 0.017303 0.297943
0.499756 0.032349 0.308075
0.639618 0.068420 0.333923
0.773376 0.122345 0.367706
0.893738 0.186737 0.402954
0.000000 0.113617 0.350342
0.000000 0.113403 0.349396
0.001587 0.102081 0.357300
0.231201 0.118530 0.315430
0.369080 0.145142 0.305786
0.498383 0.175995 0.322845
0.637024 0.204803 0.352478
0.771759 0.241455 0.386536
0.886383 0.293915 0.422424
0.000000 0.259735 0.329285
0.000000 0.260223 0.328827
0.003326 0.260864 0.327423
0.233307 0.255798 0.330963
0.376312 0.282196 0.328766
0.497772 0.312836 0.356415
0.627197 0.346344 0.390808
0.751434 0.385498 0.427765
0.858490 0.431244 0.464996
0.000000 0.439728 0.322205
0.000000 0.440094 0.322113
0.000000 0.438812 0.322662
0.247101 0.426910 0.332611
0.421661 0.422180 0.361206
0.545654 0.441711 0.396027
0.666504 0.471436 0.431000
0.780731 0.506165 0.466003
0.879089 0.544525 0.499390
0.000000 0.619293 0.326691
0.000000 0.619537 0.326874
0.000000 0.618622 0.328979
0.254944 0.599457 0.354401
0.458771 0.591095 0.383789
0.604828 0.592926 0.422028
0.726227 0.608582 0.458679
0.828888 0.632416 0.495453
0.914337 0.661163 0.526581
0.000000 0.778748 0.347656
0.000000 0.778900 0.348022
0.000000 0.777710 0.351471
0.312744 0.755768 0.387085
0.504639 0.748169 0.413727
0.653107 0.739471 0.457581
0.772705 0.746185 0.488831
0.869781 0.758453 0.521271
0.944702 0.775482 0.550659
0.000000 0.902130 0.386017
0.000000 0.902100 0.386475
0.227661 0.891388 0.405334
0.438629 0.874451 0.436768
0.584229 0.867188 0.460388
0.712311 0.856659 0.499603
0.815308 0.854218 0.535675
0.900024 0.861115 0.558624
0.966858 0.870270 0.582092
0.377838 0.972565 0.465668
0.419464 0.967682 0.474548
0.492401 0.961792 0.487000
0.581604 0.958344 0.497772
0.684204 0.949768 0.521698
0.779968 0.941071 0.553528
0.860382 0.937103 0.584534
0.926758 0.939423 0.608612
0.984924 0.946411 0.625244
0.000000 0.000000 0.636139
0.000000 0.000000 0.632751
0.000000 0.000000 0.616699
0.044342 0.000000 0.554535
0.366943 0.000000 0.492462
0.554138 0.000000 0.484528
0.711304 0.000000 0.487000
0.844788 0.000000 0.502960
0.964386 0.013336 0.526398
0.000000 0.000000 0.625549
0.000000 0.000000 0.623444
0.000000 0.000000 0.619629
0.057098 0.000000 0.557007
0.374481 0.000000 0.493439
0.559174 0.000000 0.486572
0.715698 0.000000 0.489929
0.849365 0.005676 0.507080
0.967621 0.108643 0.530396
0.000000 0.068054 0.597321
0.000000 0.066864 0.595947
0.000000 0.051880 0.602905
0.072418 0.017670 0.573486
0.396820 0.097900 0.499908
0.572968 0.101501 0.491974
0.722260 0.141907 0.498688
0.853058 0.196930 0.517761
0.964539 0.257385 0.541626
0.000000 0.249084 0.558167
0.000000 0.249023 0.557312
0.000000 0.246490 0.559937
0.074951 0.222626 0.575348
0.424316 0.256042 0.512054
0.583801 0.293884 0.500427
0.709045 0.342163 0.514526
0.822296 0.390381 0.541077
0.919617 0.440399 0.570465
0.000000 0.446625 0.530151
0.000000 0.446686 0.529785
0.000000 0.446625 0.528839
0.135193 0.446075 0.526886
0.429291 0.434784 0.532318
0.583862 0.471497 0.523132
0.699829 0.504974 0.549591
0.808289 0.540283 0.579681
0.898956 0.578888 0.609406
0.000000 0.644257 0.519226
0.000000 0.644226 0.519043
0.000000 0.643738 0.518585
0.113708 0.637543 0.518585
0.463074 0.621582 0.528259
0.628601 0.617401 0.556458
0.739471 0.635895 0.588562
0.836731 0.662323 0.617279
0.917664 0.691376 0.642975
0.000000 0.808563 0.520538
0.000000 0.808472 0.520538
0.000000 0.807373 0.521057
0.235992 0.792084 0.532013
0.512451 0.771179 0.555206
0.671387 0.763550 0.581451
0.788971 0.765961 0.612061
0.878418 0.778137 0.641174
0.947693 0.795746 0.665833
0.000000 0.928589 0.539856
0.000000 0.928436 0.539978
0.075439 0.921936 0.546143
0.422913 0.899353 0.569153
0.592041 0.885712 0.589905
0.724243 0.877502 0.613007
0.828094 0.871094 0.645935
0.908630 0.876587 0.666809
0.971710 0.885193 0.687317
0.319214 0.998322 0.584442
0.378662 0.994415 0.590912
0.477234 0.983856 0.603424
0.587189 0.972290 0.619659
0.688324 0.967529 0.631195
0.787048 0.958984 0.652985
0.868530 0.952454 0.680145
0.933014 0.952789 0.702637
0.989655 0.959137 0.716827
0.000000 0.000000 0.859894
0.000000 0.000000 0.857483
0.000000 0.000000 0.851837
0.000000 0.000000 0.807220
0.339722 0.000000 0.721283
0.578766 0.000000 0.674774
0.766174 0.000000 0.670288
0.910095 0.000000 0.668945
1.000000 0.000000 0.677795
0.000000 0.000000 0.852997
0.000000 0.000000 0.851166
0.000000 0.000000 0.847198
0.000000 0.000000 0.807892
0.349182 0.000000 0.719330
0.583313 0.000000 0.675323
0.768860 0.000000 0.671234
0.911804 0.000000 0.670258
1.000000 0.000000 0.679596
0.000000 0.001221 0.829315
0.000000 0.000977 0.828094
0.000000 0.000000 0.828278
0.000000 0.000000 0.815857
0.375092 0.000183 0.724762
0.600250 0.031006 0.677734
0.777954 0.015198 0.674103
0.915894 0.097748 0.674896
1.000000 0.177124 0.684784
0.000000 0.217957 0.785736
0.000000 0.217316 0.784821
0.000000 0.212860 0.785919
0.000000 0.181854 0.796844
0.395172 0.182678 0.747040
0.623566 0.261749 0.683533
0.784912 0.292450 0.676758
0.900787 0.357147 0.679230
0.994751 0.411926 0.692719
0.000000 0.440643 0.738159
0.000000 0.440430 0.737640
0.000000 0.439484 0.737000
0.000000 0.432678 0.742188
0.376312 0.399994 0.761475
0.643463 0.451202 0.690002
0.782776 0.492950 0.681793
0.879181 0.543274 0.692413
0.959564 0.586548 0.710938
0.000000 0.647034 0.709229
0.000000 0.646790 0.708984
0.000000 0.646240 0.708313
0.017883 0.644562 0.706024
0.415588 0.640869 0.703613
0.653748 0.630280 0.702209
0.770020 0.666290 0.700470
0.859192 0.694519 0.721741
0.932098 0.723328 0.742706
0.000000 0.822113 0.695709
0.000000 0.821838 0.695496
0.000000 0.821014 0.695068
0.086487 0.815857 0.693542
0.472473 0.805084 0.693268
0.684998 0.788239 0.703705
0.807465 0.786865 0.726837
0.886810 0.800873 0.750000
0.950562 0.819489 0.768311
0.000000 0.944366 0.693939
0.000000 0.944122 0.693878
0.013733 0.940643 0.694611
0.365570 0.927521 0.698944
0.582336 0.910767 0.708771
0.734253 0.897156 0.724335
0.842407 0.889526 0.746521
0.918579 0.892609 0.765411
0.977051 0.900940 0.782410
0.219849 1.000000 0.707092
0.302979 1.000000 0.709259
0.430908 1.000000 0.714355
0.568756 0.996826 0.723602
0.693542 0.982697 0.737366
0.792816 0.976562 0.748444
0.876862 0.969330 0.766998
0.940948 0.966888 0.786926
0.995911 0.972260 0.798737
0.000000 0.000000 0.998230
0.000000 0.000000 0.997955
0.000000 0.000000 0.997223
0.000000 0.000000 0.977783
0.308289 0.000000 0.899963
0.607117 0.000000 0.835510
0.796417 0.000000 0.814606
0.951599 0.000000 0.811401
1.000000 0.000000 0.812378
0.000000 0.000000 0.997467
0.000000 0.000000 0.997101
0.000000 0.000000 0.995178
0.000000 0.000000 0.975067
0.322998 0.000000 0.896667
0.611542 0.000000 0.834625
0.798920 0.000000 0.814789
0.952667 0.000000 0.811707
1.000000 0.000000 0.812744
0.000000 0.000000 0.986572
0.000000 0.000000 0.985992
0.000000 0.000000 0.984894
0.000000 0.000000 0.980316
0.347382 0.000000 0.900238
0.627045 0.000000 0.834839
0.807922 0.000000 0.815552
0.955994 0.005371 0.812439
1.000000 0.065308 0.813782
0.000000 0.172852 0.949493
0.000000 0.171295 0.948914
0.000000 0.165527 0.948608
0.000000 0.118713 0.958008
0.368164 0.090576 0.915741
0.650391 0.209381 0.841339
0.820709 0.264221 0.816437
0.953613 0.309326 0.810760
1.000000 0.359161 0.811890
0.000000 0.424530 0.897003
0.000000 0.423981 0.896576
0.000000 0.421844 0.896393
0.000000 0.406860 0.904938
0.354523 0.363617 0.921631
0.666443 0.411652 0.851227
0.829437 0.468903 0.816071
0.942352 0.516144 0.808563
1.000000 0.559570 0.811432
0.000000 0.643982 0.852661
0.000000 0.643646 0.852386
0.000000 0.642731 0.851929
0.007294 0.639587 0.853027
0.387360 0.628662 0.861542
0.651306 0.603607 0.864990
0.831879 0.651764 0.813904
0.920166 0.693909 0.809357
0.984131 0.728363 0.818115
0.000000 0.821747 0.826843
0.000000 0.821472 0.826721
0.000000 0.820648 0.826294
0.097626 0.817657 0.824249
0.460663 0.812744 0.821136
0.672058 0.806732 0.817352
0.831055 0.805847 0.812988
0.900543 0.824921 0.825958
0.959442 0.843018 0.838959
0.000000 0.948822 0.811798
0.000000 0.948456 0.811707
0.017761 0.946381 0.811157
0.342072 0.939880 0.809601
0.562347 0.930542 0.808563
0.734619 0.917328 0.811188
0.857117 0.906403 0.822205
0.930939 0.906677 0.838013
0.983978 0.915466 0.851074
0.209137 1.000000 0.806000
0.285492 1.000000 0.806061
0.409241 1.000000 0.806488
0.548981 1.000000 0.808075
0.685577 0.999695 0.812805
0.801575 0.989380 0.822540
0.885956 0.983856 0.832001
0.951263 0.979431 0.847473
1.000000 0.983490 0.857483
0.000000 0.000000 1.000000
0.000000 0.000000 1.000000
0.000000 0.000000 1.000000
0.000000 0.000000 1.000000
0.389862 0.000000 0.983856
0.658936 0.000000 0.926025
0.836395 0.000000 0.899811
0.980347 0.000000 0.895264
1.000000 0.000000 0.894897
0.000000 0.000000 1.000000
0.000000 0.000000 1.000000
0.000000 0.000000 1.000000
0.000000 0.000000 1.000000
0.401398 0.000000 0.980713
0.662750 0.000000 0.924683
0.838318 0.000000 0.899414
0.981018 0.000000 0.895142
1.000000 0.000000 0.894775
0.000000 0.000000 1.000000
0.000000 0.000000 1.000000
0.000000 0.000000 1.000000
0.000000 0.000000 1.000000
0.417511 0.000000 0.982758
0.674805 0.000000 0.924133
0.845520 0.000000 0.898560
0.983307 0.000000 0.894409
1.000000 0.012878 0.893921
0.000000 0.111786 1.000000
0.000000 0.108734 1.000000
0.000000 0.089111 1.000000
0.000000 0.021667 1.000000
0.440674 0.046021 0.990387
0.695129 0.166962 0.927704
0.856750 0.253998 0.897339
0.983948 0.289856 0.891418
1.000000 0.327118 0.890228
0.000000 0.406525 0.985107
0.000000 0.405701 0.984772
0.000000 0.398773 0.988373
0.005127 0.372620 0.997833
0.431610 0.335510 0.996979
0.707153 0.391357 0.935028
0.863678 0.463470 0.894409
0.978149 0.500305 0.885895
1.000000 0.532471 0.884094
0.000000 0.637817 0.935059
0.000000 0.637421 0.934845
0.000000 0.635345 0.936279
0.081696 0.627502 0.942413
0.435791 0.607147 0.955231
0.691833 0.588501 0.943970
0.864044 0.644531 0.890228
0.962769 0.680634 0.878540
1.000000 0.710754 0.877197
0.000000 0.819061 0.900604
0.000000 0.818726 0.900482
0.000000 0.817780 0.900269
0.254120 0.814697 0.899231
0.506226 0.809631 0.898376
0.689331 0.800690 0.900482
0.859131 0.794983 0.888519
0.941406 0.827301 0.874298
0.991302 0.850067 0.880096
0.000000 0.947327 0.879883
0.013824 0.946869 0.879730
0.163025 0.944611 0.878754
0.411865 0.940277 0.876953
0.589783 0.934235 0.874512
0.742554 0.926941 0.871918
0.869141 0.918213 0.872772
0.944672 0.917480 0.883148
0.992554 0.928070 0.892487
0.320343 1.000000 0.866241
0.366150 1.000000 0.865936
0.456543 1.000000 0.865326
0.572662 1.000000 0.864594
0.694855 1.000000 0.864746
0.808411 0.998566 0.868195
0.898346 0.993256 0.875153
0.963654 0.988983 0.886353
1.000000 0.990601 0.897064
0.000000 0.000000 1.000000
0.000000 0.000000 1.000000
0.000000 0.000000 1.000000
0.040344 0.000000 1.000000
0.516937 0.000000 0.999939
0.730347 0.000000 0.967926
0.885956 0.000000 0.945862
0.999786 0.000000 0.940765
1.000000 0.000000 0.940369
0.000000 0.000000 1.000000
0.000000 0.000000 1.000000
0.000000 0.000000 1.000000
0.075653 0.000000 1.000000
0.525116 0.000000 0.999664
0.733246 0.000000 0.966736
0.887299 0.000000 0.945374
0.999878 0.000000 0.940521
1.000000 0.000000 0.940155
0.000000 0.000000 1.000000
0.000000 0.000000 1.000000
0.000000 0.000000 1.000000
0.078705 0.000000 1.000000
0.533173 0.000000 0.999146
0.742004 0.000000 0.966125
0.892578 0.000000 0.944244
1.000000 0.000000 0.939301
1.000000 0.012543 0.938812
0.000000 0.074402 1.000000
0.000000 0.060669 1.000000
0.000000 0.036560 1.000000
0.120239 0.000366 1.000000
0.550079 0.041809 0.999817
0.758484 0.157318 0.967712
0.901093 0.247986 0.942657
1.000000 0.294220 0.935944
1.000000 0.322296 0.935181
0.000000 0.390472 1.000000
0.000000 0.384033 1.000000
0.000000 0.372437 1.000000
0.171143 0.333374 1.000000
0.545258 0.328064 1.000000
0.768097 0.392212 0.972839
0.904480 0.461578 0.939148
0.999359 0.502808 0.929840
1.000000 0.524078 0.928802
0.000000 0.630096 0.984894
0.000000 0.628357 0.986389
0.000000 0.622894 0.990997
0.293365 0.608612 0.997314
0.530396 0.582703 1.000000
0.757019 0.586304 0.979218
0.900391 0.642212 0.934601
0.989197 0.681274 0.921021
1.000000 0.698730 0.919891
0.000000 0.816071 0.946594
0.000000 0.815582 0.946747
0.162750 0.813660 0.947235
0.397797 0.809692 0.947906
0.573212 0.802338 0.950226
0.732941 0.786926 0.957001
0.889893 0.791779 0.932373
0.970734 0.825775 0.913086
1.000000 0.841431 0.912933
0.187622 0.943665 0.922577
0.260132 0.942780 0.922211
0.378448 0.940582 0.921234
0.513977 0.936829 0.919647
0.649994 0.931854 0.917511
0.776062 0.926483 0.915039
0.885437 0.921387 0.913300
0.962067 0.924591 0.915070
0.999939 0.935822 0.919281
0.440979 1.000000 0.906982
0.470123 1.000000 0.906616
0.533997 1.000000 0.905823
0.623901 1.000000 0.904602
0.724579 1.000000 0.903412
0.823792 1.000000 0.903595
0.910095 0.997681 0.907227
0.977570 0.995941 0.916168
1.000000 0.995483 0.939484
