滤镜资源/Professional Luts Collection/Lutify.me Professional/Vintage Films/Fluorite Venus.cube
# Created by: Lutify.me
# Copyright: (c) Copyright Lutify.me 2015
# Website: https://lutify.me
#LUT size
LUT_3D_SIZE 5
#LUT data points
0.000000 0.000000 0.000000
0.226532 0.032196 0.011169
0.493195 0.083832 0.048645
0.778381 0.121002 0.096954
0.999786 0.206116 0.141327
0.017303 0.248779 0.044769
0.237000 0.260162 0.052979
0.505920 0.275940 0.081848
0.785217 0.292358 0.118835
0.997375 0.336090 0.156982
0.139526 0.498779 0.125458
0.294891 0.504883 0.127899
0.547272 0.514587 0.142242
0.803375 0.524811 0.168488
0.989136 0.548523 0.197601
0.360199 0.721619 0.208832
0.445618 0.724335 0.209808
0.633362 0.728668 0.217316
0.835663 0.732666 0.236969
0.977966 0.744049 0.258789
0.603943 0.877289 0.302460
0.647888 0.877808 0.303925
0.756744 0.878632 0.309509
0.878845 0.880219 0.321228
0.975677 0.885681 0.336914
0.046082 0.030457 0.220612
0.240601 0.065796 0.234833
0.503815 0.108215 0.254150
0.785095 0.142670 0.275421
1.000000 0.222809 0.295654
0.059570 0.263519 0.240601
0.251953 0.271698 0.248047
0.519470 0.285156 0.261475
0.794403 0.300690 0.280182
1.000000 0.344116 0.298859
0.167206 0.506989 0.271027
0.312653 0.510651 0.276184
0.557404 0.520935 0.283722
0.810394 0.530609 0.298492
0.992615 0.554016 0.315063
0.377350 0.724854 0.315613
0.458801 0.727356 0.316956
0.640930 0.732483 0.320892
0.839447 0.736664 0.333679
0.979248 0.748077 0.348053
0.611816 0.879211 0.375610
0.654480 0.879883 0.376465
0.760590 0.881134 0.380035
0.880157 0.882996 0.388702
0.975769 0.888428 0.400818
0.154877 0.094452 0.424042
0.290588 0.112518 0.434052
0.536255 0.144470 0.450928
0.802887 0.178223 0.469177
1.000000 0.255188 0.484131
0.167328 0.287567 0.436493
0.305328 0.294495 0.441376
0.549561 0.304077 0.457397
0.811523 0.319305 0.472534
1.000000 0.363922 0.485260
0.249390 0.522522 0.456055
0.365387 0.525330 0.460052
0.588715 0.532990 0.468353
0.828430 0.541504 0.479279
0.998840 0.565491 0.489838
0.425476 0.734955 0.481079
0.498657 0.735870 0.484070
0.664673 0.740875 0.487640
0.850281 0.745453 0.495544
0.982056 0.756989 0.504211
0.636475 0.884705 0.516174
0.675354 0.885437 0.516876
0.772675 0.887268 0.518890
0.884155 0.889648 0.524109
0.975891 0.895233 0.531952
0.295319 0.150604 0.599854
0.390991 0.159485 0.606873
0.600494 0.180542 0.621063
0.836548 0.217041 0.636414
1.000000 0.293518 0.648926
0.312622 0.315521 0.606201
0.406311 0.319519 0.611572
0.611115 0.326599 0.625793
0.841888 0.344482 0.639648
1.000000 0.392181 0.650543
0.375885 0.540192 0.622101
0.459564 0.542572 0.625092
0.644226 0.547455 0.635101
0.854889 0.555725 0.645294
1.000000 0.581329 0.653076
0.507477 0.747284 0.639374
0.566772 0.747986 0.641724
0.707733 0.751160 0.646881
0.868958 0.756165 0.652374
0.986450 0.768066 0.658508
0.679382 0.892487 0.662354
0.712189 0.892914 0.663513
0.794128 0.895020 0.665283
0.891632 0.898285 0.668396
0.976776 0.904205 0.673645
0.460693 0.196960 0.751862
0.527863 0.202332 0.756561
0.691376 0.219055 0.767426
0.884186 0.258667 0.779572
1.000000 0.336487 0.789581
0.475159 0.342133 0.755188
0.539886 0.344147 0.759918
0.699066 0.350891 0.770996
0.885986 0.373322 0.782227
1.000000 0.425598 0.791260
0.522339 0.559113 0.765564
0.580322 0.561188 0.768127
0.722321 0.564240 0.778137
0.888824 0.575195 0.787476
1.000000 0.603027 0.794434
0.612000 0.759796 0.780060
0.656403 0.760468 0.781921
0.765778 0.762939 0.786926
0.892914 0.767456 0.792999
0.992035 0.780029 0.797699
0.733551 0.902130 0.796417
0.758881 0.902283 0.797607
0.822754 0.903534 0.800568
0.902466 0.907806 0.802826
0.979828 0.914093 0.806549
