滤镜资源/Professional Luts Collection/Lutify.me Professional/Vintage Films/Fluorite Blue Sky.cube
# Created by: Lutify.me
# Copyright: (c) Copyright Lutify.me 2015
# Website: https://lutify.me
#LUT size
LUT_3D_SIZE 9
#LUT data points
0.000000 0.000000 0.000000
0.051361 0.002747 0.003540
0.130615 0.009430 0.013153
0.224121 0.018188 0.031372
0.340607 0.021027 0.060425
0.473083 0.014130 0.092407
0.612152 0.003693 0.125183
0.748962 0.015900 0.157959
0.875061 0.074677 0.189331
0.009796 0.055878 0.008362
0.069153 0.054962 0.014008
0.143311 0.061279 0.026184
0.234253 0.070923 0.046722
0.349609 0.077698 0.072540
0.480652 0.080231 0.101898
0.618195 0.084991 0.132874
0.753632 0.102386 0.164215
0.878357 0.139557 0.194580
0.020905 0.147125 0.025238
0.084839 0.146118 0.032135
0.165588 0.147644 0.046021
0.260590 0.153625 0.066833
0.373383 0.163239 0.091766
0.499512 0.175323 0.119843
0.632172 0.190186 0.149414
0.764221 0.209839 0.178345
0.885895 0.239197 0.206696
0.000000 0.270538 0.039795
0.055145 0.272064 0.041504
0.174408 0.270203 0.061646
0.286804 0.273651 0.081421
0.407196 0.280945 0.104706
0.533325 0.292023 0.132568
0.662384 0.307129 0.161560
0.788330 0.326965 0.190491
0.904877 0.352631 0.217102
0.000000 0.420471 0.032227
0.000000 0.421753 0.033691
0.151825 0.422607 0.047150
0.300842 0.419373 0.088257
0.433105 0.423859 0.113342
0.565552 0.431824 0.138641
0.694580 0.443085 0.168732
0.817078 0.458923 0.197906
0.929504 0.479462 0.222351
0.000000 0.579712 0.003876
0.000000 0.580627 0.004974
0.092621 0.582794 0.008698
0.304535 0.578033 0.071655
0.453125 0.575775 0.120575
0.589905 0.580750 0.147858
0.721344 0.588715 0.173767
0.841705 0.599426 0.204010
0.949249 0.614655 0.228394
0.000000 0.732880 0.000000
0.000000 0.733429 0.000000
0.082367 0.734711 0.000000
0.317474 0.730408 0.061768
0.476593 0.724457 0.128326
0.614594 0.723511 0.170258
0.743073 0.728271 0.194916
0.860565 0.735321 0.219330
0.962677 0.745117 0.243103
0.000000 0.865204 0.045746
0.007355 0.865387 0.048889
0.201935 0.865784 0.055847
0.375641 0.859161 0.115295
0.520782 0.851990 0.167511
0.651001 0.847870 0.207733
0.770264 0.847717 0.237823
0.878662 0.851776 0.257507
0.973969 0.857697 0.276855
0.232117 0.971191 0.147125
0.274475 0.971130 0.149017
0.366791 0.966217 0.173767
0.477112 0.959808 0.205109
0.591095 0.953735 0.237061
0.702026 0.949402 0.266968
0.805847 0.947876 0.292542
0.900330 0.949493 0.312805
0.986755 0.953949 0.328308
0.000000 0.000000 0.104828
0.066498 0.000000 0.090271
0.152130 0.003876 0.089172
0.242920 0.014679 0.099915
0.356415 0.018250 0.118744
0.486145 0.011810 0.142517
0.622925 0.002869 0.169189
0.757721 0.018280 0.197235
0.882294 0.078125 0.225006
0.000000 0.060028 0.096497
0.072083 0.056854 0.096039
0.153748 0.067505 0.095886
0.247101 0.075317 0.108276
0.364471 0.077972 0.125488
0.493195 0.080383 0.148712
0.628601 0.085876 0.174713
0.762024 0.104614 0.202148
0.885284 0.142426 0.229279
0.000885 0.155243 0.099579
0.081451 0.152710 0.101929
0.168915 0.152222 0.111481
0.262207 0.160034 0.126312
0.375458 0.170746 0.144745
0.503174 0.182312 0.166412
0.639832 0.193665 0.188751
0.771637 0.212555 0.214020
0.891846 0.242401 0.240112
0.000000 0.277649 0.107208
0.038971 0.278473 0.108307
0.175964 0.275635 0.119904
0.290833 0.277130 0.136780
0.409088 0.284607 0.157074
0.533936 0.296722 0.180359
0.662781 0.312500 0.204865
0.789032 0.332428 0.229797
0.905884 0.357758 0.253357
0.000000 0.424438 0.111481
0.000000 0.425629 0.112274
0.152679 0.426117 0.119080
0.304199 0.422852 0.143616
0.436646 0.426544 0.164154
0.568298 0.434479 0.185638
0.696808 0.446075 0.210999
0.819458 0.462036 0.236053
0.931885 0.482574 0.257996
0.000000 0.581360 0.110443
0.000000 0.582214 0.111389
0.099884 0.584351 0.113922
0.307953 0.579803 0.143341
0.456116 0.577942 0.174957
0.592682 0.583008 0.195984
0.723816 0.591003 0.217712
0.843872 0.601837 0.243652
0.951141 0.617065 0.265381
0.000000 0.734222 0.112823
0.000000 0.734741 0.114075
0.088867 0.735992 0.117096
0.320740 0.731750 0.146240
0.479187 0.726105 0.186005
0.616852 0.725342 0.217560
0.745026 0.730164 0.238037
0.862183 0.737244 0.259064
0.964050 0.747070 0.280060
0.000000 0.866302 0.144470
0.008545 0.866455 0.145813
0.206116 0.866852 0.149078
0.378326 0.860291 0.181671
0.522858 0.853363 0.218445
0.652740 0.849396 0.250580
0.771759 0.849365 0.276093
0.879852 0.853424 0.293518
0.974945 0.859344 0.310883
0.235382 0.972137 0.206055
0.277344 0.972015 0.207458
0.369110 0.967133 0.225769
0.478943 0.960876 0.250305
0.592560 0.954987 0.276733
0.703278 0.950745 0.302460
0.806854 0.949280 0.325226
0.901184 0.950928 0.343597
0.987396 0.955414 0.357819
0.000000 0.000000 0.231476
0.015381 0.000000 0.224823
0.158875 0.000000 0.204468
0.269653 0.000000 0.202026
0.387695 0.000000 0.208038
0.515808 0.000000 0.223694
0.649658 0.000000 0.244720
0.781494 0.000031 0.268372
0.904877 0.055450 0.291840
0.000000 0.049408 0.224304
0.021362 0.042572 0.225037
0.164337 0.052795 0.207703
0.275116 0.056824 0.205109
0.394440 0.059845 0.212311
0.522003 0.062439 0.228149
0.654785 0.069763 0.248993
0.785492 0.092804 0.272400
0.907623 0.132538 0.295502
0.000000 0.156494 0.216614
0.037262 0.155853 0.217133
0.171661 0.151855 0.217560
0.280609 0.166168 0.212677
0.394836 0.177246 0.225494
0.525024 0.185486 0.242188
0.664307 0.191589 0.259918
0.794312 0.210175 0.281891
0.913727 0.239258 0.304291
0.000000 0.287964 0.215576
0.001678 0.288574 0.215515
0.171082 0.285828 0.217407
0.298431 0.284485 0.229126
0.413452 0.294006 0.246185
0.537628 0.307892 0.264618
0.666382 0.324402 0.285095
0.792206 0.344574 0.306793
0.907471 0.370361 0.328522
0.000000 0.437927 0.216888
0.000000 0.438721 0.217133
0.143280 0.435669 0.223053
0.309357 0.431824 0.236572
0.444275 0.432800 0.255615
0.572571 0.440735 0.276062
0.697845 0.453766 0.298340
0.818085 0.471130 0.320312
0.928406 0.492645 0.340179
0.000000 0.593903 0.221710
0.000000 0.594543 0.222137
0.064331 0.596039 0.223358
0.308197 0.589508 0.241669
0.462433 0.585175 0.265808
0.598877 0.588379 0.285828
0.727570 0.595917 0.306061
0.844879 0.607239 0.329102
0.950226 0.623077 0.348114
0.000000 0.743622 0.232544
0.000000 0.743988 0.233154
0.063202 0.744965 0.234741
0.319672 0.739746 0.251678
0.482666 0.733734 0.276703
0.622101 0.730774 0.303955
0.749481 0.734741 0.322296
0.865021 0.741486 0.341125
0.965240 0.751373 0.359619
0.000000 0.873932 0.256073
0.001984 0.874054 0.256744
0.196075 0.874084 0.258972
0.376129 0.867798 0.277557
0.524292 0.860718 0.302155
0.656433 0.855072 0.329437
0.775299 0.853699 0.352966
0.882538 0.857330 0.368378
0.976685 0.863068 0.383820
0.217407 0.980286 0.294373
0.269928 0.978302 0.299255
0.364197 0.973907 0.310577
0.474945 0.969330 0.324219
0.592255 0.962677 0.345520
0.705292 0.956848 0.369293
0.809387 0.953827 0.391510
0.903107 0.954620 0.409393
0.988892 0.958893 0.422272
0.000000 0.000000 0.386261
0.000000 0.000000 0.383484
0.110382 0.000000 0.366119
0.274078 0.000000 0.343536
0.415802 0.000000 0.340515
0.553101 0.000000 0.343262
0.687836 0.000000 0.354736
0.817657 0.000000 0.371674
0.940186 0.000000 0.389862
0.000000 0.027954 0.380798
0.000000 0.021637 0.379150
0.116302 0.011841 0.369232
0.280884 0.029785 0.345184
0.421906 0.006195 0.342834
0.558411 0.003296 0.346222
0.692230 0.007172 0.357941
0.821045 0.042053 0.374817
0.942505 0.096161 0.392700
0.000000 0.148590 0.370697
0.000000 0.147400 0.369812
0.122009 0.136658 0.375153
0.295502 0.149994 0.351440
0.431458 0.158295 0.346954
0.563690 0.169464 0.353027
0.700775 0.176056 0.365509
0.828461 0.197266 0.382141
0.947540 0.226013 0.399445
0.000000 0.289642 0.361145
0.000000 0.289948 0.360779
0.127991 0.289917 0.361481
0.303131 0.284912 0.362671
0.435608 0.303619 0.355408
0.558472 0.319397 0.368927
0.686401 0.335663 0.386078
0.811188 0.355255 0.404694
0.925201 0.380341 0.423462
0.000000 0.448639 0.357544
0.000000 0.449036 0.357330
0.073273 0.449066 0.356934
0.307098 0.444672 0.359375
0.454620 0.442627 0.372711
0.578278 0.452545 0.390564
0.701813 0.467621 0.408264
0.821014 0.485931 0.426422
0.929260 0.508057 0.444214
0.000000 0.609039 0.356415
0.000000 0.609406 0.356476
0.002228 0.610229 0.356567
0.307190 0.599884 0.368408
0.469879 0.596313 0.381500
0.607941 0.596832 0.400513
0.733032 0.604401 0.419586
0.846954 0.616943 0.439392
0.949646 0.633636 0.456055
0.000000 0.759613 0.362274
0.000000 0.759827 0.362518
0.001892 0.760284 0.363098
0.319305 0.748596 0.380066
0.486023 0.744843 0.392334
0.629669 0.739532 0.414917
0.756073 0.742035 0.432281
0.868927 0.748474 0.449799
0.966583 0.758575 0.466248
0.000000 0.889069 0.377991
0.000000 0.889038 0.378357
0.143951 0.888489 0.379852
0.377991 0.874847 0.401764
0.525330 0.871155 0.412659
0.661316 0.864105 0.434143
0.780609 0.860687 0.456085
0.886414 0.863678 0.470245
0.979095 0.869171 0.483917
0.167297 0.993958 0.404602
0.240021 0.990875 0.409393
0.362244 0.980957 0.425385
0.473938 0.977295 0.433289
0.592102 0.972260 0.445618
0.707886 0.965393 0.464905
0.812836 0.960785 0.485260
0.905853 0.960541 0.502197
0.990967 0.964508 0.513550
0.000000 0.000000 0.558289
0.000000 0.000000 0.556000
0.000000 0.000000 0.550232
0.247559 0.000000 0.517487
0.422699 0.000000 0.495453
0.579865 0.000000 0.493073
0.724457 0.000000 0.493622
0.856567 0.000000 0.500946
0.979645 0.000000 0.512390
0.000000 0.001770 0.553680
0.000000 0.000183 0.552124
0.000000 0.000000 0.548553
0.257660 0.000000 0.516632
0.429016 0.000000 0.496460
0.584778 0.000000 0.494659
0.728119 0.000000 0.495605
0.859222 0.000000 0.503113
0.981354 0.003540 0.514435
0.000000 0.132355 0.542938
0.000000 0.130005 0.541840
0.001465 0.117371 0.543823
0.270416 0.113342 0.526489
0.442505 0.138763 0.500183
0.594025 0.132629 0.497803
0.735718 0.140381 0.500153
0.864960 0.166748 0.508118
0.984863 0.196564 0.519196
0.000000 0.285339 0.527649
0.000000 0.285126 0.526947
0.008545 0.282257 0.528900
0.271454 0.270203 0.534943
0.457397 0.289246 0.505890
0.600891 0.303894 0.501251
0.728821 0.326355 0.506622
0.850037 0.349854 0.518829
0.962860 0.374878 0.532654
0.000000 0.450256 0.515869
0.000000 0.450439 0.515533
0.005005 0.450684 0.514832
0.277344 0.450439 0.514984
0.463165 0.445435 0.515533
0.598999 0.465729 0.510010
0.719574 0.482819 0.523590
0.836151 0.501617 0.539246
0.941376 0.523987 0.555115
0.000000 0.617981 0.510254
0.000000 0.618134 0.510040
0.000000 0.618347 0.509521
0.271759 0.615936 0.509064
0.471924 0.609680 0.512665
0.618835 0.607727 0.526489
0.738464 0.617004 0.543579
0.849487 0.631531 0.559235
0.949371 0.649139 0.573639
0.000000 0.772522 0.508148
0.000000 0.772522 0.508087
0.000000 0.772491 0.508026
0.290253 0.765076 0.512909
0.489014 0.755219 0.523773
0.637756 0.751282 0.536499
0.764160 0.751526 0.553436
0.873138 0.757935 0.569794
0.967407 0.768768 0.584229
0.000000 0.902618 0.515015
0.000000 0.902466 0.515137
0.053711 0.901550 0.515808
0.361938 0.889008 0.527740
0.528503 0.879822 0.539978
0.665741 0.875397 0.551178
0.786987 0.869873 0.570709
0.890991 0.871918 0.584106
0.981567 0.877197 0.596588
0.072754 1.000000 0.531128
0.192841 1.000000 0.534180
0.339294 0.994873 0.543640
0.472504 0.985962 0.554535
0.592712 0.981415 0.562317
0.709808 0.975952 0.574188
0.816559 0.969971 0.591644
0.909058 0.968292 0.607758
0.993317 0.971832 0.618042
0.000000 0.000000 0.729309
0.000000 0.000000 0.727570
0.000000 0.000000 0.722961
0.161926 0.000000 0.696655
0.418549 0.000000 0.662750
0.590210 0.000000 0.645813
0.748596 0.000000 0.644287
0.887970 0.000000 0.643494
1.000000 0.000000 0.648315
0.000000 0.000000 0.725647
0.000000 0.000000 0.724091
0.000000 0.000000 0.720398
0.186310 0.000000 0.693756
0.426086 0.000000 0.662018
0.595093 0.000000 0.646515
0.751892 0.000000 0.645203
0.890045 0.000000 0.644714
1.000000 0.000000 0.649536
0.000000 0.106873 0.714325
0.000000 0.102539 0.713165
0.000000 0.088043 0.710480
0.204193 0.056366 0.701447
0.439941 0.088867 0.666260
0.605225 0.109924 0.648346
0.758789 0.084839 0.647369
0.894440 0.112701 0.647461
1.000000 0.148102 0.652344
0.000000 0.274719 0.696045
0.000000 0.273895 0.695190
0.000000 0.270905 0.693695
0.216064 0.252716 0.703125
0.452332 0.262909 0.675751
0.617584 0.290314 0.651367
0.763306 0.301086 0.648529
0.888397 0.328613 0.649628
0.999146 0.354492 0.656372
0.000000 0.448334 0.676758
0.000000 0.448273 0.676239
0.000000 0.447815 0.675018
0.231354 0.443176 0.681335
0.447571 0.432159 0.684723
0.627380 0.454193 0.654419
0.762970 0.472687 0.650665
0.876190 0.498260 0.655945
0.979553 0.521820 0.665985
0.000000 0.619049 0.664093
0.000000 0.619080 0.663788
0.000000 0.618988 0.663055
0.242889 0.618652 0.662109
0.454132 0.617523 0.661041
0.631836 0.613953 0.659485
0.753296 0.632416 0.660156
0.860657 0.648346 0.672607
0.956726 0.666412 0.685303
0.000000 0.778687 0.656830
0.000000 0.778534 0.656647
0.000000 0.778137 0.656128
0.247772 0.775787 0.655334
0.470825 0.771362 0.655304
0.643799 0.763397 0.660736
0.773804 0.762115 0.673676
0.876862 0.769806 0.688385
0.967133 0.782013 0.700409
0.000000 0.911224 0.654663
0.000000 0.910919 0.654602
0.013336 0.909821 0.654572
0.331818 0.902802 0.657135
0.519623 0.894012 0.662445
0.670135 0.885590 0.671570
0.794128 0.880615 0.684113
0.896393 0.881073 0.697327
0.983917 0.886292 0.708893
0.000000 1.000000 0.660461
0.141510 1.000000 0.661987
0.308167 1.000000 0.665253
0.455322 0.999481 0.670471
0.592224 0.991089 0.678802
0.711548 0.985962 0.686279
0.820007 0.980560 0.697876
0.912994 0.977142 0.712891
0.996216 0.979980 0.722565
0.000000 0.000000 0.881500
0.000000 0.000000 0.880859
0.000000 0.000000 0.876465
0.054291 0.000000 0.855347
0.410217 0.000000 0.817169
0.601959 0.000000 0.790344
0.762634 0.000000 0.780457
0.909027 0.000000 0.778839
1.000000 0.000000 0.779297
0.000000 0.000000 0.879242
0.000000 0.000000 0.877625
0.000000 0.000000 0.873718
0.087402 0.000000 0.851501
0.419495 0.000000 0.815277
0.606873 0.000000 0.789917
0.765808 0.000000 0.780792
0.910797 0.000000 0.779266
1.000000 0.000000 0.779816
0.000000 0.065002 0.867584
0.000000 0.056427 0.866394
0.000000 0.032654 0.863495
0.115723 0.003143 0.855103
0.433899 0.016876 0.817932
0.616974 0.062531 0.789734
0.772369 0.060364 0.781525
0.914307 0.055237 0.780182
1.000000 0.084869 0.780853
0.000000 0.260071 0.847321
0.000000 0.258667 0.846375
0.000000 0.254486 0.844055
0.141113 0.231689 0.853058
0.443298 0.236877 0.827972
0.629486 0.269196 0.794861
0.780212 0.288330 0.782349
0.914703 0.304169 0.779541
1.000000 0.328949 0.780334
0.000000 0.442474 0.823242
0.000000 0.442139 0.822571
0.000000 0.440979 0.821014
0.188049 0.431488 0.830872
0.438293 0.418793 0.832733
0.637451 0.437317 0.800415
0.785736 0.460693 0.782532
0.910461 0.481842 0.778595
1.000000 0.505829 0.780457
0.000000 0.618195 0.802460
0.000000 0.618073 0.802032
0.000000 0.617676 0.801056
0.221039 0.616302 0.803101
0.442749 0.611908 0.806610
0.630249 0.602875 0.807159
0.787506 0.623230 0.781738
0.898926 0.644989 0.778961
0.992615 0.665649 0.784515
0.000000 0.778900 0.789124
0.000000 0.778687 0.788849
0.000000 0.778137 0.788177
0.247528 0.777008 0.787018
0.465179 0.775269 0.785400
0.637207 0.772980 0.783447
0.787476 0.772308 0.780670
0.883820 0.784454 0.789673
0.970520 0.797455 0.799438
0.000000 0.914185 0.780365
0.000000 0.913818 0.780182
0.016846 0.912537 0.779694
0.319275 0.909424 0.778931
0.507782 0.904938 0.778381
0.667664 0.898224 0.779602
0.801697 0.891357 0.785858
0.903778 0.890045 0.797546
0.986786 0.895782 0.808197
0.000000 1.000000 0.776825
0.141724 1.000000 0.777008
0.298187 1.000000 0.777405
0.444366 1.000000 0.778412
0.584503 1.000000 0.780975
0.714569 0.995026 0.786804
0.824219 0.990387 0.793274
0.918762 0.986084 0.805084
1.000000 0.987762 0.814575
0.000000 0.000000 0.998047
0.000000 0.000000 0.996521
0.000000 0.000000 0.992950
0.066162 0.000000 0.971405
0.427765 0.000000 0.934479
0.624176 0.000000 0.905121
0.783600 0.000000 0.888580
0.926941 0.000000 0.885132
1.000000 0.000000 0.884399
0.000000 0.000000 0.995056
0.000000 0.000000 0.993683
0.000000 0.000000 0.990417
0.098663 0.000000 0.967194
0.437653 0.000000 0.931915
0.629028 0.000000 0.903931
0.786469 0.000000 0.888214
0.928406 0.000000 0.885071
1.000000 0.000000 0.884338
0.000000 0.010925 0.985168
0.000000 0.005768 0.984131
0.000000 0.000000 0.981628
0.133362 0.000000 0.968353
0.453369 0.000000 0.931427
0.639008 0.012848 0.901581
0.792358 0.037018 0.887360
0.931396 0.025726 0.884674
1.000000 0.053406 0.884033
0.000000 0.243103 0.964294
0.000000 0.241058 0.963287
0.000000 0.232574 0.963531
0.157166 0.208038 0.968323
0.460999 0.216278 0.941498
0.649841 0.249268 0.907928
0.799896 0.281494 0.887390
0.933563 0.292999 0.883331
1.000000 0.312866 0.882141
0.000000 0.434937 0.937073
0.000000 0.434357 0.936340
0.000000 0.430603 0.938202
0.209106 0.417786 0.947998
0.457977 0.407135 0.944672
0.655304 0.425323 0.912964
0.805084 0.456390 0.886475
0.932343 0.472076 0.880646
1.000000 0.492004 0.878906
0.000000 0.615662 0.910797
0.000000 0.615387 0.910309
0.000000 0.614319 0.910706
0.248993 0.610474 0.915710
0.458954 0.602661 0.921021
0.645996 0.594818 0.916992
0.806152 0.617920 0.885437
0.926239 0.635376 0.876495
1.000000 0.654816 0.874756
0.000000 0.777832 0.890594
0.000000 0.777557 0.890289
0.005280 0.776947 0.889771
0.295898 0.775848 0.889526
0.485413 0.773865 0.889252
0.646088 0.769989 0.890442
0.800995 0.764740 0.886932
0.916473 0.782684 0.871826
0.999298 0.799286 0.873932
0.000000 0.913422 0.877167
0.000000 0.912994 0.876953
0.121338 0.911896 0.876343
0.357056 0.910004 0.875275
0.523590 0.907288 0.873779
0.672302 0.903961 0.871918
0.807343 0.900146 0.870178
0.914490 0.897797 0.875946
0.991730 0.905762 0.884247
0.155334 1.000000 0.867340
0.224518 1.000000 0.867157
0.335358 1.000000 0.866791
0.462036 1.000000 0.866241
0.591705 1.000000 0.865875
0.717560 1.000000 0.866577
0.832886 0.997253 0.870728
0.927887 0.993835 0.877563
1.000000 0.992432 0.891479
0.000000 0.000000 1.000000
0.000000 0.000000 1.000000
0.000000 0.000000 1.000000
0.217529 0.000000 1.000000
0.484528 0.000000 1.000000
0.664307 0.000000 0.986298
0.815308 0.000000 0.968597
0.949554 0.000000 0.962128
1.000000 0.000000 0.961761
0.000000 0.000000 1.000000
0.000000 0.000000 1.000000
0.000000 0.000000 1.000000
0.244904 0.000000 1.000000
0.492950 0.000000 1.000000
0.668732 0.000000 0.984833
0.817780 0.000000 0.967926
0.950745 0.000000 0.961853
1.000000 0.000000 0.961487
0.000000 0.000000 1.000000
0.000000 0.000000 1.000000
0.000000 0.000000 1.000000
0.276031 0.000000 1.000000
0.507996 0.000000 1.000000
0.677734 0.002319 0.981567
0.822815 0.013123 0.966278
0.952911 0.025848 0.960968
1.000000 0.051788 0.960571
0.000000 0.223358 1.000000
0.000000 0.220276 1.000000
0.000000 0.198792 1.000000
0.286194 0.187469 1.000000
0.514191 0.203613 1.000000
0.686768 0.238220 0.987915
0.829285 0.274170 0.966522
0.954254 0.295197 0.959167
1.000000 0.310852 0.958588
0.000000 0.426727 1.000000
0.000000 0.424133 1.000000
0.004364 0.414764 1.000000
0.300293 0.402863 1.000000
0.511902 0.399628 1.000000
0.690643 0.420288 0.992493
0.833008 0.451843 0.965973
0.952209 0.473938 0.955994
1.000000 0.488068 0.955139
0.000000 0.612000 0.992371
0.000000 0.610962 0.994049
0.074188 0.607758 0.997498
0.325531 0.602081 0.999176
0.505157 0.592529 1.000000
0.681213 0.590057 0.996033
0.831512 0.613342 0.965820
0.945709 0.635834 0.951385
1.000000 0.648285 0.949982
0.000000 0.776154 0.969086
0.000000 0.775879 0.969635
0.176514 0.775055 0.970337
0.366669 0.773285 0.971222
0.524231 0.769897 0.972900
0.672241 0.763245 0.976227
0.821625 0.760315 0.967804
0.937317 0.780518 0.946106
1.000000 0.791595 0.943970
0.012207 0.911316 0.953003
0.135773 0.910889 0.952789
0.285339 0.909912 0.952240
0.427734 0.908173 0.951324
0.566071 0.905792 0.950073
0.697784 0.903046 0.948700
0.819550 0.900146 0.947968
0.933746 0.900543 0.941956
1.000000 0.911377 0.942078
0.285126 1.000000 0.941589
0.323120 1.000000 0.941376
0.400543 1.000000 0.940857
0.503021 1.000000 0.940033
0.615753 1.000000 0.938873
0.729553 1.000000 0.937592
0.839172 1.000000 0.936798
0.939789 0.999969 0.939941
1.000000 0.997406 0.964813
