滤镜资源/Professional Luts Collection/Lutify.me Professional/Vintage Films/Fluorite Venus.cube
# Created by: Lutify.me
# Copyright: (c) Copyright Lutify.me 2015
# Website: https://lutify.me
#LUT size
LUT_3D_SIZE 9
#LUT data points
0.000000 0.000000 0.000000
0.108734 0.009308 0.003082
0.226532 0.032196 0.011169
0.353607 0.061401 0.026062
0.493195 0.083832 0.048645
0.638245 0.101013 0.073212
0.778381 0.121002 0.096954
0.902924 0.153748 0.119812
0.999786 0.206116 0.141327
0.003113 0.123810 0.012878
0.110748 0.130707 0.015808
0.229187 0.141022 0.024323
0.357178 0.153473 0.039581
0.496979 0.164917 0.059723
0.641479 0.175049 0.081482
0.780701 0.188019 0.103363
0.903961 0.211151 0.125000
0.999237 0.251465 0.145813
0.017303 0.248779 0.044769
0.119324 0.252563 0.048065
0.237000 0.260162 0.052979
0.366272 0.268127 0.066345
0.505920 0.275940 0.081848
0.648560 0.283295 0.099792
0.785217 0.292358 0.118835
0.905426 0.307953 0.138092
0.997375 0.336090 0.156982
0.060699 0.374878 0.084900
0.143738 0.376953 0.087860
0.255524 0.383087 0.089355
0.384674 0.389465 0.097137
0.521973 0.395355 0.110382
0.660797 0.401276 0.125092
0.792725 0.408386 0.141113
0.907501 0.419891 0.157654
0.994049 0.440094 0.174622
0.139526 0.498779 0.125458
0.196930 0.500275 0.127258
0.294891 0.504883 0.127899
0.416321 0.510162 0.131805
0.547272 0.514587 0.142242
0.679047 0.519135 0.154999
0.803375 0.524811 0.168488
0.909821 0.533630 0.182709
0.989136 0.548523 0.197601
0.243591 0.615967 0.167297
0.281342 0.617584 0.167084
0.359344 0.620728 0.167664
0.465057 0.624542 0.170319
0.584015 0.627930 0.177124
0.704529 0.630890 0.188629
0.817535 0.635010 0.200439
0.912292 0.641632 0.212555
0.983124 0.652313 0.225647
0.360199 0.721619 0.208832
0.386627 0.722504 0.209045
0.445618 0.724335 0.209808
0.531769 0.726593 0.212219
0.633362 0.728668 0.217316
0.738342 0.730316 0.226288
0.835663 0.732666 0.236969
0.916016 0.737061 0.247467
0.977966 0.744049 0.258789
0.484314 0.808472 0.253937
0.502899 0.808868 0.254333
0.546326 0.809692 0.255432
0.612793 0.810669 0.257812
0.694031 0.811523 0.262207
0.779205 0.812164 0.269043
0.857208 0.813324 0.277954
0.922485 0.815979 0.287109
0.975616 0.820374 0.296814
0.603943 0.877289 0.302460
0.616852 0.877502 0.302887
0.647888 0.877808 0.303925
0.696411 0.878235 0.306061
0.756744 0.878632 0.309509
0.819855 0.879181 0.314636
0.878845 0.880219 0.321228
0.930695 0.882324 0.328827
0.975677 0.885681 0.336914
0.012421 0.008911 0.109344
0.115295 0.020996 0.117554
0.231110 0.045715 0.126556
0.357819 0.072357 0.136566
0.496887 0.093048 0.148346
0.641296 0.109497 0.161346
0.780792 0.128693 0.175354
0.904633 0.160492 0.189636
1.000000 0.211487 0.203430
0.012634 0.132660 0.121552
0.117065 0.137878 0.125671
0.234894 0.147278 0.131836
0.362671 0.158722 0.140625
0.501953 0.169495 0.151550
0.645477 0.179535 0.164246
0.783691 0.192474 0.177856
0.906097 0.215485 0.191803
1.000000 0.254944 0.205414
0.028229 0.254364 0.137390
0.126312 0.257141 0.140381
0.241364 0.264526 0.144104
0.370880 0.272156 0.151367
0.510468 0.279388 0.161041
0.652557 0.286346 0.172638
0.788483 0.295197 0.185455
0.907928 0.310638 0.198792
0.999237 0.338684 0.212067
0.071564 0.378693 0.157898
0.150360 0.380432 0.160278
0.260345 0.385712 0.163330
0.388550 0.392426 0.167786
0.525543 0.398132 0.176758
0.664062 0.403809 0.187103
0.795502 0.410675 0.198761
0.909637 0.422058 0.211060
0.995575 0.442200 0.223694
0.147491 0.501526 0.183136
0.203613 0.502655 0.185150
0.299927 0.506714 0.187012
0.419861 0.512238 0.189636
0.550232 0.516693 0.197266
0.681580 0.521210 0.206909
0.805450 0.526703 0.217377
0.911316 0.535492 0.228485
0.990173 0.550323 0.240265
0.249817 0.617798 0.213409
0.287201 0.619049 0.213959
0.363892 0.622101 0.214722
0.468353 0.626068 0.216705
0.586578 0.629547 0.221954
0.706543 0.632477 0.231415
0.819092 0.636566 0.241058
0.913269 0.643158 0.251038
0.983765 0.653778 0.261810
0.364960 0.722687 0.246155
0.391022 0.723541 0.246368
0.449249 0.725372 0.247070
0.534607 0.727753 0.249054
0.635498 0.729889 0.253235
0.739960 0.731537 0.260864
0.836761 0.733887 0.270050
0.916656 0.738312 0.279053
0.978363 0.745300 0.288757
0.487854 0.809021 0.284088
0.506226 0.809418 0.284363
0.549133 0.810303 0.285248
0.615021 0.811462 0.287109
0.695709 0.812439 0.290741
0.780396 0.813141 0.296600
0.857910 0.814301 0.304565
0.922882 0.817017 0.312622
0.975861 0.821381 0.321228
0.606079 0.877808 0.326172
0.619080 0.877960 0.326447
0.649750 0.878357 0.327362
0.697968 0.878876 0.329163
0.757843 0.879364 0.332153
0.820587 0.879974 0.336639
0.879242 0.881073 0.342712
0.930847 0.883148 0.349640
0.975708 0.886536 0.357025
0.046082 0.030457 0.220612
0.131012 0.043335 0.226288
0.240601 0.065796 0.234833
0.365570 0.089264 0.244110
0.503815 0.108215 0.254150
0.647003 0.123962 0.264740
0.785095 0.142670 0.275421
0.907379 0.173462 0.285828
1.000000 0.222809 0.295654
0.044983 0.145538 0.229187
0.133240 0.150238 0.231934
0.243500 0.158142 0.239471
0.370514 0.168396 0.247589
0.509277 0.178619 0.256531
0.651581 0.188690 0.266388
0.788269 0.201935 0.276794
0.909180 0.224823 0.286926
1.000000 0.263367 0.296051
0.059570 0.263519 0.240601
0.141785 0.266022 0.242920
0.251953 0.271698 0.248047
0.380859 0.278687 0.253632
0.519470 0.285156 0.261475
0.660095 0.291779 0.270508
0.794403 0.300690 0.280182
0.912170 0.316284 0.289825
1.000000 0.344116 0.298859
0.097168 0.385742 0.254456
0.166534 0.387329 0.256287
0.272644 0.391052 0.260620
0.397614 0.397919 0.264191
0.533783 0.403290 0.270721
0.671265 0.408447 0.278595
0.801331 0.415039 0.287415
0.913910 0.426331 0.296417
0.998627 0.446472 0.305176
0.167206 0.506989 0.271027
0.219147 0.507996 0.272614
0.312653 0.510651 0.276184
0.428833 0.516327 0.278442
0.557404 0.520935 0.283722
0.687653 0.525299 0.290680
0.810394 0.530609 0.298492
0.914917 0.539276 0.306641
0.992615 0.554016 0.315063
0.264771 0.621979 0.291199
0.301208 0.622620 0.292603
0.375519 0.624878 0.294708
0.476715 0.629059 0.296265
0.592926 0.632935 0.299530
0.711548 0.635864 0.306580
0.822876 0.639893 0.313690
0.915833 0.646454 0.321075
0.985443 0.657013 0.329071
0.377350 0.724854 0.315613
0.402557 0.725555 0.316101
0.458801 0.727356 0.316956
0.541809 0.729980 0.318237
0.640930 0.732483 0.320892
0.743958 0.734253 0.326599
0.839447 0.736664 0.333679
0.918274 0.741089 0.340546
0.979248 0.748077 0.348053
0.496552 0.810547 0.343445
0.514404 0.810974 0.343689
0.556152 0.811951 0.344269
0.620605 0.813263 0.345581
0.699890 0.814484 0.348053
0.783295 0.815369 0.352539
0.859619 0.816589 0.359039
0.923767 0.819305 0.365479
0.976227 0.823669 0.372437
0.611816 0.879211 0.375610
0.624512 0.879395 0.375824
0.654480 0.879883 0.376465
0.701813 0.880493 0.377777
0.760590 0.881134 0.380035
0.822327 0.881836 0.383667
0.880157 0.882996 0.388702
0.931213 0.885071 0.394592
0.975769 0.888428 0.400818
0.096771 0.062927 0.326019
0.159576 0.071930 0.330170
0.259705 0.088196 0.338013
0.380951 0.108521 0.346527
0.516296 0.126038 0.356110
0.656799 0.141174 0.365845
0.792175 0.159760 0.375366
0.911713 0.189880 0.384216
1.000000 0.237885 0.392090
0.096405 0.161346 0.332367
0.162170 0.165588 0.334351
0.262482 0.172699 0.341217
0.384857 0.182037 0.349609
0.520966 0.191376 0.358490
0.660950 0.201111 0.367462
0.795166 0.214630 0.376526
0.913422 0.237549 0.384979
1.000000 0.275726 0.392242
0.107239 0.274811 0.341797
0.171204 0.277069 0.343567
0.272736 0.282379 0.347595
0.395294 0.287720 0.355469
0.531708 0.293304 0.362823
0.670044 0.299774 0.370636
0.801819 0.308868 0.378754
0.917023 0.324738 0.386536
1.000000 0.352661 0.393402
0.139008 0.394714 0.352539
0.195923 0.396118 0.354126
0.293945 0.399506 0.357849
0.413788 0.404999 0.362701
0.547638 0.409485 0.368286
0.682373 0.414215 0.375244
0.809662 0.420807 0.382629
0.919464 0.432373 0.389862
1.000000 0.452606 0.396454
0.201630 0.514252 0.364899
0.246979 0.515198 0.366272
0.333862 0.517395 0.369507
0.444763 0.521942 0.373260
0.569885 0.526611 0.377289
0.697815 0.530640 0.382904
0.818024 0.535767 0.389313
0.919861 0.544403 0.395844
0.995544 0.559265 0.402161
0.290741 0.627899 0.379425
0.324402 0.628479 0.380585
0.395050 0.629852 0.383423
0.491638 0.633514 0.385864
0.604126 0.637634 0.388184
0.720062 0.640564 0.393707
0.829010 0.644562 0.399261
0.919586 0.651093 0.404999
0.987518 0.661682 0.411041
0.397125 0.729309 0.397278
0.421326 0.729614 0.398254
0.475067 0.730957 0.399780
0.554535 0.733551 0.401154
0.650482 0.736328 0.402954
0.750885 0.738190 0.407410
0.843903 0.740631 0.412872
0.920746 0.745148 0.418121
0.980499 0.752106 0.423828
0.511292 0.813446 0.418427
0.528412 0.813812 0.418793
0.568451 0.814758 0.419464
0.630493 0.816223 0.420471
0.707275 0.817627 0.422180
0.788330 0.818665 0.425537
0.862518 0.819977 0.430725
0.925171 0.822784 0.435760
0.976776 0.827148 0.441162
0.621765 0.881592 0.442352
0.633942 0.881805 0.442566
0.662933 0.882324 0.443054
0.708557 0.883057 0.444000
0.765503 0.883850 0.445679
0.825378 0.884705 0.448425
0.881805 0.885956 0.452454
0.931793 0.888092 0.457214
0.975830 0.891449 0.462189
0.154877 0.094452 0.424042
0.202148 0.100525 0.427307
0.290588 0.112518 0.434052
0.406097 0.127625 0.442352
0.536255 0.144470 0.450928
0.671906 0.159424 0.460266
0.802887 0.178223 0.469177
0.918060 0.208069 0.477234
1.000000 0.255188 0.484131
0.156830 0.179077 0.428375
0.205566 0.182648 0.430206
0.294067 0.188538 0.436340
0.409851 0.195831 0.444824
0.540131 0.205627 0.453094
0.675415 0.215302 0.461884
0.805420 0.229218 0.470337
0.919495 0.252533 0.477966
1.000000 0.290558 0.484406
0.167328 0.287567 0.436493
0.215912 0.289642 0.437836
0.305328 0.294495 0.441376
0.419800 0.298645 0.449677
0.549561 0.304077 0.457397
0.683624 0.310089 0.465088
0.811523 0.319305 0.472534
0.922699 0.335663 0.479401
1.000000 0.363922 0.485260
0.195099 0.404694 0.445953
0.240417 0.406006 0.447266
0.327057 0.408997 0.450470
0.438568 0.413361 0.456085
0.566315 0.416687 0.462585
0.696716 0.421143 0.468872
0.819885 0.427948 0.475311
0.925598 0.439941 0.481476
1.000000 0.460510 0.486755
0.249390 0.522522 0.456055
0.287720 0.523346 0.457214
0.365387 0.525330 0.460052
0.469330 0.528595 0.464661
0.588715 0.532990 0.468353
0.712433 0.536499 0.473511
0.828430 0.541504 0.479279
0.926025 0.550446 0.484833
0.998840 0.565491 0.489838
0.328491 0.634705 0.467468
0.358307 0.635284 0.468475
0.423035 0.636505 0.470978
0.514099 0.638947 0.474579
0.620758 0.643158 0.476715
0.732635 0.646027 0.481201
0.837708 0.649933 0.485901
0.924500 0.656555 0.490662
0.990082 0.667206 0.495453
0.425476 0.734955 0.481079
0.447876 0.735229 0.481964
0.498657 0.735870 0.484070
0.573578 0.737976 0.486145
0.664673 0.740875 0.487640
0.761017 0.742859 0.491211
0.850281 0.745453 0.495544
0.924133 0.750031 0.499725
0.982056 0.756989 0.504211
0.532593 0.817444 0.497803
0.548737 0.817688 0.498322
0.586517 0.818451 0.499268
0.645233 0.819885 0.500305
0.718231 0.821472 0.501617
0.795715 0.822723 0.504211
0.866699 0.824127 0.508362
0.927185 0.826996 0.512299
0.977478 0.831451 0.516571
0.636475 0.884705 0.516174
0.647949 0.884888 0.516388
0.675354 0.885437 0.516876
0.718689 0.886261 0.517639
0.772675 0.887268 0.518890
0.829865 0.888306 0.520935
0.884155 0.889648 0.524109
0.932739 0.891846 0.527985
0.975891 0.895233 0.531952
0.221039 0.123718 0.515198
0.257874 0.127930 0.517853
0.334747 0.136536 0.523590
0.441376 0.148071 0.531281
0.564392 0.162506 0.539185
0.692993 0.178040 0.547729
0.817688 0.197327 0.556183
0.926697 0.227600 0.563690
1.000000 0.273682 0.569855
0.224823 0.197968 0.517822
0.262115 0.200409 0.519836
0.338745 0.205017 0.525330
0.445099 0.210999 0.533203
0.567810 0.219879 0.540985
0.695953 0.230316 0.549255
0.819702 0.244934 0.557281
0.927765 0.268951 0.564453
1.000000 0.307312 0.570282
0.236359 0.301300 0.524506
0.273987 0.303192 0.525726
0.350311 0.307007 0.529419
0.454895 0.310364 0.537170
0.576233 0.315491 0.544708
0.702942 0.321747 0.552368
0.824738 0.331329 0.559601
0.930054 0.348419 0.565979
1.000000 0.377289 0.571259
0.262299 0.415375 0.533112
0.298065 0.416565 0.534210
0.372375 0.419403 0.536804
0.473175 0.423126 0.542419
0.591064 0.426086 0.549744
0.714630 0.430084 0.556305
0.832123 0.436951 0.562408
0.932190 0.449432 0.567871
1.000000 0.470459 0.572479
0.308441 0.531219 0.542114
0.340088 0.531982 0.543121
0.407654 0.533783 0.545654
0.502380 0.536682 0.549774
0.613983 0.539368 0.555023
0.731110 0.542572 0.559967
0.841064 0.547882 0.565125
0.932953 0.557343 0.569885
1.000000 0.572662 0.573975
0.376617 0.642029 0.551514
0.402496 0.642517 0.552429
0.460144 0.643646 0.554657
0.544037 0.645477 0.558289
0.643433 0.649109 0.561157
0.749542 0.651825 0.564941
0.848969 0.655640 0.569183
0.930634 0.662476 0.573334
0.992981 0.673279 0.577240
0.462616 0.741058 0.562408
0.482849 0.741272 0.563202
0.529236 0.741852 0.565094
0.599060 0.743042 0.567963
0.683838 0.745911 0.569611
0.774536 0.747955 0.572632
0.858643 0.750702 0.576141
0.928528 0.755371 0.579590
0.983978 0.762421 0.583252
0.560120 0.822388 0.575623
0.575195 0.822449 0.576294
0.610413 0.822784 0.577667
0.664917 0.824005 0.579071
0.732941 0.825714 0.580231
0.805420 0.827179 0.582184
0.872253 0.828766 0.585632
0.929871 0.831757 0.588837
0.978455 0.836243 0.592194
0.655823 0.888336 0.590637
0.666473 0.888519 0.590912
0.691895 0.889008 0.591492
0.732086 0.889862 0.592224
0.782257 0.891022 0.593170
0.835876 0.892303 0.594696
0.887451 0.893829 0.597229
0.934052 0.896118 0.600403
0.976166 0.899567 0.603577
0.295319 0.150604 0.599854
0.325165 0.153381 0.602020
0.390991 0.159485 0.606873
0.486847 0.168518 0.613678
0.600494 0.180542 0.621063
0.720306 0.196625 0.628601
0.836548 0.217041 0.636414
0.937561 0.248169 0.643341
1.000000 0.293518 0.648926
0.300049 0.216400 0.601410
0.329742 0.218079 0.603394
0.395111 0.221558 0.608215
0.490387 0.226501 0.615204
0.603516 0.234131 0.622589
0.722717 0.245697 0.629913
0.838135 0.261536 0.637451
0.938202 0.286652 0.644135
1.000000 0.325317 0.649475
0.312622 0.315521 0.606201
0.342194 0.316956 0.607513
0.406311 0.319519 0.611572
0.499664 0.322266 0.618500
0.611115 0.326599 0.625793
0.728516 0.333984 0.632721
0.841888 0.344482 0.639648
0.939362 0.362579 0.645721
1.000000 0.392181 0.650543
0.336548 0.426575 0.613770
0.365051 0.427673 0.614716
0.427429 0.430298 0.617096
0.516724 0.432922 0.622986
0.624390 0.435455 0.630127
0.738281 0.440155 0.636475
0.847595 0.447296 0.642517
0.940125 0.460510 0.647675
1.000000 0.482178 0.651855
0.375885 0.540192 0.622101
0.401794 0.540863 0.622986
0.459564 0.542572 0.625092
0.543671 0.545502 0.628601
0.644226 0.547455 0.635101
0.752563 0.550323 0.640472
0.854889 0.555725 0.645294
0.939911 0.565643 0.649506
1.000000 0.581329 0.653076
0.433136 0.649506 0.630371
0.455261 0.649933 0.631195
0.505585 0.650970 0.633148
0.580872 0.652679 0.636383
0.672058 0.655212 0.640106
0.770782 0.657440 0.643829
0.862396 0.661469 0.647766
0.937653 0.668732 0.651398
0.996155 0.679779 0.654633
0.507477 0.747284 0.639374
0.525299 0.747467 0.640045
0.566772 0.747986 0.641724
0.630249 0.748871 0.644531
0.707733 0.751160 0.646881
0.791351 0.753326 0.649445
0.868958 0.756165 0.652374
0.933929 0.760986 0.655426
0.986450 0.768066 0.658508
0.593597 0.827667 0.649963
0.607269 0.827698 0.650543
0.639343 0.827850 0.651947
0.689270 0.828430 0.653931
0.751160 0.830170 0.655243
0.817413 0.831848 0.656830
0.879211 0.833649 0.659637
0.933350 0.836792 0.662231
0.979889 0.841309 0.665039
0.679382 0.892487 0.662354
0.689087 0.892578 0.662750
0.712189 0.892914 0.663513
0.748596 0.893738 0.664398
0.794128 0.895020 0.665283
0.843475 0.896576 0.666412
0.891632 0.898285 0.668396
0.935913 0.900696 0.671021
0.976776 0.904205 0.673645
0.376343 0.174591 0.678284
0.400787 0.176636 0.680054
0.456604 0.181274 0.684113
0.540802 0.188660 0.689941
0.643372 0.199341 0.696594
0.752930 0.215454 0.703339
0.859161 0.237335 0.710327
0.950195 0.269745 0.716614
1.000000 0.314362 0.721649
0.381042 0.233826 0.679321
0.405182 0.235077 0.681030
0.460480 0.237793 0.685150
0.544067 0.242157 0.691193
0.646057 0.249268 0.697937
0.754852 0.261475 0.704468
0.860229 0.278839 0.711273
0.950409 0.305603 0.717346
1.000000 0.344543 0.722168
0.393005 0.329224 0.682587
0.416656 0.330109 0.684113
0.470612 0.331818 0.687958
0.552460 0.334259 0.694000
0.652649 0.338348 0.700684
0.759521 0.346497 0.706879
0.862732 0.358368 0.713287
0.950409 0.378082 0.718872
1.000000 0.408356 0.723297
0.414795 0.438080 0.688446
0.437653 0.439056 0.689362
0.489471 0.440918 0.692200
0.567596 0.442688 0.697876
0.664185 0.445038 0.704468
0.767334 0.450500 0.710236
0.866425 0.458649 0.716003
0.949585 0.472870 0.720856
1.000000 0.495239 0.724762
0.448303 0.549438 0.696014
0.469543 0.550140 0.696747
0.518219 0.551819 0.698578
0.591156 0.554169 0.702393
0.681305 0.555603 0.708771
0.778473 0.559174 0.713989
0.870972 0.564911 0.718842
0.947571 0.575409 0.722809
1.000000 0.591553 0.726135
0.495636 0.657013 0.703735
0.514343 0.657410 0.704437
0.557648 0.658356 0.706116
0.623932 0.660095 0.708862
0.704865 0.661926 0.713470
0.793488 0.663910 0.717743
0.876160 0.668213 0.721375
0.944489 0.675842 0.724487
0.998688 0.687103 0.727264
0.558167 0.753510 0.711456
0.573639 0.753693 0.712067
0.609894 0.754181 0.713562
0.666199 0.755035 0.716003
0.735596 0.756683 0.718994
0.811066 0.758728 0.721313
0.880951 0.761658 0.724091
0.940308 0.766632 0.726837
0.989380 0.773865 0.729431
0.631866 0.832886 0.720276
0.643921 0.832947 0.720734
0.672424 0.833099 0.721985
0.717072 0.833405 0.724060
0.772095 0.834747 0.725891
0.831146 0.836700 0.727264
0.887451 0.838745 0.729553
0.937714 0.841980 0.731750
0.981934 0.846497 0.734161
0.705719 0.897217 0.730408
0.714447 0.897217 0.730804
0.735168 0.897308 0.731750
0.767365 0.897827 0.733032
0.807831 0.899170 0.734039
0.852386 0.900940 0.734955
0.896820 0.902924 0.736511
0.938446 0.905487 0.738739
0.978027 0.909027 0.740906
0.460693 0.196960 0.751862
0.480835 0.198425 0.753235
0.527863 0.202332 0.756561
0.600647 0.208832 0.761536
0.691376 0.219055 0.767426
0.789429 0.235168 0.773468
0.884186 0.258667 0.779572
0.964142 0.292480 0.785095
1.000000 0.336487 0.789581
0.464783 0.250702 0.752594
0.484680 0.251617 0.754089
0.531219 0.254059 0.757477
0.603485 0.258209 0.762604
0.693542 0.265381 0.768555
0.790894 0.278046 0.774475
0.884735 0.297333 0.780396
0.963837 0.325867 0.785797
1.000000 0.364868 0.790100
0.475159 0.342133 0.755188
0.494476 0.342773 0.756561
0.539886 0.344147 0.759918
0.610657 0.346527 0.765045
0.699066 0.350891 0.770996
0.794434 0.359558 0.776611
0.885986 0.373322 0.782227
0.962708 0.394867 0.787201
1.000000 0.425598 0.791260
0.493988 0.449402 0.759308
0.512451 0.449982 0.760468
0.555817 0.451111 0.763489
0.623474 0.452606 0.768494
0.708527 0.455170 0.774353
0.800110 0.461151 0.779572
0.887482 0.470886 0.784698
0.960266 0.486481 0.789185
1.000000 0.509430 0.792755
0.522339 0.559113 0.765564
0.539703 0.559753 0.766235
0.580322 0.561188 0.768127
0.643097 0.562683 0.772461
0.722321 0.564240 0.778137
0.808014 0.568359 0.782928
0.888824 0.575195 0.787476
0.956207 0.586395 0.791351
1.000000 0.603027 0.794434
0.561218 0.664764 0.772797
0.576874 0.665161 0.773376
0.613647 0.666168 0.774780
0.670532 0.668030 0.777222
0.741180 0.669342 0.782227
0.818115 0.671906 0.786530
0.890167 0.676575 0.790283
0.951050 0.684448 0.793396
0.999664 0.695923 0.796021
0.612000 0.759796 0.780060
0.625214 0.759979 0.780609
0.656403 0.760468 0.781921
0.705292 0.761383 0.784058
0.765778 0.762939 0.786926
0.831207 0.764343 0.790375
0.892914 0.767456 0.792999
0.946442 0.772705 0.795441
0.992035 0.780029 0.797699
0.672913 0.838226 0.787750
0.683350 0.838318 0.788208
0.707977 0.838501 0.789276
0.746674 0.838867 0.791046
0.794525 0.839752 0.793365
0.845886 0.841797 0.794922
0.896606 0.843994 0.796783
0.942810 0.847229 0.798859
0.984528 0.851837 0.800995
0.733551 0.902130 0.796417
0.740997 0.902191 0.796783
0.758881 0.902283 0.797607
0.787170 0.902649 0.798981
0.822754 0.903534 0.800568
0.862091 0.905518 0.801605
0.902466 0.907806 0.802826
0.941437 0.910492 0.804749
0.979828 0.914093 0.806549
