滤镜资源/Professional Luts Collection/Lutify.me Professional/Vintage Films/Fluorite Blue Sky.cube
# Created by: Lutify.me
# Copyright: (c) Copyright Lutify.me 2015
# Website: https://lutify.me
#LUT size
LUT_3D_SIZE 33
#LUT data points
0.000000 0.000000 0.000000
0.008484 0.000397 0.000793
0.019043 0.000824 0.001190
0.032654 0.001892 0.002258
0.051361 0.002747 0.003540
0.070404 0.004120 0.005035
0.089874 0.005768 0.007233
0.109863 0.007355 0.009949
0.130615 0.009430 0.013153
0.152252 0.011688 0.016754
0.174774 0.013947 0.020752
0.198578 0.016235 0.025635
0.224121 0.018188 0.031372
0.251160 0.019714 0.038055
0.279694 0.020752 0.045227
0.309601 0.021118 0.052704
0.340607 0.021027 0.060425
0.372589 0.020355 0.068237
0.405426 0.018829 0.076172
0.438995 0.016663 0.084259
0.473083 0.014130 0.092407
0.507568 0.011230 0.100555
0.542358 0.007965 0.108673
0.577271 0.005371 0.116913
0.612152 0.003693 0.125183
0.646851 0.003510 0.133453
0.681366 0.005188 0.141663
0.715454 0.009216 0.149811
0.748962 0.015900 0.157959
0.781830 0.026123 0.165985
0.813843 0.040436 0.173889
0.845001 0.057068 0.181671
0.875061 0.074677 0.189331
0.001892 0.009644 0.001526
0.012878 0.009247 0.002686
0.022614 0.009277 0.003143
0.036926 0.010468 0.004578
0.054596 0.011688 0.006104
0.073547 0.012939 0.007721
0.092468 0.015045 0.009979
0.112183 0.016998 0.012512
0.132751 0.018982 0.015747
0.154236 0.021210 0.019043
0.176575 0.023529 0.023376
0.200409 0.025848 0.028290
0.225891 0.028046 0.034180
0.252960 0.029846 0.040802
0.281433 0.031281 0.047821
0.311249 0.032043 0.055115
0.342194 0.031921 0.062683
0.374115 0.031464 0.070282
0.406921 0.030487 0.077972
0.440369 0.028992 0.085907
0.474365 0.026978 0.093903
0.508820 0.024445 0.101990
0.543488 0.022217 0.110199
0.578339 0.020447 0.118317
0.613190 0.019409 0.126556
0.647858 0.020416 0.134796
0.682251 0.023071 0.142822
0.716309 0.027679 0.151031
0.749756 0.035278 0.159088
0.782562 0.046143 0.167023
0.814545 0.058777 0.174927
0.845581 0.072876 0.182617
0.875641 0.088104 0.190369
0.003571 0.019958 0.003113
0.015564 0.019592 0.004242
0.026917 0.019562 0.005432
0.041779 0.020599 0.006531
0.058655 0.021820 0.008392
0.076599 0.023010 0.010468
0.095306 0.024902 0.012787
0.114868 0.026886 0.015411
0.135162 0.029449 0.018494
0.156311 0.031921 0.022247
0.178558 0.034729 0.026520
0.202301 0.037506 0.031433
0.227783 0.039673 0.037445
0.254822 0.041687 0.043854
0.283356 0.043060 0.050537
0.313141 0.044128 0.057770
0.343933 0.044891 0.065063
0.375824 0.044861 0.072540
0.408569 0.044098 0.080231
0.441956 0.043152 0.088013
0.475861 0.041992 0.095856
0.510223 0.040253 0.103912
0.544861 0.038757 0.112030
0.579620 0.038177 0.120117
0.614380 0.038208 0.128082
0.649017 0.039825 0.136261
0.683350 0.043060 0.144257
0.717255 0.048492 0.152252
0.750702 0.055389 0.160278
0.783417 0.064880 0.168182
0.815308 0.076019 0.175995
0.846344 0.088165 0.183716
0.876312 0.101929 0.191376
0.006836 0.036102 0.005371
0.018707 0.035370 0.006165
0.031067 0.035004 0.007721
0.046783 0.035339 0.008911
0.063782 0.036469 0.011230
0.081299 0.037689 0.013275
0.099579 0.039551 0.015900
0.118622 0.041931 0.018616
0.138550 0.044220 0.022003
0.159424 0.046906 0.026062
0.181488 0.049530 0.030426
0.205078 0.052094 0.035736
0.230438 0.054413 0.041412
0.257446 0.056458 0.047821
0.285889 0.058197 0.054474
0.315613 0.059387 0.061340
0.346405 0.060150 0.068451
0.378143 0.060669 0.075684
0.410797 0.060760 0.083130
0.444122 0.060486 0.090729
0.477966 0.060028 0.098480
0.512207 0.059509 0.106293
0.546722 0.059387 0.114197
0.581390 0.059753 0.122223
0.616058 0.060883 0.130157
0.650543 0.063110 0.138184
0.684784 0.066742 0.146240
0.718658 0.071686 0.154114
0.751953 0.078125 0.162018
0.784576 0.086090 0.169830
0.816406 0.095856 0.177582
0.847321 0.107056 0.185272
0.877167 0.119354 0.192780
0.009796 0.055878 0.008362
0.022430 0.055511 0.008606
0.035461 0.054871 0.010468
0.052155 0.054382 0.012451
0.069153 0.054962 0.014008
0.086639 0.055908 0.016388
0.104797 0.057159 0.019348
0.123566 0.059174 0.022705
0.143311 0.061279 0.026184
0.163971 0.063660 0.030548
0.185791 0.066162 0.035309
0.209167 0.068573 0.040802
0.234253 0.070923 0.046722
0.260986 0.073181 0.052704
0.289246 0.075043 0.059204
0.318909 0.076508 0.065765
0.349609 0.077698 0.072540
0.381226 0.078674 0.079620
0.413727 0.079315 0.086853
0.446930 0.079773 0.094299
0.480652 0.080231 0.101898
0.514771 0.080780 0.109558
0.549164 0.081635 0.117279
0.583710 0.083069 0.125061
0.618195 0.084991 0.132874
0.652588 0.087646 0.140747
0.686707 0.091522 0.148651
0.720490 0.096313 0.156494
0.753632 0.102386 0.164215
0.786133 0.109772 0.171936
0.817841 0.118378 0.179535
0.848633 0.128387 0.187225
0.878357 0.139557 0.194580
0.013916 0.076569 0.011963
0.026245 0.076508 0.012390
0.040527 0.075867 0.013916
0.056854 0.075317 0.016235
0.073792 0.075500 0.018219
0.092194 0.076019 0.020142
0.110443 0.076813 0.023163
0.129242 0.078156 0.026855
0.148895 0.080017 0.030762
0.169525 0.081940 0.035309
0.191284 0.084167 0.040344
0.214630 0.086395 0.045868
0.239532 0.088806 0.051605
0.265961 0.091064 0.057861
0.293884 0.093231 0.064209
0.323059 0.095184 0.070923
0.353455 0.096832 0.077545
0.384979 0.098236 0.084320
0.417389 0.099457 0.091339
0.450439 0.100708 0.098541
0.483978 0.102051 0.105957
0.517914 0.103546 0.113434
0.552185 0.105286 0.121002
0.586578 0.107361 0.128601
0.620911 0.109985 0.136292
0.655151 0.113068 0.143982
0.689087 0.117157 0.151672
0.722687 0.121918 0.159363
0.755707 0.127808 0.167084
0.788055 0.134674 0.174622
0.819611 0.142670 0.182068
0.850281 0.151672 0.189606
0.879822 0.162018 0.196899
0.017700 0.098694 0.016174
0.029846 0.098785 0.016663
0.044373 0.098358 0.017853
0.061096 0.097534 0.020111
0.078735 0.097137 0.023010
0.096649 0.097534 0.025360
0.115814 0.098389 0.027435
0.135010 0.099182 0.031494
0.154816 0.100372 0.036011
0.175476 0.102203 0.040405
0.197540 0.103973 0.045654
0.220978 0.106110 0.051117
0.245911 0.108246 0.056854
0.272308 0.110474 0.062866
0.299988 0.112762 0.069305
0.328827 0.115021 0.075867
0.358765 0.117218 0.082733
0.389740 0.119415 0.089569
0.421692 0.121490 0.096588
0.454529 0.123505 0.103577
0.487915 0.125519 0.110626
0.521698 0.127655 0.117859
0.555756 0.130096 0.125275
0.589966 0.132782 0.132660
0.624146 0.135864 0.140198
0.658203 0.139465 0.147766
0.691956 0.143616 0.155273
0.725342 0.148590 0.162781
0.758179 0.154266 0.170349
0.790375 0.160889 0.177795
0.821716 0.168396 0.185211
0.852234 0.176849 0.192535
0.881592 0.186493 0.199768
0.020386 0.122009 0.020508
0.033173 0.122131 0.021179
0.047638 0.121826 0.022339
0.064606 0.121185 0.024323
0.082336 0.120667 0.027313
0.101013 0.120514 0.030792
0.120117 0.121002 0.033844
0.140198 0.122070 0.036530
0.160553 0.122925 0.040985
0.181793 0.124115 0.045898
0.204224 0.125763 0.050873
0.227966 0.127594 0.056244
0.253052 0.129730 0.062012
0.279419 0.131866 0.068054
0.307098 0.134277 0.074127
0.335846 0.136688 0.080597
0.365601 0.139160 0.087341
0.396240 0.141815 0.094299
0.427673 0.144531 0.101257
0.459900 0.147278 0.108459
0.492706 0.150116 0.115723
0.526031 0.152985 0.122955
0.559845 0.155975 0.130127
0.593811 0.159180 0.137329
0.627808 0.162659 0.144684
0.661652 0.166595 0.152069
0.695221 0.170959 0.159393
0.728394 0.175964 0.166748
0.761017 0.181610 0.174133
0.792969 0.188049 0.181488
0.824158 0.195190 0.188751
0.854431 0.203186 0.195892
0.883636 0.212189 0.203003
0.020905 0.147125 0.025238
0.034119 0.147278 0.026093
0.048920 0.147156 0.026672
0.066040 0.146729 0.029083
0.084839 0.146118 0.032135
0.104248 0.145630 0.035797
0.124054 0.145752 0.039642
0.144257 0.146484 0.043182
0.165588 0.147644 0.046021
0.187653 0.148651 0.050446
0.210846 0.150055 0.055664
0.235168 0.151703 0.061157
0.260590 0.153625 0.066833
0.287170 0.155823 0.072662
0.314880 0.158112 0.078827
0.343689 0.160645 0.085175
0.373383 0.163239 0.091766
0.403900 0.166107 0.098511
0.435181 0.169037 0.105530
0.467102 0.172089 0.112549
0.499512 0.175323 0.119843
0.532318 0.178741 0.127228
0.565460 0.182312 0.134583
0.598755 0.186096 0.141998
0.632172 0.190186 0.149414
0.665619 0.194489 0.156738
0.698883 0.199127 0.163940
0.731812 0.204193 0.171173
0.764221 0.209839 0.178345
0.795929 0.216125 0.185547
0.826874 0.223053 0.192688
0.856934 0.230713 0.199677
0.885895 0.239197 0.206696
0.016937 0.174652 0.029816
0.030853 0.174744 0.030457
0.046234 0.174927 0.030914
0.064728 0.174683 0.032928
0.084778 0.174164 0.036102
0.105408 0.173615 0.040070
0.126312 0.173370 0.044373
0.147461 0.173584 0.048492
0.169434 0.174530 0.052246
0.192871 0.175812 0.055420
0.216980 0.177063 0.059875
0.242126 0.178497 0.065125
0.268127 0.180206 0.070862
0.295105 0.182190 0.076874
0.323090 0.184479 0.083008
0.351990 0.186920 0.089325
0.381744 0.189575 0.095856
0.412262 0.192444 0.102539
0.443451 0.195465 0.109375
0.475250 0.198578 0.116364
0.507477 0.201935 0.123444
0.540070 0.205444 0.130737
0.572845 0.209290 0.138062
0.605713 0.213379 0.145538
0.638580 0.217743 0.153046
0.671387 0.222382 0.160553
0.703979 0.227417 0.167999
0.736267 0.232788 0.175385
0.768097 0.238678 0.182709
0.799408 0.244965 0.189911
0.829987 0.251740 0.196899
0.859711 0.259186 0.203888
0.888397 0.267303 0.210815
0.007721 0.204559 0.034149
0.021515 0.204773 0.034393
0.037659 0.204987 0.035004
0.058655 0.205048 0.036133
0.080688 0.204773 0.038910
0.103577 0.204224 0.042847
0.126373 0.203735 0.047455
0.149170 0.203644 0.052307
0.172577 0.203949 0.057068
0.196686 0.204987 0.061249
0.222321 0.206512 0.064392
0.248413 0.207855 0.068909
0.275299 0.209351 0.074432
0.302917 0.211151 0.080292
0.331299 0.213196 0.086487
0.360504 0.215515 0.092834
0.390381 0.218048 0.099365
0.420959 0.220764 0.105988
0.452179 0.223755 0.112793
0.483887 0.226898 0.119690
0.515991 0.230255 0.126801
0.548370 0.233856 0.134033
0.580933 0.237701 0.141327
0.613586 0.241791 0.148682
0.646179 0.246185 0.156097
0.678650 0.250885 0.163544
0.710876 0.255951 0.170990
0.742706 0.261383 0.178406
0.774048 0.267242 0.185822
0.804871 0.273560 0.193024
0.834961 0.280243 0.200104
0.864319 0.287476 0.207001
0.892670 0.295288 0.213745
0.001465 0.236603 0.037628
0.006866 0.236877 0.037750
0.021606 0.237122 0.038208
0.045135 0.237488 0.038879
0.071289 0.237610 0.040588
0.097687 0.237091 0.044434
0.123535 0.236481 0.049286
0.148987 0.236084 0.054626
0.174225 0.235992 0.060181
0.199951 0.236389 0.065399
0.226227 0.237518 0.069733
0.253632 0.239197 0.072968
0.281647 0.240692 0.077515
0.310120 0.242279 0.083252
0.339172 0.244110 0.089355
0.368805 0.246216 0.095703
0.398956 0.248566 0.102264
0.429657 0.251129 0.108978
0.460938 0.253937 0.115814
0.492615 0.257019 0.122772
0.524628 0.260315 0.129852
0.556885 0.263824 0.137024
0.589294 0.267609 0.144348
0.621765 0.271667 0.151611
0.654205 0.275970 0.158936
0.686462 0.280579 0.166321
0.718414 0.285492 0.173645
0.750000 0.290833 0.180939
0.781067 0.296478 0.188263
0.811554 0.302612 0.195343
0.841278 0.309143 0.202423
0.870361 0.316040 0.209076
0.898560 0.323425 0.215576
0.000000 0.270538 0.039795
0.000519 0.270874 0.040009
0.005096 0.271179 0.040314
0.022491 0.271606 0.040802
0.055145 0.272064 0.041504
0.087036 0.271942 0.044373
0.117645 0.271240 0.049591
0.146423 0.270599 0.055634
0.174408 0.270203 0.061646
0.201965 0.270203 0.067902
0.229675 0.270721 0.073303
0.257843 0.271881 0.078094
0.286804 0.273651 0.081421
0.316376 0.275269 0.085999
0.346283 0.276917 0.091766
0.376556 0.278809 0.098114
0.407196 0.280945 0.104706
0.438141 0.283325 0.111511
0.469543 0.285980 0.118408
0.501312 0.288849 0.125458
0.533325 0.292023 0.132568
0.565521 0.295380 0.139740
0.597809 0.299011 0.147003
0.630157 0.302948 0.154266
0.662384 0.307129 0.161560
0.694427 0.311554 0.168854
0.726166 0.316345 0.176117
0.757507 0.321503 0.183319
0.788330 0.326965 0.190491
0.818512 0.332825 0.197510
0.847931 0.339111 0.204437
0.876831 0.345673 0.210876
0.904877 0.352631 0.217102
0.000000 0.306213 0.040497
0.000000 0.306549 0.040710
0.000000 0.306824 0.040894
0.004639 0.307281 0.041443
0.029175 0.307800 0.041840
0.070312 0.308258 0.043060
0.107513 0.307800 0.047821
0.141083 0.306946 0.054565
0.172516 0.306244 0.061493
0.202637 0.305908 0.068512
0.232117 0.305969 0.075104
0.261505 0.306549 0.081055
0.291168 0.307831 0.086090
0.321594 0.309662 0.089691
0.352509 0.311371 0.094299
0.383545 0.313080 0.100159
0.414734 0.315002 0.106689
0.446228 0.317108 0.113525
0.477936 0.319550 0.120514
0.509796 0.322235 0.127594
0.541901 0.325165 0.134766
0.574097 0.328339 0.142029
0.606354 0.331818 0.149323
0.638550 0.335541 0.156586
0.670654 0.339539 0.163879
0.702484 0.343811 0.171143
0.734009 0.348389 0.178345
0.765106 0.353333 0.185516
0.795654 0.358582 0.192627
0.825531 0.364166 0.199615
0.854645 0.370178 0.206451
0.883392 0.376373 0.212616
0.911224 0.382965 0.218536
0.000000 0.343323 0.039429
0.000000 0.343597 0.039642
0.000000 0.343872 0.040039
0.000000 0.344299 0.040466
0.006714 0.344788 0.040894
0.045502 0.345428 0.041504
0.092285 0.345764 0.043945
0.132477 0.344910 0.051117
0.168182 0.343903 0.059235
0.201508 0.343170 0.067230
0.233307 0.342896 0.074921
0.264313 0.343018 0.082214
0.295105 0.343689 0.088562
0.326141 0.344971 0.093811
0.357788 0.346863 0.097717
0.389740 0.348694 0.102417
0.421692 0.350464 0.108368
0.453644 0.352417 0.115082
0.485809 0.354584 0.122009
0.518005 0.356995 0.129211
0.550232 0.359711 0.136475
0.582520 0.362640 0.143829
0.614746 0.365875 0.151123
0.646881 0.369354 0.158508
0.678833 0.373138 0.165863
0.710510 0.377167 0.173126
0.741821 0.381531 0.180328
0.772675 0.386200 0.187531
0.802948 0.391205 0.194611
0.832520 0.396515 0.201538
0.861359 0.402252 0.208282
0.889862 0.408112 0.214294
0.917511 0.414337 0.219849
0.000000 0.381531 0.036652
0.000000 0.381744 0.036957
0.000000 0.382050 0.037201
0.000000 0.382385 0.037781
0.000000 0.382874 0.038239
0.016144 0.383514 0.038879
0.071533 0.384155 0.040070
0.119904 0.383972 0.044891
0.161438 0.382812 0.054596
0.198547 0.381775 0.064087
0.233032 0.381073 0.073120
0.266113 0.380829 0.081451
0.298370 0.381012 0.089325
0.330353 0.381775 0.095947
0.362457 0.383087 0.101532
0.395050 0.385071 0.105530
0.427795 0.386932 0.110291
0.460480 0.388763 0.116333
0.493073 0.390717 0.123199
0.525635 0.392914 0.130310
0.558136 0.395325 0.137726
0.590576 0.398041 0.145172
0.622864 0.400970 0.152588
0.654999 0.404205 0.160034
0.686859 0.407715 0.167480
0.718384 0.411499 0.174774
0.749481 0.415588 0.182037
0.780121 0.420013 0.189240
0.810120 0.424744 0.196350
0.839386 0.429749 0.203308
0.867950 0.435150 0.209991
0.896210 0.440704 0.215790
0.923615 0.446594 0.221130
0.000000 0.420471 0.032227
0.000000 0.420654 0.032684
0.000000 0.420959 0.032837
0.000000 0.421295 0.033264
0.000000 0.421753 0.033691
0.002167 0.422333 0.034424
0.043060 0.423035 0.035370
0.103424 0.423492 0.037628
0.151825 0.422607 0.047150
0.193695 0.421295 0.058746
0.231445 0.420288 0.069458
0.266815 0.419617 0.079193
0.300842 0.419373 0.088257
0.334045 0.419678 0.096344
0.366974 0.420502 0.103424
0.399841 0.421875 0.109222
0.433105 0.423859 0.113342
0.466522 0.425781 0.118195
0.499725 0.427643 0.124359
0.532715 0.429657 0.131317
0.565552 0.431824 0.138641
0.598175 0.434265 0.146088
0.630585 0.436951 0.153595
0.662750 0.439880 0.161224
0.694580 0.443085 0.168732
0.725952 0.446594 0.176178
0.756897 0.450409 0.183472
0.787354 0.454529 0.190735
0.817078 0.458923 0.197906
0.846100 0.463623 0.204865
0.874329 0.468689 0.211609
0.902344 0.473938 0.217194
0.929504 0.479462 0.222351
0.000000 0.460022 0.026398
0.000000 0.460205 0.026886
0.000000 0.460449 0.027100
0.000000 0.460785 0.027405
0.000000 0.461212 0.027863
0.000000 0.461731 0.028503
0.015991 0.462402 0.029388
0.082581 0.463074 0.030579
0.139435 0.462921 0.036987
0.186920 0.461517 0.050659
0.228485 0.460205 0.063690
0.266541 0.459198 0.075317
0.302521 0.458588 0.085724
0.337158 0.458466 0.095276
0.371094 0.458801 0.103668
0.404663 0.459686 0.111145
0.438110 0.461121 0.117035
0.471893 0.463104 0.121277
0.505676 0.465057 0.126282
0.539215 0.466949 0.132538
0.572388 0.468964 0.139587
0.605286 0.471130 0.147003
0.637848 0.473541 0.154480
0.670105 0.476196 0.162170
0.701904 0.479126 0.169769
0.733215 0.482300 0.177277
0.764038 0.485809 0.184723
0.794281 0.489594 0.192047
0.823792 0.493652 0.199280
0.852539 0.498077 0.206329
0.880432 0.502777 0.213104
0.908142 0.507721 0.218597
0.935028 0.512939 0.223572
0.000000 0.499908 0.019318
0.000000 0.500092 0.019714
0.000000 0.500305 0.019897
0.000000 0.500610 0.020386
0.000000 0.501007 0.020966
0.000000 0.501495 0.021484
0.002014 0.502106 0.022369
0.057983 0.502777 0.023560
0.125122 0.503235 0.026398
0.178558 0.502136 0.039612
0.224426 0.500549 0.055695
0.265350 0.499268 0.069672
0.303436 0.498322 0.082062
0.339722 0.497803 0.092957
0.374817 0.497742 0.102905
0.409210 0.498138 0.111664
0.443176 0.499054 0.119110
0.477051 0.500519 0.125214
0.511108 0.502502 0.129547
0.545074 0.504486 0.134583
0.578735 0.506409 0.140961
0.611877 0.508392 0.148010
0.644684 0.510559 0.155457
0.676971 0.512939 0.163147
0.708832 0.515564 0.170746
0.740082 0.518463 0.178345
0.770813 0.521637 0.185913
0.800873 0.525085 0.193359
0.830139 0.528809 0.200592
0.858643 0.532867 0.207764
0.886230 0.537231 0.214600
0.913574 0.541870 0.220093
0.940216 0.546783 0.224915
0.000000 0.539917 0.011230
0.000000 0.540039 0.011566
0.000000 0.540253 0.011902
0.000000 0.540527 0.012329
0.000000 0.540894 0.012848
0.000000 0.541351 0.013550
0.000000 0.541870 0.014496
0.034851 0.542542 0.015503
0.109406 0.543213 0.016998
0.169281 0.542694 0.026978
0.219757 0.540985 0.045715
0.263733 0.539459 0.062744
0.303986 0.538208 0.077118
0.341858 0.537384 0.089813
0.378235 0.536926 0.101135
0.413574 0.536926 0.111298
0.448151 0.537415 0.120148
0.482300 0.538361 0.127655
0.516388 0.539825 0.133881
0.550507 0.541779 0.138306
0.584503 0.543793 0.143372
0.618011 0.545715 0.149811
0.650970 0.547668 0.156799
0.683441 0.549835 0.164307
0.715271 0.552185 0.171967
0.746521 0.554779 0.179596
0.777130 0.557648 0.187286
0.807068 0.560730 0.194794
0.836121 0.564148 0.202148
0.864349 0.567871 0.209351
0.891663 0.571869 0.216309
0.918640 0.576172 0.221771
0.944946 0.580750 0.226471
0.000000 0.579712 0.003876
0.000000 0.579895 0.004089
0.000000 0.580048 0.004486
0.000000 0.580292 0.004639
0.000000 0.580627 0.004974
0.000000 0.581024 0.005676
0.000000 0.581543 0.006470
0.015686 0.582123 0.007263
0.092621 0.582794 0.008698
0.160492 0.582825 0.014923
0.214966 0.581268 0.033875
0.262177 0.579498 0.054596
0.304535 0.578033 0.071655
0.344055 0.576874 0.086151
0.381592 0.576111 0.098999
0.417816 0.575745 0.110474
0.453125 0.575775 0.120575
0.487701 0.576324 0.129425
0.521881 0.577362 0.137054
0.555878 0.578827 0.143219
0.589905 0.580750 0.147858
0.623657 0.582764 0.152985
0.656860 0.584625 0.159241
0.689423 0.586609 0.166229
0.721344 0.588715 0.173767
0.752563 0.591034 0.181366
0.783081 0.593567 0.189026
0.812836 0.596375 0.196564
0.841705 0.599426 0.204010
0.869690 0.602783 0.211273
0.896667 0.606445 0.218323
0.923279 0.610413 0.223816
0.949249 0.614655 0.228394
0.000000 0.619171 0.000092
0.000000 0.619324 0.000183
0.000000 0.619446 0.000275
0.000000 0.619659 0.000275
0.000000 0.619965 0.000427
0.000000 0.620361 0.000671
0.000000 0.620819 0.000885
0.006744 0.621338 0.001343
0.080627 0.621918 0.002289
0.153259 0.622314 0.005280
0.211121 0.621033 0.022430
0.261139 0.619110 0.045959
0.305511 0.617401 0.066162
0.346436 0.616028 0.082794
0.385193 0.614990 0.097076
0.422241 0.614319 0.109802
0.458099 0.614044 0.121063
0.493164 0.614136 0.131134
0.527588 0.614746 0.139923
0.561615 0.615753 0.147400
0.595337 0.617249 0.153534
0.629120 0.619110 0.158264
0.662415 0.621094 0.163330
0.695068 0.622925 0.169586
0.727020 0.624878 0.176605
0.758209 0.626953 0.183960
0.788635 0.629242 0.191406
0.818207 0.631714 0.198914
0.846893 0.634460 0.206451
0.874573 0.637451 0.213654
0.901276 0.640747 0.220764
0.927521 0.644348 0.226349
0.953156 0.648285 0.230835
0.000000 0.657990 0.000000
0.000000 0.658112 0.000000
0.000000 0.658264 0.000000
0.000000 0.658447 0.000000
0.000000 0.658722 0.000000
0.000000 0.659058 0.000000
0.000000 0.659454 0.000000
0.004395 0.659912 0.000000
0.075012 0.660431 0.000000
0.149200 0.660950 0.000549
0.209442 0.660004 0.014038
0.261566 0.658020 0.038910
0.307556 0.656128 0.061890
0.349701 0.654510 0.080536
0.389282 0.653259 0.096191
0.427124 0.652313 0.109894
0.463531 0.651733 0.122192
0.498932 0.651520 0.133179
0.533600 0.651703 0.142944
0.567657 0.652344 0.151428
0.601288 0.653381 0.158783
0.634674 0.654816 0.164856
0.667816 0.656677 0.169586
0.700470 0.658569 0.174652
0.732422 0.660339 0.180847
0.763550 0.662292 0.187744
0.793823 0.664307 0.194855
0.823242 0.666504 0.202179
0.851685 0.668945 0.209564
0.879120 0.671600 0.216797
0.905518 0.674530 0.223846
0.931335 0.677826 0.229523
0.956635 0.681396 0.233917
0.000000 0.696014 0.000000
0.000000 0.696106 0.000000
0.000000 0.696228 0.000000
0.000000 0.696381 0.000000
0.000000 0.696655 0.000000
0.000000 0.696930 0.000000
0.000000 0.697266 0.000000
0.004456 0.697662 0.000000
0.074951 0.698120 0.000000
0.149811 0.698608 0.000000
0.211121 0.697876 0.010468
0.264191 0.695953 0.034882
0.311340 0.693909 0.059906
0.354248 0.692139 0.080139
0.394501 0.690643 0.096954
0.432739 0.689484 0.111511
0.469574 0.688629 0.124390
0.505249 0.688141 0.136108
0.540100 0.687988 0.146637
0.574158 0.688263 0.155975
0.607666 0.688904 0.164124
0.640717 0.689941 0.171234
0.673492 0.691345 0.177155
0.705872 0.693176 0.181732
0.737701 0.694977 0.186798
0.768738 0.696716 0.193024
0.798828 0.698547 0.199677
0.828064 0.700500 0.206696
0.856201 0.702667 0.213806
0.883362 0.705017 0.220856
0.909424 0.707611 0.227875
0.934875 0.710541 0.233521
0.959778 0.713776 0.237946
0.000000 0.732880 0.000000
0.000000 0.732971 0.000000
0.000000 0.733093 0.000000
0.000000 0.733215 0.000000
0.000000 0.733429 0.000000
0.000000 0.733673 0.000000
0.000000 0.733978 0.000000
0.007507 0.734314 0.000000
0.082367 0.734711 0.000000
0.156494 0.735138 0.000336
0.217102 0.734467 0.011169
0.270050 0.732544 0.035828
0.317474 0.730408 0.061768
0.360687 0.728516 0.082703
0.401154 0.726898 0.099976
0.439667 0.725525 0.114990
0.476593 0.724457 0.128326
0.512390 0.723694 0.140381
0.547211 0.723267 0.151459
0.581238 0.723206 0.161407
0.614594 0.723511 0.170258
0.647400 0.724152 0.178070
0.679657 0.725189 0.184814
0.711578 0.726562 0.190491
0.743073 0.728271 0.194916
0.773865 0.729950 0.200073
0.803741 0.731659 0.206116
0.832703 0.733429 0.212616
0.860565 0.735321 0.219330
0.887360 0.737396 0.226135
0.913116 0.739624 0.233002
0.938171 0.742218 0.238770
0.962677 0.745117 0.243103
0.000000 0.768463 0.000000
0.000000 0.768524 0.000153
0.000000 0.768616 0.000214
0.000000 0.768738 0.000336
0.000000 0.768890 0.000519
0.000000 0.769104 0.000854
0.000000 0.769348 0.001068
0.019287 0.769623 0.001495
0.097534 0.769928 0.002014
0.170197 0.770294 0.003357
0.228058 0.769531 0.017120
0.279785 0.767609 0.042908
0.326599 0.765411 0.068420
0.369507 0.763428 0.088867
0.409760 0.761688 0.105896
0.448120 0.760162 0.120911
0.484955 0.758911 0.134369
0.520569 0.757935 0.146576
0.555267 0.757263 0.157806
0.589111 0.756927 0.168091
0.622192 0.756897 0.177368
0.654663 0.757233 0.185669
0.686554 0.757874 0.193024
0.717926 0.758881 0.199432
0.748810 0.760193 0.204742
0.779144 0.761810 0.209198
0.808716 0.763397 0.214355
0.837341 0.765015 0.220123
0.864868 0.766693 0.226379
0.891296 0.768494 0.232880
0.916687 0.770447 0.239410
0.941315 0.772705 0.245148
0.965454 0.775299 0.249542
0.000000 0.802490 0.003082
0.000000 0.802521 0.003754
0.000000 0.802582 0.004089
0.000000 0.802704 0.004639
0.000000 0.802826 0.005463
0.000000 0.803009 0.006805
0.002197 0.803162 0.008057
0.051208 0.803406 0.009857
0.125916 0.803650 0.012054
0.190399 0.803894 0.015259
0.244354 0.802887 0.031586
0.293884 0.800842 0.056519
0.339233 0.798645 0.079895
0.381165 0.796631 0.098877
0.420715 0.794769 0.115204
0.458527 0.793152 0.129700
0.494934 0.791779 0.142853
0.530182 0.790619 0.154907
0.564514 0.789734 0.166077
0.597992 0.789154 0.176422
0.630737 0.788879 0.185852
0.662750 0.788879 0.194458
0.694183 0.789185 0.202271
0.725006 0.789856 0.209045
0.755219 0.790833 0.214996
