滤镜资源/Professional Luts Collection/Lutify.me Professional/Vintage Films/Fluorite.cube
# Created by: Lutify.me
# Copyright: (c) Copyright Lutify.me 2015
# Website: https://lutify.me
#LUT size
LUT_3D_SIZE 5
#LUT data points
0.000000 0.000000 0.000000
0.068817 0.012970 0.013153
0.228912 0.051849 0.065247
0.497467 0.088745 0.146393
0.777771 0.169403 0.234863
0.006165 0.108246 0.017029
0.107727 0.108948 0.040802
0.274078 0.138031 0.097870
0.530670 0.192078 0.177124
0.793121 0.277954 0.262329
0.000000 0.378601 0.027069
0.026459 0.382507 0.029358
0.376434 0.382568 0.132172
0.645355 0.422760 0.213745
0.870850 0.490723 0.296936
0.000000 0.725372 0.000000
0.005341 0.727814 0.000061
0.480103 0.705780 0.177185
0.746002 0.717041 0.268982
0.936584 0.747528 0.342834
0.391022 0.940491 0.232697
0.488770 0.932007 0.270111
0.671661 0.918823 0.340942
0.846161 0.914673 0.413422
0.977234 0.926910 0.461273
0.000000 0.000000 0.200043
0.109833 0.000000 0.151489
0.296204 0.034058 0.161713
0.559601 0.074921 0.226318
0.827393 0.168823 0.308197
0.000000 0.127106 0.164459
0.112183 0.124756 0.165039
0.300659 0.162567 0.192017
0.566711 0.212952 0.259521
0.827179 0.296448 0.338776
0.000000 0.409149 0.167511
0.004608 0.407471 0.176605
0.398712 0.400513 0.243256
0.655365 0.443420 0.320557
0.873901 0.514862 0.396820
0.000000 0.743530 0.209442
0.005157 0.744415 0.216431
0.494629 0.724945 0.299042
0.759094 0.730591 0.379272
0.941254 0.760406 0.446167
0.391296 0.954742 0.356201
0.487122 0.950043 0.372009
0.678955 0.933563 0.430115
0.853241 0.925110 0.498749
0.981110 0.936127 0.542847
0.000000 0.000000 0.636139
0.000000 0.000000 0.616699
0.366943 0.000000 0.492462
0.711304 0.000000 0.487000
0.964386 0.013336 0.526398
0.000000 0.068054 0.597321
0.000000 0.051880 0.602905
0.396820 0.097900 0.499908
0.722260 0.141907 0.498688
0.964539 0.257385 0.541626
0.000000 0.446625 0.530151
0.000000 0.446625 0.528839
0.429291 0.434784 0.532318
0.699829 0.504974 0.549591
0.898956 0.578888 0.609406
0.000000 0.808563 0.520538
0.000000 0.807373 0.521057
0.512451 0.771179 0.555206
0.788971 0.765961 0.612061
0.947693 0.795746 0.665833
0.319214 0.998322 0.584442
0.477234 0.983856 0.603424
0.688324 0.967529 0.631195
0.868530 0.952454 0.680145
0.989655 0.959137 0.716827
0.000000 0.000000 0.998230
0.000000 0.000000 0.997223
0.308289 0.000000 0.899963
0.796417 0.000000 0.814606
1.000000 0.000000 0.812378
0.000000 0.000000 0.986572
0.000000 0.000000 0.984894
0.347382 0.000000 0.900238
0.807922 0.000000 0.815552
1.000000 0.065308 0.813782
0.000000 0.424530 0.897003
0.000000 0.421844 0.896393
0.354523 0.363617 0.921631
0.829437 0.468903 0.816071
1.000000 0.559570 0.811432
0.000000 0.821747 0.826843
0.000000 0.820648 0.826294
0.460663 0.812744 0.821136
0.831055 0.805847 0.812988
0.959442 0.843018 0.838959
0.209137 1.000000 0.806000
0.409241 1.000000 0.806488
0.685577 0.999695 0.812805
0.885956 0.983856 0.832001
1.000000 0.983490 0.857483
0.000000 0.000000 1.000000
0.000000 0.000000 1.000000
0.516937 0.000000 0.999939
0.885956 0.000000 0.945862
1.000000 0.000000 0.940369
0.000000 0.000000 1.000000
0.000000 0.000000 1.000000
0.533173 0.000000 0.999146
0.892578 0.000000 0.944244
1.000000 0.012543 0.938812
0.000000 0.390472 1.000000
0.000000 0.372437 1.000000
0.545258 0.328064 1.000000
0.904480 0.461578 0.939148
1.000000 0.524078 0.928802
0.000000 0.816071 0.946594
0.162750 0.813660 0.947235
0.573212 0.802338 0.950226
0.889893 0.791779 0.932373
1.000000 0.841431 0.912933
0.440979 1.000000 0.906982
0.533997 1.000000 0.905823
0.724579 1.000000 0.903412
0.910095 0.997681 0.907227
1.000000 0.995483 0.939484
