滤镜资源/Professional Luts Collection/Lutify.me Professional/Vintage Films/Fluorite.cube
# Created by: Lutify.me
# Copyright: (c) Copyright Lutify.me 2015
# Website: https://lutify.me
#LUT size
LUT_3D_SIZE 33
#LUT data points
0.000000 0.000000 0.000000
0.003113 0.000397 0.000763
0.006958 0.001526 0.001221
0.012115 0.002045 0.002258
0.019684 0.003448 0.003479
0.028625 0.005371 0.005310
0.041199 0.007294 0.007019
0.054535 0.009888 0.009888
0.068817 0.012970 0.013153
0.083618 0.016449 0.016663
0.099640 0.020386 0.021240
0.116699 0.024658 0.026520
0.135406 0.029572 0.032837
0.155792 0.035095 0.040222
0.178070 0.040833 0.048248
0.202393 0.046539 0.056580
0.228912 0.051849 0.065247
0.257477 0.056915 0.074249
0.287903 0.061768 0.083649
0.320007 0.066315 0.093475
0.353546 0.070801 0.103699
0.388397 0.075073 0.114136
0.424225 0.079254 0.124725
0.460663 0.083984 0.135468
0.497467 0.088745 0.146393
0.534515 0.094330 0.157501
0.571472 0.101379 0.168579
0.608002 0.109375 0.179718
0.643921 0.118317 0.190857
0.679077 0.129181 0.201996
0.713257 0.141235 0.213135
0.746216 0.154755 0.223999
0.777771 0.169403 0.234863
0.000793 0.005737 0.001160
0.005402 0.005402 0.001923
0.009674 0.005768 0.002716
0.015167 0.006622 0.004211
0.021851 0.008392 0.005402
0.031982 0.010040 0.007263
0.044006 0.012421 0.009491
0.057404 0.015076 0.012085
0.071411 0.017883 0.015411
0.086029 0.021484 0.019043
0.101654 0.025604 0.023865
0.118713 0.030304 0.029205
0.137268 0.035645 0.035706
0.157623 0.041138 0.042999
0.179810 0.046875 0.050903
0.204071 0.052399 0.059204
0.230499 0.057678 0.067688
0.259247 0.062531 0.076416
0.290009 0.067047 0.085632
0.322174 0.071533 0.095367
0.355682 0.075897 0.105377
0.390442 0.080322 0.115662
0.426178 0.084778 0.126190
0.462646 0.089233 0.136993
0.499420 0.094391 0.147827
0.536316 0.100403 0.158752
0.573151 0.107391 0.169922
0.609619 0.115509 0.180939
0.645447 0.124634 0.192200
0.680481 0.135468 0.203156
0.714508 0.147583 0.214233
0.747467 0.160736 0.225250
0.778900 0.175171 0.236053
0.000854 0.011749 0.001953
0.006561 0.011749 0.002716
0.011780 0.011749 0.003845
0.018280 0.012207 0.005676
0.025665 0.013336 0.006989
0.035553 0.015228 0.009186
0.047760 0.017792 0.011322
0.060486 0.020569 0.014343
0.074280 0.023651 0.017517
0.088928 0.027100 0.021729
0.104492 0.031738 0.026215
0.121216 0.036713 0.031799
0.139526 0.041962 0.038666
0.159668 0.047577 0.046021
0.181824 0.053101 0.053650
0.205963 0.058655 0.061768
0.232330 0.063904 0.070221
0.261139 0.068573 0.078888
0.292114 0.072784 0.087860
0.324554 0.077148 0.097321
0.358093 0.081726 0.107239
0.392792 0.086151 0.117493
0.428558 0.090546 0.128052
0.464874 0.095428 0.138763
0.501526 0.100922 0.149567
0.538391 0.106964 0.160522
0.575134 0.114075 0.171539
0.611481 0.122192 0.182617
0.647247 0.131592 0.193695
0.682159 0.142242 0.204773
0.716095 0.154297 0.215668
0.748871 0.167480 0.226624
0.780212 0.181793 0.237335
0.002197 0.020996 0.003479
0.007751 0.020660 0.004181
0.013763 0.020599 0.005066
0.020996 0.020966 0.006622
0.030182 0.021759 0.008850
0.040802 0.023285 0.011230
0.052368 0.025787 0.013916
0.065430 0.028259 0.016724
0.078613 0.031403 0.020172
0.093170 0.035492 0.024506
0.108521 0.040009 0.029694
0.125061 0.045013 0.035400
0.143219 0.050262 0.042145
0.163239 0.055542 0.049500
0.185150 0.061005 0.057281
0.208862 0.066620 0.065399
0.235016 0.071899 0.073822
0.263641 0.076691 0.082489
0.294586 0.081116 0.091278
0.327484 0.085175 0.100311
0.361481 0.089325 0.109863
0.396179 0.093933 0.119965
0.431702 0.098724 0.130371
0.467957 0.103851 0.141022
0.504578 0.109497 0.151733
0.541290 0.115784 0.162659
0.577820 0.123138 0.173706
0.614105 0.131622 0.184662
0.649658 0.140961 0.195648
0.684479 0.151611 0.206696
0.718292 0.163544 0.217743
0.750854 0.176697 0.228546
0.782043 0.190735 0.239227
0.003754 0.033997 0.005035
0.009186 0.034027 0.005798
0.016205 0.033356 0.006592
0.024323 0.033295 0.008820
0.034698 0.033386 0.010834
0.046417 0.035156 0.013275
0.058441 0.036774 0.016296
0.070923 0.039459 0.019684
0.084442 0.042664 0.023651
0.098572 0.046570 0.027985
0.113770 0.050568 0.033264
0.130280 0.055267 0.039307
0.148376 0.060181 0.046234
0.168182 0.065338 0.053589
0.189880 0.070679 0.061432
0.213501 0.076172 0.069580
0.239136 0.081696 0.078064
0.267212 0.086945 0.086823
0.297760 0.091705 0.095764
0.330566 0.095947 0.104736
0.365082 0.099884 0.113831
0.400360 0.104187 0.123444
0.435944 0.109192 0.133636
0.472046 0.114685 0.144104
0.508484 0.120758 0.154816
0.545074 0.127441 0.165588
0.581482 0.134949 0.176514
0.617523 0.143463 0.187469
0.652863 0.153015 0.198395
0.687500 0.163788 0.209320
0.721100 0.175415 0.220245
0.753479 0.188507 0.230988
0.784454 0.202301 0.241638
0.004364 0.050415 0.007568
0.010742 0.050415 0.008057
0.017548 0.050323 0.008881
0.027344 0.049744 0.010803
0.038666 0.049438 0.013916
0.051086 0.050018 0.016571
0.064301 0.051453 0.018677
0.077057 0.053528 0.022461
0.090485 0.056274 0.027069
0.104889 0.059418 0.032104
0.120117 0.063263 0.037537
0.136658 0.067322 0.043823
0.154877 0.071930 0.050690
0.174713 0.076752 0.058014
0.196381 0.081879 0.065796
0.219910 0.087341 0.073975
0.245453 0.092773 0.082458
0.273132 0.098236 0.091431
0.302887 0.103607 0.100677
0.334778 0.108704 0.109985
0.368591 0.113464 0.119232
0.404144 0.117859 0.128510
0.440613 0.122528 0.138062
0.477173 0.127930 0.148102
0.513489 0.134277 0.158661
0.549774 0.141296 0.169342
0.585938 0.149170 0.180054
0.621735 0.157928 0.190887
0.656891 0.167664 0.201721
0.691254 0.178467 0.212646
0.724579 0.190063 0.223480
0.756744 0.202759 0.234161
0.787445 0.216492 0.244659
0.005341 0.068329 0.010345
0.011902 0.068420 0.010803
0.018707 0.068573 0.011566
0.029266 0.067932 0.013519
0.041931 0.067169 0.016296
0.054932 0.067139 0.020020
0.068817 0.068298 0.023132
0.083008 0.069641 0.026031
0.096893 0.071747 0.030609
0.111664 0.074371 0.036102
0.127289 0.077545 0.041962
0.144104 0.081329 0.048340
0.162445 0.085571 0.055542
0.182465 0.090149 0.062988
0.204224 0.094940 0.070679
0.227905 0.100159 0.078735
0.253479 0.105652 0.087311
0.281128 0.111176 0.096344
0.310608 0.116943 0.105713
0.341766 0.122681 0.115234
0.374573 0.128387 0.124847
0.408905 0.134064 0.134583
0.444580 0.139587 0.144348
0.481262 0.145142 0.153992
0.518311 0.151154 0.163849
0.555115 0.157990 0.173981
0.591278 0.165955 0.184509
0.626892 0.174927 0.195190
0.661713 0.184814 0.205902
0.695770 0.195526 0.216675
0.728760 0.207245 0.227325
0.760590 0.219666 0.237976
0.791016 0.233124 0.248444
0.005798 0.087402 0.013641
0.012085 0.087585 0.013916
0.018860 0.087952 0.014435
0.029663 0.087708 0.016205
0.043854 0.086884 0.018982
0.058899 0.086243 0.022827
0.073120 0.086304 0.027588
0.087616 0.087646 0.031342
0.102966 0.089539 0.034729
0.118439 0.091614 0.040436
0.134766 0.094269 0.046387
0.152191 0.097412 0.053040
0.171021 0.101196 0.060181
0.191284 0.105408 0.067871
0.213379 0.110107 0.075684
0.237274 0.115143 0.083862
0.263031 0.120544 0.092499
0.290741 0.126160 0.101501
0.320190 0.132050 0.110809
0.351105 0.138153 0.120453
0.383423 0.144409 0.130341
0.416901 0.150909 0.140381
0.451416 0.157562 0.150543
0.486755 0.164368 0.160706
0.522705 0.171478 0.170837
0.558807 0.179047 0.181030
0.594727 0.187317 0.191376
0.630310 0.196167 0.201782
0.665131 0.205872 0.212189
0.698944 0.216522 0.222656
0.731476 0.228241 0.233398
0.762329 0.240967 0.244263
0.791412 0.255035 0.255249
0.006165 0.108246 0.017029
0.009949 0.108612 0.017365
0.017670 0.108948 0.017944
0.028778 0.109070 0.018982
0.044403 0.108429 0.021881
0.060913 0.107574 0.025787
0.076721 0.107056 0.030762
0.092163 0.107391 0.036499
0.107727 0.108948 0.040802
0.124969 0.110962 0.044922
0.142365 0.113342 0.050903
0.160736 0.116028 0.057739
0.180298 0.119385 0.065033
0.201202 0.123322 0.072662
0.223694 0.127777 0.080750
0.248016 0.132690 0.089172
0.274078 0.138031 0.097870
0.301910 0.143616 0.106903
0.331390 0.149536 0.116180
0.362274 0.155792 0.125824
0.394348 0.162323 0.135742
0.427460 0.169220 0.145874
0.461334 0.176514 0.156219
0.495819 0.184082 0.166626
0.530670 0.192078 0.177124
0.565643 0.200562 0.187683
0.600494 0.209503 0.198273
0.635071 0.219025 0.208893
0.668976 0.229248 0.219482
0.701965 0.240173 0.230133
0.733795 0.251984 0.240906
0.764252 0.264465 0.251617
0.793121 0.277954 0.262329
0.005463 0.131653 0.020660
0.006531 0.131836 0.020844
0.013214 0.132233 0.020966
0.024780 0.132599 0.022003
0.041626 0.132385 0.024261
0.060120 0.131531 0.028473
0.078156 0.130737 0.034058
0.095398 0.130585 0.040131
0.112366 0.131073 0.046265
0.130066 0.132751 0.051361
0.149414 0.135223 0.055817
0.169220 0.137787 0.062134
0.189941 0.140808 0.069397
0.211761 0.144318 0.077332
0.235077 0.148376 0.085541
0.259979 0.153046 0.094116
0.286499 0.158142 0.102997
0.314545 0.163727 0.112213
0.344116 0.169678 0.121613
0.374969 0.175995 0.131256
0.406860 0.182709 0.141205
0.439728 0.189819 0.151337
0.473267 0.197357 0.161743
0.507294 0.205292 0.172180
0.541534 0.213623 0.182739
0.575806 0.222504 0.193359
0.609894 0.231873 0.204071
0.643585 0.241699 0.214783
0.676666 0.252167 0.225525
0.708954 0.263275 0.236237
0.740173 0.275024 0.246918
0.770325 0.287201 0.257355
0.799133 0.300018 0.267731
0.003174 0.157684 0.023956
0.003265 0.157959 0.024261
0.005005 0.158325 0.024170
0.015778 0.158966 0.024750
0.033356 0.159241 0.026276
0.055054 0.158783 0.029816
0.076263 0.157776 0.035919
0.096161 0.157104 0.042816
0.115662 0.156982 0.049866
0.135010 0.157776 0.056702
0.155212 0.159729 0.062500
0.176849 0.162628 0.066986
0.199280 0.165314 0.073547
0.222565 0.168518 0.081451
0.247040 0.172180 0.089966
0.272766 0.176453 0.098755
0.299835 0.181335 0.107849
0.328339 0.186737 0.117188
0.358032 0.192627 0.126801
0.388916 0.199005 0.136566
0.420776 0.205750 0.146576
0.453430 0.212952 0.156799
0.486664 0.220581 0.167175
0.520325 0.228638 0.177582
0.554108 0.237122 0.188110
0.587860 0.246033 0.198761
0.621399 0.255524 0.209412
0.654572 0.265411 0.220093
0.687012 0.275848 0.230774
0.718658 0.286896 0.241455
0.749359 0.298431 0.252014
0.779083 0.310364 0.262268
0.807526 0.322754 0.272247
0.000763 0.186829 0.026611
0.000763 0.187073 0.026886
0.000793 0.187439 0.027039
0.003601 0.188019 0.027161
0.018005 0.188812 0.028107
0.042145 0.189117 0.030365
0.069122 0.188293 0.036072
0.093628 0.187225 0.043762
0.116425 0.186554 0.051971
0.138672 0.186554 0.059845
0.160614 0.187592 0.067261
0.183380 0.189819 0.073425
0.207733 0.193024 0.078278
0.233002 0.196014 0.085358
0.258972 0.199402 0.093750
0.285919 0.203339 0.102844
0.313812 0.207825 0.112091
0.342804 0.212921 0.121674
0.372864 0.218628 0.131500
0.403870 0.224823 0.141479
0.435730 0.231506 0.151611
0.468262 0.238617 0.161865
0.501251 0.246185 0.172272
0.534576 0.254242 0.182800
0.567963 0.262695 0.193359
0.601257 0.271606 0.203979
0.634247 0.281036 0.214630
0.666809 0.290894 0.225281
0.698700 0.301147 0.235840
0.729767 0.312012 0.246399
0.759888 0.323364 0.256836
0.789093 0.334961 0.266907
0.817017 0.347046 0.276672
0.000000 0.219421 0.028198
0.000000 0.219635 0.028351
0.000000 0.220032 0.028351
0.000000 0.220459 0.028717
0.003510 0.221191 0.029114
0.019379 0.222198 0.030212
0.052948 0.222168 0.034485
0.085297 0.221008 0.042755
0.113831 0.219818 0.051758
0.139618 0.219147 0.061157
0.164673 0.219391 0.069916
0.189453 0.220673 0.078094
0.215118 0.223175 0.084656
0.242310 0.226685 0.089874
0.270325 0.229980 0.097351
0.298828 0.233612 0.106171
0.327881 0.237732 0.115753
0.357697 0.242462 0.125549
0.388275 0.247742 0.135590
0.419525 0.253662 0.145782
0.451477 0.260071 0.156097
0.483948 0.266937 0.166534
0.516724 0.274353 0.177032
0.549744 0.282227 0.187683
0.582764 0.290558 0.198303
0.615570 0.299286 0.208893
0.648041 0.308502 0.219574
0.680054 0.318237 0.230133
0.711334 0.328308 0.240723
0.741760 0.338898 0.251221
0.771240 0.349945 0.261566
0.799866 0.361237 0.271454
0.827240 0.372894 0.280945
0.000000 0.255310 0.029602
0.000000 0.255585 0.029541
0.000000 0.255920 0.029510
0.000000 0.256287 0.029663
0.000000 0.256958 0.029785
0.003326 0.258026 0.030304
0.023651 0.258850 0.031738
0.067902 0.258209 0.038544
0.105591 0.256622 0.049408
0.137482 0.255402 0.060272
0.166504 0.254852 0.070679
0.194397 0.255310 0.080383
0.222168 0.256836 0.089050
0.250610 0.259613 0.096191
0.280579 0.263428 0.101624
0.310944 0.266998 0.109436
0.341461 0.270813 0.118652
0.372406 0.275055 0.128662
0.403748 0.279907 0.139008
0.435516 0.285370 0.149445
0.467621 0.291412 0.159973
0.500122 0.297943 0.170624
0.532806 0.304993 0.181305
0.565521 0.312592 0.192108
0.598206 0.320618 0.202820
0.630585 0.329102 0.213470
0.662537 0.338013 0.224213
0.693970 0.347443 0.234802
0.724670 0.357269 0.245361
0.754395 0.367523 0.255829
0.783173 0.378143 0.266113
0.811188 0.389069 0.275787
0.837952 0.400330 0.285095
0.000000 0.294250 0.030396
0.000000 0.294525 0.030304
0.000000 0.294769 0.030334
0.000000 0.295197 0.030334
0.000000 0.295776 0.030334
0.000000 0.296631 0.030579
0.004150 0.297913 0.031067
0.036377 0.297913 0.033203
0.089447 0.296722 0.042999
0.130890 0.294739 0.056854
0.165894 0.293518 0.069458
0.197815 0.293121 0.080872
0.228394 0.293884 0.091309
0.258820 0.295624 0.100494
0.289764 0.298676 0.107788
0.321960 0.302795 0.113647
0.354248 0.306580 0.121765
0.386444 0.310516 0.131348
0.418793 0.314911 0.141663
0.451263 0.319794 0.152344
0.483826 0.325348 0.163208
0.516449 0.331421 0.174103
0.549103 0.338043 0.185028
0.581635 0.345184 0.195953
0.613983 0.352844 0.206879
0.645996 0.360901 0.217682
0.677460 0.369446 0.228485
0.708313 0.378479 0.239166
0.738342 0.387909 0.249786
0.767426 0.397766 0.260254
0.795502 0.407990 0.270508
0.822845 0.418457 0.280029
0.848938 0.429230 0.289185
0.000000 0.335571 0.029694
0.000000 0.335815 0.029785
0.000000 0.336090 0.029694
0.000000 0.336487 0.029602
0.000000 0.336975 0.029572
0.000000 0.337677 0.029694
0.000000 0.338959 0.030090
0.007965 0.339722 0.030853
0.061829 0.338898 0.034363
0.118500 0.337036 0.048889
0.162231 0.334839 0.065430
0.199432 0.333588 0.079590
0.233643 0.333435 0.091949
0.266510 0.334412 0.102875
0.299042 0.336487 0.112427
0.331909 0.339874 0.119751
0.365753 0.344147 0.125916
0.399567 0.348053 0.134369
0.433105 0.352142 0.144257
0.466431 0.356628 0.154816
0.499542 0.361572 0.165833
0.532501 0.367126 0.176941
0.565277 0.373230 0.188141
0.597748 0.379852 0.199341
0.629852 0.386963 0.210480
0.661438 0.394562 0.221466
0.692444 0.402649 0.232452
0.722748 0.411194 0.243256
0.752136 0.420105 0.253937
0.780579 0.429504 0.264496
0.807953 0.439209 0.274750
0.834595 0.449158 0.284180
0.859985 0.459412 0.293121
0.000000 0.378601 0.027069
0.000000 0.378876 0.027252
0.000000 0.379181 0.027283
0.000000 0.379517 0.027100
0.000000 0.379974 0.027069
0.000000 0.380615 0.027008
0.000000 0.381683 0.027374
0.000000 0.382935 0.028046
0.026459 0.382507 0.029358
0.098999 0.381165 0.036682
0.154907 0.378510 0.057037
0.199097 0.376373 0.075317
0.237671 0.375244 0.090668
0.273499 0.375275 0.103760
0.308105 0.376495 0.115173
0.342133 0.378906 0.124756
0.376434 0.382568 0.132172
0.411591 0.386871 0.138550
0.446381 0.390930 0.147308
0.480743 0.395111 0.157379
0.514618 0.399658 0.168304
0.547974 0.404633 0.179504
0.580933 0.410126 0.190857
0.613434 0.416168 0.202332
0.645355 0.422760 0.213745
0.676666 0.429718 0.224945
0.707214 0.437286 0.236053
0.737030 0.445251 0.247070
0.765839 0.453644 0.257904
0.793610 0.462433 0.268494
0.820282 0.471588 0.278778
0.846161 0.480988 0.288177
0.870850 0.490723 0.296936
0.000000 0.422974 0.022736
0.000000 0.423218 0.022858
0.000000 0.423462 0.022858
0.000000 0.423798 0.022736
0.000000 0.424286 0.022583
0.000000 0.424805 0.022552
0.000000 0.425720 0.022858
0.000000 0.427094 0.023499
0.006042 0.427094 0.024689
0.072693 0.426025 0.027435
0.144135 0.423676 0.044067
0.196991 0.420746 0.067841
0.240723 0.418793 0.086823
0.279907 0.417969 0.102722
0.316742 0.418243 0.116425
0.352356 0.419739 0.128143
0.387451 0.422363 0.137726
0.422852 0.426208 0.145264
0.458771 0.430542 0.151947
0.494049 0.434662 0.160889
0.528687 0.438934 0.171112
0.562653 0.443451 0.182281
0.595917 0.448395 0.193604
0.628510 0.453827 0.205231
0.660370 0.459778 0.216797
0.691406 0.466217 0.228241
0.721588 0.473083 0.239532
0.750885 0.480438 0.250671
0.779205 0.488251 0.261688
0.806305 0.496368 0.272461
0.832245 0.504944 0.282776
0.857391 0.513763 0.292114
0.881378 0.522919 0.300781
0.000000 0.468079 0.016937
0.000000 0.468292 0.016815
0.000000 0.468475 0.016632
0.000000 0.468781 0.016602
0.000000 0.469238 0.016449
0.000000 0.469696 0.016479
0.000000 0.470459 0.016602
0.000000 0.471802 0.017303
0.000031 0.472260 0.018524
0.049011 0.471222 0.020203
0.131134 0.469330 0.029785
0.193604 0.466095 0.057037
0.243164 0.463348 0.081177
0.286011 0.461700 0.100281
0.325317 0.461212 0.116425
0.362640 0.461792 0.130249
0.398682 0.463501 0.141998
0.434479 0.466339 0.151703
0.470428 0.470306 0.159180
0.506561 0.474670 0.166138
0.541931 0.478790 0.175354
0.576447 0.483002 0.185638
0.610077 0.487518 0.196869
0.642822 0.492401 0.208252
0.674652 0.497742 0.220001
0.705536 0.503540 0.231567
0.735382 0.509766 0.243073
0.764252 0.516449 0.254395
0.791992 0.523590 0.265533
0.818481 0.531128 0.276398
0.843689 0.539001 0.286865
0.868134 0.547211 0.296143
0.891357 0.555756 0.304718
0.000000 0.513306 0.009613
0.000000 0.513489 0.009460
0.000000 0.513672 0.009399
0.000000 0.513977 0.009369
0.000000 0.514343 0.009277
0.000000 0.514801 0.009369
0.000000 0.515381 0.009277
0.000000 0.516632 0.010010
0.000000 0.517487 0.011353
0.029175 0.516479 0.013000
0.117371 0.514801 0.017944
0.190491 0.511566 0.043365
0.245636 0.508240 0.073853
0.292206 0.505890 0.096954
0.334045 0.504669 0.115875
0.373047 0.504425 0.131866
0.410278 0.505310 0.145508
0.446564 0.507263 0.157104
0.482483 0.510284 0.166779
0.518494 0.514313 0.173981
0.554352 0.518646 0.181396
0.589386 0.522705 0.190765
0.623352 0.526886 0.201050
0.656311 0.531311 0.212219
0.688141 0.536072 0.223694
0.718842 0.541290 0.235382
0.748413 0.546906 0.246918
0.776886 0.552917 0.258423
0.804077 0.559357 0.269653
0.829987 0.566193 0.280640
0.854523 0.573425 0.291229
0.878204 0.581024 0.300537
0.900665 0.588898 0.309021
0.000000 0.558197 0.002899
0.000000 0.558350 0.002930
0.000000 0.558533 0.002991
0.000000 0.558777 0.002960
0.000000 0.559113 0.002838
0.000000 0.559509 0.002899
0.000000 0.560028 0.002808
0.000000 0.561127 0.003174
0.000000 0.562164 0.004211
0.017456 0.561249 0.005707
0.105682 0.559662 0.008972
0.189667 0.556458 0.031403
0.249756 0.552765 0.066162
0.299316 0.549866 0.093689
0.343323 0.548004 0.115356
0.383911 0.547119 0.133514
0.422211 0.547211 0.148987
0.459045 0.548401 0.162292
0.495087 0.550598 0.173615
0.530731 0.553680 0.182953
0.566467 0.557709 0.190155
0.601685 0.561890 0.197968
0.635834 0.565887 0.207306
0.668884 0.570007 0.217621
0.700745 0.574341 0.228668
0.731323 0.578949 0.240143
0.760651 0.583984 0.251678
0.788666 0.589386 0.263184
0.815399 0.595154 0.274475
0.840698 0.601349 0.285492
0.864594 0.607849 0.296143
0.887482 0.614807 0.305511
0.909241 0.622040 0.313843
0.000000 0.602264 0.000000
0.000000 0.602386 0.000000
0.000000 0.602539 0.000000
0.000000 0.602753 0.000000
0.000000 0.603058 0.000000
0.000000 0.603394 0.000000
0.000000 0.603882 0.000000
0.000000 0.604858 0.000000
0.000000 0.605865 0.000214
0.015961 0.605103 0.000793
0.105530 0.603485 0.002441
0.192993 0.600311 0.022614
0.256348 0.596375 0.059845
0.308350 0.593079 0.092010
0.353943 0.590698 0.116119
0.395691 0.589264 0.136108
0.434753 0.588745 0.153107
0.472168 0.589203 0.167908
0.508331 0.590637 0.180695
0.543701 0.592926 0.191589
0.578735 0.596130 0.200531
0.613708 0.600098 0.207703
0.647888 0.604065 0.215729
0.680847 0.608002 0.225159
0.712616 0.611969 0.235413
0.743011 0.616180 0.246307
0.772064 0.620605 0.257690
0.799683 0.625488 0.269073
0.825897 0.630615 0.280273
0.850647 0.636108 0.291260
0.873840 0.641968 0.301880
0.896027 0.648224 0.311279
0.917145 0.654846 0.319427
0.000000 0.645050 0.000000
0.000000 0.645172 0.000000
0.000000 0.645294 0.000000
0.000000 0.645477 0.000000
0.000000 0.645721 0.000000
0.000000 0.646027 0.000000
0.000000 0.646515 0.000000
0.000000 0.647400 0.000000
0.000000 0.648285 0.000000
0.021759 0.647552 0.000000
0.113495 0.645935 0.000092
0.202423 0.642670 0.019196
0.266815 0.638580 0.057892
0.320007 0.634979 0.093353
0.366486 0.632233 0.119324
0.408844 0.630341 0.140564
0.448425 0.629364 0.158783
0.485962 0.629181 0.174591
0.522186 0.629913 0.188507
0.557404 0.631531 0.200623
0.591858 0.633972 0.211029
0.625916 0.637177 0.219696
0.659668 0.641052 0.226807
0.692505 0.644806 0.235046
0.723969 0.648560 0.244324
0.754089 0.652405 0.254547
0.782776 0.656403 0.265259
0.809967 0.660675 0.276337
0.835632 0.665283 0.287354
0.859772 0.670135 0.298157
0.882324 0.675323 0.308655
0.903778 0.680969 0.317963
0.924286 0.686920 0.325958
0.000000 0.686218 0.000000
0.000000 0.686310 0.000000
0.000000 0.686432 0.000000
0.000000 0.686584 0.000000
0.000000 0.686798 0.000000
0.000000 0.687073 0.000000
0.000000 0.687561 0.000000
0.000000 0.688324 0.000000
0.000000 0.689087 0.000000
0.042816 0.688263 0.000000
0.131653 0.686523 0.000702
0.218903 0.683105 0.023621
0.282074 0.678925 0.062927
0.334869 0.675140 0.099213
0.381378 0.672150 0.125916
0.423828 0.669922 0.147766
0.463348 0.668518 0.166565
0.500946 0.667877 0.183167
0.536957 0.668060 0.197845
0.571808 0.669037 0.210815
0.605743 0.670807 0.222137
0.639008 0.673279 0.231995
0.671722 0.676422 0.240265
0.703918 0.680115 0.247284
0.735046 0.683685 0.255493
0.764709 0.687256 0.264801
0.792969 0.690857 0.274872
0.819641 0.694672 0.285309
0.844727 0.698730 0.295959
0.868195 0.703064 0.306488
0.890076 0.707642 0.316742
0.910858 0.712646 0.325958
0.930695 0.717957 0.333740
0.000000 0.725372 0.000000
0.000000 0.725464 0.000000
0.000000 0.725555 0.000000
0.000000 0.725677 0.000000
0.000000 0.725861 0.000000
0.000000 0.726105 0.000000
0.000000 0.726624 0.000000
0.000000 0.727264 0.000000
0.005341 0.727814 0.000061
0.078766 0.726837 0.000549
0.166626 0.724854 0.005096
0.242584 0.721161 0.036041
0.302612 0.716919 0.076447
0.353668 0.713104 0.110809
0.399170 0.709991 0.136719
0.440979 0.707550 0.158417
0.480103 0.705780 0.177185
0.517151 0.704803 0.193939
0.552734 0.704559 0.208984
0.587036 0.705017 0.222412
0.620300 0.706177 0.234344
0.652740 0.707977 0.244934
0.684479 0.710480 0.254150
0.715637 0.713562 0.261932
0.746002 0.717041 0.268982
0.775208 0.720306 0.277222
0.802734 0.723633 0.286377
0.828888 0.727020 0.296204
0.853271 0.730621 0.306274
0.876068 0.734406 0.316376
0.897278 0.738373 0.326263
0.917389 0.742798 0.335327
0.936584 0.747528 0.342834
0.000000 0.762207 0.000763
0.000000 0.762268 0.000763
0.000000 0.762360 0.000763
0.000000 0.762451 0.000763
0.000000 0.762604 0.000916
0.000000 0.762878 0.001160
0.000000 0.763336 0.001617
0.002472 0.763885 0.002106
0.036194 0.764130 0.002747
0.121368 0.762970 0.004852
0.207062 0.760468 0.020905
0.272614 0.756531 0.057739
0.328064 0.752228 0.097870
0.376282 0.748505 0.127777
0.420044 0.745361 0.151764
0.460602 0.742798 0.172424
0.498688 0.740906 0.190765
0.534943 0.739624 0.207214
0.569733 0.738983 0.222137
0.603271 0.739014 0.235748
0.635681 0.739685 0.248047
0.667267 0.740967 0.259033
0.697968 0.742828 0.268829
0.727966 0.745270 0.277313
0.757233 0.748199 0.284729
0.785553 0.751373 0.291840
0.812439 0.754395 0.300018
0.837799 0.757477 0.308960
0.861481 0.760620 0.318298
0.883545 0.763947 0.327789
0.904114 0.767365 0.337402
0.923462 0.771179 0.346130
0.942047 0.775360 0.353363
0.000000 0.796417 0.006714
0.000000 0.796448 0.006744
0.000000 0.796509 0.006744
0.000000 0.796600 0.006958
0.000000 0.796783 0.007812
0.000000 0.797119 0.008759
0.004822 0.797455 0.010651
0.029449 0.797882 0.012909
0.102783 0.797668 0.015717
0.184631 0.796051 0.024719
0.251984 0.792786 0.054016
0.308563 0.788666 0.091949
0.358154 0.784637 0.123962
0.402771 0.781097 0.149231
0.444000 0.778015 0.170807
0.482758 0.775421 0.189941
0.519409 0.773407 0.207275
0.554443 0.771942 0.223145
0.588165 0.770996 0.237732
0.620697 0.770721 0.251068
0.652130 0.770996 0.263214
0.682587 0.771820 0.274353
0.712219 0.773163 0.284393
0.741028 0.775024 0.293457
0.769012 0.777344 0.301422
