滤镜资源/Professional Luts Collection/Lutify.me Professional/Vintage Films/Fuchsite.cube
# Created by: Lutify.me
# Copyright: (c) Copyright Lutify.me 2015
# Website: https://lutify.me
#LUT size
LUT_3D_SIZE 33
#LUT data points
0.000000 0.000000 0.000000
0.021759 0.000397 0.000397
0.047546 0.000031 0.001160
0.074402 0.000000 0.001953
0.102020 0.000000 0.003082
0.130066 0.000000 0.004639
0.158875 0.000000 0.006500
0.187927 0.000000 0.008820
0.218170 0.000000 0.011566
0.249268 0.000000 0.014618
0.281342 0.000000 0.017883
0.314331 0.000000 0.021912
0.347961 0.000000 0.026367
0.382233 0.000000 0.031158
0.417053 0.000000 0.036682
0.452179 0.000000 0.042480
0.487457 0.000000 0.048126
0.522827 0.000000 0.053925
0.558136 0.000000 0.059753
0.593231 0.000000 0.065369
0.628052 0.000000 0.070984
0.662445 0.000000 0.076538
0.696350 0.000000 0.081696
0.729797 0.000000 0.086853
0.762573 0.000000 0.092133
0.794678 0.000000 0.097137
0.826050 0.000000 0.102234
0.856628 0.000000 0.106964
0.886230 0.000000 0.111694
0.914856 0.000000 0.116425
0.942352 0.001526 0.120880
0.968658 0.025482 0.125366
0.993652 0.063110 0.129669
0.005768 0.016754 0.002686
0.027924 0.017151 0.003082
0.052124 0.017548 0.003510
0.078461 0.017548 0.004608
0.105103 0.017883 0.006042
0.133026 0.017578 0.007324
0.161133 0.017517 0.008942
0.190216 0.016876 0.011505
0.220215 0.015961 0.014008
0.251190 0.014221 0.016998
0.283203 0.011353 0.020599
0.316071 0.007751 0.024475
0.349609 0.003418 0.028961
0.383759 0.000732 0.033783
0.418457 0.000031 0.039154
0.453461 0.000000 0.044800
0.488617 0.000000 0.050262
0.523895 0.000000 0.055756
0.559113 0.000000 0.061401
0.594147 0.000000 0.066925
0.628845 0.000000 0.072327
0.663147 0.000000 0.077606
0.696991 0.000000 0.082977
0.730347 0.000000 0.088043
0.763123 0.000000 0.093079
0.795166 0.000000 0.098053
0.826447 0.000000 0.102905
0.856964 0.000000 0.107758
0.886475 0.000031 0.112488
0.915070 0.002472 0.116943
0.942505 0.024567 0.121368
0.968781 0.056580 0.125824
0.993774 0.084991 0.130157
0.011749 0.035492 0.005432
0.033875 0.036652 0.006165
0.057434 0.037079 0.006195
0.082428 0.037811 0.007324
0.108398 0.038177 0.008820
0.135651 0.038269 0.010101
0.163910 0.038239 0.011780
0.192596 0.037872 0.014282
0.222443 0.037079 0.016968
0.253357 0.035583 0.019714
0.285217 0.033051 0.023529
0.317963 0.029724 0.027466
0.351379 0.025574 0.031647
0.385406 0.020508 0.036407
0.419983 0.014648 0.041687
0.454895 0.008026 0.047272
0.489960 0.002655 0.052765
0.525146 0.000458 0.058044
0.560272 0.000153 0.063324
0.595154 0.000000 0.068604
0.629791 0.000000 0.073853
0.664001 0.000000 0.079102
0.697784 0.000000 0.084351
0.731018 0.000000 0.089294
0.763672 0.000000 0.094116
0.795654 0.000000 0.099060
0.826904 0.000214 0.103821
0.857330 0.002045 0.108490
0.886871 0.010925 0.113220
0.915344 0.032959 0.117615
0.942749 0.058014 0.122009
0.968933 0.082489 0.126434
0.993835 0.105316 0.130646
0.020874 0.059631 0.009674
0.042480 0.060760 0.010071
0.063507 0.061371 0.010834
0.087158 0.061951 0.011292
0.112518 0.062775 0.012573
0.139191 0.063080 0.014404
0.166931 0.063324 0.015930
0.195465 0.063538 0.017914
0.225128 0.063232 0.020844
0.256012 0.062225 0.024139
0.287842 0.060669 0.027161
0.320496 0.058533 0.031097
0.353790 0.055756 0.035400
0.387695 0.052002 0.040131
0.422089 0.047516 0.045197
0.456848 0.041992 0.050232
0.491760 0.035767 0.055420
0.526764 0.029724 0.060669
0.561768 0.024384 0.065826
0.596527 0.019501 0.070892
0.631012 0.015228 0.075928
0.665131 0.012299 0.080872
0.698761 0.011078 0.085815
0.731934 0.011780 0.090759
0.764465 0.015015 0.095551
0.796387 0.020782 0.100281
0.827515 0.029816 0.105103
0.857880 0.041992 0.109680
0.887299 0.057037 0.114197
0.915710 0.073975 0.118591
0.943024 0.091949 0.122803
0.969116 0.110504 0.127228
0.993988 0.129120 0.131348
0.032135 0.084717 0.015076
0.052582 0.085632 0.015533
0.071930 0.086487 0.015930
0.093445 0.087341 0.016754
0.117798 0.087982 0.017822
0.143585 0.088654 0.019379
0.170746 0.089081 0.021545
0.199097 0.089447 0.023529
0.228607 0.089691 0.026154
0.259277 0.089417 0.028992
0.290924 0.088654 0.032440
0.323364 0.087402 0.036224
0.356628 0.085754 0.040588
0.390411 0.083740 0.045013
0.424744 0.081085 0.049622
0.459320 0.078217 0.054230
0.494049 0.075043 0.058990
0.528870 0.071808 0.063904
0.563690 0.068634 0.068817
0.598328 0.065704 0.073700
0.632599 0.063385 0.078461
0.666565 0.062073 0.083252
0.700043 0.061981 0.088043
0.733063 0.063507 0.092834
0.765503 0.066864 0.097412
0.797272 0.072144 0.102081
0.828278 0.079498 0.106689
0.858582 0.088623 0.111176
0.887848 0.099548 0.115448
0.916168 0.111908 0.119843
0.943390 0.125366 0.124023
0.969452 0.140015 0.128143
0.994171 0.155701 0.132233
0.045227 0.110596 0.021912
0.063507 0.111481 0.022339
0.080688 0.112305 0.022430
0.101074 0.113159 0.023193
0.123840 0.114014 0.024628
0.148651 0.114838 0.026520
0.175507 0.115601 0.027832
0.203339 0.116302 0.030304
0.232758 0.116699 0.032745
0.263153 0.116974 0.035583
0.294586 0.116791 0.038879
0.326813 0.116516 0.042511
0.359772 0.115845 0.046417
0.393433 0.114899 0.050568
0.427582 0.113770 0.054688
0.462036 0.112427 0.059021
0.496613 0.110962 0.063354
0.531311 0.109406 0.067810
0.565979 0.108002 0.072327
0.600433 0.106964 0.076935
0.634552 0.106384 0.081451
0.668274 0.106506 0.086060
0.701630 0.107361 0.090668
0.734497 0.109192 0.095093
0.766754 0.112274 0.099609
0.798370 0.116608 0.104156
0.829254 0.122345 0.108429
0.859375 0.129395 0.112732
0.888550 0.137695 0.117035
0.916718 0.147705 0.121216
0.943817 0.158569 0.125458
0.969727 0.170685 0.129364
0.994354 0.184113 0.133514
0.058380 0.137878 0.029633
0.074158 0.138733 0.030029
0.090271 0.139343 0.030396
0.109192 0.140289 0.031128
0.131134 0.141266 0.032013
0.155121 0.142120 0.033966
0.180847 0.143066 0.035980
0.208466 0.144012 0.038025
0.237305 0.144897 0.040619
0.267456 0.145447 0.043182
0.298553 0.145966 0.046143
0.330597 0.146393 0.049255
0.363342 0.146545 0.052826
0.396698 0.146454 0.056641
0.430603 0.146210 0.060608
0.464844 0.145874 0.064423
0.499237 0.145477 0.068451
0.533722 0.145050 0.072479
0.568207 0.144745 0.076599
0.602478 0.144714 0.080841
0.636475 0.145050 0.085083
0.670105 0.145844 0.089325
0.703339 0.147278 0.093658
0.736053 0.149323 0.097870
0.768158 0.152344 0.102142
0.799622 0.156250 0.106415
0.830353 0.161133 0.110657
0.860291 0.167175 0.114838
0.889282 0.174286 0.118958
0.917328 0.182495 0.122955
0.944244 0.191833 0.127045
0.970001 0.202393 0.130920
0.994385 0.213928 0.134888
0.070618 0.166473 0.038757
0.084900 0.167236 0.038971
0.099152 0.167938 0.039520
0.117310 0.168854 0.039795
0.138000 0.170013 0.040680
0.161621 0.171112 0.041931
0.186859 0.172089 0.044281
0.213837 0.173279 0.046143
0.242371 0.174316 0.048279
0.272095 0.175385 0.050842
0.302948 0.176300 0.053528
0.334717 0.177002 0.056427
0.367157 0.177704 0.059479
0.400330 0.178223 0.062836
0.433960 0.178711 0.066345
0.467896 0.179047 0.070038
0.502075 0.179413 0.073761
0.536316 0.179749 0.077576
0.570526 0.180237 0.081329
0.604553 0.180908 0.085236
0.638336 0.181885 0.089233
0.671753 0.183197 0.093231
0.704773 0.184998 0.097198
0.737335 0.187256 0.101288
0.769287 0.190247 0.105408
0.800568 0.193939 0.109406
0.831146 0.198425 0.113342
0.860931 0.203766 0.117310
0.889771 0.210022 0.121368
0.917603 0.217255 0.125336
0.944336 0.225403 0.129364
0.969849 0.234680 0.133240
0.994019 0.244904 0.137054
0.081421 0.196838 0.047882
0.094604 0.197479 0.048340
0.107910 0.198242 0.048523
0.124878 0.199219 0.048798
0.145050 0.200409 0.049438
0.168121 0.201569 0.050232
0.193024 0.202789 0.051880
0.219666 0.203857 0.054260
0.247711 0.205139 0.056183
0.277130 0.206390 0.058502
0.307678 0.207611 0.060913
0.339111 0.208710 0.063751
0.371338 0.209747 0.066437
0.404175 0.210724 0.069336
0.437531 0.211639 0.072540
0.471252 0.212524 0.075836
0.505127 0.213379 0.079224
0.539093 0.214294 0.082764
0.573029 0.215302 0.086395
0.606781 0.216492 0.090027
0.640320 0.217865 0.093689
0.673523 0.219513 0.097412
0.706299 0.221558 0.101227
0.738617 0.223999 0.105072
0.770386 0.226990 0.108948
0.801483 0.230591 0.112793
0.831848 0.234772 0.116516
0.861389 0.239716 0.120331
0.890045 0.245392 0.124207
0.917694 0.251892 0.128021
0.944214 0.259186 0.131866
0.969513 0.267456 0.135742
0.993469 0.276611 0.139587
0.091095 0.228668 0.056976
0.103394 0.229340 0.057098
0.116180 0.230042 0.057281
0.132446 0.230988 0.057587
0.152161 0.232117 0.058014
0.174591 0.233368 0.058655
0.199341 0.234680 0.059723
0.225708 0.235931 0.061310
0.253418 0.237213 0.063721
0.282379 0.238556 0.065979
0.312622 0.239990 0.068176
0.343781 0.241302 0.070587
0.375671 0.242645 0.073242
0.408234 0.243927 0.075897
0.441315 0.245148 0.078827
0.474731 0.246399 0.081787
0.508331 0.247620 0.084839
0.542023 0.248901 0.088104
0.575653 0.250244 0.091522
0.609161 0.251770 0.094940
0.642395 0.253448 0.098450
0.675354 0.255341 0.101837
0.707886 0.257599 0.105377
0.739990 0.260132 0.109039
0.771484 0.263092 0.112701
0.802368 0.266571 0.116333
0.832550 0.270538 0.119995
0.861877 0.275146 0.123627
0.890320 0.280365 0.127350
0.917755 0.286255 0.131012
0.944000 0.292969 0.134674
0.969086 0.300446 0.138519
0.992859 0.308716 0.142273
0.100098 0.261688 0.065430
0.111847 0.262329 0.065460
0.124176 0.263031 0.065491
0.140106 0.263916 0.065826
0.159210 0.264984 0.066284
0.181244 0.266266 0.066772
0.205536 0.267609 0.067413
0.231659 0.269043 0.068573
0.259338 0.270416 0.070465
0.288055 0.271698 0.072754
0.317902 0.273163 0.075226
0.348694 0.274658 0.077332
0.380249 0.276184 0.079803
0.412537 0.277649 0.082214
0.445312 0.279083 0.084900
0.478455 0.280548 0.087708
0.511719 0.282074 0.090576
0.545135 0.283600 0.093567
0.578461 0.285217 0.096619
0.611664 0.286926 0.099823
0.644623 0.288849 0.103180
0.677277 0.290924 0.106476
0.709534 0.293243 0.109741
0.741364 0.295868 0.113220
0.772644 0.298798 0.116669
0.803284 0.302155 0.120087
0.833221 0.305969 0.123627
0.862366 0.310272 0.127136
0.890564 0.315094 0.130676
0.917786 0.320526 0.134186
0.943787 0.326660 0.137848
0.968597 0.333435 0.141602
0.992157 0.340912 0.145203
0.109070 0.295563 0.073486
0.120239 0.296173 0.073547
0.132202 0.296814 0.073578
0.147675 0.297699 0.073700
0.166321 0.298767 0.074036
0.187988 0.300049 0.074463
0.211884 0.301392 0.074890
0.237793 0.302826 0.075775
0.265198 0.304291 0.077148
0.293854 0.305695 0.079010
0.323395 0.307129 0.081421
0.353882 0.308594 0.083801
0.385162 0.310181 0.086090
0.417053 0.311829 0.088470
0.449524 0.313416 0.090942
0.482330 0.315002 0.093536
0.515289 0.316711 0.096222
0.548340 0.318390 0.098999
0.581390 0.320129 0.101868
0.614258 0.322021 0.104767
0.646942 0.324036 0.107910
0.679321 0.326233 0.111023
0.711304 0.328613 0.114136
0.742859 0.331238 0.117432
0.773865 0.334137 0.120758
0.804260 0.337341 0.124054
0.833923 0.340973 0.127411
0.862793 0.345032 0.130798
0.890778 0.349487 0.134186
0.917755 0.354523 0.137543
0.943542 0.360138 0.141235
0.968079 0.366333 0.144928
0.991333 0.373199 0.148438
0.118195 0.330139 0.081268
0.128967 0.330688 0.081329
0.140564 0.331268 0.081299
0.155457 0.332123 0.081512
0.173859 0.333191 0.081604
0.195038 0.334381 0.081909
0.218658 0.335754 0.082214
0.244202 0.337189 0.082947
0.271301 0.338715 0.083893
0.299652 0.340210 0.085297
0.329163 0.341675 0.087189
0.359314 0.343109 0.089874
0.390228 0.344604 0.092133
0.421814 0.346283 0.094543
0.453949 0.347961 0.096863
0.486420 0.349670 0.099213
0.519012 0.351440 0.101715
0.551697 0.353271 0.104462
0.584412 0.355133 0.107147
0.616974 0.357056 0.109863
0.649353 0.359131 0.112701
0.681458 0.361328 0.115723
0.713135 0.363708 0.118683
0.744415 0.366272 0.121826
0.775146 0.369110 0.125000
0.805237 0.372223 0.128113
0.834625 0.375641 0.131287
0.863251 0.379456 0.134552
0.890991 0.383636 0.137878
0.917694 0.388245 0.141205
0.943207 0.393463 0.144775
0.967468 0.399200 0.148346
0.990448 0.405548 0.151855
0.127716 0.365112 0.088715
0.138153 0.365601 0.088745
0.149445 0.366150 0.088837
0.163940 0.366974 0.088989
0.181824 0.367981 0.088959
0.202576 0.369141 0.089081
0.225739 0.370453 0.089417
0.250946 0.371918 0.089874
0.277740 0.373413 0.090576
0.305817 0.374969 0.091583
0.334991 0.376465 0.093140
0.365021 0.377960 0.095154
0.395630 0.379425 0.097809
0.426880 0.380981 0.100159
0.458618 0.382660 0.102570
0.490692 0.384399 0.104889
0.522980 0.386169 0.107300
0.555267 0.388031 0.109772
0.587616 0.389923 0.112396
0.619843 0.391937 0.115021
0.651886 0.393982 0.117645
0.683655 0.396179 0.120453
0.715057 0.398499 0.123383
0.746033 0.401031 0.126312
0.776459 0.403778 0.129395
0.806274 0.406708 0.132355
0.835388 0.409973 0.135406
0.863708 0.413544 0.138580
0.891144 0.417450 0.141785
0.917572 0.421783 0.145020
0.942780 0.426605 0.148499
0.966766 0.431915 0.151978
0.989441 0.437744 0.155518
0.138153 0.400330 0.095917
0.148346 0.400726 0.096039
0.158997 0.401276 0.096100
0.173157 0.402039 0.096161
0.190491 0.402985 0.096069
0.210815 0.404083 0.096130
0.233490 0.405396 0.096283
0.258209 0.406769 0.096649
0.284607 0.408264 0.097137
0.312347 0.409760 0.098022
0.341248 0.411316 0.099030
0.370972 0.412811 0.100769
0.401367 0.414307 0.102814
0.432281 0.415802 0.105469
0.463623 0.417358 0.108002
0.495300 0.419037 0.110382
0.527130 0.420837 0.112701
0.559082 0.422668 0.115234
0.591034 0.424530 0.117676
0.622925 0.426483 0.120148
0.654602 0.428558 0.122772
0.686035 0.430695 0.125397
0.717102 0.432983 0.128143
0.747742 0.435394 0.130981
0.777863 0.438049 0.133881
0.807373 0.440887 0.136810
0.836182 0.443939 0.139832
0.864197 0.447327 0.142853
0.891296 0.450989 0.145966
0.917419 0.455048 0.149078
0.942322 0.459534 0.152435
0.965973 0.464478 0.155975
0.988312 0.469879 0.159454
0.149933 0.435455 0.103027
0.159668 0.435822 0.103210
0.169830 0.436310 0.103210
0.183441 0.437012 0.103149
0.200256 0.437897 0.103088
0.219940 0.438965 0.103119
0.242096 0.440186 0.103180
0.266266 0.441528 0.103394
0.292206 0.442963 0.103729
0.319489 0.444458 0.104431
0.347931 0.445953 0.105377
0.377289 0.447479 0.106537
0.407410 0.448975 0.108276
0.438019 0.450470 0.110443
0.468994 0.451904 0.113159
0.500214 0.453491 0.115692
0.531586 0.455170 0.118134
0.563141 0.456940 0.120453
0.594696 0.458801 0.122955
0.626190 0.460724 0.125427
0.657501 0.462708 0.127899
0.688568 0.464813 0.130554
0.719299 0.467010 0.133148
0.749603 0.469360 0.135864
0.779358 0.471893 0.138672
0.808502 0.474609 0.141479
0.836975 0.477509 0.144440
0.864685 0.480743 0.147369
0.891449 0.484222 0.150330
0.917206 0.488007 0.153442
0.941803 0.492188 0.156738
0.965088 0.496826 0.160217
0.987061 0.501831 0.163666
0.163116 0.470245 0.110107
0.172333 0.470551 0.110321
0.182007 0.471008 0.110352
0.195007 0.471680 0.110138
0.211121 0.472534 0.110016
0.230164 0.473541 0.110046
0.251648 0.474701 0.110046
0.275299 0.475952 0.110199
0.300568 0.477325 0.110474
0.327332 0.478790 0.110931
0.355347 0.480255 0.111633
0.384216 0.481750 0.112671
0.413849 0.483246 0.114044
0.444092 0.484741 0.115814
0.474731 0.486206 0.118103
0.505554 0.487610 0.120789
0.536407 0.489227 0.123413
0.567505 0.490875 0.125916
0.598633 0.492645 0.128326
0.629700 0.494537 0.130768
0.660583 0.496460 0.133240
0.691284 0.498505 0.135742
0.721619 0.500641 0.138306
0.751556 0.502899 0.141022
0.780945 0.505310 0.143677
0.809723 0.507935 0.146454
0.837830 0.510681 0.149231
0.865143 0.513733 0.152130
0.891571 0.517029 0.155029
0.916962 0.520599 0.157959
0.941193 0.524536 0.161194
0.964111 0.528839 0.164612
0.985748 0.533539 0.168091
0.177795 0.504730 0.117188
0.186432 0.504974 0.117493
0.195557 0.505432 0.117401
0.207855 0.506042 0.117249
0.223236 0.506836 0.117065
0.241577 0.507782 0.116943
0.262329 0.508881 0.116913
0.285248 0.510071 0.117035
0.309875 0.511353 0.117218
0.335968 0.512756 0.117584
0.363373 0.514191 0.118134
0.391785 0.515656 0.118896
0.420898 0.517120 0.120087
0.450592 0.518585 0.121490
0.480774 0.520050 0.123413
0.511200 0.521484 0.125824
0.541687 0.522919 0.128571
0.572205 0.524506 0.131287
0.602875 0.526154 0.133759
0.633484 0.527954 0.136292
0.663940 0.529816 0.138763
0.694183 0.531769 0.141205
0.724121 0.533813 0.143677
0.753632 0.535980 0.146271
0.782623 0.538330 0.148926
0.811005 0.540802 0.151642
0.838715 0.543457 0.154297
0.865662 0.546326 0.157043
0.891693 0.549438 0.159912
0.916687 0.552795 0.162811
0.940521 0.556519 0.165833
0.963043 0.560516 0.169250
0.984314 0.564941 0.172699
0.193970 0.538788 0.124390
0.201813 0.539062 0.124664
0.210480 0.539459 0.124512
0.222046 0.540039 0.124390
0.236694 0.540771 0.124207
0.254150 0.541656 0.124023
0.274109 0.542694 0.124023
0.296234 0.543823 0.124023
0.320068 0.545074 0.124115
0.345490 0.546387 0.124390
0.372192 0.547760 0.124756
0.399902 0.549194 0.125458
0.428436 0.550598 0.126373
0.457611 0.552063 0.127625
0.487244 0.553497 0.129181
0.517151 0.554932 0.131256
0.547211 0.556305 0.133698
0.577301 0.557739 0.136597
0.607452 0.559296 0.139282
0.637573 0.560974 0.141724
0.667542 0.562744 0.144318
0.697327 0.564636 0.146759
0.726807 0.566620 0.149231
0.755890 0.568665 0.151825
0.784424 0.570892 0.154358
0.812408 0.573242 0.156952
0.839661 0.575775 0.159637
0.866180 0.578491 0.162262
0.891785 0.581451 0.165039
0.916382 0.584625 0.167877
0.939819 0.588074 0.170837
0.961914 0.591827 0.174194
0.982788 0.595978 0.177551
0.211304 0.572357 0.131805
0.218475 0.572693 0.131897
0.226624 0.573059 0.131744
0.237457 0.573578 0.131653
0.251312 0.574280 0.131439
0.267883 0.575104 0.131226
0.287018 0.576080 0.131226
0.308197 0.577148 0.131165
0.331207 0.578308 0.131226
0.355835 0.579590 0.131409
0.381805 0.580902 0.131714
0.408783 0.582245 0.132233
0.436584 0.583649 0.133026
0.465088 0.585052 0.134033
0.494110 0.586456 0.135437
0.523560 0.587830 0.137146
0.553101 0.589203 0.139221
0.582733 0.590607 0.141724
0.612366 0.592010 0.144623
0.641937 0.593567 0.147339
0.671448 0.595215 0.149933
0.700745 0.596985 0.152435
0.729706 0.598877 0.154907
0.758301 0.600861 0.157440
0.786407 0.602936 0.160065
0.813873 0.605194 0.162567
0.840729 0.607574 0.165161
0.866760 0.610168 0.167786
0.891907 0.612946 0.170502
0.916046 0.615936 0.173187
0.939056 0.619171 0.176117
0.960724 0.622711 0.179443
0.981201 0.626526 0.182770
0.229584 0.605469 0.139313
0.236389 0.605774 0.139221
0.243805 0.606140 0.139130
0.254028 0.606628 0.138977
0.266998 0.607269 0.138794
0.282745 0.608032 0.138611
0.300934 0.608948 0.138489
0.321167 0.609955 0.138397
0.343323 0.611053 0.138458
0.367065 0.612213 0.138641
0.392151 0.613495 0.138885
0.418335 0.614777 0.139282
0.445404 0.616119 0.139954
0.473175 0.617462 0.140839
0.501526 0.618835 0.141998
0.530334 0.620178 0.143433
0.559387 0.621552 0.145264
0.588501 0.622894 0.147400
0.617645 0.624268 0.150024
0.646667 0.625671 0.152863
0.675629 0.627167 0.155701
0.704376 0.628845 0.158325
0.732880 0.630554 0.160828
0.760925 0.632446 0.163330
0.788544 0.634430 0.165924
0.815521 0.636536 0.168488
0.841858 0.638824 0.170990
0.867432 0.641235 0.173645
0.892090 0.643860 0.176239
0.915741 0.646667 0.178894
0.938263 0.649719 0.181702
0.959503 0.653015 0.184967
0.979553 0.656586 0.188232
0.248932 0.638000 0.146881
0.255219 0.638306 0.146790
0.262085 0.638641 0.146698
0.271637 0.639069 0.146484
0.283813 0.639679 0.146362
0.298584 0.640411 0.146179
0.315826 0.641235 0.146027
0.335144 0.642181 0.145935
0.356323 0.643219 0.145935
0.379150 0.644318 0.146057
0.403320 0.645508 0.146332
0.428619 0.646729 0.146667
0.454895 0.647980 0.147186
0.481934 0.649292 0.147949
0.509583 0.650604 0.148956
0.537659 0.651917 0.150269
0.566071 0.653229 0.151764
0.594635 0.654541 0.153687
0.623260 0.655884 0.155945
0.651794 0.657196 0.158600
0.680145 0.658630 0.161469
0.708374 0.660065 0.164398
0.736267 0.661713 0.166992
0.763824 0.663422 0.169525
0.790833 0.665314 0.171997
0.817291 0.667297 0.174561
0.843109 0.669434 0.177124
0.868134 0.671722 0.179718
0.892273 0.674133 0.182312
0.915405 0.676819 0.184875
0.937469 0.679657 0.187531
0.958221 0.682739 0.190735
0.977936 0.686035 0.193970
0.269043 0.669891 0.154541
0.274811 0.670166 0.154541
0.281311 0.670471 0.154297
0.290131 0.670898 0.154236
0.301575 0.671448 0.154114
0.315430 0.672119 0.153870
0.331696 0.672882 0.153748
0.350037 0.673737 0.153717
0.370239 0.674713 0.153687
0.392090 0.675751 0.153717
0.415283 0.676849 0.153931
0.439728 0.678009 0.154327
0.465118 0.679199 0.154816
0.491333 0.680450 0.155457
0.518219 0.681702 0.156281
0.545593 0.682953 0.157410
0.573303 0.684204 0.158813
0.601227 0.685486 0.160492
0.629272 0.686768 0.162445
0.657257 0.688049 0.164795
0.685059 0.689362 0.167450
0.712646 0.690704 0.170349
0.739960 0.692200 0.173248
0.766937 0.693787 0.175873
0.793396 0.695496 0.178436
0.819244 0.697357 0.180939
0.844513 0.699341 0.183502
0.868958 0.701477 0.186066
0.892548 0.703766 0.188660
0.915131 0.706238 0.191193
0.936646 0.708954 0.193787
0.956970 0.711792 0.196869
0.976288 0.714813 0.200012
0.289978 0.701050 0.162537
0.295319 0.701294 0.162415
0.301300 0.701599 0.162262
0.309540 0.701965 0.162231
0.320160 0.702484 0.162048
0.333191 0.703094 0.161926
0.348511 0.703796 0.161774
0.365845 0.704590 0.161713
0.385010 0.705475 0.161743
0.405884 0.706451 0.161774
0.428162 0.707489 0.161926
0.451599 0.708588 0.162292
0.476105 0.709686 0.162720
0.501434 0.710876 0.163330
0.527527 0.712036 0.164124
0.554138 0.713226 0.165070
0.581085 0.714447 0.166229
0.608307 0.715668 0.167725
0.635712 0.716858 0.169586
0.663086 0.718079 0.171600
0.690338 0.719330 0.174011
0.717346 0.720612 0.176727
0.743988 0.721954 0.179596
0.770325 0.723419 0.182373
0.796173 0.724976 0.184967
0.821472 0.726685 0.187592
0.846069 0.728516 0.190155
0.869965 0.730499 0.192749
0.892914 0.732635 0.195312
0.914948 0.734924 0.197815
0.935883 0.737427 0.200378
0.955780 0.740051 0.203339
0.974670 0.742859 0.206543
0.311584 0.731384 0.170715
0.316589 0.731628 0.170563
0.322021 0.731842 0.170502
0.329620 0.732208 0.170471
0.339600 0.732666 0.170349
0.351837 0.733185 0.170258
0.366150 0.733856 0.170074
0.382477 0.734589 0.170013
0.400665 0.735413 0.170044
0.420532 0.736328 0.170105
0.441864 0.737274 0.170258
0.464355 0.738281 0.170532
0.487885 0.739349 0.170959
0.512360 0.740417 0.171478
0.537567 0.741516 0.172180
0.563354 0.742645 0.173126
0.589508 0.743774 0.174225
0.615997 0.744934 0.175537
0.642670 0.746094 0.177124
0.669342 0.747253 0.179047
0.695923 0.748444 0.181122
0.722321 0.749634 0.183502
0.748383 0.750854 0.186279
0.774017 0.752197 0.189178
0.799255 0.753571 0.191895
0.823883 0.755157 0.194519
0.847870 0.756836 0.197144
0.871124 0.758667 0.199829
0.893463 0.760620 0.202271
0.914856 0.762756 0.204803
0.935242 0.765045 0.207428
0.954712 0.767456 0.210205
0.973175 0.770050 0.213348
0.333862 0.760773 0.179199
0.338440 0.760986 0.179077
0.343506 0.761200 0.179047
0.350616 0.761505 0.179016
0.359863 0.761932 0.178864
0.371246 0.762390 0.178864
0.384735 0.763000 0.178741
0.400116 0.763702 0.178680
0.417297 0.764435 0.178680
0.436157 0.765259 0.178772
0.456421 0.766144 0.178955
0.477936 0.767059 0.179230
0.500549 0.768066 0.179596
0.524048 0.769073 0.180115
0.548370 0.770081 0.180756
0.573273 0.771118 0.181580
0.598602 0.772186 0.182587
0.624268 0.773285 0.183807
0.650177 0.774384 0.185242
0.676117 0.775452 0.186951
0.701996 0.776581 0.188904
0.727692 0.777710 0.191071
0.753113 0.778870 0.193481
0.778107 0.780060 0.196198
0.802643 0.781311 0.199097
0.826569 0.782715 0.201813
0.849884 0.784241 0.204468
0.872437 0.785919 0.207062
0.894135 0.787689 0.209656
0.914886 0.789673 0.212158
0.934753 0.791748 0.214752
0.953735 0.793976 0.217468
0.971832 0.796326 0.220520
0.356781 0.789154 0.188049
0.361084 0.789337 0.187958
0.365692 0.789520 0.187866
0.372284 0.789795 0.187897
0.380829 0.790192 0.187805
0.391479 0.790619 0.187836
0.404144 0.791168 0.187775
0.418610 0.791779 0.187744
0.434814 0.792480 0.187744
0.452698 0.793213 0.187805
0.471924 0.794006 0.187958
0.492401 0.794861 0.188263
0.514038 0.795746 0.188599
0.536621 0.796692 0.189117
0.559967 0.797638 0.189728
0.583954 0.798615 0.190491
0.608429 0.799591 0.191467
0.633240 0.800598 0.192596
0.658325 0.801575 0.193939
0.683472 0.802643 0.195496
0.708557 0.803650 0.197266
0.733521 0.804688 0.199280
0.758240 0.805756 0.201477
0.782562 0.806915 0.203918
0.806366 0.808044 0.206573
