滤镜资源/Professional Luts Collection/Lutify.me Professional/Vintage Films/Fuchsite.cube
# Created by: Lutify.me
# Copyright: (c) Copyright Lutify.me 2015
# Website: https://lutify.me
#LUT size
LUT_3D_SIZE 9
#LUT data points
0.000000 0.000000 0.000000
0.102020 0.000000 0.003082
0.218170 0.000000 0.011566
0.347961 0.000000 0.026367
0.487457 0.000000 0.048126
0.628052 0.000000 0.070984
0.762573 0.000000 0.092133
0.886230 0.000000 0.111694
0.993652 0.063110 0.129669
0.032135 0.084717 0.015076
0.117798 0.087982 0.017822
0.228607 0.089691 0.026154
0.356628 0.085754 0.040588
0.494049 0.075043 0.058990
0.632599 0.063385 0.078461
0.765503 0.066864 0.097412
0.887848 0.099548 0.115448
0.994171 0.155701 0.132233
0.081421 0.196838 0.047882
0.145050 0.200409 0.049438
0.247711 0.205139 0.056183
0.371338 0.209747 0.066437
0.505127 0.213379 0.079224
0.640320 0.217865 0.093689
0.770386 0.226990 0.108948
0.890045 0.245392 0.124207
0.993469 0.276611 0.139587
0.118195 0.330139 0.081268
0.173859 0.333191 0.081604
0.271301 0.338715 0.083893
0.390228 0.344604 0.092133
0.519012 0.351440 0.101715
0.649353 0.359131 0.112701
0.775146 0.369110 0.125000
0.890991 0.383636 0.137878
0.990448 0.405548 0.151855
0.163116 0.470245 0.110107
0.211121 0.472534 0.110016
0.300568 0.477325 0.110474
0.413849 0.483246 0.114044
0.536407 0.489227 0.123413
0.660583 0.496460 0.133240
0.780945 0.505310 0.143677
0.891571 0.517029 0.155029
0.985748 0.533539 0.168091
0.229584 0.605469 0.139313
0.266998 0.607269 0.138794
0.343323 0.611053 0.138458
0.445404 0.616119 0.139954
0.559387 0.621552 0.145264
0.675629 0.627167 0.155701
0.788544 0.634430 0.165924
0.892090 0.643860 0.176239
0.979553 0.656586 0.188232
0.311584 0.731384 0.170715
0.339600 0.732666 0.170349
0.400665 0.735413 0.170044
0.487885 0.739349 0.170959
0.589508 0.743774 0.174225
0.695923 0.748444 0.181122
0.799255 0.753571 0.191895
0.893463 0.760620 0.202271
0.973175 0.770050 0.213348
0.404633 0.842529 0.206848
0.425232 0.843353 0.206787
0.472534 0.845184 0.206879
0.543671 0.847900 0.207886
0.630280 0.851074 0.210510
0.723328 0.854523 0.215546
0.814758 0.858246 0.223511
0.897461 0.862915 0.233887
0.969086 0.869324 0.244385
0.504333 0.935669 0.248779
0.519470 0.936157 0.248871
0.555054 0.937317 0.249298
0.610779 0.939056 0.250519
0.680969 0.941193 0.252991
0.758057 0.943665 0.257111
0.834412 0.946564 0.263062
0.904846 0.950195 0.270905
0.968658 0.954895 0.280243
0.012543 0.004547 0.097839
0.109253 0.005493 0.105927
0.223267 0.004639 0.114746
0.352570 0.000000 0.124939
0.491241 0.000000 0.136749
0.631042 0.000000 0.149445
0.764893 0.000000 0.162445
0.888000 0.000000 0.175049
0.994873 0.075134 0.187134
0.043793 0.092407 0.110229
0.124390 0.094086 0.114685
0.234650 0.094696 0.121124
0.361420 0.091156 0.130219
0.497528 0.082153 0.141205
0.635406 0.071930 0.153015
0.767700 0.075867 0.165039
0.889557 0.107147 0.177002
0.995300 0.161255 0.188660
0.090179 0.201782 0.127594
0.151520 0.204285 0.130310
0.253265 0.209259 0.134033
0.376984 0.213104 0.140594
0.510132 0.216217 0.149292
0.644470 0.220459 0.159332
0.773651 0.229614 0.170074
0.892670 0.247894 0.181030
0.995605 0.279083 0.192139
0.126282 0.333679 0.146484
0.181183 0.335724 0.148376
0.276154 0.341461 0.150177
0.394348 0.347534 0.155518
0.522919 0.354065 0.162201
0.652863 0.361420 0.170319
0.778107 0.371185 0.179626
0.893341 0.385620 0.189636
0.992157 0.407501 0.200562
0.170746 0.472900 0.165436
0.218048 0.474579 0.166656
0.305450 0.479309 0.167480
0.417511 0.485352 0.170044
0.539337 0.491272 0.177155
0.663086 0.498444 0.184784
0.782928 0.507172 0.193085
0.893036 0.518768 0.202240
0.986725 0.535278 0.212677
0.235657 0.607544 0.186462
0.272278 0.609253 0.186279
0.347473 0.612915 0.186432
0.448639 0.617828 0.188049
0.561890 0.623169 0.192657
0.677643 0.628754 0.201080
0.790070 0.635956 0.209473
0.893188 0.645325 0.217957
0.980316 0.657990 0.227844
0.316162 0.732971 0.210571
0.343719 0.734222 0.210358
0.404144 0.736908 0.210358
0.490662 0.740723 0.211395
0.591736 0.745117 0.214417
0.697632 0.749695 0.220367
0.800507 0.754822 0.229431
0.894348 0.761841 0.238220
0.973755 0.771210 0.247650
0.407928 0.843781 0.239899
0.428406 0.844574 0.239807
0.475220 0.846375 0.240082
0.545959 0.849030 0.241058
0.632080 0.852173 0.243530
0.724731 0.855530 0.248077
0.815796 0.859253 0.255035
0.898102 0.863892 0.264130
0.969513 0.870300 0.273346
0.506683 0.936646 0.275574
0.521729 0.937103 0.275665
0.557129 0.938232 0.276154
0.612518 0.939972 0.277374
0.682343 0.942108 0.279694
0.759094 0.944519 0.283447
0.835144 0.947388 0.288879
0.905243 0.951050 0.295929
0.968933 0.955750 0.304382
0.047272 0.015350 0.201660
0.126099 0.016632 0.207794
0.234497 0.016327 0.216064
0.361542 0.005463 0.225311
0.498627 0.000000 0.235229
0.636810 0.000000 0.245483
0.769287 0.000000 0.255676
0.891174 0.001556 0.265503
0.996704 0.097015 0.274811
0.071503 0.103424 0.209686
0.140045 0.104980 0.213379
0.244751 0.104431 0.221069
0.369904 0.101227 0.229187
0.504608 0.094208 0.238281
0.640930 0.087219 0.247864
0.771912 0.093048 0.257477
0.892578 0.122406 0.266846
0.997040 0.173584 0.275787
0.110016 0.210327 0.222443
0.167114 0.212311 0.224762
0.265289 0.215515 0.229919
0.387329 0.218506 0.235901
0.518616 0.221527 0.243317
0.651154 0.226105 0.251587
0.778870 0.235687 0.260162
0.896729 0.254120 0.268646
0.998901 0.284790 0.276703
0.145905 0.340515 0.236450
0.196869 0.342224 0.238281
0.287903 0.346771 0.241699
0.403992 0.352997 0.245483
0.531647 0.358887 0.250885
0.660370 0.365723 0.257599
0.784424 0.375214 0.265076
0.898529 0.389496 0.272827
0.996582 0.411163 0.280762
0.189026 0.478302 0.250671
0.233704 0.479523 0.252197
0.317719 0.483154 0.254883
0.426239 0.489563 0.256683
0.546417 0.495575 0.261810
0.669312 0.502563 0.267212
0.788483 0.511017 0.273468
0.897858 0.522369 0.280334
0.990662 0.538727 0.288055
0.251160 0.611633 0.266083
0.287018 0.612518 0.267426
0.359192 0.615540 0.269012
0.456848 0.620789 0.270172
0.568024 0.626587 0.272797
0.682587 0.632202 0.279022
0.794189 0.639374 0.285004
0.896576 0.648682 0.291229
0.982941 0.661255 0.298706
0.329041 0.735596 0.284302
0.355835 0.736511 0.284790
0.414062 0.739044 0.285431
0.498047 0.743042 0.286224
0.597137 0.747711 0.288086
0.701782 0.752502 0.292206
0.803619 0.757629 0.299164
0.896606 0.764648 0.305786
0.975342 0.774017 0.312897
0.417572 0.845703 0.305664
0.437378 0.846436 0.305817
0.482941 0.848206 0.306183
0.552063 0.850952 0.306946
0.636688 0.854248 0.308655
0.728119 0.857788 0.311920
0.818207 0.861572 0.317291
0.899658 0.866180 0.324493
0.970520 0.872589 0.331848
0.513611 0.938171 0.332520
0.528259 0.938629 0.332611
0.562805 0.939789 0.333069
0.617218 0.941559 0.333923
0.685974 0.943787 0.335693
0.761688 0.946350 0.338593
0.836853 0.949280 0.342865
0.906372 0.952972 0.348511
0.969666 0.957672 0.355560
0.095978 0.033661 0.304352
0.155579 0.034546 0.309052
0.255707 0.031555 0.317261
0.377960 0.023163 0.325592
0.511169 0.001099 0.334930
0.646301 0.000000 0.344391
0.776276 0.000000 0.353577
0.896027 0.033966 0.362213
0.999420 0.123291 0.370270
0.112762 0.116638 0.309998
0.168610 0.117523 0.313141
0.265198 0.115662 0.321075
0.385529 0.113403 0.328857
0.516785 0.108490 0.337524
0.650116 0.105133 0.346375
0.778717 0.113312 0.355072
0.897278 0.141510 0.363342
0.999573 0.190369 0.371063
0.144714 0.221283 0.320312
0.194641 0.223206 0.322052
0.284393 0.225677 0.328064
0.401123 0.227722 0.335327
0.529724 0.230316 0.342468
0.659912 0.235199 0.349884
0.785522 0.245300 0.357422
0.901489 0.264038 0.364777
1.000000 0.294647 0.371582
0.178436 0.349579 0.332367
0.223389 0.351166 0.333954
0.308624 0.354736 0.337708
0.420563 0.359833 0.341949
0.545135 0.364777 0.347351
0.671082 0.371399 0.353546
0.792816 0.380951 0.360168
0.904938 0.395386 0.366730
1.000000 0.417023 0.373047
0.219482 0.485779 0.344177
0.259308 0.486938 0.345490
0.338074 0.489685 0.348663
0.441101 0.495575 0.351501
0.558289 0.501617 0.355408
0.679352 0.508179 0.359924
0.796661 0.516235 0.365326
0.904205 0.527435 0.371155
0.995392 0.543793 0.377258
0.276703 0.617798 0.356384
0.309570 0.618622 0.357544
0.378174 0.620667 0.360199
0.471039 0.625488 0.362305
0.578583 0.631561 0.364197
0.690857 0.637238 0.369049
0.800873 0.644348 0.373627
0.901764 0.653473 0.378540
0.986633 0.666016 0.384369
0.349060 0.740601 0.370270
0.374695 0.741180 0.371216
0.430603 0.742889 0.373077
0.510834 0.746674 0.374481
0.606598 0.751617 0.375824
0.708862 0.756653 0.378632
0.808899 0.761841 0.384064
0.900330 0.768951 0.389008
0.977905 0.778290 0.394440
0.433838 0.848907 0.387421
0.452881 0.849457 0.387939
0.496552 0.850983 0.388794
0.562927 0.853699 0.389709
0.644836 0.857239 0.390930
0.734009 0.861084 0.393005
0.822296 0.865082 0.396820
0.902283 0.869781 0.402466
0.972198 0.876190 0.408081
0.525818 0.940247 0.408142
0.539917 0.940704 0.408356
0.573242 0.941833 0.408813
0.625702 0.943726 0.409576
0.692413 0.946167 0.410767
0.766205 0.949005 0.412659
0.839752 0.952209 0.415619
0.908142 0.956055 0.419861
0.970795 0.960754 0.425385
0.152222 0.056000 0.403900
0.198914 0.055664 0.407623
0.287964 0.051758 0.414886
0.403290 0.041229 0.423187
0.530304 0.026306 0.431488
0.660370 0.012695 0.440491
0.786499 0.025391 0.449127
0.902985 0.079498 0.457214
1.000000 0.150757 0.464569
0.166107 0.130707 0.407684
0.210754 0.130615 0.410797
0.296906 0.128357 0.417908
0.410217 0.124908 0.425903
0.535431 0.123383 0.433716
0.663879 0.123901 0.442200
0.788696 0.134705 0.450470
0.904053 0.162628 0.458191
1.000000 0.209625 0.465271
0.193390 0.233887 0.415985
0.234863 0.235504 0.417511
0.315308 0.237274 0.423248
0.424194 0.238190 0.431274
0.546478 0.241577 0.438416
0.672363 0.246826 0.445801
0.794678 0.257446 0.453003
0.907745 0.276581 0.459778
1.000000 0.307404 0.465973
0.224030 0.360107 0.426910
0.262268 0.361511 0.428192
0.339142 0.364929 0.431244
0.442078 0.368439 0.437988
0.561279 0.372711 0.443848
0.683624 0.379150 0.449615
0.802307 0.388794 0.455536
0.911743 0.403381 0.461334
1.000000 0.425262 0.466736
0.261200 0.494598 0.437347
0.295593 0.495636 0.438477
0.366760 0.498230 0.441254
0.463287 0.502686 0.445496
0.575806 0.508575 0.448700
0.693451 0.514404 0.453186
0.807526 0.522217 0.458313
0.912109 0.533447 0.463562
1.000000 0.549896 0.468628
0.312408 0.625244 0.447754
0.341553 0.626007 0.448730
0.404236 0.627899 0.451080
0.491882 0.631439 0.454559
0.593994 0.637665 0.456482
0.702850 0.643341 0.460358
0.810303 0.650269 0.464203
0.908630 0.659210 0.468506
0.991302 0.671753 0.473328
0.377319 0.746887 0.458954
0.400787 0.747437 0.459778
0.453247 0.748749 0.461823
0.529449 0.751617 0.464447
0.620483 0.756561 0.465973
0.719208 0.761841 0.468079
0.816406 0.767120 0.472504
0.905457 0.774231 0.476379
0.981232 0.783539 0.480774
0.455566 0.854095 0.472443
0.473633 0.854431 0.473175
0.515411 0.855377 0.474731
0.578583 0.857727 0.476318
0.656738 0.861267 0.477570
0.742676 0.865356 0.479126
0.828247 0.869568 0.481964
0.905975 0.874329 0.486511
0.974518 0.880768 0.490997
0.542572 0.943939 0.489319
0.556000 0.944305 0.489685
0.587830 0.945251 0.490479
0.637970 0.947021 0.491455
0.701813 0.949524 0.492554
0.772858 0.952576 0.493958
0.843994 0.955994 0.496063
0.910736 0.959991 0.499268
0.972443 0.964752 0.503723
0.218201 0.075714 0.499298
0.255219 0.074615 0.502258
0.332001 0.070404 0.508423
0.437286 0.061066 0.516296
0.556519 0.052887 0.523956
0.679657 0.052490 0.532166
0.800446 0.071686 0.540436
0.912354 0.115662 0.548096
1.000000 0.178375 0.554962
0.229553 0.144135 0.502075
0.265289 0.143433 0.504883
0.340057 0.141052 0.511047
0.443481 0.137817 0.518677
0.561127 0.138123 0.525909
0.682831 0.142700 0.533752
0.802338 0.156372 0.541626
0.913208 0.184723 0.549011
1.000000 0.230743 0.555603
0.253021 0.247284 0.507965
0.286560 0.248383 0.509735
0.356781 0.249390 0.515167
0.456085 0.249817 0.523041
0.570526 0.253571 0.529968
0.689880 0.260010 0.537201
0.807220 0.271454 0.544250
0.916107 0.291199 0.550781
1.000000 0.322479 0.556671
0.280487 0.371765 0.517609
0.312134 0.373138 0.518677
0.379181 0.376373 0.521423
0.472443 0.378967 0.528656
0.583038 0.383118 0.535217
0.699432 0.389282 0.541412
0.813782 0.398895 0.547241
0.919403 0.413635 0.552704
1.000000 0.435944 0.557739
0.312714 0.504272 0.527496
0.341766 0.505249 0.528503
0.404510 0.507629 0.530975
0.492889 0.511719 0.534882
0.598236 0.515686 0.540192
0.710510 0.521179 0.544678
0.820160 0.529083 0.549408
0.920807 0.540558 0.554108
1.000000 0.557190 0.558502
0.356964 0.633484 0.536621
0.382202 0.634216 0.537506
0.438171 0.636017 0.539612
0.519073 0.639069 0.543091
0.614624 0.644531 0.546082
0.718964 0.650177 0.549255
0.822632 0.656677 0.552887
0.917206 0.665558 0.556885
0.996826 0.678131 0.561066
0.413605 0.753967 0.546204
0.434662 0.754486 0.546936
0.482391 0.755737 0.548737
0.553680 0.757904 0.551758
0.639221 0.762268 0.554230
0.732971 0.767761 0.555969
0.826324 0.773132 0.559631
0.912048 0.780243 0.562836
0.985382 0.789551 0.566620
0.483673 0.860107 0.557190
0.500366 0.860443 0.557861
0.539337 0.861237 0.559418
0.599121 0.862793 0.561798
0.672760 0.866028 0.563568
0.754211 0.870239 0.564972
0.836029 0.874695 0.567169
0.910736 0.879578 0.570953
0.977417 0.886078 0.574585
0.563690 0.948975 0.570862
0.576447 0.949158 0.571411
0.606628 0.949738 0.572601
0.654083 0.951141 0.574036
0.714447 0.953583 0.575317
0.781738 0.956757 0.576569
0.849701 0.960419 0.578186
0.914215 0.964569 0.580627
0.974670 0.969452 0.584290
0.291046 0.093170 0.590210
0.320801 0.091644 0.592560
0.385895 0.087830 0.597748
0.479706 0.080597 0.604797
0.589447 0.076233 0.612152
0.704407 0.085052 0.619446
0.818237 0.107635 0.627106
0.924347 0.148132 0.634369
1.000000 0.206146 0.640717
0.300201 0.156708 0.592651
0.329102 0.155975 0.595001
0.392822 0.153931 0.600128
0.485107 0.151886 0.606903
0.593414 0.152985 0.613861
0.707092 0.161591 0.620850
0.819855 0.178192 0.628204
0.924957 0.207581 0.635223
1.000000 0.252960 0.641357
0.319916 0.260681 0.596497
0.347076 0.261169 0.598450
0.407410 0.261780 0.603302
0.496094 0.262390 0.610413
0.601471 0.265594 0.617401
0.712830 0.273956 0.623901
0.823608 0.286774 0.630737
0.926910 0.307373 0.637115
1.000000 0.339355 0.642700
0.344086 0.384369 0.604156
0.370117 0.385620 0.605164
0.427246 0.388184 0.608246
0.510681 0.390381 0.615021
0.612183 0.393768 0.622040
0.720490 0.400848 0.627991
0.828522 0.410675 0.633972
0.928864 0.425751 0.639404
1.000000 0.448669 0.644196
0.371979 0.514648 0.613495
0.396179 0.515564 0.614349
0.450378 0.517944 0.616364
0.529327 0.522003 0.619873
0.624725 0.525024 0.626862
0.729553 0.530182 0.632050
0.833740 0.537872 0.636780
0.929657 0.549438 0.641174
1.000000 0.566406 0.645142
0.408447 0.642334 0.622040
0.430084 0.643036 0.622772
0.479156 0.644714 0.624664
0.552277 0.647675 0.627777
0.640564 0.652069 0.631775
0.739563 0.657013 0.634888
0.837646 0.663239 0.638611
0.927094 0.672241 0.642395
1.000000 0.684967 0.645996
0.456696 0.761566 0.630341
0.475159 0.762024 0.631012
0.517914 0.763214 0.632599
0.583008 0.765320 0.635315
0.662811 0.768646 0.638733
0.750214 0.774231 0.640564
0.838684 0.779694 0.643585
0.920166 0.786743 0.646393
0.990509 0.795990 0.649689
0.517853 0.866638 0.639618
0.532990 0.866913 0.640198
0.568451 0.867676 0.641571
0.623840 0.868988 0.643890
0.692841 0.871399 0.646637
0.768738 0.875641 0.648224
0.845612 0.880310 0.649933
0.916718 0.885345 0.653137
0.981201 0.891846 0.656128
0.589264 0.954651 0.650787
0.601074 0.954834 0.651245
0.629150 0.955292 0.652435
0.673767 0.956177 0.654358
0.730164 0.958191 0.656219
0.792908 0.961365 0.657593
0.856842 0.965240 0.658905
0.918610 0.969666 0.660797
0.977661 0.974579 0.663788
0.368317 0.108704 0.676392
0.392426 0.107483 0.678284
0.447235 0.104492 0.682556
0.529114 0.100555 0.688721
0.628021 0.100555 0.695587
0.734070 0.113220 0.702179
0.839874 0.139069 0.709106
0.938843 0.178711 0.715851
1.000000 0.233795 0.721680
0.375427 0.169189 0.678741
0.398987 0.168701 0.680603
0.452820 0.167725 0.684692
0.533569 0.167297 0.690552
0.631348 0.169922 0.697083
0.736267 0.180756 0.703461
0.841125 0.200470 0.710144
0.939117 0.231232 0.716644
1.000000 0.276276 0.722290
0.391327 0.273682 0.681305
0.413727 0.273926 0.683075
0.465027 0.274506 0.687256
0.542816 0.275604 0.693451
0.638092 0.279114 0.700134
0.740875 0.288391 0.706146
0.843811 0.303009 0.712433
0.940094 0.324921 0.718506
1.000000 0.357697 0.723724
0.412109 0.397430 0.686646
0.433319 0.398407 0.687775
0.481659 0.400116 0.691254
0.555206 0.402161 0.697296
0.646973 0.405365 0.704132
0.746735 0.412903 0.709778
0.847015 0.423645 0.715546
0.940552 0.439392 0.720917
1.000000 0.463074 0.725464
0.435699 0.525787 0.694885
0.455841 0.526733 0.695618
0.501953 0.529053 0.697388
0.571198 0.532501 0.701294
0.657532 0.535095 0.708252
0.753418 0.540558 0.713654
0.850098 0.548401 0.718689
0.939636 0.560120 0.723145
1.000000 0.577606 0.726959
0.465240 0.651611 0.703125
0.483643 0.652252 0.703796
0.526184 0.653870 0.705444
0.591339 0.656769 0.708130
0.671387 0.661041 0.711975
0.761566 0.664734 0.717316
0.853149 0.670776 0.721069
0.936768 0.679962 0.724487
1.000000 0.692841 0.727631
0.505127 0.769501 0.710602
0.521149 0.769958 0.711212
0.558807 0.771118 0.712616
0.617279 0.773132 0.715027
0.690308 0.776184 0.718353
0.770660 0.781158 0.721100
0.853577 0.786499 0.723602
0.929840 0.793396 0.726318
0.996735 0.802673 0.729309
0.556976 0.873413 0.718567
0.570465 0.873657 0.719116
0.602356 0.874420 0.720337
0.652588 0.875702 0.722412
0.716217 0.877686 0.725281
0.786041 0.881348 0.727692
0.856995 0.886353 0.729156
0.923859 0.891510 0.731812
0.985931 0.898041 0.734375
0.619080 0.960571 0.727936
0.629761 0.960754 0.728363
0.655334 0.961243 0.729401
0.696198 0.962067 0.731171
0.748535 0.963470 0.733582
0.806305 0.966309 0.735474
0.865601 0.970367 0.736755
0.924133 0.975037 0.738220
0.981537 0.980042 0.740723
0.447327 0.124481 0.758026
0.467041 0.123566 0.759552
0.512848 0.122437 0.763092
0.583435 0.121857 0.768372
0.671295 0.125854 0.774567
0.767670 0.140442 0.780792
0.864655 0.168915 0.786896
0.955444 0.208740 0.792969
1.000000 0.261658 0.798279
0.452759 0.183075 0.760101
0.472168 0.182861 0.761566
0.517273 0.182953 0.764954
0.587036 0.184143 0.769989
0.673920 0.188843 0.775940
0.769409 0.200958 0.781921
0.865509 0.223328 0.787781
0.955444 0.255646 0.793732
1.000000 0.300293 0.798889
0.465118 0.286835 0.762085
0.483551 0.287201 0.763580
0.526917 0.287994 0.767120
0.594452 0.289764 0.772430
0.679321 0.294067 0.778503
0.772919 0.303680 0.784332
0.867188 0.320282 0.789856
0.955383 0.343811 0.795441
1.000000 0.377167 0.800262
0.481689 0.410400 0.765869
0.499176 0.411041 0.767151
0.540192 0.412384 0.770416
0.604553 0.414490 0.775696
0.686371 0.417999 0.781952
0.777191 0.425293 0.787598
0.868744 0.437439 0.792694
0.954285 0.454224 0.797821
1.000000 0.478760 0.802124
0.501526 0.537598 0.772247
0.518158 0.538513 0.772919
0.557190 0.540588 0.774780
0.617523 0.543243 0.779114
0.694733 0.545959 0.785431
0.781799 0.550995 0.791077
0.869598 0.559906 0.795746
0.951294 0.572235 0.800232
1.000000 0.590271 0.803986
0.525360 0.661346 0.780090
0.540924 0.662018 0.780670
0.577515 0.663666 0.782043
0.634583 0.666626 0.784332
0.705872 0.670532 0.788513
0.786835 0.673950 0.794495
0.869720 0.680328 0.798645
0.946381 0.689484 0.802307
1.000000 0.702606 0.805389
0.556915 0.777710 0.787323
0.570740 0.778198 0.787842
0.603607 0.779327 0.789124
0.655396 0.781342 0.791290
0.721039 0.784363 0.794220
0.793732 0.788666 0.797791
0.869904 0.793243 0.800903
0.940186 0.800201 0.803589
1.000000 0.809479 0.806213
0.599823 0.880432 0.794464
0.611603 0.880707 0.794922
0.639771 0.881439 0.796021
0.684631 0.882751 0.797882
0.741974 0.884735 0.800446
0.805634 0.887665 0.803467
0.869751 0.892700 0.805267
0.932220 0.898041 0.807465
0.991852 0.904449 0.809753
0.651855 0.966797 0.802673
0.661407 0.966980 0.803040
0.684296 0.967438 0.803986
0.721008 0.968292 0.805542
0.768341 0.969696 0.807678
0.821350 0.971832 0.810242
0.875793 0.975708 0.812103
0.930756 0.980682 0.813354
0.986420 0.985870 0.815369
