滤镜资源/Professional Luts Collection/Lutify.me Professional/Vintage Films/Fuchsite.cube
# Created by: Lutify.me
# Copyright: (c) Copyright Lutify.me 2015
# Website: https://lutify.me
#LUT size
LUT_3D_SIZE 5
#LUT data points
0.000000 0.000000 0.000000
0.218170 0.000000 0.011566
0.487457 0.000000 0.048126
0.762573 0.000000 0.092133
0.993652 0.063110 0.129669
0.081421 0.196838 0.047882
0.247711 0.205139 0.056183
0.505127 0.213379 0.079224
0.770386 0.226990 0.108948
0.993469 0.276611 0.139587
0.163116 0.470245 0.110107
0.300568 0.477325 0.110474
0.536407 0.489227 0.123413
0.780945 0.505310 0.143677
0.985748 0.533539 0.168091
0.311584 0.731384 0.170715
0.400665 0.735413 0.170044
0.589508 0.743774 0.174225
0.799255 0.753571 0.191895
0.973175 0.770050 0.213348
0.504333 0.935669 0.248779
0.555054 0.937317 0.249298
0.680969 0.941193 0.252991
0.834412 0.946564 0.263062
0.968658 0.954895 0.280243
0.047272 0.015350 0.201660
0.234497 0.016327 0.216064
0.498627 0.000000 0.235229
0.769287 0.000000 0.255676
0.996704 0.097015 0.274811
0.110016 0.210327 0.222443
0.265289 0.215515 0.229919
0.518616 0.221527 0.243317
0.778870 0.235687 0.260162
0.998901 0.284790 0.276703
0.189026 0.478302 0.250671
0.317719 0.483154 0.254883
0.546417 0.495575 0.261810
0.788483 0.511017 0.273468
0.990662 0.538727 0.288055
0.329041 0.735596 0.284302
0.414062 0.739044 0.285431
0.597137 0.747711 0.288086
0.803619 0.757629 0.299164
0.975342 0.774017 0.312897
0.513611 0.938171 0.332520
0.562805 0.939789 0.333069
0.685974 0.943787 0.335693
0.836853 0.949280 0.342865
0.969666 0.957672 0.355560
0.152222 0.056000 0.403900
0.287964 0.051758 0.414886
0.530304 0.026306 0.431488
0.786499 0.025391 0.449127
1.000000 0.150757 0.464569
0.193390 0.233887 0.415985
0.315308 0.237274 0.423248
0.546478 0.241577 0.438416
0.794678 0.257446 0.453003
1.000000 0.307404 0.465973
0.261200 0.494598 0.437347
0.366760 0.498230 0.441254
0.575806 0.508575 0.448700
0.807526 0.522217 0.458313
1.000000 0.549896 0.468628
0.377319 0.746887 0.458954
0.453247 0.748749 0.461823
0.620483 0.756561 0.465973
0.816406 0.767120 0.472504
0.981232 0.783539 0.480774
0.542572 0.943939 0.489319
0.587830 0.945251 0.490479
0.701813 0.949524 0.492554
0.843994 0.955994 0.496063
0.972443 0.964752 0.503723
0.291046 0.093170 0.590210
0.385895 0.087830 0.597748
0.589447 0.076233 0.612152
0.818237 0.107635 0.627106
1.000000 0.206146 0.640717
0.319916 0.260681 0.596497
0.407410 0.261780 0.603302
0.601471 0.265594 0.617401
0.823608 0.286774 0.630737
1.000000 0.339355 0.642700
0.371979 0.514648 0.613495
0.450378 0.517944 0.616364
0.624725 0.525024 0.626862
0.833740 0.537872 0.636780
1.000000 0.566406 0.645142
0.456696 0.761566 0.630341
0.517914 0.763214 0.632599
0.662811 0.768646 0.638733
0.838684 0.779694 0.643585
0.990509 0.795990 0.649689
0.589264 0.954651 0.650787
0.629150 0.955292 0.652435
0.730164 0.958191 0.656219
0.856842 0.965240 0.658905
0.977661 0.974579 0.663788
0.447327 0.124481 0.758026
0.512848 0.122437 0.763092
0.671295 0.125854 0.774567
0.864655 0.168915 0.786896
1.000000 0.261658 0.798279
0.465118 0.286835 0.762085
0.526917 0.287994 0.767120
0.679321 0.294067 0.778503
0.867188 0.320282 0.789856
1.000000 0.377167 0.800262
0.501526 0.537598 0.772247
0.557190 0.540588 0.774780
0.694733 0.545959 0.785431
0.869598 0.559906 0.795746
1.000000 0.590271 0.803986
0.556915 0.777710 0.787323
0.603607 0.779327 0.789124
0.721039 0.784363 0.794220
0.869904 0.793243 0.800903
1.000000 0.809479 0.806213
0.651855 0.966797 0.802673
0.684296 0.967438 0.803986
0.768341 0.969696 0.807678
0.875793 0.975708 0.812103
0.986420 0.985870 0.815369
