滤镜资源/Professional Luts Collection/Lutify.me Professional/Vintage Films/Tanzanite.cube
# Created by: Lutify.me
# Copyright: (c) Copyright Lutify.me 2015
# Website: https://lutify.me
#LUT size
LUT_3D_SIZE 33
#LUT data points
0.000000 0.000000 0.000000
0.006165 0.000000 0.001129
0.014496 0.000732 0.000061
0.025574 0.001526 0.000000
0.042603 0.001953 0.000000
0.062378 0.002655 0.000000
0.083679 0.002808 0.000000
0.107391 0.003021 0.000000
0.134338 0.002045 0.000000
0.164948 0.000458 0.000000
0.199493 0.000000 0.000000
0.237885 0.000000 0.000000
0.279877 0.000000 0.000000
0.325256 0.000000 0.000000
0.373657 0.000000 0.000000
0.424438 0.000000 0.000000
0.477081 0.000000 0.000000
0.530884 0.000000 0.000000
0.584961 0.000000 0.000000
0.638519 0.000000 0.000000
0.690643 0.000000 0.000000
0.740906 0.000000 0.000000
0.788605 0.000000 0.000000
0.832825 0.000000 0.000000
0.873352 0.000000 0.000000
0.910492 0.000000 0.000000
0.944397 0.000000 0.000000
0.975067 0.000000 0.000000
0.999146 0.000000 0.000000
1.000000 0.000000 0.000000
1.000000 0.005920 0.000000
1.000000 0.096802 0.000000
1.000000 0.168579 0.000000
0.000000 0.010498 0.000000
0.005005 0.006165 0.000000
0.012878 0.006561 0.000031
0.024109 0.006927 0.000000
0.041107 0.007721 0.000000
0.060791 0.008392 0.000000
0.082672 0.009155 0.000000
0.106659 0.009277 0.000000
0.133362 0.008575 0.000000
0.164154 0.006622 0.000000
0.198792 0.002411 0.000000
0.237152 0.000305 0.000000
0.279144 0.000000 0.000000
0.324341 0.000000 0.000000
0.372589 0.000000 0.000000
0.423248 0.000000 0.000000
0.475739 0.000000 0.000000
0.529449 0.000000 0.000000
0.583496 0.000000 0.000000
0.636993 0.000000 0.000000
0.689117 0.000000 0.000000
0.739319 0.000000 0.000000
0.786987 0.000000 0.000000
0.831268 0.000000 0.000000
0.871918 0.000000 0.000000
0.909027 0.000000 0.000000
0.942902 0.000000 0.000000
0.973877 0.000000 0.000000
0.999054 0.000000 0.000000
1.000000 0.000000 0.000000
1.000000 0.007050 0.000000
1.000000 0.114136 0.000000
1.000000 0.179626 0.000000
0.000000 0.023743 0.000000
0.002350 0.017548 0.000000
0.011719 0.012177 0.000000
0.022858 0.012939 0.000000
0.039703 0.013672 0.000000
0.059631 0.014771 0.000000
0.081573 0.015533 0.000000
0.105652 0.015991 0.000000
0.132629 0.015625 0.000000
0.163483 0.013580 0.000000
0.198029 0.009369 0.000000
0.236298 0.002960 0.000000
0.278198 0.000275 0.000000
0.323364 0.000000 0.000000
0.371429 0.000000 0.000000
0.422058 0.000000 0.000000
0.474457 0.000000 0.000000
0.528107 0.000000 0.000000
0.582123 0.000000 0.000000
0.635498 0.000000 0.000000
0.687531 0.000000 0.000000
0.737762 0.000000 0.000000
0.785461 0.000000 0.000000
0.829712 0.000000 0.000000
0.870331 0.000000 0.000000
0.907532 0.000000 0.000000
0.941437 0.000000 0.000000
0.972473 0.000000 0.000000
0.998077 0.000000 0.000000
1.000000 0.003021 0.000000
1.000000 0.036133 0.000000
1.000000 0.129456 0.000000
1.000000 0.189850 0.000000
0.000000 0.044617 0.000000
0.000153 0.034576 0.000000
0.008087 0.026398 0.000000
0.020996 0.019501 0.000000
0.037811 0.020630 0.000000
0.058136 0.021393 0.000000
0.080048 0.022797 0.000000
0.104370 0.023285 0.000000
0.131592 0.023285 0.000000
0.162628 0.021637 0.000000
0.197296 0.017944 0.000000
0.235565 0.011383 0.000000
0.277313 0.002777 0.000000
0.322388 0.000000 0.000000
0.370422 0.000000 0.000000
0.420929 0.000000 0.000000
0.473267 0.000000 0.000000
0.526764 0.000000 0.000000
0.580627 0.000000 0.000000
0.633972 0.000000 0.000000
0.686005 0.000000 0.000000
0.736237 0.000000 0.000000
0.783875 0.000000 0.000000
0.828186 0.000000 0.000000
0.868774 0.000000 0.000000
0.905975 0.000000 0.000000
0.939941 0.000000 0.000000
0.971039 0.000000 0.000000
0.996704 0.000000 0.000000
1.000000 0.006042 0.000000
1.000000 0.066467 0.000000
1.000000 0.144501 0.000000
1.000000 0.200317 0.000000
0.000000 0.070557 0.000000
0.000000 0.058838 0.000000
0.002563 0.047668 0.000000
0.017059 0.037994 0.000000
0.035065 0.029449 0.000000
0.056030 0.030518 0.000000
0.078705 0.031769 0.000000
0.103271 0.032837 0.000000
0.130646 0.033295 0.000000
0.161774 0.032166 0.000000
0.196503 0.028992 0.000000
0.234741 0.023254 0.000000
0.276581 0.013702 0.000000
0.321625 0.003113 0.000000
0.369598 0.000000 0.000000
0.419952 0.000000 0.000000
0.472137 0.000000 0.000000
0.525513 0.000000 0.000000
0.579315 0.000000 0.000000
0.632629 0.000000 0.000000
0.684540 0.000000 0.000000
0.734650 0.000000 0.000000
0.782288 0.000000 0.000000
0.826599 0.000000 0.000000
0.867188 0.000000 0.000000
0.904419 0.000000 0.000000
0.938385 0.000000 0.000000
0.969452 0.000000 0.000000
0.995270 0.000000 0.000000
1.000000 0.008972 0.000000
1.000000 0.095978 0.000000
1.000000 0.161285 0.000000
1.000000 0.213043 0.000000
0.000000 0.100433 0.000000
0.000000 0.086853 0.000000
0.000214 0.074005 0.000000
0.009277 0.062500 0.000000
0.030090 0.051788 0.000000
0.053467 0.042389 0.000000
0.076843 0.043701 0.000000
0.101715 0.045044 0.000000
0.129608 0.045532 0.000000
0.160919 0.045044 0.000000
0.195892 0.042725 0.000000
0.234222 0.038208 0.000000
0.275940 0.029907 0.000000
0.320984 0.017212 0.000000
0.368866 0.003937 0.000000
0.419159 0.000000 0.000000
0.471191 0.000000 0.000000
0.524475 0.000000 0.000000
0.578217 0.000000 0.000000
0.631378 0.000000 0.000000
0.683197 0.000000 0.000000
0.733215 0.000000 0.000000
0.780792 0.000000 0.000000
0.825073 0.000000 0.000000
0.865631 0.000000 0.000000
0.902832 0.000000 0.000000
0.936768 0.000000 0.000000
0.967804 0.000000 0.000000
0.993805 0.005737 0.000000
1.000000 0.046082 0.000000
1.000000 0.124298 0.000000
1.000000 0.180176 0.000000
1.000000 0.227997 0.000000
0.000000 0.135529 0.000000
0.000000 0.119537 0.000000
0.000000 0.104675 0.000000
0.000946 0.090973 0.000000
0.020142 0.078522 0.000000
0.048035 0.067383 0.000000
0.074219 0.056976 0.000000
0.099823 0.058289 0.000000
0.128235 0.059357 0.000000
0.160034 0.059448 0.000000
0.195099 0.058197 0.000000
0.233582 0.055115 0.000000
0.275391 0.049469 0.000000
0.320404 0.039215 0.000000
0.368225 0.023834 0.000000
0.418427 0.006165 0.000000
0.470428 0.000214 0.000000
0.523560 0.000000 0.000000
0.577148 0.000000 0.000000
0.630157 0.000000 0.000000
0.681885 0.000000 0.000000
0.731842 0.000000 0.000000
0.779327 0.000000 0.000000
0.823486 0.000000 0.000000
0.864014 0.000000 0.000000
0.901154 0.000000 0.000000
0.935059 0.000000 0.000000
0.966034 0.000946 0.000000
0.992157 0.016083 0.000000
1.000000 0.091827 0.000000
1.000000 0.151917 0.000000
1.000000 0.200867 0.000000
1.000000 0.244812 0.000000
0.000000 0.176025 0.000000
0.000000 0.157257 0.000000
0.000000 0.140106 0.000000
0.000000 0.124115 0.000000
0.002838 0.109619 0.000000
0.035645 0.096252 0.000000
0.068634 0.084167 0.000000
0.097595 0.072815 0.000000
0.126465 0.073944 0.000000
0.158752 0.074677 0.000000
0.194244 0.074402 0.000000
0.232941 0.072693 0.000000
0.274902 0.068878 0.000000
0.319885 0.062500 0.000000
0.367706 0.051666 0.000000
0.417816 0.034882 0.000000
0.469696 0.013062 0.000000
0.522736 0.002319 0.000000
0.576172 0.000000 0.000000
0.629059 0.000000 0.000000
0.680634 0.000000 0.000000
0.730469 0.000000 0.000000
0.777802 0.000000 0.000000
0.821869 0.000000 0.000000
0.862305 0.000000 0.000000
0.899384 0.000000 0.000000
0.933197 0.000580 0.000000
0.964111 0.014221 0.000000
0.990417 0.069977 0.000000
1.000000 0.131256 0.000000
1.000000 0.179413 0.000000
1.000000 0.222534 0.000000
1.000000 0.263153 0.000000
0.000000 0.222443 0.000000
0.000000 0.201202 0.000000
0.000000 0.181213 0.000000
0.000000 0.162842 0.000000
0.000153 0.145782 0.000000
0.012177 0.129974 0.000000
0.056580 0.115662 0.000000
0.092163 0.102448 0.000000
0.124237 0.090118 0.000000
0.157135 0.090912 0.000000
0.193085 0.091339 0.000000
0.232147 0.090759 0.000000
0.274384 0.088654 0.000000
0.319427 0.084442 0.000000
0.367218 0.077850 0.000000
0.417297 0.067596 0.000000
0.469086 0.052002 0.000000
0.522003 0.029968 0.000000
0.575256 0.010651 0.000000
0.627960 0.001434 0.000000
0.679413 0.000000 0.000000
0.729126 0.000000 0.000000
0.776306 0.000000 0.000000
0.820251 0.000000 0.000000
0.860565 0.000000 0.000000
0.897491 0.003876 0.000000
0.931274 0.024994 0.000000
0.962067 0.068359 0.000000
0.988495 0.121094 0.000000
1.000000 0.165833 0.000000
1.000000 0.206726 0.000000
1.000000 0.245483 0.000000
1.000000 0.283020 0.000000
0.000000 0.274902 0.000000
0.000000 0.250763 0.000000
0.000000 0.228149 0.000000
0.000000 0.207275 0.000000
0.000000 0.187469 0.000000
0.001404 0.169312 0.000000
0.028564 0.152588 0.000000
0.081024 0.136993 0.000000
0.119476 0.122498 0.000000
0.154846 0.108948 0.000000
0.191589 0.109497 0.000000
0.231018 0.109680 0.000000
0.273468 0.108856 0.000000
0.318787 0.106598 0.000000
0.366669 0.102478 0.000000
0.416748 0.096222 0.000000
0.468506 0.087067 0.000000
0.521240 0.074463 0.000000
0.574341 0.057739 0.000000
0.626923 0.039001 0.000000
0.678192 0.024872 0.000000
0.727692 0.014130 0.000000
0.774719 0.009644 0.000000
0.818512 0.014709 0.000000
0.858673 0.030548 0.000000
0.895477 0.053558 0.000000
0.929138 0.082397 0.000000
0.959808 0.123932 0.000000
0.986389 0.161713 0.000000
0.999969 0.198273 0.000000
1.000000 0.234009 0.000000
1.000000 0.269440 0.000000
1.000000 0.304413 0.000000
0.000000 0.332458 0.000000
0.000000 0.305939 0.000000
0.000000 0.280701 0.000000
0.000000 0.257233 0.000000
0.000000 0.234985 0.000000
0.000000 0.214355 0.000000
0.003967 0.195099 0.000000
0.054291 0.177216 0.000000
0.109009 0.160370 0.000000
0.150604 0.144409 0.000000
0.189331 0.129517 0.000000
0.229553 0.129822 0.000000
0.272339 0.129913 0.000000
0.317902 0.129120 0.000000
0.365967 0.126862 0.000000
0.416107 0.123047 0.000000
0.467743 0.117615 0.000000
0.520477 0.110229 0.000000
0.573425 0.101257 0.000000
0.625824 0.091278 0.000000
0.676910 0.080963 0.000000
0.726196 0.072174 0.000000
0.773041 0.068573 0.000000
0.816620 0.073425 0.000000
0.856628 0.088226 0.000000
0.893280 0.111725 0.000000
0.926788 0.138611 0.000000
0.957367 0.167542 0.000000
0.984161 0.198242 0.000000
0.999878 0.229706 0.000000
1.000000 0.261749 0.000000
1.000000 0.294250 0.000000
1.000000 0.326782 0.000000
0.000000 0.394318 0.000000
0.000000 0.365906 0.000000
0.000000 0.338715 0.000000
0.000000 0.312775 0.000000
0.000000 0.288147 0.000000
0.000000 0.264923 0.000000
0.000092 0.243164 0.000000
0.009735 0.222809 0.000000
0.086182 0.203766 0.000000
0.140808 0.185608 0.000000
0.185303 0.168243 0.000000
0.227295 0.151886 0.000000
0.270813 0.152069 0.000000
0.316620 0.152222 0.000000
0.364960 0.151489 0.000000
0.415253 0.149506 0.000000
0.466888 0.146423 0.000000
0.519501 0.142273 0.000000
0.572388 0.137238 0.000000
0.624603 0.132050 0.000000
0.675507 0.127716 0.000000
0.724609 0.125214 0.000000
0.771240 0.126038 0.000000
0.814575 0.132019 0.000000
0.854401 0.143799 0.000000
0.890900 0.160706 0.000000
0.924194 0.181793 0.000000
0.954651 0.205933 0.000000
0.981689 0.232483 0.000000
0.999695 0.260498 0.000000
1.000000 0.289703 0.000000
1.000000 0.319794 0.000000
1.000000 0.350281 0.000000
0.000000 0.460083 0.000000
0.000000 0.430237 0.000000
0.000000 0.400970 0.000000
0.000000 0.373352 0.000000
0.000000 0.346283 0.000000
0.000000 0.320770 0.000000
0.000000 0.296600 0.000000
0.000580 0.273926 0.000000
0.032959 0.252472 0.000000
0.120667 0.232269 0.000000
0.176147 0.212799 0.000000
0.223480 0.194031 0.000000
0.268494 0.176300 0.000000
0.314972 0.176422 0.000000
0.363525 0.176666 0.000000
0.414001 0.176147 0.000000
0.465820 0.174805 0.000000
0.518372 0.172821 0.000000
0.571106 0.170380 0.000000
0.623169 0.167999 0.000000
0.673889 0.166565 0.000000
0.722809 0.166748 0.000000
0.769226 0.169556 0.000000
0.812317 0.176147 0.000000
0.851929 0.187012 0.000000
0.888214 0.201874 0.000000
0.921387 0.220306 0.000000
0.951660 0.241760 0.000000
0.978973 0.265503 0.000000
0.999573 0.291107 0.000000
1.000000 0.317993 0.000000
1.000000 0.345978 0.000000
1.000000 0.374634 0.000000
0.000000 0.528687 0.000000
0.000000 0.497437 0.000000
0.000000 0.466736 0.000000
0.000000 0.437531 0.000000
0.000000 0.408966 0.000000
0.000000 0.381378 0.000000
0.000000 0.355103 0.000000
0.000000 0.330231 0.000000
0.005127 0.306427 0.000000
0.074127 0.283997 0.000000
0.157990 0.262634 0.000000
0.214783 0.241913 0.000000
0.264801 0.221802 0.000000
0.312469 0.202698 0.000000
0.361633 0.202820 0.000000
0.412384 0.203339 0.000000
0.464325 0.203339 0.000000
0.516968 0.202881 0.000000
0.569641 0.202301 0.000000
0.621521 0.201935 0.000000
0.672028 0.202362 0.000000
0.720734 0.204285 0.000000
0.766937 0.208405 0.000000
0.809784 0.215485 0.000000
0.849152 0.225983 0.000000
0.885223 0.239777 0.000000
0.918213 0.256592 0.000000
0.948334 0.276184 0.000000
0.975708 0.298035 0.000000
0.998322 0.321594 0.000000
1.000000 0.346680 0.000000
1.000000 0.372772 0.000000
1.000000 0.399689 0.000000
0.000000 0.597992 0.000000
0.000000 0.566254 0.000000
0.000000 0.535309 0.000000
0.000000 0.504883 0.000000
0.000000 0.475006 0.000000
0.000000 0.445953 0.000000
0.000000 0.417938 0.000000
0.000000 0.391052 0.000000
0.000031 0.365326 0.000000
0.015442 0.340820 0.000000
0.122040 0.317352 0.000000
0.198151 0.294769 0.000000
0.256470 0.272858 0.000000
0.308838 0.251526 0.000000
0.358978 0.231140 0.000000
0.410126 0.231415 0.000000
0.462402 0.232361 0.000000
0.515106 0.233215 0.000000
0.567749 0.233887 0.000000
0.619537 0.234985 0.000000
0.669861 0.236908 0.000000
0.718384 0.239960 0.000000
0.764313 0.244934 0.000000
0.806915 0.252594 0.000000
0.846039 0.262909 0.000000
0.881897 0.276031 0.000000
0.914703 0.291748 0.000000
0.944641 0.310028 0.000000
0.971802 0.330414 0.000000
0.995239 0.352295 0.000000
1.000000 0.375641 0.000000
1.000000 0.400269 0.000000
1.000000 0.425598 0.000000
0.000000 0.664856 0.000000
0.000000 0.634857 0.000000
0.000000 0.604523 0.000000
0.000000 0.573883 0.000000
0.000000 0.543274 0.000000
0.000000 0.513428 0.000000
0.000000 0.484070 0.000000
0.000000 0.455750 0.000000
0.000000 0.428314 0.000000
0.000885 0.401978 0.000000
0.045898 0.376678 0.000000
0.168060 0.352325 0.000000
0.240814 0.328705 0.000000
0.300690 0.305634 0.000000
0.355133 0.283020 0.000000
0.407227 0.261627 0.000000
0.459778 0.262207 0.000000
0.512726 0.263794 0.000000
0.565369 0.265717 0.000000
0.617065 0.267822 0.000000
0.667267 0.270752 0.000000
0.715576 0.274872 0.000000
0.761322 0.280396 0.000000
0.803650 0.288361 0.000000
0.842529 0.298706 0.000000
0.878174 0.311340 0.000000
0.910767 0.326263 0.000000
0.940521 0.343445 0.000000
0.967529 0.362488 0.000000
0.991089 0.383118 0.000000
1.000000 0.404999 0.000000
1.000000 0.428192 0.000000
1.000000 0.452148 0.000000
0.000000 0.726044 0.000000
0.000000 0.699036 0.000000
0.000000 0.670929 0.000000
0.000000 0.641846 0.000000
0.000000 0.612000 0.000000
0.000000 0.582062 0.000000
0.000000 0.552307 0.000000
0.000000 0.522888 0.000000
0.000000 0.494385 0.000000
0.000000 0.466644 0.000000
0.008301 0.439728 0.000000
0.101746 0.413666 0.000000
0.214050 0.388519 0.000000
0.285767 0.364136 0.000000
0.346985 0.339966 0.000000
0.403015 0.316345 0.000000
0.456421 0.294098 0.000000
0.509674 0.295197 0.000000
0.562408 0.297607 0.000000
0.614105 0.300751 0.000000
0.664185 0.304504 0.000000
0.712341 0.309174 0.000000
0.757782 0.315369 0.000000
0.799896 0.323578 0.000000
0.838531 0.333771 0.000000
0.873962 0.346100 0.000000
0.906372 0.360291 0.000000
0.935974 0.376648 0.000000
0.962799 0.394623 0.000000
0.986664 0.413971 0.000000
0.999939 0.434723 0.000000
1.000000 0.456451 0.000000
1.000000 0.479095 0.000000
0.000000 0.780029 0.000000
0.000000 0.756287 0.000000
0.000000 0.731506 0.000000
0.000000 0.705292 0.000000
0.000000 0.677887 0.000000
0.000000 0.649384 0.000000
0.000000 0.620544 0.000000
0.000000 0.591217 0.000000
0.000000 0.562134 0.000000
0.000000 0.533630 0.000000
0.000061 0.505676 0.000000
0.026062 0.478363 0.000000
0.165985 0.451782 0.000000
0.261536 0.425995 0.000000
0.332550 0.400787 0.000000
0.394531 0.375885 0.000000
0.451569 0.351501 0.000000
0.505768 0.328644 0.000000
0.558746 0.330444 0.000000
0.610474 0.333954 0.000000
0.660522 0.338348 0.000000
0.708496 0.343689 0.000000
0.753784 0.350159 0.000000
0.795593 0.358459 0.000000
0.834045 0.368591 0.000000
0.869263 0.380524 0.000000
0.901459 0.394226 0.000000
0.930908 0.409668 0.000000
0.957611 0.426819 0.000000
0.981812 0.445160 0.000000
0.999542 0.464600 0.000000
1.000000 0.485168 0.000000
1.000000 0.506317 0.000000
0.000000 0.826630 0.000000
0.000000 0.806396 0.000000
0.000000 0.784760 0.000000
0.000000 0.761749 0.000000
0.000000 0.737457 0.000000
0.000000 0.711853 0.000000
0.000000 0.685333 0.000000
0.000000 0.657867 0.000000
0.000000 0.629761 0.000000
0.000000 0.601440 0.000000
0.000031 0.573120 0.000000
0.001984 0.545227 0.000000
0.069397 0.517792 0.000000
0.223114 0.490845 0.000000
0.310028 0.464508 0.000000
0.380280 0.438751 0.000000
0.442474 0.413300 0.000000
0.499969 0.388306 0.000000
0.554199 0.365112 0.000000
0.606079 0.367706 0.000000
0.656158 0.372467 0.000000
0.704071 0.378174 0.000000
0.749115 0.385040 0.000000
0.790710 0.393433 0.000000
0.828949 0.403290 0.000000
0.864014 0.414856 0.000000
0.896057 0.428101 0.000000
0.925293 0.442871 0.000000
0.951874 0.458954 0.000000
0.975983 0.476410 0.000000
0.996887 0.494720 0.000000
1.000000 0.513977 0.000000
1.000000 0.533478 0.000000
0.000000 0.865967 0.000000
0.000000 0.848907 0.000000
0.000000 0.830505 0.000000
0.000000 0.810760 0.000000
0.000000 0.789581 0.000000
0.000000 0.767242 0.000000
0.000000 0.743683 0.000000
0.000000 0.718994 0.000000
0.000000 0.693329 0.000000
0.000000 0.666901 0.000000
0.000000 0.639740 0.000000
0.000000 0.612305 0.000000
0.015747 0.584717 0.000000
0.145752 0.557434 0.000000
0.276001 0.530365 0.000000
0.359070 0.503784 0.000000
0.428131 0.477753 0.000000
0.489960 0.451996 0.000000
0.547150 0.426697 0.000000
0.600769 0.403381 0.000000
0.651031 0.407074 0.000000
0.698883 0.412811 0.000000
0.743805 0.419800 0.000000
0.785217 0.428253 0.000000
0.823212 0.438080 0.000000
0.858093 0.449280 0.000000
0.890015 0.461945 0.000000
0.919159 0.475983 0.000000
0.945618 0.491272 0.000000
0.969635 0.507629 0.000000
0.991089 0.524780 0.000000
0.999969 0.542419 0.000000
1.000000 0.560364 0.000000
0.000000 0.898773 0.000000
0.000000 0.884308 0.000000
0.000000 0.869110 0.000000
0.000000 0.852448 0.000000
0.000000 0.834473 0.000000
0.000000 0.815247 0.000000
0.000000 0.794739 0.000000
0.000000 0.773041 0.000000
0.000000 0.750244 0.000000
0.000000 0.726471 0.000000
0.000000 0.701721 0.000000
0.000000 0.676208 0.000000
0.000000 0.650024 0.000000
0.056946 0.623444 0.000000
0.224945 0.596832 0.000000
0.328766 0.569946 0.000000
0.407715 0.543518 0.000000
0.475281 0.517334 0.000000
0.536041 0.491699 0.000000
0.592285 0.466370 0.000000
0.644897 0.443268 0.000000
0.692932 0.448029 0.000000
0.737732 0.454773 0.000000
0.778961 0.463013 0.000000
0.816833 0.472748 0.000000
0.851562 0.483551 0.000000
0.883362 0.495728 0.000000
0.912384 0.509003 0.000000
0.938843 0.523346 0.000000
0.962891 0.538513 0.000000
0.984772 0.554260 0.000000
0.999756 0.570435 0.000000
1.000000 0.586792 0.000000
0.000000 0.925934 0.000000
0.000000 0.913910 0.000000
0.000000 0.901215 0.000000
0.000000 0.887299 0.000000
0.000000 0.872284 0.000000
0.000000 0.856018 0.000000
0.000000 0.838470 0.000000
0.000000 0.819855 0.000000
0.000000 0.799957 0.000000
0.000000 0.779022 0.000000
0.000000 0.757019 0.000000
0.000000 0.733978 0.000000
0.000000 0.710236 0.000000
0.012268 0.685638 0.000000
0.138702 0.660553 0.000000
0.288513 0.635040 0.000000
0.380432 0.609009 0.000000
0.455231 0.583130 0.000000
0.520691 0.557343 0.000000
0.580048 0.531952 0.000000
0.634979 0.506989 0.000000
0.685913 0.484406 0.000000
0.730835 0.490082 0.000000
0.772003 0.498016 0.000000
0.809753 0.507202 0.000000
0.844391 0.517578 0.000000
0.876099 0.529175 0.000000
0.905121 0.541687 0.000000
0.931610 0.554810 0.000000
0.955811 0.568604 0.000000
0.977844 0.582947 0.000000
0.997284 0.597748 0.000000
1.000000 0.612579 0.000000
0.000000 0.948364 0.000000
0.000000 0.938568 0.000000
0.000000 0.927765 0.000000
0.000000 0.916351 0.000000
0.000000 0.903717 0.000000
0.000000 0.889984 0.000000
0.000000 0.875122 0.000000
0.000000 0.859406 0.000000
0.000000 0.842377 0.000000
0.000000 0.824249 0.000000
0.000000 0.805206 0.000000
0.000000 0.784973 0.000000
0.000000 0.763763 0.000000
0.000000 0.741669 0.000000
0.070129 0.718689 0.000000
0.240326 0.695129 0.000000
0.348907 0.671143 0.000000
0.431244 0.646515 0.000000
0.501495 0.621796 0.000000
0.564178 0.597046 0.000000
0.621552 0.572418 0.000000
0.674438 0.548279 0.000000
0.722870 0.526459 0.000000
0.764191 0.532990 0.000000
0.802002 0.541718 0.000000
0.836578 0.551514 0.000000
0.868378 0.561920 0.000000
0.897491 0.573425 0.000000
0.924103 0.585388 0.000000
0.948456 0.597931 0.000000
0.970612 0.610931 0.000000
0.990814 0.624054 0.000000
1.000000 0.637573 0.000000
0.000000 0.966827 0.000000
0.000000 0.958679 0.000000
0.000000 0.949829 0.000000
0.000000 0.940216 0.000000
0.000000 0.929779 0.000000
0.000000 0.918304 0.000000
0.000000 0.905823 0.000000
0.000000 0.892487 0.000000
0.000000 0.878113 0.000000
0.000000 0.862610 0.000000
0.000000 0.846191 0.000000
0.000000 0.828766 0.000000
0.000000 0.810272 0.000000
0.000000 0.790741 0.000000
0.032471 0.770264 0.000000
0.171906 0.749023 0.000000
0.317291 0.727051 0.000000
0.406860 0.704559 0.000000
0.481262 0.681610 0.000000
0.546692 0.658478 0.000000
0.605865 0.635162 0.000000
0.660156 0.611969 0.000000
0.709900 0.589294 0.000000
0.755554 0.568390 0.000000
0.793579 0.575531 0.000000
0.828339 0.584503 0.000000
0.860291 0.593933 0.000000
0.889557 0.604187 0.000000
0.916351 0.615051 0.000000
0.940887 0.626282 0.000000
0.963287 0.637939 0.000000
0.983795 0.649811 0.000000
0.999268 0.662018 0.000000
0.000000 0.981995 0.000000
0.000000 0.975250 0.000000
0.000000 0.967987 0.000000
0.000000 0.959961 0.000000
0.000000 0.951233 0.000000
0.000000 0.941711 0.000000
0.000000 0.931244 0.000000
0.000000 0.920013 0.000000
0.000000 0.907837 0.000000
0.000000 0.894684 0.000000
0.000000 0.880615 0.000000
0.000000 0.865662 0.000000
0.000000 0.849762 0.000000
0.000000 0.832794 0.000000
0.014679 0.814819 0.000000
0.139343 0.796082 0.000000
0.289551 0.776520 0.000000
0.385071 0.756195 0.000000
0.462402 0.735321 0.000000
0.529694 0.714081 0.000000
0.590149 0.692474 0.000000
0.645081 0.670776 0.000000
0.695496 0.649384 0.000000
0.741943 0.628357 0.000000
0.784729 0.608887 0.000000
0.819885 0.616089 0.000000
0.851990 0.624603 0.000000
0.881500 0.633881 0.000000
0.908508 0.643494 0.000000
0.933197 0.653503 0.000000
0.955841 0.664001 0.000000
0.976624 0.674652 0.000000
0.995605 0.685669 0.000000
0.000000 0.993896 0.000000
0.000000 0.989014 0.000000
0.000000 0.982849 0.000000
0.000000 0.976196 0.000000
0.000000 0.968872 0.000000
0.000000 0.960938 0.000000
0.000000 0.952209 0.000000
0.000000 0.942749 0.000000
0.000000 0.932434 0.000000
0.000000 0.921295 0.000000
0.000000 0.909393 0.000000
0.000000 0.896576 0.000000
0.000000 0.882935 0.000000
0.000000 0.868317 0.000000
0.006561 0.852753 0.000000
0.118866 0.836395 0.000000
0.271790 0.819275 0.000000
0.369202 0.801270 0.000000
0.447418 0.782623 0.000000
0.515076 0.763397 0.000000
0.575592 0.743805 0.000000
0.630585 0.724030 0.000000
0.681152 0.704041 0.000000
0.727905 0.684265 0.000000
0.771149 0.664948 0.000000
0.811157 0.647034 0.000000
0.843597 0.653992 0.000000
0.873322 0.662048 0.000000
0.900543 0.670746 0.000000
0.925507 0.679626 0.000000
0.948364 0.689056 0.000000
0.969360 0.698517 0.000000
0.988586 0.708313 0.000000
0.000000 0.999969 0.000000
0.000000 0.998840 0.000000
0.000000 0.994507 0.000000
0.000000 0.989716 0.000000
0.000000 0.983521 0.000000
0.000000 0.976837 0.000000
0.000000 0.969452 0.000000
0.000000 0.961487 0.000000
0.000000 0.952850 0.000000
0.000000 0.943390 0.000000
0.000000 0.933258 0.000000
0.000000 0.922333 0.000000
0.000000 0.910583 0.000000
0.000000 0.898071 0.000000
0.012817 0.884674 0.000000
0.121063 0.870483 0.000000
0.267670 0.855499 0.000000
0.362305 0.839783 0.000000
0.438477 0.823334 0.000000
0.504669 0.806366 0.000000
0.563904 0.788879 0.000000
0.617981 0.770996 0.000000
0.668060 0.752960 0.000000
0.714447 0.734741 0.000000
0.757660 0.716583 0.000000
