滤镜资源/Professional Luts Collection/Lutify.me Professional/Vintage Films/Tanzanite.cube
# Created by: Lutify.me
# Copyright: (c) Copyright Lutify.me 2015
# Website: https://lutify.me
#LUT size
LUT_3D_SIZE 5
#LUT data points
0.000000 0.000000 0.000000
0.134338 0.002045 0.000000
0.477081 0.000000 0.000000
0.873352 0.000000 0.000000
1.000000 0.168579 0.000000
0.000000 0.222443 0.000000
0.124237 0.090118 0.000000
0.469086 0.052002 0.000000
0.860565 0.000000 0.000000
1.000000 0.283020 0.000000
0.000000 0.726044 0.000000
0.000000 0.494385 0.000000
0.456421 0.294098 0.000000
0.838531 0.333771 0.000000
1.000000 0.479095 0.000000
0.000000 0.981995 0.000000
0.000000 0.907837 0.000000
0.289551 0.776520 0.000000
0.784729 0.608887 0.000000
0.995605 0.685669 0.000000
0.427002 1.000000 0.372070
0.262787 1.000000 0.117188
0.436066 0.979340 0.000000
0.721008 0.913818 0.000000
0.945343 0.836365 0.000000
0.000000 0.001434 0.210785
0.095276 0.003113 0.064056
0.403564 0.000000 0.060913
0.813263 0.000000 0.023743
1.000000 0.047729 0.000000
0.000000 0.107697 0.152008
0.050232 0.241730 0.227966
0.501007 0.257721 0.227112
0.865570 0.301971 0.222687
1.000000 0.465851 0.212128
0.000000 0.539917 0.091553
0.000000 0.733093 0.181427
0.440979 0.527863 0.211212
0.814087 0.576996 0.199707
0.999969 0.667267 0.195496
0.000000 0.929230 0.069183
0.000000 0.977844 0.331177
0.309326 0.903198 0.234467
0.743408 0.792389 0.187225
0.952972 0.821381 0.225159
0.033569 1.000000 0.432983
0.469574 1.000000 0.589966
0.534637 1.000000 0.488739
0.728516 0.968628 0.392487
0.916382 0.915527 0.323853
0.000000 0.000000 0.762238
0.000000 0.000000 0.493988
0.333252 0.000000 0.237549
0.747284 0.000000 0.244354
1.000000 0.000000 0.250275
0.000000 0.111359 0.685242
0.000000 0.246155 0.771149
0.391479 0.256958 0.520630
0.794830 0.289276 0.527069
1.000000 0.436127 0.538147
0.000000 0.359558 0.605225
0.000000 0.560638 0.702576
0.232849 0.748383 0.772919
0.712616 0.769867 0.773895
0.915619 0.807495 0.778412
0.000000 0.839447 0.627594
0.000000 0.925690 0.722382
0.310638 0.966736 0.797577
0.664642 0.899902 0.785248
0.874939 0.905579 0.792236
0.000000 1.000000 0.705505
0.144287 1.000000 0.788116
0.590454 1.000000 0.848175
0.710236 0.996429 0.828369
0.854858 0.962646 0.813019
0.000000 0.000000 0.996521
0.000000 0.000000 0.927185
0.102722 0.000000 0.783752
0.658997 0.000000 0.535492
0.970917 0.000000 0.549652
0.000000 0.110809 0.978333
0.000000 0.255188 0.994812
0.293457 0.259460 0.927338
0.698914 0.280609 0.793030
0.950836 0.410736 0.793457
0.000000 0.373993 0.951202
0.000000 0.572784 0.967010
0.304169 0.754181 0.971771
0.639343 0.768555 0.907806
0.865906 0.803284 0.904785
0.000000 0.703766 0.909271
0.000000 0.841675 0.928070
0.241089 0.918304 0.943207
0.673370 0.957214 0.956177
0.841309 0.956146 0.956085
0.000000 0.967560 0.899109
0.000000 0.997009 0.924011
0.512268 1.000000 0.944336
0.754578 1.000000 0.960571
0.837646 0.988312 0.957947
0.000000 0.000000 1.000000
0.000000 0.000000 1.000000
0.218231 0.000000 0.999481
0.623169 0.000000 0.935944
0.896851 0.000000 0.807465
0.000000 0.089142 1.000000
0.318420 0.268433 1.000000
0.477173 0.272308 1.000000
0.708588 0.302582 0.995941
0.898376 0.392090 0.929474
0.000000 0.395020 1.000000
0.016052 0.592743 1.000000
0.504486 0.764557 1.000000
0.677704 0.777588 1.000000
0.830597 0.799774 0.968933
0.000000 0.714508 1.000000
0.000000 0.842743 1.000000
0.445343 0.916595 1.000000
0.718536 0.956543 1.000000
0.822571 0.956116 0.987061
0.000000 0.909241 0.986267
0.000000 0.959869 0.989532
0.504639 0.985840 0.992493
0.746246 0.995605 0.995819
0.852936 1.000000 0.999969
