滤镜资源/Professional Luts Collection/Lutify.me Professional/Vintage Films/Tanzanite.cube
# Created by: Lutify.me
# Copyright: (c) Copyright Lutify.me 2015
# Website: https://lutify.me
#LUT size
LUT_3D_SIZE 9
#LUT data points
0.000000 0.000000 0.000000
0.042603 0.001953 0.000000
0.134338 0.002045 0.000000
0.279877 0.000000 0.000000
0.477081 0.000000 0.000000
0.690643 0.000000 0.000000
0.873352 0.000000 0.000000
0.999146 0.000000 0.000000
1.000000 0.168579 0.000000
0.000000 0.070557 0.000000
0.035065 0.029449 0.000000
0.130646 0.033295 0.000000
0.276581 0.013702 0.000000
0.472137 0.000000 0.000000
0.684540 0.000000 0.000000
0.867188 0.000000 0.000000
0.995270 0.000000 0.000000
1.000000 0.213043 0.000000
0.000000 0.222443 0.000000
0.000153 0.145782 0.000000
0.124237 0.090118 0.000000
0.274384 0.088654 0.000000
0.469086 0.052002 0.000000
0.679413 0.000000 0.000000
0.860565 0.000000 0.000000
0.988495 0.121094 0.000000
1.000000 0.283020 0.000000
0.000000 0.460083 0.000000
0.000000 0.346283 0.000000
0.032959 0.252472 0.000000
0.268494 0.176300 0.000000
0.465820 0.174805 0.000000
0.673889 0.166565 0.000000
0.851929 0.187012 0.000000
0.978973 0.265503 0.000000
1.000000 0.374634 0.000000
0.000000 0.726044 0.000000
0.000000 0.612000 0.000000
0.000000 0.494385 0.000000
0.214050 0.388519 0.000000
0.456421 0.294098 0.000000
0.664185 0.304504 0.000000
0.838531 0.333771 0.000000
0.962799 0.394623 0.000000
1.000000 0.479095 0.000000
0.000000 0.898773 0.000000
0.000000 0.834473 0.000000
0.000000 0.750244 0.000000
0.000000 0.650024 0.000000
0.407715 0.543518 0.000000
0.644897 0.443268 0.000000
0.816833 0.472748 0.000000
0.938843 0.523346 0.000000
1.000000 0.586792 0.000000
0.000000 0.981995 0.000000
0.000000 0.951233 0.000000
0.000000 0.907837 0.000000
0.000000 0.849762 0.000000
0.289551 0.776520 0.000000
0.590149 0.692474 0.000000
0.784729 0.608887 0.000000
0.908508 0.643494 0.000000
0.995605 0.685669 0.000000
0.009125 1.000000 0.039673
0.000000 1.000000 0.000000
0.000000 0.983612 0.000000
0.000000 0.952789 0.000000
0.301971 0.911835 0.000000
0.553070 0.860687 0.000000
0.735138 0.802704 0.000000
0.877197 0.744934 0.000000
0.968445 0.769714 0.000000
0.427002 1.000000 0.372070
0.326599 1.000000 0.267334
0.262787 1.000000 0.117188
0.308990 0.999878 0.000000
0.436066 0.979340 0.000000
0.581970 0.949432 0.000000
0.721008 0.913818 0.000000
0.843353 0.874695 0.000000
0.945343 0.836365 0.000000
0.000000 0.000427 0.058746
0.029022 0.001526 0.019531
0.114746 0.002716 0.019287
0.249786 0.000000 0.016998
0.439026 0.000000 0.008728
0.652863 0.000000 0.000000
0.843842 0.000000 0.000000
0.981720 0.000000 0.000000
1.000000 0.118744 0.000000
0.000000 0.034943 0.042694
0.022156 0.075745 0.059692
0.138000 0.080750 0.058594
0.292786 0.074646 0.055511
0.490051 0.020203 0.045105
0.698608 0.000000 0.019836
0.874664 0.000000 0.000000
0.997314 0.110504 0.000000
1.000000 0.284241 0.000000
0.000000 0.158569 0.031097
0.000000 0.228241 0.035187
0.121033 0.155914 0.051666
0.288574 0.162018 0.044678
0.487030 0.156891 0.026978
0.693115 0.142792 0.001801
0.866241 0.166718 0.000000
0.987915 0.255493 0.000000
1.000000 0.370789 0.000000
0.000000 0.367767 0.000000
0.000000 0.465088 0.000000
0.000488 0.357269 0.000092
0.272003 0.266937 0.009674
0.479065 0.275452 0.000519
0.683868 0.286133 0.000000
0.853271 0.317444 0.000000
0.973419 0.382629 0.000000
1.000000 0.471558 0.000000
0.000000 0.637360 0.000000
0.000000 0.728485 0.000000
0.000000 0.620270 0.000000
0.123016 0.508514 0.000000
0.457855 0.406433 0.000000
0.666046 0.423431 0.000000
0.832458 0.456207 0.000000
0.950256 0.509979 0.000000
1.000000 0.577179 0.000000
0.000000 0.850555 0.000000
0.000000 0.898651 0.000000
0.000000 0.836182 0.000000
0.000000 0.755920 0.000000
0.371704 0.662354 0.000000
0.634186 0.565155 0.000000
0.801514 0.591858 0.000000
0.920380 0.630463 0.000000
0.999451 0.675781 0.000000
0.000000 0.959442 0.000000
0.000000 0.980927 0.000000
0.000000 0.949463 0.000000
0.000000 0.906189 0.000000
0.288361 0.849976 0.000000
0.575317 0.782379 0.000000
0.765778 0.710663 0.000000
0.888824 0.733063 0.000000
0.976532 0.760712 0.000000
0.000000 1.000000 0.074188
0.020477 1.000000 0.245728
0.005829 0.999878 0.110077
0.082581 0.979614 0.000641
0.368835 0.948212 0.000000
0.565460 0.908630 0.000000
0.727936 0.862427 0.000000
0.861206 0.814209 0.000000
0.952484 0.828674 0.000000
0.315674 1.000000 0.362457
0.441193 1.000000 0.449158
0.397858 1.000000 0.367737
0.416107 1.000000 0.278320
0.497437 0.997070 0.171265
0.610687 0.973785 0.020752
0.729156 0.945221 0.000000
0.838715 0.913513 0.000000
0.933624 0.881073 0.000000
0.000000 0.001434 0.210785
0.007660 0.002075 0.123169
0.095276 0.003113 0.064056
0.222321 0.000000 0.063660
0.403564 0.000000 0.060913
0.615631 0.000000 0.050201
0.813263 0.000000 0.023743
0.960846 0.000000 0.000000
1.000000 0.047729 0.000000
0.000000 0.036835 0.179077
0.000000 0.076996 0.217285
0.110535 0.080597 0.128632
0.262665 0.077332 0.128998
0.454742 0.034027 0.128326
0.663788 0.000000 0.124176
0.847015 0.000000 0.114471
0.979126 0.080536 0.096405
1.000000 0.257812 0.066895
0.000000 0.107697 0.152008
0.000000 0.165863 0.187531
0.050232 0.241730 0.227966
0.291321 0.250427 0.226990
0.501007 0.257721 0.227112
0.702698 0.267334 0.225708
0.865570 0.301971 0.222687
0.980438 0.372498 0.218109
1.000000 0.465851 0.212128
0.000000 0.284912 0.150146
0.000000 0.374756 0.182495
0.000000 0.475647 0.218445
0.250549 0.374481 0.225647
0.482147 0.387451 0.223877
0.685364 0.406372 0.220276
0.845032 0.441528 0.214996
0.957520 0.498840 0.208527
1.000000 0.569733 0.203308
0.000000 0.539917 0.091553
0.000000 0.641785 0.125183
0.000000 0.733093 0.181427
0.005859 0.632477 0.197632
0.440979 0.527863 0.211212
0.654510 0.546356 0.205994
0.814087 0.576996 0.199707
0.927521 0.618805 0.195129
0.999969 0.667267 0.195496
0.000000 0.788055 0.008301
0.000000 0.851013 0.103638
0.000000 0.897644 0.211121
0.000000 0.837708 0.181702
0.330444 0.762299 0.178009
0.611603 0.678589 0.187286
0.777466 0.696533 0.184784
0.894989 0.722260 0.187317
0.978699 0.752411 0.199341
0.000000 0.929230 0.069183
0.000000 0.958191 0.217499
0.000000 0.977844 0.331177
0.000061 0.945892 0.278992
0.309326 0.903198 0.234467
0.563019 0.850616 0.201813
0.743408 0.792389 0.187225
0.865234 0.804901 0.202179
0.952972 0.821381 0.225159
0.000000 0.995239 0.266479
0.000000 1.000000 0.372559
0.147675 1.000000 0.465759
0.253784 0.997742 0.409882
0.415588 0.974182 0.356537
0.574799 0.943268 0.309357
0.718719 0.906830 0.270905
0.842316 0.867462 0.243988
0.931976 0.874939 0.268921
0.033569 1.000000 0.432983
0.317810 1.000000 0.517609
0.469574 1.000000 0.589966
0.477173 1.000000 0.540558
0.534637 1.000000 0.488739
0.625854 0.991302 0.438416
0.728516 0.968628 0.392487
0.827789 0.942627 0.353668
0.916382 0.915527 0.323853
0.000000 0.000000 0.479309
0.000000 0.000916 0.339355
0.050018 0.001740 0.221527
0.195129 0.000000 0.132965
0.369873 0.000000 0.133789
0.579163 0.000000 0.134003
0.781464 0.000000 0.130798
0.937500 0.000000 0.123047
1.000000 0.000000 0.107727
0.000000 0.036774 0.431274
0.000000 0.077209 0.486145
0.005341 0.080505 0.348114
0.225403 0.078522 0.231323
0.417358 0.043488 0.232941
0.627106 0.000000 0.235718
0.816681 0.000000 0.237579
0.956665 0.041687 0.238403
1.000000 0.231567 0.237518
0.000000 0.109955 0.387939
0.000000 0.168701 0.443481
0.000000 0.243073 0.499908
0.230988 0.250397 0.364319
0.455414 0.257874 0.365356
0.663330 0.266144 0.368439
0.834229 0.295502 0.371643
0.955933 0.360626 0.375061
1.000000 0.450897 0.378876
0.000000 0.214600 0.349731
0.000000 0.294342 0.403534
0.000000 0.389130 0.459686
0.049835 0.493622 0.516052
0.439209 0.507355 0.515930
0.654633 0.528717 0.518433
0.809753 0.562134 0.521759
0.918945 0.607513 0.526642
0.992096 0.659088 0.533783
0.000000 0.445648 0.359192
0.000000 0.547028 0.411682
0.000000 0.650848 0.467072
0.000000 0.739471 0.525421
0.367157 0.648712 0.522339
0.609161 0.662415 0.524994
0.770721 0.684143 0.529236
0.884491 0.712494 0.535522
0.965240 0.745087 0.544464
0.000000 0.711639 0.359039
0.000000 0.790161 0.420776
0.000000 0.851898 0.488495
0.000000 0.895264 0.556549
0.250732 0.838593 0.542877
0.562500 0.771271 0.534180
0.733154 0.781067 0.539764
0.852234 0.796143 0.547821
0.937744 0.814514 0.558533
0.000000 0.889832 0.389496
0.000000 0.928131 0.467712
0.000000 0.955292 0.543579
0.000000 0.972748 0.611237
0.299561 0.940857 0.589294
0.532410 0.900391 0.570709
0.704315 0.854279 0.557587
0.826294 0.860016 0.566620
0.914795 0.868927 0.578217
0.000000 0.976593 0.468170
0.000000 0.993286 0.546631
0.000031 0.999969 0.615540
0.319672 1.000000 0.674164
0.431580 0.992493 0.649506
0.564270 0.968262 0.626343
0.693451 0.939270 0.606537
0.808502 0.907501 0.591187
0.897339 0.910461 0.602692
0.000000 1.000000 0.565460
0.022614 1.000000 0.631042
0.353333 1.000000 0.688019
0.518738 1.000000 0.736389
0.557434 1.000000 0.712128
0.627533 1.000000 0.687897
0.714172 0.985413 0.665558
0.803101 0.964630 0.646149
0.884827 0.942078 0.630402
0.000000 0.000000 0.762238
0.000000 0.000000 0.639648
0.000000 0.000000 0.493988
0.147339 0.000000 0.354584
0.333252 0.000000 0.237549
0.541107 0.000000 0.240234
0.747284 0.000000 0.244354
0.911438 0.000000 0.247864
1.000000 0.000000 0.250275
0.000000 0.030060 0.724609
0.000000 0.073090 0.765411
0.000000 0.075470 0.645966
0.109619 0.072327 0.503174
0.369965 0.049438 0.367004
0.584869 0.000427 0.369995
0.781189 0.000000 0.375519
0.929077 0.011688 0.381561
1.000000 0.205688 0.387512
0.000000 0.111359 0.685242
0.000000 0.171448 0.731262
0.000000 0.246155 0.771149
0.023315 0.251892 0.657684
0.391479 0.256958 0.520630
0.613678 0.264313 0.522430
0.794830 0.289276 0.527069
0.924469 0.349152 0.532318
1.000000 0.436127 0.538147
0.000000 0.218384 0.645203
0.000000 0.298340 0.695190
0.000000 0.392670 0.738922
0.000031 0.496429 0.774048
0.351685 0.507629 0.669250
0.597046 0.527496 0.668762
0.765533 0.558777 0.670532
0.883209 0.602081 0.672913
0.965240 0.652557 0.676392
0.000000 0.359558 0.605225
0.000000 0.455780 0.657257
0.000000 0.560638 0.702576
0.000000 0.664062 0.740906
0.232849 0.748383 0.772919
0.541260 0.756866 0.772888
0.712616 0.769867 0.773895
0.830841 0.787109 0.775665
0.915619 0.807495 0.778412
0.000000 0.623749 0.614441
0.000000 0.716095 0.662292
0.000000 0.793518 0.705566
0.000000 0.852112 0.744781
0.149506 0.892303 0.779755
0.504059 0.841461 0.776886
0.682312 0.845306 0.778595
0.804230 0.852997 0.781219
0.892426 0.863312 0.784729
0.000000 0.839447 0.627594
0.000000 0.889252 0.677399
0.000000 0.925690 0.722382
0.000000 0.950562 0.762726
0.310638 0.966736 0.797577
0.508118 0.936035 0.790680
0.664642 0.899902 0.785248
0.786346 0.901459 0.788300
0.874939 0.905579 0.792236
0.000000 0.951843 0.660156
0.000000 0.974091 0.708984
0.000000 0.989502 0.752289
0.113556 0.998627 0.790009
0.462952 1.000000 0.821655
0.564758 0.986176 0.812531
0.673828 0.963257 0.804260
0.777008 0.937408 0.797821
0.862610 0.937958 0.801880
0.000000 1.000000 0.705505
0.000000 1.000000 0.749573
0.144287 1.000000 0.788116
0.436005 1.000000 0.820953
0.590454 1.000000 0.848175
0.641815 1.000000 0.838104
0.710236 0.996429 0.828369
0.785522 0.980469 0.819885
0.854858 0.962646 0.813019
0.000000 0.000000 0.922455
0.000000 0.000000 0.860352
0.000000 0.000000 0.772369
0.000000 0.000000 0.654510
0.284790 0.000000 0.512329
0.496490 0.000000 0.375671
0.707825 0.000000 0.380280
0.880371 0.000000 0.387390
0.999084 0.000000 0.394928
0.000000 0.017273 0.903687
0.000000 0.065186 0.923157
0.000000 0.064789 0.862366
0.000000 0.057220 0.776550
0.292145 0.029022 0.662140
0.530762 0.000793 0.524902
0.737091 0.000000 0.528961
0.894226 0.005096 0.535797
0.999176 0.180450 0.543152
0.000000 0.111847 0.882874
0.000000 0.174591 0.905151
0.000000 0.250275 0.923248
0.000000 0.253845 0.864929
0.312073 0.257446 0.782410
0.551971 0.262817 0.674805
0.747284 0.284241 0.676147
0.886658 0.339294 0.679443
0.981903 0.422668 0.682709
0.000000 0.224060 0.859924
0.000000 0.304810 0.884338
0.000000 0.399139 0.903992
0.000000 0.502441 0.917755
0.295074 0.512360 0.862213
0.537415 0.525604 0.784851
0.720703 0.554779 0.783447
0.847260 0.596252 0.783356
0.935577 0.645538 0.783722
0.000000 0.365082 0.834015
0.000000 0.461273 0.859802
0.000000 0.565186 0.879852
0.000000 0.666840 0.894684
0.214020 0.750793 0.905304
0.487000 0.757416 0.854553
0.672638 0.769562 0.853149
0.798615 0.785980 0.852875
0.888794 0.805634 0.853088
0.000000 0.532135 0.804626
0.000000 0.632446 0.830994
0.000000 0.724182 0.852509
0.000000 0.798126 0.870361
0.128326 0.852814 0.885803
0.492279 0.891022 0.898651
0.661102 0.892273 0.898682
0.778625 0.895355 0.898773
0.863373 0.900696 0.899170
0.000000 0.776947 0.800293
0.000000 0.840271 0.826172
0.000000 0.888031 0.848785
0.000000 0.921906 0.868530
0.237061 0.945251 0.885864
0.526337 0.961273 0.900909
0.655945 0.933319 0.899811
0.769501 0.932495 0.900299
0.851013 0.934082 0.901123
0.000000 0.919983 0.805023
0.000000 0.949341 0.831787
0.000000 0.970001 0.855072
0.005280 0.984039 0.875153
0.407684 0.993073 0.892578
0.595490 0.997589 0.907684
0.680908 0.980591 0.904907
0.767731 0.960022 0.902740
0.843292 0.959351 0.903778
0.000000 0.988403 0.820404
0.000000 0.999756 0.845856
0.000000 1.000000 0.867828
0.351654 1.000000 0.886902
0.545685 1.000000 0.903503
0.674591 1.000000 0.917877
0.727325 1.000000 0.913910
0.786316 0.991119 0.910339
0.840149 0.977844 0.907562
0.000000 0.000000 0.996521
0.000000 0.000000 0.968567
0.000000 0.000000 0.927185
0.000000 0.000000 0.867767
0.102722 0.000000 0.783752
0.451508 0.000000 0.672089
0.658997 0.000000 0.535492
0.841492 0.000000 0.541534
0.970917 0.000000 0.549652
0.000000 0.000458 0.988831
0.000000 0.049255 0.996399
0.000000 0.047241 0.968750
0.000000 0.033295 0.927979
0.185822 0.004669 0.869812
0.484314 0.000000 0.788086
0.683563 0.000000 0.680908
0.852295 0.001221 0.684448
0.969391 0.155151 0.689056
0.000000 0.110809 0.978333
0.000000 0.177490 0.988403
0.000000 0.255188 0.994812
0.000000 0.256958 0.967224
0.293457 0.259460 0.927338
0.522705 0.265137 0.871002
0.698914 0.280609 0.793030
0.848297 0.330994 0.793030
0.950836 0.410736 0.793457
0.000000 0.230835 0.966095
0.000000 0.312836 0.976257
0.000000 0.407227 0.983673
0.006592 0.510437 0.987518
0.329712 0.519440 0.958954
0.527649 0.532074 0.919891
0.679962 0.551849 0.866211
0.814301 0.591431 0.863892
0.908325 0.639374 0.862152
0.000000 0.373993 0.951202
0.000000 0.469910 0.960785
0.000000 0.572784 0.967010
0.000000 0.672180 0.970337
0.304169 0.754181 0.971771
0.496490 0.760529 0.944244
0.639343 0.768555 0.907806
0.771362 0.784210 0.906006
0.865906 0.803284 0.904785
0.000000 0.538727 0.932190
0.000000 0.637848 0.941010
0.000000 0.727020 0.947235
0.000000 0.798950 0.952087
0.231415 0.852753 0.956421
0.514648 0.891693 0.960358
0.636597 0.892700 0.935486
0.757416 0.895447 0.934662
0.845917 0.900421 0.934235
0.000000 0.703766 0.909271
0.000000 0.780792 0.919403
0.000000 0.841675 0.928070
0.000000 0.886414 0.935883
0.241089 0.918304 0.943207
0.523651 0.941071 0.950134
0.673370 0.957214 0.956177
0.773193 0.955780 0.956146
0.841309 0.956146 0.956085
0.000000 0.879608 0.899841
0.000000 0.917999 0.911865
0.000000 0.945557 0.922699
0.000092 0.964752 0.932587
0.378937 0.978088 0.941528
0.579010 0.986969 0.949707
0.707733 0.992004 0.957092
0.776398 0.976532 0.956482
0.837372 0.975342 0.956665
0.000000 0.967560 0.899109
0.000000 0.984985 0.912231
0.000000 0.997009 0.924011
0.283081 1.000000 0.934692
0.512268 1.000000 0.944336
0.653412 1.000000 0.952972
0.754578 1.000000 0.960571
0.796997 0.998138 0.959106
0.837646 0.988312 0.957947
0.000000 0.000000 1.000000
0.000000 0.000000 1.000000
0.000000 0.000000 0.998596
0.000000 0.000000 0.971619
0.056366 0.000000 0.931885
0.412903 0.000000 0.875427
0.625580 0.000000 0.795929
0.794983 0.000000 0.691162
0.933868 0.000000 0.695923
0.000000 0.000000 1.000000
0.000000 0.019073 1.000000
0.000000 0.017639 1.000000
0.000000 0.003845 0.998260
0.243561 0.000336 0.971344
0.479614 0.000000 0.932129
0.661194 0.000000 0.876770
0.809937 0.000397 0.799713
0.935425 0.129517 0.801025
0.000000 0.104248 1.000000
0.000000 0.178558 1.000000
0.000610 0.260590 1.000000
0.137939 0.261658 1.000000
0.370819 0.263977 0.996185
0.542297 0.270966 0.968292
0.689453 0.288940 0.929504
0.813385 0.324554 0.875763
0.922363 0.400543 0.874115
0.000000 0.237213 1.000000
0.000000 0.321442 1.000000
0.000000 0.416870 1.000000
0.261749 0.520813 1.000000
0.418213 0.529114 1.000000
0.557922 0.541534 0.986450
0.681000 0.560822 0.957672
0.786713 0.587616 0.919647
0.885223 0.634094 0.916565
0.000000 0.384094 1.000000
0.000000 0.480042 1.000000
0.000000 0.581970 1.000000
0.046356 0.678802 1.000000
0.407898 0.758759 1.000000
0.536835 0.764862 0.991486
0.650330 0.772491 0.970795
0.748901 0.782898 0.943756
0.846649 0.801361 0.941742
0.000000 0.548126 0.994537
0.000000 0.645447 0.996033
0.000000 0.731659 0.996002
0.000061 0.801147 0.995209
0.354340 0.853760 0.994385
0.557343 0.892120 0.993805
0.653687 0.893372 0.979736
0.739990 0.895233 0.961029
0.830933 0.899872 0.960083
0.000000 0.708679 0.977234
0.000000 0.783112 0.979309
0.000000 0.841888 0.980865
0.000000 0.885559 0.982300
0.347565 0.917236 0.983795
0.559296 0.940125 0.985443
0.692200 0.957031 0.987030
0.760986 0.956024 0.974426
0.830933 0.956207 0.973999
0.000000 0.829956 0.959595
0.000000 0.878906 0.963898
0.000000 0.915192 0.967865
0.003632 0.941101 0.971619
0.386688 0.959503 0.975159
0.579681 0.972748 0.978424
0.706146 0.981842 0.981598
0.792297 0.987701 0.984589
0.840424 0.986328 0.984589
0.000000 0.941498 0.951263
0.000000 0.964142 0.957520
0.000000 0.980438 0.963226
0.255249 0.991516 0.968384
0.497681 0.998138 0.973083
0.642548 0.999969 0.977448
0.747009 1.000000 0.981476
0.811798 1.000000 0.985138
0.843048 0.995483 0.984802
0.000000 0.000000 1.000000
0.000000 0.000000 1.000000
0.000000 0.000000 1.000000
0.000000 0.000000 1.000000
0.218231 0.000000 0.999481
0.444794 0.000000 0.974121
0.623169 0.000000 0.935944
0.773285 0.000000 0.882355
0.896851 0.000000 0.807465
0.000000 0.000000 1.000000
0.114746 0.000122 1.000000
0.077209 0.001099 1.000000
0.210388 0.000092 1.000000
0.373108 0.000000 1.000000
0.529022 0.000000 0.999023
0.673615 0.000000 0.972839
0.798981 0.002716 0.934814
0.904480 0.109894 0.882233
0.000000 0.089142 1.000000
0.007629 0.178192 1.000000
0.318420 0.268433 1.000000
0.375885 0.269226 1.000000
0.477173 0.272308 1.000000
0.594391 0.281586 1.000000
0.708588 0.302582 0.995941
0.811127 0.339355 0.967407
0.898376 0.392090 0.929474
0.000000 0.242859 1.000000
0.000000 0.330902 1.000000
0.244812 0.428772 1.000000
0.433350 0.534149 1.000000
0.514069 0.541931 1.000000
0.608429 0.554047 1.000000
0.703156 0.572723 1.000000
0.790161 0.598236 0.983124
0.866089 0.629761 0.954803
0.000000 0.395020 1.000000
0.000000 0.491516 1.000000
0.016052 0.592743 1.000000
0.335815 0.686951 1.000000
0.504486 0.764557 1.000000
0.591095 0.770325 1.000000
0.677704 0.777588 1.000000
0.758484 0.787476 0.989014
0.830597 0.799774 0.968933
0.000000 0.558960 1.000000
0.000000 0.654053 1.000000
0.000000 0.737000 1.000000
0.216919 0.804077 1.000000
0.458893 0.855316 1.000000
0.608521 0.893005 1.000000
0.682953 0.894440 1.000000
0.753784 0.896393 0.992828
0.818573 0.899475 0.979095
0.000000 0.714508 1.000000
0.000000 0.786255 1.000000
0.000000 0.842743 1.000000
0.131134 0.885345 1.000000
0.445343 0.916595 1.000000
0.605255 0.939484 1.000000
0.718536 0.956543 1.000000
0.775208 0.955872 0.996460
0.822571 0.956116 0.987061
0.000000 0.831238 0.998505
0.000000 0.878296 0.998230
0.000000 0.913635 0.998077
0.161316 0.939331 0.998047
0.464508 0.957886 0.998260
0.618042 0.971466 0.998657
0.728485 0.980774 0.999420
0.802307 0.987274 1.000000
0.834808 0.986420 0.993622
0.000000 0.909241 0.986267
0.000000 0.938446 0.987915
0.000000 0.959869 0.989532
0.284332 0.975281 0.991028
0.504639 0.985840 0.992493
0.643921 0.992310 0.994049
0.746246 0.995605 0.995819
0.810730 0.998230 0.997803
0.852936 1.000000 0.999969
