滤镜资源/Professional Luts Collection/Lutify.me Professional/Vintage Films/Thulite.cube
# Created by: Lutify.me
# Copyright: (c) Copyright Lutify.me 2015
# Website: https://lutify.me
#LUT size
LUT_3D_SIZE 33
#LUT data points
0.000000 0.000000 0.000000
0.017517 0.002319 0.000397
0.036621 0.005371 0.000031
0.058594 0.008057 0.000000
0.082275 0.010559 0.000000
0.106049 0.013184 0.000000
0.130280 0.015594 0.000000
0.154816 0.017609 0.000000
0.179810 0.019470 0.000000
0.204895 0.021393 0.000000
0.230438 0.023041 0.000000
0.256317 0.024567 0.000000
0.282593 0.025757 0.000000
0.309113 0.026764 0.000000
0.335938 0.027649 0.000000
0.363129 0.028198 0.000000
0.390686 0.028381 0.000000
0.418518 0.028198 0.000000
0.446594 0.027557 0.000000
0.475067 0.026276 0.000000
0.503784 0.024597 0.000000
0.532806 0.022400 0.000000
0.562195 0.019379 0.000000
0.591736 0.016113 0.000000
0.621521 0.011963 0.000000
0.651642 0.006836 0.000000
0.681946 0.002319 0.000000
0.712524 0.000000 0.000000
0.743256 0.000000 0.000000
0.774109 0.000000 0.000000
0.805328 0.000000 0.000000
0.836609 0.000000 0.000000
0.868073 0.000000 0.000000
0.003082 0.014069 0.000397
0.018280 0.017914 0.000000
0.037048 0.020599 0.000000
0.059692 0.022980 0.000000
0.083435 0.025970 0.000000
0.107635 0.028717 0.000000
0.131744 0.031464 0.000000
0.156311 0.034637 0.000000
0.181091 0.037628 0.000000
0.206329 0.040924 0.000000
0.231873 0.043640 0.000000
0.257843 0.046143 0.000000
0.284119 0.048309 0.000000
0.310669 0.050232 0.000000
0.337585 0.052155 0.000000
0.364807 0.053894 0.000000
0.392303 0.055206 0.000000
0.420166 0.056244 0.000000
0.448395 0.057098 0.000000
0.476837 0.057404 0.000000
0.505585 0.057312 0.000000
0.534637 0.057037 0.000000
0.563934 0.056244 0.000000
0.593536 0.054993 0.000000
0.623383 0.052795 0.000000
0.653473 0.050598 0.000000
0.683777 0.047485 0.000000
0.714325 0.043457 0.000000
0.745117 0.039093 0.000000
0.776031 0.033813 0.000000
0.807190 0.028107 0.000000
0.838531 0.021332 0.000000
0.869965 0.013824 0.000000
0.005768 0.028351 0.000031
0.020630 0.032654 0.000000
0.038239 0.038177 0.000000
0.060883 0.041840 0.000336
0.084686 0.045441 0.000031
0.108734 0.048859 0.000000
0.133057 0.052612 0.000000
0.157593 0.055756 0.000000
0.182648 0.059143 0.000000
0.207855 0.062347 0.000000
0.233459 0.065521 0.000000
0.259338 0.068451 0.000000
0.285645 0.071350 0.000000
0.312225 0.073975 0.000000
0.339203 0.076447 0.000000
0.366486 0.078644 0.000000
0.394043 0.080688 0.000000
0.421936 0.082581 0.000000
0.450134 0.084259 0.000000
0.478607 0.085602 0.000000
0.507355 0.086670 0.000000
0.536469 0.087494 0.000000
0.565796 0.087952 0.000000
0.595398 0.088165 0.000000
0.625275 0.088013 0.000000
0.655396 0.087372 0.000000
0.685699 0.086884 0.000000
0.716278 0.085510 0.000000
0.747070 0.083588 0.000000
0.777985 0.082123 0.000000
0.809143 0.079468 0.000000
0.840454 0.076233 0.000000
0.871948 0.073120 0.000000
0.008087 0.046448 0.000000
0.023285 0.051941 0.000000
0.041870 0.056976 0.000000
0.062256 0.062500 0.000000
0.085693 0.066132 0.000031
0.110046 0.070038 0.000000
0.134247 0.073792 0.000000
0.159058 0.077209 0.000000
0.183960 0.080872 0.000000
0.209381 0.084320 0.000000
0.235046 0.087616 0.000000
0.260956 0.091003 0.000000
0.287323 0.094055 0.000000
0.313965 0.097076 0.000000
0.340942 0.099976 0.000000
0.368225 0.102692 0.000000
0.395813 0.105164 0.000000
0.423706 0.107483 0.000000
0.451904 0.109741 0.000000
0.480438 0.111786 0.000000
0.509247 0.113495 0.000000
0.538391 0.115051 0.000000
0.567719 0.116364 0.000000
0.597321 0.117432 0.000000
0.627228 0.118378 0.000000
0.657349 0.119049 0.000000
0.687653 0.119507 0.000000
0.718262 0.119659 0.000000
0.749023 0.119415 0.000000
0.779968 0.119202 0.000000
0.811127 0.118591 0.000000
0.842499 0.117737 0.000000
0.873932 0.116272 0.000000
0.010590 0.065796 0.000000
0.026062 0.071106 0.000000
0.045135 0.076447 0.000000
0.066101 0.081879 0.000000
0.086823 0.087585 0.000000
0.111145 0.091370 0.000000
0.135773 0.095184 0.000000
0.160370 0.098969 0.000000
0.185486 0.102692 0.000000
0.210907 0.106384 0.000000
0.236633 0.110016 0.000000
0.262665 0.113373 0.000000
0.288971 0.116760 0.000000
0.315674 0.119934 0.000000
0.342743 0.123199 0.000000
0.370087 0.126282 0.000000
0.397644 0.129150 0.000000
0.425598 0.131866 0.000000
0.453827 0.134460 0.000000
0.482391 0.136932 0.000000
0.511200 0.139252 0.000000
0.540314 0.141296 0.000000
0.569672 0.143219 0.000000
0.599304 0.145142 0.000000
0.629181 0.146667 0.000000
0.659363 0.148010 0.000000
0.689697 0.149323 0.000000
0.720337 0.150391 0.000000
0.751099 0.151154 0.000000
0.782104 0.151703 0.000000
0.813202 0.152313 0.000000
0.844574 0.152527 0.000000
0.876038 0.152496 0.000000
0.012878 0.085236 0.000000
0.028625 0.090790 0.000000
0.048553 0.096375 0.000000
0.069550 0.101776 0.000000
0.090942 0.107452 0.000000
0.112305 0.112976 0.000000
0.136871 0.117126 0.000000
0.161743 0.120850 0.000000
0.187012 0.124695 0.000000
0.212433 0.128540 0.000000
0.238220 0.132233 0.000000
0.264313 0.135895 0.000000
0.290710 0.139465 0.000000
0.317413 0.143005 0.000000
0.344543 0.146393 0.000000
0.371887 0.149689 0.000000
0.399506 0.152863 0.000000
0.427460 0.155945 0.000000
0.455811 0.158844 0.000000
0.484375 0.161682 0.000000
0.513184 0.164459 0.000000
0.542297 0.166992 0.000000
0.571716 0.169342 0.000000
0.601379 0.171600 0.000000
0.631287 0.173676 0.000000
0.661469 0.175568 0.000000
0.691803 0.177399 0.000000
0.722443 0.179016 0.000000
0.753204 0.180542 0.000000
0.784180 0.182007 0.000000
0.815399 0.183167 0.000000
0.846649 0.184204 0.000000
0.878174 0.185150 0.000000
0.014618 0.105255 0.000000
0.031128 0.110901 0.000000
0.051941 0.116547 0.000000
0.073029 0.122101 0.000000
0.094421 0.127716 0.000000
0.116211 0.133545 0.000000
0.138184 0.139099 0.000000
0.162872 0.143250 0.000000
0.188354 0.147156 0.000000
0.213989 0.150970 0.000000
0.239807 0.154846 0.000000
0.265961 0.158661 0.000000
0.292419 0.162476 0.000000
0.319214 0.166138 0.000000
0.346344 0.169769 0.000000
0.373779 0.173279 0.000000
0.401459 0.176666 0.000000
0.429443 0.179993 0.000000
0.457764 0.183228 0.000000
0.486389 0.186340 0.000000
0.515228 0.189392 0.000000
0.544373 0.192291 0.000000
0.573853 0.195007 0.000000
0.603516 0.197601 0.000000
0.633423 0.200195 0.000000
0.663605 0.202606 0.000000
0.694000 0.204803 0.000000
0.724640 0.206970 0.000000
0.755402 0.208984 0.000000
0.786377 0.210876 0.000000
0.817505 0.212646 0.000000
0.848877 0.214386 0.000000
0.880371 0.215881 0.000000
0.015991 0.125397 0.000000
0.033112 0.131165 0.000000
0.054749 0.136749 0.000000
0.076477 0.142578 0.000000
0.098145 0.148254 0.000000
0.120026 0.154083 0.000000
0.141937 0.159912 0.000000
0.164215 0.165680 0.000000
0.189575 0.169678 0.000000
0.215332 0.173767 0.000000
0.241302 0.177734 0.000000
0.267639 0.181610 0.000000
0.294128 0.185516 0.000000
0.320984 0.189423 0.000000
0.348145 0.193146 0.000000
0.375610 0.196838 0.000000
0.403381 0.200500 0.000000
0.431427 0.204041 0.000000
0.459778 0.207489 0.000000
0.488373 0.210907 0.000000
0.517334 0.214172 0.000000
0.546478 0.217346 0.000000
0.575928 0.220428 0.000000
0.605652 0.223419 0.000000
0.635590 0.226257 0.000000
0.665802 0.229034 0.000000
0.696167 0.231689 0.000000
0.726807 0.234192 0.000000
0.757629 0.236542 0.000000
0.788635 0.238831 0.000000
0.819794 0.241028 0.000000
0.851105 0.243164 0.000000
0.882568 0.245209 0.000000
0.017426 0.145844 0.000000
0.035583 0.151672 0.000000
0.057343 0.157318 0.000000
0.079590 0.163208 0.000000
0.101410 0.169006 0.000000
0.123810 0.174896 0.000000
0.145721 0.180847 0.000000
0.168213 0.186676 0.000000
0.190796 0.192535 0.000000
0.216614 0.196686 0.000000
0.242676 0.200867 0.000000
0.269073 0.204895 0.000000
0.295776 0.208893 0.000000
0.322662 0.212891 0.000000
0.349945 0.216797 0.000000
0.377472 0.220673 0.000000
0.405304 0.224457 0.000000
0.433411 0.228180 0.000000
0.461792 0.231842 0.000000
0.490448 0.235474 0.000000
0.519409 0.238953 0.000000
0.548645 0.242371 0.000000
0.578125 0.245697 0.000000
0.607849 0.248932 0.000000
0.637848 0.252106 0.000000
0.668030 0.255127 0.000000
0.698425 0.258057 0.000000
0.729065 0.260956 0.000000
0.759857 0.263672 0.000000
0.790863 0.266357 0.000000
0.822083 0.268890 0.000000
0.853394 0.271423 0.000000
0.884827 0.273834 0.000000
0.017517 0.166565 0.000000
0.037323 0.172455 0.000000
0.060333 0.178162 0.000000
0.082428 0.184082 0.000000
0.104858 0.190094 0.000000
0.127136 0.195984 0.000000
0.149628 0.201996 0.000000
0.172058 0.208038 0.000000
0.194763 0.214020 0.000000
0.217804 0.219940 0.000000
0.244019 0.224243 0.000000
0.270538 0.228363 0.000000
0.297241 0.232483 0.000000
0.324341 0.236572 0.000000
0.351654 0.240631 0.000000
0.379303 0.244659 0.000000
0.407196 0.248596 0.000000
0.435364 0.252533 0.000000
0.463806 0.256378 0.000000
0.492523 0.260132 0.000000
0.521515 0.263794 0.000000
0.550781 0.267426 0.000000
0.580292 0.270996 0.000000
0.610077 0.274475 0.000000
0.640076 0.277802 0.000000
0.670258 0.281128 0.000000
0.700684 0.284332 0.000000
0.731354 0.287506 0.000000
0.762146 0.290527 0.000000
0.793182 0.293549 0.000000
0.824341 0.296417 0.000000
0.855682 0.299316 0.000000
0.887146 0.302063 0.000000
0.017578 0.187531 0.000000
0.038635 0.193451 0.000000
0.062164 0.199432 0.000000
0.085236 0.205322 0.000000
0.107880 0.211334 0.000000
0.130432 0.217407 0.000000
0.153076 0.223511 0.000000
0.175812 0.229523 0.000000
0.198669 0.235718 0.000000
0.221863 0.241791 0.000000
0.245300 0.247864 0.000000
0.271820 0.252167 0.000000
0.298737 0.256348 0.000000
0.325867 0.260620 0.000000
0.353394 0.264771 0.000000
0.381073 0.268890 0.000000
0.409027 0.273010 0.000000
0.437286 0.277039 0.000000
0.465790 0.281036 0.000000
0.494568 0.284943 0.000000
0.523590 0.288818 0.000000
0.552887 0.292633 0.000000
0.582428 0.296356 0.000000
0.612274 0.300049 0.000000
0.642303 0.303619 0.000000
0.672516 0.307129 0.000000
0.702972 0.310577 0.000000
0.733643 0.313995 0.000000
0.764465 0.317291 0.000000
0.795502 0.320587 0.000000
0.826660 0.323761 0.000000
0.858002 0.326874 0.000000
0.889435 0.329895 0.000000
0.017303 0.208832 0.000000
0.039490 0.214752 0.000000
0.063721 0.220734 0.000000
0.087280 0.226807 0.000000
0.110413 0.232910 0.000000
0.133575 0.239044 0.000000
0.156433 0.245178 0.000000
0.179504 0.251404 0.000000
0.202545 0.257568 0.000000
0.225861 0.263763 0.000000
0.249329 0.269989 0.000000
0.273102 0.276123 0.000000
0.300049 0.280518 0.000000
0.327362 0.284790 0.000000
0.354980 0.289093 0.000000
0.382812 0.293335 0.000000
0.410797 0.297546 0.000000
0.439148 0.301727 0.000000
0.467743 0.305817 0.000000
0.496552 0.309875 0.000000
0.525665 0.313934 0.000000
0.555023 0.317902 0.000000
0.584625 0.321777 0.000000
0.614471 0.325653 0.000000
0.644501 0.329468 0.000000
0.674774 0.333191 0.000000
0.705231 0.336853 0.000000
0.735931 0.340424 0.000000
0.766785 0.343933 0.000000
0.797791 0.347443 0.000000
0.829010 0.350861 0.000000
0.860352 0.354218 0.000000
0.891785 0.357544 0.000000
0.016418 0.230347 0.000000
0.039795 0.236359 0.000000
0.065186 0.242432 0.000000
0.089203 0.248535 0.000000
0.113007 0.254730 0.000000
0.136383 0.260956 0.000000
0.159760 0.267181 0.000000
0.182983 0.273438 0.000000
0.206299 0.279724 0.000000
0.229797 0.286011 0.000000
0.253387 0.292328 0.000000
0.277222 0.298615 0.000000
0.301361 0.304840 0.000000
0.328735 0.309326 0.000000
0.356415 0.313690 0.000000
0.384369 0.318024 0.000000
0.412506 0.322357 0.000000
0.440918 0.326630 0.000000
0.469604 0.330902 0.000000
0.498535 0.335052 0.000000
0.527679 0.339233 0.000000
0.557129 0.343323 0.000000
0.586761 0.347382 0.000000
0.616669 0.351379 0.000000
0.646729 0.355347 0.000000
0.677002 0.359253 0.000000
0.707489 0.363098 0.000000
0.738220 0.366913 0.000000
0.769073 0.370636 0.000000
0.800140 0.374298 0.000000
0.831329 0.377960 0.000000
0.862671 0.381531 0.000000
0.894135 0.385071 0.000000
0.014191 0.252014 0.000000
0.039185 0.258240 0.000000
0.066040 0.264465 0.000000
0.090759 0.270630 0.000000
0.115082 0.276825 0.000000
0.138977 0.283081 0.000000
0.162689 0.289429 0.000000
0.186310 0.295746 0.000000
0.209869 0.302124 0.000000
0.233582 0.308472 0.000000
0.257477 0.314880 0.000000
0.281372 0.321259 0.000000
0.305573 0.327698 0.000000
0.330017 0.334015 0.000000
0.357788 0.338562 0.000000
0.385803 0.342987 0.000000
0.414062 0.347412 0.000000
0.442627 0.351776 0.000000
0.471436 0.356140 0.000000
0.500427 0.360474 0.000000
0.529633 0.364716 0.000000
0.559143 0.368958 0.000000
0.588867 0.373138 0.000000
0.618774 0.377289 0.000000
0.648926 0.381409 0.000000
0.679260 0.385437 0.000000
0.709747 0.389435 0.000000
0.740509 0.393402 0.000000
0.771393 0.397339 0.000000
0.802460 0.401154 0.000000
0.833649 0.405029 0.000000
0.865021 0.408752 0.000000
0.896454 0.412476 0.000000
0.011383 0.274109 0.000000
0.037903 0.280426 0.000000
0.066223 0.286682 0.000000
0.091949 0.292938 0.000000
0.116821 0.299225 0.000000
0.141205 0.305573 0.000000
0.165344 0.311981 0.000000
0.189331 0.318390 0.000000
0.213257 0.324829 0.000000
0.237183 0.331268 0.000000
0.261292 0.337708 0.000000
0.285492 0.344208 0.000000
0.309753 0.350677 0.000000
0.334290 0.357208 0.000000
0.359100 0.363586 0.000000
0.387177 0.368225 0.000000
0.415619 0.372711 0.000000
0.444244 0.377197 0.000000
0.473145 0.381653 0.000000
0.502258 0.386078 0.000000
0.531555 0.390442 0.000000
0.561127 0.394806 0.000000
0.590912 0.399109 0.000000
0.620911 0.403412 0.000000
0.651093 0.407623 0.000000
0.681458 0.411835 0.000000
0.712006 0.415955 0.000000
0.742767 0.420074 0.000000
0.773712 0.424133 0.000000
0.804779 0.428131 0.000000
0.835968 0.432129 0.000000
0.867401 0.436035 0.000000
0.898804 0.439941 0.000000
0.008026 0.296539 0.000000
0.035858 0.302887 0.000000
0.065674 0.309113 0.000000
0.092682 0.315491 0.000000
0.118408 0.321869 0.000000
0.143250 0.328308 0.000000
0.167877 0.334778 0.000000
0.192108 0.341248 0.000000
0.216370 0.347748 0.000000
0.240692 0.354248 0.000000
0.264984 0.360840 0.000000
0.289368 0.367371 0.000000
0.313873 0.373932 0.000000
0.338562 0.380524 0.000000
0.363434 0.387115 0.000000
0.388580 0.393585 0.000000
0.416992 0.398254 0.000000
0.445770 0.402832 0.000000
0.474762 0.407379 0.000000
0.503998 0.411896 0.000000
0.533386 0.416382 0.000000
0.563019 0.420837 0.000000
0.592896 0.425262 0.000000
0.622955 0.429657 0.000000
0.653198 0.433990 0.000000
0.683624 0.438293 0.000000
0.714203 0.442566 0.000000
0.744995 0.446808 0.000000
0.775940 0.451019 0.000000
0.807068 0.455200 0.000000
0.838257 0.459290 0.000000
0.869690 0.463379 0.000000
0.901154 0.467438 0.000000
0.003571 0.319153 0.000000
0.032745 0.325562 0.000000
0.064667 0.331848 0.000000
0.092957 0.338287 0.000000
0.119476 0.344727 0.000000
0.145020 0.351257 0.000000
0.170044 0.357788 0.000000
0.194855 0.364349 0.000000
0.219330 0.370880 0.000000
0.243927 0.377472 0.000000
0.268555 0.384125 0.000000
0.293182 0.390717 0.000000
0.317902 0.397369 0.000000
0.342682 0.404022 0.000000
0.367737 0.410706 0.000000
0.392914 0.417389 0.000000
0.418365 0.423950 0.000000
0.447144 0.428680 0.000000
0.476257 0.433319 0.000000
0.505615 0.437897 0.000000
0.535126 0.442474 0.000000
0.564850 0.447052 0.000000
0.594757 0.451538 0.000000
0.624939 0.456055 0.000000
0.655243 0.460480 0.000000
0.685699 0.464935 0.000000
0.716339 0.469299 0.000000
0.747223 0.473663 0.000000
0.778168 0.477997 0.000000
0.809296 0.482300 0.000000
0.840546 0.486542 0.000000
0.871948 0.490753 0.000000
0.903412 0.494934 0.000000
0.000519 0.341980 0.000000
0.028534 0.348480 0.000000
0.062897 0.354828 0.000000
0.092621 0.361328 0.000000
0.120056 0.367859 0.000000
0.146423 0.374420 0.000000
0.171936 0.381042 0.000000
0.197205 0.387634 0.000000
0.222168 0.394287 0.000000
0.247040 0.400940 0.000000
0.271881 0.407654 0.000000
0.296783 0.414337 0.000000
0.321777 0.421051 0.000000
0.346802 0.427765 0.000000
0.371979 0.434509 0.000000
0.397308 0.441284 0.000000
0.422760 0.448029 0.000000
0.448547 0.454651 0.000000
0.477661 0.459473 0.000000
0.507111 0.464142 0.000000
0.536743 0.468811 0.000000
0.566589 0.473419 0.000000
0.596588 0.478058 0.000000
0.626831 0.482605 0.000000
0.657196 0.487183 0.000000
0.687775 0.491699 0.000000
0.718445 0.496185 0.000000
0.749329 0.500641 0.000000
0.780365 0.505066 0.000000
0.811523 0.509491 0.000000
0.842743 0.513855 0.000000
0.874176 0.518188 0.000000
0.905640 0.522491 0.000000
0.000000 0.365051 0.000000
0.023254 0.371613 0.000000
0.060242 0.378143 0.000000
0.091705 0.384674 0.000000
0.120148 0.391235 0.000000
0.147369 0.397858 0.000000
0.173553 0.404541 0.000000
0.199310 0.411224 0.000000
0.224640 0.417908 0.000000
0.249969 0.424652 0.000000
0.275116 0.431427 0.000000
0.300262 0.438202 0.000000
0.325470 0.444977 0.000000
0.350739 0.451752 0.000000
0.376129 0.458557 0.000000
0.401611 0.465393 0.000000
0.427216 0.472229 0.000000
0.453003 0.479034 0.000000
0.479095 0.485748 0.000000
0.508484 0.490631 0.000000
0.538269 0.495331 0.000000
0.568268 0.500031 0.000000
0.598358 0.504730 0.000000
0.628662 0.509399 0.000000
0.659088 0.514038 0.000000
0.689728 0.518646 0.000000
0.720490 0.523224 0.000000
0.751404 0.527802 0.000000
0.782440 0.532349 0.000000
0.813660 0.536835 0.000000
0.844940 0.541321 0.000000
0.876404 0.545746 0.000000
0.907867 0.550171 0.000000
0.000000 0.388428 0.000000
0.016907 0.395020 0.000000
0.056488 0.401642 0.000000
0.090179 0.408203 0.000000
0.120026 0.414856 0.000000
0.147949 0.421539 0.000000
0.174927 0.428284 0.000000
0.201141 0.435059 0.000000
0.226990 0.441803 0.000000
0.252563 0.448578 0.000000
0.278168 0.455414 0.000000
0.303558 0.462250 0.000000
0.329041 0.469086 0.000000
0.354553 0.475952 0.000000
0.380157 0.482819 0.000000
0.405853 0.489716 0.000000
0.431610 0.496613 0.000000
0.457520 0.503479 0.000000
0.483612 0.510376 0.000000
0.509918 0.517181 0.000000
0.539703 0.522064 0.000000
0.569763 0.526855 0.000000
0.600006 0.531586 0.000000
0.630402 0.536346 0.000000
0.660919 0.541046 0.000000
0.691620 0.545746 0.000000
0.722473 0.550415 0.000000
0.753418 0.555084 0.000000
0.784515 0.559723 0.000000
0.815765 0.564301 0.000000
0.847076 0.568848 0.000000
0.878571 0.573395 0.000000
0.910034 0.577942 0.000000
0.000000 0.412018 0.000000
0.009216 0.418701 0.000000
0.051483 0.425354 0.000000
0.087860 0.431976 0.000000
0.119232 0.438690 0.000000
0.148285 0.445435 0.000000
0.176025 0.452240 0.000000
0.202728 0.459045 0.000000
0.229065 0.465881 0.000000
0.255127 0.472717 0.000000
0.280945 0.479614 0.000000
0.306732 0.486511 0.000000
0.332458 0.493378 0.000000
0.358215 0.500305 0.000000
0.384094 0.507263 0.000000
0.409973 0.514191 0.000000
0.435974 0.521149 0.000000
0.462006 0.528107 0.000000
0.488190 0.535095 0.000000
0.514496 0.542023 0.000000
0.541107 0.548920 0.000000
0.571198 0.553833 0.000000
0.601532 0.558655 0.000000
0.631989 0.563446 0.000000
0.662689 0.568268 0.000000
0.693420 0.573029 0.000000
0.724365 0.577789 0.000000
0.755371 0.582489 0.000000
0.786560 0.587189 0.000000
0.817810 0.591858 0.000000
0.849182 0.596497 0.000000
0.880676 0.601166 0.000000
0.912231 0.605774 0.000000
0.000000 0.435822 0.000000
0.002380 0.442596 0.000000
0.045319 0.449280 0.000000
0.084808 0.455994 0.000000
0.117889 0.462769 0.000000
0.148010 0.469574 0.000000
0.176636 0.476410 0.000000
0.204041 0.483246 0.000000
0.230927 0.490143 0.000000
0.257416 0.497070 0.000000
0.283661 0.503998 0.000000
0.309723 0.510925 0.000000
0.335754 0.517914 0.000000
0.361755 0.524872 0.000000
0.387817 0.531860 0.000000
0.414001 0.538879 0.000000
0.440094 0.545898 0.000000
0.466370 0.552917 0.000000
0.492737 0.559937 0.000000
0.519196 0.566986 0.000000
0.545746 0.573975 0.000000
0.572632 0.580933 0.000000
0.602966 0.585907 0.000000
0.633575 0.590759 0.000000
0.664276 0.595612 0.000000
0.695129 0.600433 0.000000
0.726135 0.605255 0.000000
0.757263 0.610046 0.000000
0.788452 0.614838 0.000000
0.819763 0.619537 0.000000
0.851196 0.624268 0.000000
0.882751 0.629028 0.000000
0.914307 0.633698 0.000000
0.000000 0.459839 0.000000
0.000153 0.466644 0.000000
0.037445 0.473419 0.000000
0.080750 0.480194 0.000000
0.116150 0.487030 0.000000
0.147491 0.493866 0.000000
0.177002 0.500793 0.000000
0.205078 0.507721 0.000000
0.232605 0.514648 0.000000
0.259491 0.521606 0.000000
0.286102 0.528595 0.000000
0.312592 0.535583 0.000000
0.338959 0.542603 0.000000
0.365234 0.549652 0.000000
0.391479 0.556702 0.000000
0.417847 0.563751 0.000000
0.444244 0.570801 0.000000
0.470642 0.577881 0.000000
0.497162 0.584961 0.000000
0.523743 0.592072 0.000000
0.550507 0.599152 0.000000
0.577332 0.606201 0.000000
0.604462 0.613220 0.000000
0.635010 0.618225 0.000000
0.665894 0.623108 0.000000
0.696808 0.628021 0.000000
0.727814 0.632843 0.000000
0.759033 0.637726 0.000000
0.790314 0.642578 0.000000
0.821686 0.647369 0.000000
0.853149 0.652161 0.000000
0.884674 0.656952 0.000000
0.916290 0.661682 0.000000
0.000000 0.484100 0.000000
0.000061 0.490967 0.000000
0.027466 0.497803 0.000000
0.075775 0.504669 0.000000
0.113678 0.511505 0.000000
0.146393 0.518402 0.000000
0.176910 0.525391 0.000000
0.205780 0.532349 0.000000
0.233887 0.539337 0.000000
0.261383 0.546356 0.000000
0.288422 0.553406 0.000000
0.315216 0.560425 0.000000
0.341888 0.567505 0.000000
0.368500 0.574585 0.000000
0.395111 0.581696 0.000000
0.421600 0.588806 0.000000
0.448212 0.595886 0.000000
0.474823 0.602997 0.000000
0.501526 0.610168 0.000000
0.528351 0.617310 0.000000
0.555115 0.624420 0.000000
0.582092 0.631561 0.000000
0.609192 0.638702 0.000000
0.636475 0.645752 0.000000
0.667297 0.650787 0.000000
0.698364 0.655731 0.000000
0.729492 0.660645 0.000000
0.760712 0.665558 0.000000
0.792145 0.670441 0.000000
0.823547 0.675293 0.000000
0.855072 0.680145 0.000000
0.886627 0.684967 0.000000
0.918243 0.689789 0.000000
0.000000 0.508606 0.000000
0.000000 0.515503 0.000000
0.016113 0.522339 0.000000
0.069183 0.529236 0.000000
0.110321 0.536163 0.000000
0.144836 0.543121 0.000000
0.176483 0.550110 0.000000
0.206207 0.557129 0.000000
0.234924 0.564178 0.000000
0.262939 0.571259 0.000000
0.290558 0.578369 0.000000
0.317780 0.585449 0.000000
0.344788 0.592560 0.000000
0.371674 0.599731 0.000000
0.398499 0.606842 0.000000
0.425323 0.614014 0.000000
0.452057 0.621155 0.000000
0.478912 0.628296 0.000000
0.505829 0.635468 0.000000
0.532745 0.642700 0.000000
0.559753 0.649841 0.000000
0.586792 0.657013 0.000000
0.613983 0.664185 0.000000
0.641266 0.671387 0.000000
0.668701 0.678467 0.000000
0.699829 0.683533 0.000000
0.730988 0.688477 0.000000
0.762421 0.693481 0.000000
0.793854 0.698364 0.000000
0.825317 0.703278 0.000000
0.856903 0.708221 0.000000
0.888519 0.713104 0.000000
0.920197 0.717957 0.000000
0.000000 0.533173 0.000000
0.000000 0.540253 0.000000
0.005493 0.547089 0.000000
0.061615 0.554016 0.000000
0.106598 0.561035 0.000000
0.142944 0.568024 0.000000
0.175903 0.575073 0.000000
0.206482 0.582123 0.000000
0.235901 0.589203 0.000000
0.264435 0.596344 0.000000
0.292450 0.603516 0.000000
0.320099 0.610626 0.000000
0.347504 0.617798 0.000000
0.374695 0.624969 0.000000
0.401794 0.632141 0.000000
0.428894 0.639343 0.000000
0.455933 0.646545 0.000000
0.482910 0.653717 0.000000
0.510010 0.660950 0.000000
0.537140 0.668152 0.000000
0.564270 0.675385 0.000000
0.591492 0.682617 0.000000
0.618774 0.689819 0.000000
0.646149 0.697052 0.000000
0.673584 0.704254 0.000000
0.701202 0.711426 0.000000
0.732513 0.716461 0.000000
0.763947 0.721436 0.000000
0.795441 0.726440 0.000000
0.827026 0.731384 0.000000
0.858673 0.736389 0.000000
0.890350 0.741272 0.000000
0.922058 0.746216 0.000000
0.000000 0.557983 0.000000
0.000000 0.565186 0.000000
0.000641 0.572052 0.000000
0.052917 0.579041 0.000000
0.101776 0.586060 0.000000
0.140472 0.593079 0.000000
0.174835 0.600220 0.000000
0.206329 0.607269 0.000000
0.236511 0.614441 0.000000
0.265808 0.621613 0.000000
0.294250 0.628754 0.000000
0.322327 0.635956 0.000000
0.350098 0.643127 0.000000
0.377625 0.650330 0.000000
0.405029 0.657562 0.000000
0.432373 0.664825 0.000000
0.459625 0.672058 0.000000
0.486877 0.679291 0.000000
0.514130 0.686523 0.000000
0.541443 0.693787 0.000000
0.568756 0.701050 0.000000
0.596100 0.708313 0.000000
0.623566 0.715546 0.000000
0.651031 0.722809 0.000000
0.678528 0.730072 0.000000
