滤镜资源/Professional Luts Collection/Lutify.me Professional/Vintage Films/Thulite.cube
# Created by: Lutify.me
# Copyright: (c) Copyright Lutify.me 2015
# Website: https://lutify.me
#LUT size
LUT_3D_SIZE 9
#LUT data points
0.000000 0.000000 0.000000
0.082275 0.010559 0.000000
0.179810 0.019470 0.000000
0.282593 0.025757 0.000000
0.390686 0.028381 0.000000
0.503784 0.024597 0.000000
0.621521 0.011963 0.000000
0.743256 0.000000 0.000000
0.868073 0.000000 0.000000
0.010590 0.065796 0.000000
0.086823 0.087585 0.000000
0.185486 0.102692 0.000000
0.288971 0.116760 0.000000
0.397644 0.129150 0.000000
0.511200 0.139252 0.000000
0.629181 0.146667 0.000000
0.751099 0.151154 0.000000
0.876038 0.152496 0.000000
0.017426 0.145844 0.000000
0.101410 0.169006 0.000000
0.190796 0.192535 0.000000
0.295776 0.208893 0.000000
0.405304 0.224457 0.000000
0.519409 0.238953 0.000000
0.637848 0.252106 0.000000
0.759857 0.263672 0.000000
0.884827 0.273834 0.000000
0.016418 0.230347 0.000000
0.113007 0.254730 0.000000
0.206299 0.279724 0.000000
0.301361 0.304840 0.000000
0.412506 0.322357 0.000000
0.527679 0.339233 0.000000
0.646729 0.355347 0.000000
0.769073 0.370636 0.000000
0.894135 0.385071 0.000000
0.003571 0.319153 0.000000
0.119476 0.344727 0.000000
0.219330 0.370880 0.000000
0.317902 0.397369 0.000000
0.418365 0.423950 0.000000
0.535126 0.442474 0.000000
0.655243 0.460480 0.000000
0.778168 0.477997 0.000000
0.903412 0.494934 0.000000
0.000000 0.412018 0.000000
0.119232 0.438690 0.000000
0.229065 0.465881 0.000000
0.332458 0.493378 0.000000
0.435974 0.521149 0.000000
0.541107 0.548920 0.000000
0.662689 0.568268 0.000000
0.786560 0.587189 0.000000
0.912231 0.605774 0.000000
0.000000 0.508606 0.000000
0.110321 0.536163 0.000000
0.234924 0.564178 0.000000
0.344788 0.592560 0.000000
0.452057 0.621155 0.000000
0.559753 0.649841 0.000000
0.668701 0.678467 0.000000
0.793854 0.698364 0.000000
0.920197 0.717957 0.000000
0.000000 0.608307 0.000000
0.088745 0.636566 0.000000
0.237091 0.665314 0.000000
0.354797 0.694275 0.000000
0.466797 0.723480 0.000000
0.577484 0.752686 0.000000
0.688354 0.781952 0.000000
0.799988 0.811127 0.000000
0.927307 0.831299 0.000000
0.000000 0.710724 0.000000
0.051880 0.739349 0.000000
0.235962 0.768494 0.000000
0.363251 0.797882 0.000000
0.480408 0.827393 0.000000
0.594391 0.856964 0.000000
0.707489 0.886536 0.000000
0.820435 0.915985 0.000000
0.933472 0.945374 0.000000
0.005310 0.025665 0.050385
0.031189 0.004333 0.022614
0.125244 0.014465 0.022461
0.225189 0.022003 0.022247
0.330292 0.026703 0.021240
0.440674 0.026581 0.019257
0.555878 0.018982 0.015533
0.675354 0.001923 0.009644
0.798615 0.000000 0.002045
0.004181 0.043732 0.036255
0.105927 0.099609 0.093018
0.204987 0.114105 0.092529
0.309540 0.128204 0.091919
0.419128 0.140503 0.090942
0.533478 0.150696 0.089081
0.652222 0.158447 0.085907
0.774689 0.163513 0.081055
0.899811 0.165771 0.073792
0.012268 0.122620 0.035675
0.120483 0.181091 0.091919
0.210754 0.204926 0.091187
0.316711 0.221252 0.090118
0.427155 0.236847 0.088104
0.542114 0.251404 0.085022
0.661224 0.264587 0.080444
0.783844 0.276428 0.073578
0.909149 0.286957 0.064026
0.013397 0.205688 0.032074
0.133026 0.267456 0.088837
0.226807 0.292725 0.087006
0.322540 0.317932 0.084229
0.434509 0.335480 0.080658
0.550476 0.352417 0.075653
0.670197 0.368622 0.068542
0.793060 0.384003 0.058502
0.918427 0.398590 0.044037
0.002930 0.293518 0.023468
0.140930 0.358002 0.081604
0.240417 0.384460 0.077759
0.339447 0.411102 0.072540
0.440582 0.437775 0.065155
0.558014 0.456360 0.056763
0.678680 0.474426 0.044891
0.802094 0.491974 0.029755
0.927643 0.509064 0.010468
0.000000 0.385376 0.006439
0.143219 0.452545 0.067139
0.251099 0.479950 0.059814
0.354553 0.507629 0.049896
0.458496 0.535461 0.036774
0.564117 0.563293 0.021240
0.686188 0.582703 0.007202
0.810455 0.601654 0.000732
0.936401 0.620300 0.000000
0.000000 0.480865 0.000000
0.138489 0.550446 0.038910
0.258331 0.578735 0.026337
0.367523 0.607178 0.011627
0.475067 0.635864 0.001465
0.583038 0.664612 0.000092
0.692383 0.693329 0.000000
0.817749 0.713226 0.000000
0.944366 0.732788 0.000000
0.000000 0.580170 0.000000
0.125122 0.651245 0.000702
0.262238 0.680176 0.000183
0.378540 0.709198 0.000000
0.490295 0.738434 0.000000
0.601105 0.767700 0.000000
0.712250 0.796936 0.000000
0.823944 0.826172 0.000000
0.951416 0.846344 0.000000
0.000000 0.681732 0.000000
0.098724 0.754272 0.000000
0.263672 0.783539 0.000000
0.388062 0.812988 0.000000
0.504547 0.842560 0.000000
0.618439 0.872131 0.000000
0.731628 0.901703 0.000000
0.844574 0.931152 0.000000
0.957642 0.960449 0.000000
0.008667 0.059601 0.114014
0.037628 0.030670 0.082062
0.072510 0.008972 0.050934
0.169281 0.017700 0.050629
0.271576 0.023895 0.050232
0.379028 0.026520 0.049347
0.491669 0.023315 0.047180
0.608887 0.011169 0.043488
0.730072 0.000000 0.037109
0.007446 0.079407 0.099152
0.112518 0.136078 0.158051
0.149933 0.105530 0.125397
0.251495 0.119873 0.125183
0.358368 0.133240 0.124817
0.470215 0.144653 0.124054
0.586548 0.153748 0.122498
0.707031 0.160217 0.120056
0.830719 0.163757 0.116425
0.006287 0.100067 0.084412
0.110962 0.157745 0.142883
0.231537 0.218079 0.203888
0.337769 0.233429 0.202881
0.449310 0.249054 0.202515
0.565125 0.263550 0.201660
0.684875 0.276886 0.200348
0.807922 0.288910 0.198364
0.933533 0.299744 0.195618
0.009979 0.181610 0.083496
0.124023 0.242493 0.142120
0.247467 0.305450 0.202454
0.344543 0.331177 0.202209
0.457550 0.348724 0.201263
0.574341 0.365662 0.199799
0.694641 0.381927 0.197754
0.817932 0.397369 0.194946
0.943604 0.412140 0.191284
0.002441 0.267883 0.080200
0.133209 0.331940 0.139282
0.262085 0.397858 0.200012
0.361969 0.424927 0.198914
0.463776 0.451660 0.196869
0.581909 0.470276 0.194611
0.703156 0.488373 0.191559
0.826935 0.505981 0.187622
0.952728 0.523163 0.182678
0.000000 0.358643 0.072296
0.136536 0.425385 0.133270
0.273682 0.493835 0.194946
0.377716 0.521942 0.192871
0.482025 0.549866 0.189575
0.588196 0.577759 0.185547
0.710663 0.597198 0.181183
0.835205 0.616180 0.175873
0.961365 0.634857 0.169434
0.000000 0.453217 0.056030
0.133026 0.522430 0.122345
0.282379 0.593048 0.186432
0.391357 0.621918 0.183014
0.499054 0.650635 0.178162
0.607361 0.679443 0.172333
0.716919 0.708160 0.165405
0.842499 0.728088 0.158203
0.969238 0.747681 0.149506
0.000000 0.551697 0.024139
0.120270 0.622498 0.103790
0.287964 0.694763 0.173309
0.403320 0.724213 0.168030
0.514832 0.753479 0.161194
0.625732 0.782776 0.153076
0.736938 0.812073 0.143250
0.848724 0.841248 0.131409
0.976227 0.861420 0.119049
0.000000 0.652832 0.000000
0.094543 0.725128 0.071136
0.291260 0.798340 0.153931
0.413910 0.828186 0.146332
0.529724 0.857758 0.136505
0.643402 0.887329 0.124634
0.756470 0.916840 0.109406
0.869476 0.946320 0.089294
0.982452 0.975586 0.072479
0.009338 0.095703 0.180389
0.043091 0.065430 0.146820
0.079620 0.035858 0.114014
0.115723 0.012878 0.082367
0.214417 0.020325 0.081970
0.319092 0.024933 0.081848
0.428955 0.024994 0.081055
0.543640 0.017914 0.079529
0.662720 0.001129 0.076813
0.008789 0.116180 0.164886
0.118408 0.174316 0.226440
0.157410 0.142792 0.192169
0.195343 0.111816 0.158722
0.298889 0.125183 0.158264
0.408051 0.137726 0.158051
0.521973 0.148041 0.157471
0.640198 0.155884 0.156311
0.762207 0.161102 0.154358
0.007111 0.136749 0.149384
0.116699 0.196075 0.210632
0.238434 0.256775 0.273315
0.279419 0.224579 0.239044
0.388092 0.239899 0.238495
0.501678 0.255035 0.238190
0.619354 0.268982 0.237579
0.740631 0.281616 0.236481
0.864929 0.293060 0.234894
0.004211 0.158539 0.134155
0.114380 0.218658 0.194794
0.237335 0.281036 0.257721
0.366364 0.344849 0.322052
0.479706 0.361664 0.321320
0.597504 0.378601 0.320953
0.718506 0.394897 0.320282
0.842255 0.410461 0.319244
0.968079 0.425323 0.317810
0.001434 0.243011 0.133331
0.124817 0.306061 0.193848
0.252380 0.371460 0.256714
0.384186 0.438293 0.321045
0.487457 0.465668 0.321228
0.606415 0.484253 0.320404
0.728271 0.502380 0.319244
0.852478 0.520020 0.317719
0.978424 0.537292 0.315735
0.000000 0.332367 0.130280
0.129578 0.398407 0.191284
0.264923 0.466492 0.254395
0.400696 0.535828 0.318909
0.506134 0.564362 0.318542
0.612885 0.592316 0.316956
0.735840 0.611725 0.315216
0.860687 0.630737 0.313049
0.986572 0.649506 0.310455
0.000000 0.425995 0.123840
0.127563 0.494507 0.186035
0.274139 0.564819 0.249878
0.415222 0.636200 0.315063
0.523682 0.665497 0.313995
0.632324 0.694336 0.311676
0.742188 0.723053 0.308899
0.867920 0.742981 0.306091
0.991089 0.762634 0.302887
0.000000 0.523193 0.111908
0.115997 0.593719 0.177002
0.280304 0.665955 0.242737
0.428131 0.738739 0.309113
0.540039 0.768585 0.307343
0.651001 0.797882 0.304230
0.762329 0.827148 0.300629
0.874176 0.856384 0.296600
0.992798 0.876526 0.292755
0.000000 0.623505 0.091370
0.090149 0.695526 0.162994
0.283783 0.769104 0.232208
0.439758 0.842865 0.300781
0.555511 0.873016 0.298279
0.669006 0.902588 0.294373
0.782043 0.932068 0.289978
0.894989 0.961487 0.285095
0.993286 0.990753 0.279938
0.005524 0.132843 0.249573
0.045807 0.101990 0.214630
0.086029 0.071594 0.180328
0.122742 0.041382 0.146820
0.159637 0.016235 0.114471
0.260681 0.021912 0.114105
0.367859 0.024658 0.114075
0.479828 0.021667 0.113586
0.596588 0.010040 0.112366
0.005432 0.153839 0.233490
0.122437 0.213440 0.297546
0.164276 0.181122 0.261841
0.202972 0.149048 0.226624
0.241638 0.117584 0.192596
0.347382 0.130249 0.192139
0.458740 0.141724 0.192017
0.574738 0.150848 0.191528
0.694641 0.157349 0.190582
0.004120 0.175018 0.217438
0.120667 0.235718 0.281189
0.245605 0.297852 0.346405
0.287354 0.264404 0.310333
0.328094 0.231171 0.274597
0.438599 0.246002 0.274078
0.554199 0.260559 0.273926
0.673584 0.273865 0.273407
0.796295 0.285919 0.272583
0.001526 0.196503 0.201477
0.118073 0.257965 0.264618
0.244141 0.321747 0.330078
0.374115 0.386139 0.396271
0.418335 0.352417 0.360443
0.533417 0.368774 0.359741
0.652832 0.385406 0.359497
0.775177 0.401306 0.358917
0.899963 0.416534 0.358124
0.000000 0.219238 0.185791
0.114929 0.281494 0.248322
0.241882 0.346039 0.313202
0.373444 0.412628 0.380219
0.509674 0.479370 0.447388
0.629517 0.497864 0.447449
0.752136 0.515961 0.447113
0.876770 0.533661 0.446533
0.989441 0.551300 0.445831
0.000000 0.306732 0.184967
0.121399 0.371643 0.247253
0.255035 0.439026 0.312134
0.390228 0.508240 0.379211
0.529510 0.578278 0.447235
0.637604 0.606873 0.447723
0.761139 0.626282 0.447052
0.886383 0.645325 0.446167
0.991852 0.664307 0.445160
0.000000 0.398956 0.181976
0.121002 0.466736 0.244873
0.265228 0.536499 0.309967
0.405334 0.607880 0.377258
0.547668 0.679779 0.445496
0.657410 0.709259 0.445557
0.767578 0.738037 0.444336
0.893616 0.757904 0.443085
0.993866 0.777649 0.441742
0.000000 0.495361 0.176636
0.110901 0.565063 0.240112
0.272003 0.636871 0.305969
0.418640 0.709930 0.373871
0.564667 0.783081 0.442596
0.676422 0.813049 0.442261
0.787903 0.842316 0.440613
0.899841 0.871490 0.438721
0.994934 0.891663 0.437134
0.000000 0.594879 0.167084
0.087128 0.666290 0.232513
0.275757 0.739502 0.299774
0.430420 0.813690 0.368774
0.580811 0.887634 0.438446
0.694794 0.917816 0.437714
0.807831 0.947296 0.435638
0.920715 0.976654 0.433380
0.995239 1.000000 0.431549
0.000000 0.171021 0.321564
0.043945 0.139435 0.285187
0.090454 0.108185 0.249451
0.129700 0.077393 0.214478
0.166962 0.046295 0.180328
0.204559 0.018616 0.147339
0.308167 0.022705 0.146973
0.417603 0.023163 0.146973
0.531799 0.016357 0.146576
0.000000 0.192474 0.304840
0.123596 0.253510 0.371338
0.169464 0.220459 0.334290
0.210571 0.187653 0.297699
0.249573 0.154999 0.261749
0.288727 0.122711 0.226990
0.396851 0.134735 0.226654
0.510437 0.145172 0.226593
0.628296 0.153076 0.226318
0.000000 0.214172 0.288208
0.122040 0.276337 0.354462
0.251312 0.339844 0.421997
0.295288 0.305725 0.384674
0.336426 0.271179 0.347137
0.377441 0.237396 0.310730
0.490112 0.251770 0.310333
0.607574 0.265747 0.310242
0.728546 0.278473 0.309875
0.000000 0.236176 0.271698
0.119354 0.299042 0.337372
0.249878 0.364227 0.405212
0.382233 0.429871 0.473541
0.426788 0.394775 0.436005
0.469849 0.359283 0.398132
0.586731 0.375488 0.397583
0.707611 0.391754 0.397430
0.831146 0.407288 0.397034
0.000000 0.258423 0.255219
0.115936 0.322083 0.320343
0.247314 0.387970 0.387604
0.381195 0.455719 0.456848
0.518677 0.523468 0.526245
0.565094 0.488007 0.488708
0.685730 0.505554 0.488098
0.809418 0.523468 0.487854
0.934814 0.540955 0.487427
0.000000 0.282043 0.239136
0.111237 0.346222 0.303436
0.244385 0.412811 0.370148
0.378906 0.481323 0.438965
0.518158 0.551361 0.509583
0.660004 0.620514 0.579285
0.784851 0.640503 0.580109
0.910583 0.659546 0.579803
0.994232 0.678741 0.579498
0.000000 0.372314 0.238068
0.112793 0.439331 0.302429
0.255432 0.508392 0.369171
0.394440 0.579193 0.437988
0.536469 0.651245 0.508636
0.681519 0.723633 0.580017
0.792755 0.752960 0.580475
0.919098 0.772858 0.579956
0.996094 0.792664 0.579468
0.000000 0.467712 0.235748
0.105072 0.536804 0.300201
0.263214 0.608002 0.367157
0.408203 0.680603 0.436218
0.553802 0.754120 0.507111
0.700989 0.827637 0.578674
0.813263 0.857452 0.578888
0.925415 0.886627 0.578033
0.996979 0.906799 0.577362
0.000000 0.566467 0.230927
0.083374 0.637329 0.296082
0.267426 0.710052 0.363525
0.420319 0.783936 0.433197
0.570099 0.858398 0.504608
0.719788 0.932526 0.576630
0.833435 0.962524 0.576630
0.946320 0.991730 0.575531
0.997162 1.000000 0.575134
0.000000 0.210144 0.396118
0.035889 0.177643 0.358429
0.091888 0.145691 0.321411
0.135193 0.114288 0.285065
0.174438 0.082916 0.249420
0.212341 0.050842 0.214508
0.250519 0.019775 0.180634
0.356781 0.022400 0.180573
0.468414 0.019684 0.180573
0.000000 0.232056 0.378876
0.121063 0.294586 0.447693
0.172668 0.260803 0.409424
0.216797 0.227173 0.371460
0.257721 0.193970 0.334229
0.297180 0.160767 0.297638
0.336670 0.127472 0.261963
0.447388 0.138672 0.261902
0.562958 0.147827 0.261871
0.000000 0.254303 0.361755
0.119934 0.317810 0.430298
0.255371 0.382721 0.499878
0.301941 0.347900 0.461456
0.345001 0.312714 0.422729
0.386292 0.277740 0.384583
0.427521 0.243134 0.347382
0.542450 0.257233 0.347198
0.661682 0.270599 0.347168
0.000000 0.276825 0.344635
0.117371 0.341095 0.412689
0.254028 0.407501 0.482697
0.389374 0.474335 0.552887
0.435577 0.438721 0.514374
0.478912 0.402039 0.474945
0.521881 0.365814 0.436279
0.640747 0.381989 0.436005
0.763000 0.397827 0.435913
0.000000 0.299591 0.327667
0.113647 0.364532 0.395111
0.251343 0.431671 0.464569
0.388275 0.500610 0.535889
0.527588 0.569336 0.606934
0.574188 0.532745 0.568024
0.618927 0.495148 0.528198
0.741058 0.512756 0.527832
0.865601 0.530426 0.527679
0.000000 0.322693 0.310760
0.108490 0.388275 0.377625
0.248138 0.456024 0.446533
0.385712 0.525604 0.517365
0.526794 0.596588 0.589783
0.670227 0.667145 0.661926
0.717743 0.629883 0.622620
0.842346 0.648529 0.622192
0.968567 0.667450 0.621979
0.000000 0.346680 0.294128
0.101837 0.412781 0.360168
0.244354 0.481201 0.428589
0.382812 0.551361 0.498932
0.524353 0.622894 0.570984
0.669495 0.695435 0.644379
0.815430 0.766724 0.716583
0.943237 0.787537 0.717743
0.997864 0.807465 0.717590
0.000000 0.440063 0.293030
0.096680 0.508850 0.359344
0.253113 0.579315 0.427643
0.397186 0.651459 0.498108
0.541992 0.724640 0.570221
0.689056 0.798401 0.643677
0.837769 0.872253 0.717682
0.950470 0.901794 0.717957
0.998627 0.921936 0.717712
0.000000 0.537903 0.290802
0.077179 0.608490 0.357208
0.258392 0.680786 0.425812
0.409729 0.754303 0.496490
0.558594 0.828522 0.568817
0.708038 0.903107 0.642548
0.858185 0.977386 0.716766
0.971069 1.000000 0.716949
0.998718 1.000000 0.716919
0.000000 0.250183 0.473145
0.018127 0.216797 0.434235
0.089355 0.184174 0.395966
0.138489 0.151947 0.358276
0.180725 0.120056 0.321259
0.220245 0.088074 0.284973
0.258911 0.054779 0.249390
0.297485 0.020233 0.214630
0.406433 0.020477 0.214813
0.000000 0.272736 0.455444
0.113922 0.336456 0.526093
0.173096 0.301941 0.486786
0.221283 0.267670 0.447754
0.264801 0.233795 0.409241
0.305817 0.200104 0.371368
0.345795 0.166168 0.334076
0.385620 0.131714 0.297668
0.498810 0.141846 0.297699
0.000000 0.295288 0.437622
0.113220 0.360260 0.508362
0.257568 0.426331 0.579712
0.307312 0.390930 0.540375
0.352448 0.355103 0.500580
0.395447 0.319550 0.461334
0.437103 0.284058 0.422638
0.478455 0.248596 0.384583
0.595703 0.262451 0.384674
0.000000 0.318298 0.420105
0.110748 0.383881 0.490265
0.256287 0.451538 0.562164
0.395294 0.519470 0.634003
0.443420 0.483398 0.594666
0.488251 0.446106 0.554260
0.531708 0.409058 0.514282
0.574646 0.372162 0.474945
0.695374 0.388245 0.474945
0.000000 0.341675 0.402710
0.106781 0.407867 0.472290
0.253662 0.476135 0.543701
0.394287 0.546112 0.616699
0.535767 0.615723 0.689117
0.583649 0.578766 0.649536
0.628784 0.540314 0.608582
0.673218 0.502106 0.568115
0.796783 0.519836 0.568024
0.000000 0.364990 0.385132
0.101044 0.431976 0.454254
0.250397 0.500885 0.525238
0.391632 0.571442 0.597839
0.534973 0.643311 0.671753
0.679749 0.714539 0.744995
0.727448 0.676544 0.704834
0.773224 0.637329 0.663513
0.898865 0.656128 0.663361
0.000000 0.389221 0.368103
0.093567 0.456421 0.436340
0.246307 0.525818 0.506775
0.388611 0.596954 0.578979
0.532318 0.669250 0.652527
0.678772 0.742371 0.727173
0.826477 0.815094 0.801544
0.873962 0.776154 0.760590
0.996796 0.795746 0.760406
0.000000 0.413208 0.350433
0.083191 0.481171 0.418365
0.241760 0.551208 0.488403
0.385162 0.622772 0.560120
0.529541 0.695526 0.633362
0.676300 0.768951 0.707733
0.825104 0.842957 0.782990
0.972473 0.916077 0.857513
0.999573 0.936951 0.858337
0.000000 0.509735 0.349823
0.067566 0.579895 0.417664
0.248138 0.651672 0.487610
0.398376 0.724823 0.559418
0.546478 0.798767 0.632751
0.695496 0.873169 0.707184
0.845551 0.947723 0.782501
0.992889 1.000000 0.858337
0.999664 1.000000 0.858521
0.000000 0.291107 0.552216
0.000153 0.256989 0.512207
0.081085 0.223572 0.472809
0.138947 0.190552 0.433929
0.185333 0.158051 0.395691
0.227112 0.125763 0.358093
0.267181 0.092621 0.321136
0.306366 0.057739 0.284912
0.345642 0.019348 0.249451
0.000000 0.314056 0.533997
0.100342 0.379181 0.606506
0.170532 0.343964 0.566284
0.223785 0.308990 0.526123
0.270355 0.274445 0.486572
0.313507 0.240143 0.447510
0.354919 0.205872 0.409088
0.395386 0.171143 0.371124
0.435791 0.135406 0.334076
0.000000 0.337280 0.515869
0.099609 0.403290 0.588165
0.257660 0.470734 0.661255
0.311127 0.434662 0.621063
0.358795 0.398224 0.580383
0.403595 0.362091 0.540131
0.446655 0.326172 0.500366
0.488800 0.290192 0.461151
0.530426 0.253906 0.422485
0.000000 0.360657 0.497833
0.097687 0.427521 0.569824
0.256561 0.496307 0.643372
0.400269 0.565277 0.716492
0.450378 0.528625 0.676453
0.496765 0.490906 0.635315
0.541504 0.453400 0.594452
0.585175 0.415924 0.554077
0.628296 0.378448 0.514160
0.000000 0.384552 0.480011
0.093323 0.451843 0.551422
0.253876 0.521240 0.624542
0.399292 0.592224 0.698914
0.543304 0.662628 0.772339
0.592407 0.625305 0.732269
0.638611 0.586487 0.690674
0.683807 0.547791 0.649414
0.728210 0.509125 0.608429
0.000000 0.408295 0.461884
0.086823 0.476440 0.533051
0.250671 0.546417 0.605774
0.396545 0.617828 0.679779
0.542419 0.690399 0.754761
0.688782 0.762207 0.828888
0.737335 0.723969 0.788300
0.783661 0.684357 0.746399
0.829193 0.644806 0.704742
0.000000 0.432739 0.444275
0.077789 0.501282 0.514740
0.246490 0.571686 0.587006
0.393524 0.643616 0.660675
0.539795 0.716553 0.735413
0.687775 0.790192 0.810913
0.836304 0.863281 0.885895
0.884186 0.824097 0.844543
0.930603 0.783997 0.802429
0.000000 0.457367 0.426544
0.066406 0.526276 0.496399
0.241730 0.597198 0.568237
0.390015 0.669525 0.641541
0.536987 0.742798 0.716034
0.685211 0.816742 0.791290
0.834869 0.891022 0.867218
0.982361 0.964996 0.942993
0.999695 0.925018 0.900940
0.000000 0.482361 0.408997
0.052338 0.551514 0.478088
0.236053 0.622864 0.549408
0.386047 0.695526 0.622314
0.533813 0.769135 0.696564
0.682556 0.843292 0.771667
0.832397 0.917725 0.847473
0.980652 0.991119 0.923676
0.999939 1.000000 0.999847
