滤镜资源/Professional Luts Collection/Lutify.me Professional/Vintage Films/Thulite.cube
# Created by: Lutify.me
# Copyright: (c) Copyright Lutify.me 2015
# Website: https://lutify.me
#LUT size
LUT_3D_SIZE 5
#LUT data points
0.000000 0.000000 0.000000
0.179810 0.019470 0.000000
0.390686 0.028381 0.000000
0.621521 0.011963 0.000000
0.868073 0.000000 0.000000
0.017426 0.145844 0.000000
0.190796 0.192535 0.000000
0.405304 0.224457 0.000000
0.637848 0.252106 0.000000
0.884827 0.273834 0.000000
0.003571 0.319153 0.000000
0.219330 0.370880 0.000000
0.418365 0.423950 0.000000
0.655243 0.460480 0.000000
0.903412 0.494934 0.000000
0.000000 0.508606 0.000000
0.234924 0.564178 0.000000
0.452057 0.621155 0.000000
0.668701 0.678467 0.000000
0.920197 0.717957 0.000000
0.000000 0.710724 0.000000
0.235962 0.768494 0.000000
0.480408 0.827393 0.000000
0.707489 0.886536 0.000000
0.933472 0.945374 0.000000
0.008667 0.059601 0.114014
0.072510 0.008972 0.050934
0.271576 0.023895 0.050232
0.491669 0.023315 0.047180
0.730072 0.000000 0.037109
0.006287 0.100067 0.084412
0.231537 0.218079 0.203888
0.449310 0.249054 0.202515
0.684875 0.276886 0.200348
0.933533 0.299744 0.195618
0.002441 0.267883 0.080200
0.262085 0.397858 0.200012
0.463776 0.451660 0.196869
0.703156 0.488373 0.191559
0.952728 0.523163 0.182678
0.000000 0.453217 0.056030
0.282379 0.593048 0.186432
0.499054 0.650635 0.178162
0.716919 0.708160 0.165405
0.969238 0.747681 0.149506
0.000000 0.652832 0.000000
0.291260 0.798340 0.153931
0.529724 0.857758 0.136505
0.756470 0.916840 0.109406
0.982452 0.975586 0.072479
0.005524 0.132843 0.249573
0.086029 0.071594 0.180328
0.159637 0.016235 0.114471
0.367859 0.024658 0.114075
0.596588 0.010040 0.112366
0.004120 0.175018 0.217438
0.245605 0.297852 0.346405
0.328094 0.231171 0.274597
0.554199 0.260559 0.273926
0.796295 0.285919 0.272583
0.000000 0.219238 0.185791
0.241882 0.346039 0.313202
0.509674 0.479370 0.447388
0.752136 0.515961 0.447113
0.989441 0.551300 0.445831
0.000000 0.398956 0.181976
0.265228 0.536499 0.309967
0.547668 0.679779 0.445496
0.767578 0.738037 0.444336
0.993866 0.777649 0.441742
0.000000 0.594879 0.167084
0.275757 0.739502 0.299774
0.580811 0.887634 0.438446
0.807831 0.947296 0.435638
0.995239 1.000000 0.431549
0.000000 0.210144 0.396118
0.091888 0.145691 0.321411
0.174438 0.082916 0.249420
0.250519 0.019775 0.180634
0.468414 0.019684 0.180573
0.000000 0.254303 0.361755
0.255371 0.382721 0.499878
0.345001 0.312714 0.422729
0.427521 0.243134 0.347382
0.661682 0.270599 0.347168
0.000000 0.299591 0.327667
0.251343 0.431671 0.464569
0.527588 0.569336 0.606934
0.618927 0.495148 0.528198
0.865601 0.530426 0.527679
0.000000 0.346680 0.294128
0.244354 0.481201 0.428589
0.524353 0.622894 0.570984
0.815430 0.766724 0.716583
0.997864 0.807465 0.717590
0.000000 0.537903 0.290802
0.258392 0.680786 0.425812
0.558594 0.828522 0.568817
0.858185 0.977386 0.716766
0.998718 1.000000 0.716919
0.000000 0.291107 0.552216
0.081085 0.223572 0.472809
0.185333 0.158051 0.395691
0.267181 0.092621 0.321136
0.345642 0.019348 0.249451
0.000000 0.337280 0.515869
0.257660 0.470734 0.661255
0.358795 0.398224 0.580383
0.446655 0.326172 0.500366
0.530426 0.253906 0.422485
0.000000 0.384552 0.480011
0.253876 0.521240 0.624542
0.543304 0.662628 0.772339
0.638611 0.586487 0.690674
0.728210 0.509125 0.608429
0.000000 0.432739 0.444275
0.246490 0.571686 0.587006
0.539795 0.716553 0.735413
0.836304 0.863281 0.885895
0.930603 0.783997 0.802429
0.000000 0.482361 0.408997
0.236053 0.622864 0.549408
0.533813 0.769135 0.696564
0.832397 0.917725 0.847473
0.999939 1.000000 0.999847
