滤镜资源/Professional Luts Collection/Lutify.me Professional/Vintage Films/Tiger Eye.cube
# Created by: Lutify.me
# Copyright: (c) Copyright Lutify.me 2015
# Website: https://lutify.me
#LUT size
LUT_3D_SIZE 33
#LUT data points
0.000000 0.000000 0.000000
0.022919 0.000397 0.000397
0.047241 0.000793 0.000763
0.072021 0.001526 0.000793
0.097870 0.002289 0.001495
0.123444 0.003113 0.002594
0.148712 0.004547 0.003479
0.174164 0.006348 0.004608
0.199432 0.008392 0.005981
0.224670 0.010712 0.007599
0.249908 0.013397 0.009155
0.275360 0.015900 0.011047
0.300903 0.019104 0.013397
0.326630 0.022400 0.015869
0.352631 0.025787 0.018341
0.378967 0.029358 0.021271
0.405731 0.032837 0.024567
0.432922 0.036011 0.027924
0.460449 0.038818 0.031586
0.488342 0.041534 0.035522
0.516449 0.044037 0.039612
0.544800 0.046295 0.044037
0.573273 0.048462 0.048492
0.601776 0.050354 0.052704
0.630249 0.052582 0.056793
0.658752 0.054871 0.061279
0.687042 0.057343 0.065460
0.715271 0.060150 0.069580
0.743317 0.063416 0.073914
0.771118 0.067505 0.078033
0.798828 0.071777 0.082092
0.826324 0.076965 0.086334
0.853638 0.082428 0.090485
0.003510 0.019836 0.009247
0.021332 0.016388 0.002686
0.044464 0.014526 0.001587
0.069153 0.013367 0.001587
0.094025 0.012299 0.002258
0.119690 0.010773 0.002716
0.144806 0.009888 0.003479
0.170013 0.009186 0.004547
0.195221 0.008820 0.005768
0.220490 0.010254 0.007233
0.245728 0.012787 0.008850
0.271057 0.015747 0.010651
0.296570 0.018768 0.013000
0.322266 0.021820 0.015381
0.348267 0.025391 0.018005
0.374573 0.028809 0.020752
0.401276 0.032013 0.023743
0.428406 0.035278 0.027222
0.455872 0.038330 0.030884
0.483734 0.041077 0.034882
0.511810 0.043488 0.039124
0.540131 0.045776 0.043274
0.568573 0.047974 0.047546
0.597015 0.049957 0.051788
0.625610 0.052032 0.056335
0.653992 0.054474 0.060394
0.682312 0.056793 0.064697
0.710602 0.059845 0.069092
0.738617 0.063080 0.073395
0.766541 0.066986 0.077332
0.794220 0.071228 0.081635
0.821777 0.075989 0.085907
0.849182 0.081268 0.089844
0.007324 0.040100 0.019043
0.024841 0.035797 0.012512
0.042908 0.032227 0.005035
0.066772 0.030670 0.003174
0.091492 0.029785 0.003113
0.116364 0.028717 0.003479
0.141449 0.027802 0.004547
0.166748 0.027130 0.005432
0.191833 0.026672 0.006531
0.216858 0.026611 0.007874
0.242004 0.026886 0.009521
0.267303 0.027557 0.011169
0.292694 0.028625 0.013123
0.318207 0.029510 0.015472
0.344055 0.030945 0.017822
0.370239 0.032227 0.020477
0.396790 0.033264 0.023468
0.423828 0.035309 0.026733
0.451324 0.038177 0.030304
0.479065 0.040894 0.034180
0.507080 0.043304 0.038391
0.535339 0.045563 0.042542
0.563843 0.047577 0.046844
0.592316 0.049561 0.051056
0.620819 0.051697 0.055359
0.649323 0.053864 0.059784
0.677612 0.056183 0.064148
0.705902 0.059235 0.068420
0.734009 0.062500 0.072510
0.761810 0.066345 0.076843
0.789642 0.070251 0.080933
0.817261 0.075043 0.085052
0.844604 0.080322 0.089203
0.011719 0.062317 0.028717
0.029785 0.057129 0.022522
0.046234 0.053986 0.015564
0.064636 0.050171 0.008087
0.088287 0.048553 0.004761
0.113159 0.047516 0.004974
0.138184 0.046448 0.005463
0.163208 0.045441 0.006195
0.188202 0.045074 0.007294
0.213287 0.044647 0.008759
0.238434 0.044678 0.010345
0.263519 0.045197 0.011993
0.288879 0.045715 0.013885
0.314362 0.046692 0.015991
0.340149 0.047760 0.018494
0.366302 0.048737 0.021118
0.392822 0.049591 0.024048
0.419739 0.050537 0.027008
0.447052 0.051483 0.030212
0.474701 0.052124 0.034058
0.502686 0.052673 0.038177
0.530884 0.053162 0.042175
0.559174 0.053345 0.046417
0.587677 0.053314 0.050812
0.616119 0.053345 0.054810
0.644531 0.054108 0.059143
0.672913 0.056183 0.063324
0.701233 0.059082 0.067688
0.729309 0.062012 0.071899
0.757294 0.065643 0.076111
0.785034 0.069641 0.080231
0.812683 0.074280 0.084351
0.840088 0.079559 0.088562
0.018127 0.084442 0.039581
0.036011 0.079437 0.033661
0.051117 0.075836 0.026672
0.067932 0.072449 0.019012
0.086700 0.068665 0.011353
0.110291 0.067200 0.006775
0.134979 0.065948 0.006958
0.159637 0.064819 0.007996
0.184601 0.063782 0.008759
0.209564 0.063141 0.010010
0.234680 0.062775 0.011566
0.259735 0.062592 0.013123
0.284973 0.062653 0.014923
0.310455 0.062988 0.016968
0.336273 0.063385 0.019165
0.362335 0.063965 0.021851
0.388702 0.064575 0.024597
0.415588 0.065125 0.027496
0.442902 0.065491 0.030853
0.470551 0.065796 0.034546
0.498444 0.066132 0.038452
0.526550 0.066345 0.042480
0.554840 0.066406 0.046600
0.583221 0.066467 0.050903
0.611664 0.066589 0.054840
0.640045 0.066895 0.059143
0.668427 0.067413 0.063385
0.696716 0.068604 0.067413
0.724731 0.070221 0.071655
0.752777 0.071869 0.075836
0.780518 0.074341 0.079742
0.808136 0.077332 0.083893
0.835510 0.080872 0.087921
0.024841 0.106689 0.050812
0.042206 0.101562 0.045044
0.057037 0.097565 0.037720
0.072113 0.094330 0.030243
0.089905 0.090912 0.022858
0.108612 0.087250 0.015808
0.132050 0.085724 0.010193
0.156342 0.084595 0.009918
0.181213 0.083344 0.010834
0.206024 0.082428 0.011993
0.230988 0.081665 0.013397
0.256073 0.081055 0.014740
0.281158 0.080627 0.016296
0.306610 0.080322 0.018433
0.332367 0.080231 0.020447
0.358398 0.080109 0.022827
0.384705 0.080231 0.025665
0.411499 0.080322 0.028595
0.438751 0.080261 0.031647
0.466339 0.080048 0.035248
0.494171 0.079926 0.039093
0.522247 0.079773 0.042999
0.550537 0.079498 0.047119
0.578918 0.079376 0.051147
0.607300 0.079346 0.055145
0.635712 0.079437 0.059326
0.664001 0.079834 0.063263
0.692322 0.080353 0.067413
0.720398 0.081421 0.071594
0.748291 0.082947 0.075592
0.776123 0.084961 0.079498
0.803741 0.087433 0.083832
0.831177 0.090637 0.087677
0.033844 0.129089 0.062256
0.049927 0.123749 0.056396
0.062927 0.119659 0.049713
0.077179 0.116272 0.042145
0.093475 0.112793 0.034821
0.111542 0.109375 0.027344
0.130402 0.105835 0.020172
0.153870 0.104187 0.014648
0.178101 0.102997 0.013489
0.202759 0.101868 0.014313
0.227448 0.100952 0.015503
0.252380 0.100067 0.016998
0.277466 0.099365 0.018372
0.302795 0.098785 0.020203
0.328430 0.098358 0.022339
0.354370 0.097931 0.024506
0.380676 0.097504 0.027039
0.407410 0.097137 0.030060
0.434601 0.096771 0.033173
0.462128 0.096222 0.036407
0.489929 0.095642 0.040100
0.518005 0.095032 0.043793
0.546295 0.094421 0.047577
0.574646 0.093811 0.051453
0.602997 0.093292 0.055542
0.631378 0.093140 0.059479
0.659729 0.093109 0.063446
0.687927 0.093323 0.067413
0.716003 0.093689 0.071625
0.743896 0.094757 0.075592
0.771698 0.096375 0.079468
0.799377 0.098419 0.083527
0.826782 0.101105 0.087616
0.043640 0.151306 0.073669
0.058319 0.145966 0.067627
0.070099 0.141571 0.061157
0.082825 0.137970 0.053955
0.097748 0.134766 0.046722
0.114929 0.131348 0.039551
0.133270 0.127747 0.032135
0.152374 0.124298 0.024872
0.175690 0.122650 0.019928
0.199677 0.121582 0.017609
0.224304 0.120392 0.018158
0.248993 0.119354 0.019440
0.273956 0.118561 0.020874
0.299194 0.117737 0.022675
0.324677 0.117065 0.024719
0.350555 0.116302 0.026947
0.376770 0.115601 0.029266
0.403442 0.114960 0.031921
0.430511 0.114227 0.035126
0.457977 0.113495 0.038391
0.485748 0.112671 0.041748
0.513763 0.111847 0.045319
0.541962 0.110962 0.048920
0.570343 0.110138 0.052490
0.598755 0.109222 0.056488
0.627136 0.108582 0.060211
0.655457 0.108093 0.063965
0.683655 0.107971 0.067871
0.711761 0.108032 0.071991
0.739685 0.108612 0.075806
0.767517 0.109497 0.079620
0.795074 0.110962 0.083588
0.822479 0.112946 0.087646
0.053375 0.173676 0.085083
0.066345 0.168396 0.079132
0.077209 0.163666 0.072815
0.089111 0.159943 0.065857
0.102936 0.156525 0.058716
0.118988 0.153198 0.051392
0.136536 0.149841 0.044373
0.154846 0.146332 0.037811
0.173981 0.142914 0.030518
0.197327 0.141418 0.025391
0.221222 0.140228 0.022278
0.245911 0.139008 0.022705
0.270660 0.138031 0.024139
0.295715 0.137115 0.025635
0.321136 0.136230 0.027527
0.346863 0.135345 0.029572
0.372986 0.134399 0.031952
0.399536 0.133606 0.034607
0.426544 0.132690 0.037537
0.453918 0.131744 0.040710
0.481598 0.130768 0.043945
0.509613 0.129730 0.047211
0.537781 0.128693 0.050659
0.566101 0.127594 0.054047
0.594482 0.126526 0.057648
0.622864 0.125549 0.061371
0.651184 0.124756 0.065002
0.679413 0.124298 0.068665
0.707520 0.123993 0.072540
0.735443 0.124176 0.076233
0.763275 0.124634 0.079956
0.790863 0.125458 0.084045
0.818237 0.126831 0.087860
0.062927 0.196350 0.096527
0.074585 0.190918 0.090332
0.084900 0.185974 0.084290
0.095490 0.182159 0.077423
0.108490 0.178467 0.070312
0.123535 0.175140 0.063202
0.140106 0.171844 0.056152
0.157837 0.168396 0.049866
0.176300 0.164948 0.043579
0.195557 0.161621 0.036774
0.218994 0.160156 0.031586
0.242950 0.158875 0.027435
0.267578 0.157684 0.027863
0.292450 0.156677 0.029297
0.317719 0.155670 0.031006
0.343323 0.154755 0.032959
0.369324 0.153748 0.035187
0.395782 0.152771 0.037781
0.422699 0.151733 0.040497
0.449982 0.150604 0.043365
0.477600 0.149536 0.046417
0.505524 0.148376 0.049469
0.533630 0.147186 0.052704
0.561920 0.145996 0.056061
0.590240 0.144775 0.059418
0.618561 0.143677 0.062927
0.646881 0.142731 0.066467
0.675140 0.141968 0.069885
0.703217 0.141418 0.073517
0.731232 0.141174 0.077148
0.759003 0.141296 0.080750
0.786682 0.141785 0.084534
0.814117 0.142700 0.088287
0.071991 0.219147 0.107910
0.082520 0.213684 0.101685
0.092316 0.208557 0.095642
0.102478 0.204346 0.088989
0.114166 0.200684 0.081940
0.128387 0.197174 0.074799
0.144073 0.193970 0.067871
0.161041 0.190582 0.061340
0.179230 0.187103 0.055267
0.197845 0.183624 0.049561
0.217255 0.180389 0.043304
0.240662 0.178894 0.038666
0.264740 0.177643 0.033936
0.289368 0.176453 0.033661
0.314514 0.175385 0.035126
0.339996 0.174347 0.037170
0.365875 0.173309 0.039093
0.392212 0.172241 0.041443
0.419006 0.171143 0.043945
0.446228 0.169952 0.046509
0.473755 0.168762 0.049316
0.501556 0.167542 0.052216
0.529572 0.166351 0.055176
0.557800 0.165100 0.058380
0.586090 0.163849 0.061554
0.614349 0.162628 0.064880
0.642639 0.161560 0.068176
0.670868 0.160675 0.071533
0.698975 0.160004 0.075012
0.726959 0.159515 0.078400
0.754761 0.159241 0.081940
0.782440 0.159454 0.085449
0.809875 0.159973 0.089020
0.080627 0.242126 0.119202
0.090271 0.236633 0.112976
0.099396 0.231476 0.107086
0.109131 0.226929 0.100616
0.120331 0.223083 0.093597
0.133423 0.219452 0.086578
0.148346 0.216095 0.079468
0.164673 0.212799 0.072723
0.182190 0.209442 0.066528
0.200500 0.205994 0.060883
0.219391 0.202454 0.055664
0.238861 0.199249 0.049713
0.262421 0.197784 0.045563
0.286652 0.196503 0.041290
0.311523 0.195312 0.040070
0.336823 0.194244 0.041473
0.362579 0.193146 0.043365
0.388794 0.192017 0.045380
0.415497 0.190887 0.047699
0.442566 0.189667 0.050079
0.470032 0.188416 0.052582
0.497772 0.187103 0.055206
0.525696 0.185852 0.058014
0.553802 0.184631 0.061035
0.582001 0.183380 0.063965
0.610260 0.182129 0.067169
0.638489 0.180969 0.070282
0.666687 0.179962 0.073517
0.694733 0.179108 0.076782
0.722656 0.178528 0.079987
0.750488 0.178070 0.083435
0.778137 0.178070 0.086823
0.805603 0.178314 0.090118
0.088776 0.265472 0.130280
0.097687 0.259949 0.124237
0.106537 0.254639 0.118225
0.115814 0.249908 0.112152
0.126404 0.245758 0.105347
0.138824 0.242035 0.098175
0.152954 0.238525 0.091156
0.168549 0.235168 0.084320
0.185516 0.231812 0.077606
0.203278 0.228485 0.071594
0.221924 0.225006 0.066467
0.240906 0.221497 0.061615
0.260590 0.218292 0.056061
0.284363 0.216888 0.052460
0.308807 0.215546 0.048737
0.333923 0.214294 0.046692
0.359497 0.213226 0.047943
0.385559 0.212036 0.049652
0.412140 0.210876 0.051636
0.439087 0.209686 0.053894
0.466400 0.208435 0.056274
0.494080 0.207123 0.058716
0.521912 0.205841 0.061218
0.549957 0.204559 0.063995
0.578064 0.203278 0.066803
0.606232 0.202026 0.069794
0.634399 0.200836 0.072693
0.662537 0.199768 0.075714
0.690552 0.198822 0.078796
0.718445 0.198181 0.082031
0.746185 0.197632 0.085144
0.773834 0.197388 0.088470
0.801300 0.197449 0.091644
0.096130 0.289276 0.141388
0.104523 0.283630 0.135254
0.113098 0.278137 0.129211
0.122223 0.273163 0.123383
0.132416 0.268829 0.116730
0.144226 0.264893 0.109741
0.157715 0.261261 0.102753
0.172607 0.257874 0.095825
0.188904 0.254425 0.088959
0.206329 0.251099 0.082611
0.224548 0.247742 0.076904
0.243378 0.244202 0.072021
0.262604 0.240723 0.067505
0.282501 0.237518 0.062439
0.306549 0.236084 0.059296
0.331268 0.234772 0.055908
0.356628 0.233521 0.053345
0.382538 0.232361 0.054291
0.408966 0.231140 0.056061
0.435791 0.229950 0.057983
0.462952 0.228699 0.060150
0.490509 0.227448 0.062439
0.518250 0.226135 0.064850
0.546173 0.224854 0.067291
0.574219 0.223572 0.069946
0.602325 0.222321 0.072662
0.630402 0.221100 0.075348
0.658478 0.220001 0.078186
0.686462 0.219116 0.081146
0.714294 0.218323 0.084259
0.741974 0.217773 0.087128
0.769623 0.217346 0.090271
0.796997 0.217224 0.093384
0.102539 0.313568 0.152405
0.110718 0.307770 0.146149
0.118988 0.302185 0.140289
0.128113 0.296936 0.134369
0.138184 0.292297 0.127991
0.149658 0.288177 0.121155
0.162598 0.284424 0.114258
0.176819 0.280853 0.107300
0.192535 0.277466 0.100464
0.209503 0.274048 0.093903
0.227356 0.270660 0.087738
0.245911 0.267181 0.082367
0.264923 0.263641 0.077606
0.284485 0.260254 0.073425
0.304596 0.256989 0.068878
0.328979 0.255554 0.065948
0.354034 0.254242 0.062897
0.379700 0.252960 0.060333
0.405914 0.251740 0.060669
0.432678 0.250519 0.062378
0.459717 0.249298 0.064240
0.487091 0.248047 0.066254
0.514709 0.246765 0.068542
0.542572 0.245483 0.070862
0.570496 0.244202 0.073212
0.598511 0.243011 0.075653
0.626495 0.241791 0.078247
0.654510 0.240723 0.080933
0.682434 0.239838 0.083801
0.710236 0.238953 0.086700
0.737854 0.238281 0.089478
0.765442 0.237823 0.092407
0.792786 0.237610 0.095459
0.107849 0.338318 0.163300
0.115967 0.332458 0.157074
0.124420 0.326721 0.151154
0.133636 0.321198 0.145355
0.143768 0.316223 0.139252
0.154846 0.311920 0.132629
0.167297 0.307983 0.125732
0.181183 0.304260 0.118713
0.196289 0.300781 0.111908
0.212799 0.297333 0.105225
0.230255 0.293945 0.098785
0.248505 0.290466 0.092865
0.267395 0.286987 0.087738
0.286713 0.283417 0.083252
0.306549 0.279938 0.079346
0.327026 0.276672 0.075073
0.351685 0.275269 0.072388
0.377106 0.273926 0.069733
0.403137 0.272644 0.067230
0.429626 0.271423 0.067017
0.456573 0.270142 0.068542
0.483826 0.268951 0.070343
0.511322 0.267639 0.072327
0.539032 0.266418 0.074463
0.566895 0.265198 0.076660
0.594757 0.263977 0.078918
0.622681 0.262817 0.081390
0.650604 0.261749 0.083923
0.678436 0.260803 0.086639
0.706177 0.259949 0.089355
0.733765 0.259186 0.092072
0.761292 0.258636 0.094757
0.788605 0.258362 0.097656
0.112427 0.363464 0.174103
0.120361 0.357544 0.167816
0.129028 0.351654 0.161896
0.138489 0.345917 0.156158
0.148804 0.340607 0.150269
0.159790 0.336060 0.143921
0.171844 0.331940 0.137177
0.185364 0.328094 0.130219
0.200104 0.324463 0.123260
0.216156 0.320953 0.116455
0.233185 0.317505 0.109863
0.251099 0.314056 0.103607
0.269836 0.310547 0.097900
0.289093 0.307068 0.093048
0.308777 0.303406 0.088928
0.328949 0.299927 0.085144
0.349762 0.296631 0.081177
0.374786 0.295227 0.078796
0.400543 0.293854 0.076355
0.426849 0.292603 0.073853
0.453552 0.291351 0.073273
0.480652 0.290070 0.074585
0.507996 0.288849 0.076355
0.535614 0.287628 0.078308
0.563354 0.286469 0.080322
0.591125 0.285278 0.082489
0.618927 0.284119 0.084747
0.646790 0.283081 0.087128
0.674561 0.282043 0.089630
0.702179 0.281189 0.092072
0.729736 0.280426 0.094727
0.757202 0.279785 0.097321
0.784485 0.279358 0.099945
0.116211 0.388977 0.184875
0.124115 0.383026 0.178436
0.132965 0.377045 0.172638
0.142700 0.371155 0.166931
0.153259 0.365540 0.161255
0.164520 0.360565 0.155060
0.176453 0.356293 0.148468
0.189575 0.352295 0.141571
0.203949 0.348541 0.134674
0.219543 0.344940 0.127747
0.236267 0.341431 0.121002
0.253906 0.337952 0.114563
0.272308 0.334442 0.108490
0.291443 0.330902 0.102966
0.311096 0.327362 0.098267
0.331177 0.323730 0.094391
0.351654 0.320251 0.090881
0.372803 0.316925 0.087219
0.398193 0.315460 0.085052
0.424255 0.314148 0.082825
0.450775 0.312866 0.080566
0.477631 0.311615 0.079376
0.504822 0.310333 0.080566
0.532318 0.309113 0.082306
0.559906 0.307953 0.084198
0.587585 0.306793 0.086212
0.615295 0.305664 0.088257
0.643036 0.304626 0.090454
0.670715 0.303619 0.092712
0.698334 0.302734 0.095062
0.725769 0.301880 0.097565
0.753174 0.301270 0.100006
0.780396 0.300720 0.102509
0.119965 0.414642 0.195984
0.127228 0.408905 0.189240
0.136383 0.402802 0.183258
0.146454 0.396729 0.177612
0.157349 0.390869 0.172089
0.168915 0.385529 0.166199
0.180939 0.380951 0.159790
0.193756 0.376831 0.152954
0.207794 0.372925 0.145966
0.223053 0.369263 0.139069
0.239410 0.365692 0.132202
0.256744 0.362183 0.125610
0.274994 0.358673 0.119263
0.293884 0.355133 0.113403
0.313446 0.351562 0.108032
0.333496 0.347961 0.103546
0.353882 0.344299 0.099731
0.374695 0.340759 0.096558
0.396149 0.337463 0.093048
0.421814 0.335999 0.091003
0.448151 0.334717 0.089172
0.474854 0.333374 0.087128
0.501831 0.332123 0.085510
0.529114 0.330933 0.086578
0.556549 0.329712 0.088135
0.584137 0.328552 0.090027
0.611755 0.327454 0.091980
0.639374 0.326385 0.093933
0.666931 0.325378 0.095978
0.694489 0.324493 0.098175
0.721893 0.323608 0.100647
0.749207 0.322968 0.102905
0.776367 0.322357 0.105377
0.124542 0.440216 0.207520
0.130493 0.434784 0.200226
0.139343 0.428772 0.193939
0.149689 0.422546 0.188263
0.161194 0.416412 0.182800
0.173096 0.410797 0.177185
0.185272 0.405945 0.171082
0.197937 0.401611 0.164307
0.211700 0.397614 0.157349
0.226654 0.393860 0.150421
0.242767 0.390198 0.143463
0.259766 0.386627 0.136658
0.277710 0.383087 0.130096
0.296478 0.379578 0.123962
0.315918 0.376007 0.118225
0.335907 0.372437 0.113129
0.356293 0.368774 0.108887
0.376953 0.365112 0.105255
0.398071 0.361572 0.102081
0.419769 0.358215 0.098755
0.445709 0.356781 0.097015
0.472198 0.355438 0.095245
0.498993 0.354126 0.093384
0.526062 0.352905 0.091858
0.553345 0.351715 0.092438
0.580780 0.350555 0.093903
0.608307 0.349426 0.095673
0.635803 0.348358 0.097565
0.663300 0.347351 0.099396
0.690704 0.346436 0.101501
0.718048 0.345551 0.103760
0.745270 0.344818 0.106018
0.772400 0.344147 0.108368
0.129364 0.465881 0.219360
0.134796 0.460388 0.211639
0.142456 0.454865 0.204895
0.152863 0.448608 0.199005
0.164856 0.442261 0.193695
0.177307 0.436340 0.188263
0.189697 0.431152 0.182373
0.202301 0.426605 0.175690
0.215881 0.422516 0.168793
0.230560 0.418640 0.161835
0.246307 0.414886 0.154785
0.263062 0.411255 0.147827
0.280670 0.407684 0.141083
0.299255 0.404114 0.134644
0.318512 0.400635 0.128723
0.338409 0.397034 0.123047
0.358734 0.393433 0.118225
0.379425 0.389740 0.114166
0.400360 0.386078 0.110718
0.421661 0.382477 0.107513
0.443604 0.379150 0.104492
0.469788 0.377747 0.102936
0.496307 0.376343 0.101196
0.523163 0.375061 0.099518
0.550323 0.373871 0.097992
0.577545 0.372681 0.098053
0.604919 0.371582 0.099487
0.632324 0.370514 0.101196
0.659698 0.369476 0.103119
0.687012 0.368500 0.105042
0.714233 0.367615 0.107086
0.741455 0.366852 0.109222
0.768463 0.366119 0.111389
0.134491 0.491547 0.231384
0.139832 0.486053 0.223602
0.146484 0.480743 0.216248
0.156189 0.474762 0.209930
0.168518 0.468323 0.204651
0.181427 0.462128 0.199371
0.194275 0.456512 0.193634
0.206940 0.451782 0.187195
0.220337 0.447479 0.180267
0.234741 0.443542 0.173279
0.250214 0.439697 0.166229
0.266602 0.435974 0.159180
0.284027 0.432465 0.152313
0.302277 0.428864 0.145630
0.321320 0.425354 0.139313
0.341064 0.421814 0.133453
0.361237 0.418152 0.127930
0.381897 0.414520 0.123260
0.402863 0.410828 0.119354
0.424042 0.407166 0.116058
0.445496 0.403534 0.112976
0.467560 0.400238 0.110291
0.493896 0.398773 0.108673
0.520508 0.397461 0.107178
0.547394 0.396210 0.105591
0.574432 0.394928 0.104126
0.601685 0.393768 0.103760
0.628906 0.392731 0.105072
0.656128 0.391663 0.106842
0.683350 0.390625 0.108795
0.710541 0.389740 0.110626
0.737671 0.388947 0.112579
0.764587 0.388184 0.114655
0.140289 0.517120 0.243561
0.145447 0.511749 0.235962
0.151886 0.506287 0.228058
0.160034 0.500854 0.221191
0.172394 0.494354 0.215790
0.185669 0.487915 0.210510
0.199005 0.481995 0.204956
0.211975 0.476990 0.198853
0.225220 0.472565 0.191956
0.239319 0.468414 0.184814
0.254486 0.464630 0.177826
0.270630 0.460876 0.170746
0.287689 0.457275 0.163727
0.305756 0.453735 0.156860
0.324463 0.450134 0.150238
0.343933 0.446594 0.144012
0.364014 0.443024 0.138275
0.384460 0.439362 0.132904
0.405365 0.435669 0.128387
0.426514 0.432007 0.124634
0.447876 0.428314 0.121490
0.469543 0.424744 0.118500
0.491699 0.421448 0.115875
0.518066 0.419983 0.114502
0.544739 0.418671 0.113098
0.571564 0.417419 0.111694
0.598511 0.416107 0.110352
0.625641 0.414948 0.109650
0.652740 0.413940 0.110748
0.679840 0.412964 0.112366
0.706909 0.411987 0.114258
0.733856 0.411011 0.116119
0.760773 0.410248 0.118073
0.147095 0.542694 0.256348
0.151947 0.537292 0.248383
0.158020 0.531891 0.240479
0.165222 0.526581 0.233002
0.176971 0.520355 0.227142
0.190521 0.513702 0.221893
0.204071 0.507599 0.216492
0.217407 0.502258 0.210632
0.230530 0.497711 0.203888
0.244415 0.493439 0.196716
0.259247 0.489532 0.189606
0.275085 0.485779 0.182434
0.291840 0.482117 0.175323
0.309479 0.478516 0.168243
0.328003 0.474945 0.161469
0.347198 0.471405 0.154938
0.366943 0.467804 0.148773
0.387268 0.464203 0.143158
0.408051 0.460571 0.138062
0.429169 0.456940 0.133759
0.450378 0.453217 0.130066
0.471863 0.449493 0.126923
0.493591 0.445953 0.123962
0.515778 0.442566 0.121429
0.542175 0.441162 0.120087
0.568878 0.439880 0.118958
0.595642 0.438568 0.117645
0.622559 0.437408 0.116516
0.649475 0.436279 0.115601
0.676422 0.435272 0.116394
0.703400 0.434265 0.118011
0.730286 0.433258 0.119720
0.757080 0.432465 0.121613
0.154602 0.568176 0.269440
0.159027 0.562744 0.261169
0.164917 0.557434 0.253235
0.171722 0.552063 0.245483
0.182312 0.546112 0.238861
0.195953 0.539459 0.233673
0.209656 0.533173 0.228241
0.223206 0.527588 0.222565
0.236328 0.522736 0.215973
0.250000 0.518402 0.208832
0.264557 0.514374 0.201599
0.279999 0.510590 0.194305
0.296448 0.506897 0.187134
0.313721 0.503296 0.179932
0.331879 0.499664 0.172821
0.350800 0.496124 0.166138
0.370270 0.492584 0.159698
0.390320 0.488953 0.153595
0.410950 0.485382 0.148132
0.431885 0.481781 0.143280
0.453064 0.478088 0.139099
0.474365 0.474335 0.135406
0.495972 0.470673 0.132416
0.517761 0.467133 0.129456
0.539886 0.463715 0.127045
0.566315 0.462372 0.125824
0.592896 0.461029 0.124786
0.619690 0.459869 0.123657
0.646454 0.458679 0.122650
0.673157 0.457550 0.121613
0.700043 0.456512 0.122253
0.726776 0.455536 0.123596
0.753510 0.454712 0.125458
0.162842 0.593536 0.282867
0.167023 0.588104 0.274323
0.172638 0.582672 0.266083
0.179077 0.577393 0.258209
0.188446 0.571655 0.250946
0.202057 0.565033 0.245758
0.216003 0.558624 0.240387
0.229492 0.552826 0.234711
0.242676 0.547729 0.228241
0.256104 0.543243 0.221069
0.270325 0.539185 0.213867
0.285400 0.535339 0.206451
0.301483 0.531616 0.199188
0.318420 0.527985 0.191895
0.336212 0.524353 0.184570
0.354797 0.520782 0.177582
0.373993 0.517303 0.170959
0.393707 0.513702 0.164612
0.414062 0.510132 0.158722
0.434814 0.506531 0.153290
0.455841 0.502869 0.148529
0.477081 0.499237 0.144531
0.498535 0.495453 0.140991
0.520142 0.491821 0.138000
0.541901 0.488251 0.135101
0.564026 0.484894 0.132782
0.590332 0.483551 0.131622
0.616882 0.482239 0.130707
0.643494 0.481110 0.129730
0.670074 0.479919 0.128693
0.696808 0.478882 0.127899
0.723419 0.477783 0.128021
0.749969 0.476868 0.129395
0.171844 0.618866 0.296783
0.175659 0.613281 0.287842
0.180847 0.607910 0.279510
0.187073 0.602661 0.271545
0.195465 0.597229 0.263794
0.208862 0.590576 0.258362
0.222870 0.583954 0.252869
0.236267 0.577972 0.247101
0.249573 0.572723 0.240906
0.262787 0.568085 0.233765
0.276642 0.563873 0.226349
0.291321 0.559967 0.218842
0.306946 0.556183 0.211334
0.323547 0.552551 0.203979
0.340973 0.548950 0.196655
0.359161 0.545410 0.189453
0.378052 0.541840 0.182495
0.397522 0.538330 0.175842
0.417572 0.534760 0.169617
0.438080 0.531219 0.163971
0.458923 0.527588 0.158661
0.480011 0.523926 0.154053
0.501312 0.520294 0.150116
0.522766 0.516541 0.146820
0.544281 0.512848 0.143646
