滤镜资源/Professional Luts Collection/Lutify.me Professional/Vintage Films/Tiger Iron.cube
# Created by: Lutify.me
# Copyright: (c) Copyright Lutify.me 2015
# Website: https://lutify.me
#LUT size
LUT_3D_SIZE 33
#LUT data points
0.000000 0.000000 0.000000
0.033752 0.000000 0.000397
0.065155 0.000000 0.000031
0.095093 0.000000 0.000366
0.125702 0.000000 0.000427
0.155975 0.000000 0.000732
0.186493 0.000000 0.001099
0.216888 0.000000 0.000977
0.247528 0.000000 0.001404
0.278076 0.000000 0.001862
0.308716 0.000000 0.002228
0.339447 0.000000 0.002625
0.370148 0.000000 0.003021
0.400940 0.000000 0.003479
0.431763 0.000000 0.003906
0.462555 0.000000 0.004395
0.493347 0.000000 0.004913
0.524078 0.000000 0.005280
0.554840 0.000000 0.005829
0.585632 0.000000 0.006409
0.616302 0.000000 0.006775
0.646973 0.000000 0.007263
0.677612 0.000000 0.007843
0.708038 0.000000 0.008148
0.738220 0.000000 0.008301
0.768250 0.000000 0.008698
0.797882 0.000000 0.009003
0.827179 0.000183 0.009399
0.856049 0.002411 0.009430
0.884338 0.012146 0.009827
0.912170 0.025024 0.010223
0.939331 0.041321 0.010651
0.965790 0.058350 0.010651
0.005005 0.025604 0.011322
0.030975 0.020966 0.001923
0.061066 0.018005 0.000458
0.091034 0.015045 0.000397
0.121155 0.011627 0.000427
0.151459 0.008392 0.000427
0.181519 0.004639 0.000732
0.211945 0.000824 0.001129
0.242371 0.000122 0.001312
0.272949 0.000061 0.001801
0.303619 0.000000 0.002014
0.334351 0.000000 0.002319
0.365051 0.000000 0.002899
0.395782 0.000000 0.003479
0.426636 0.000000 0.004059
0.457397 0.000000 0.004395
0.488190 0.000000 0.004791
0.518982 0.000000 0.005280
0.549744 0.000000 0.005707
0.580536 0.000000 0.006226
0.611206 0.000000 0.006805
0.641907 0.000000 0.007355
0.672516 0.000000 0.007660
0.702942 0.000000 0.008148
0.733276 0.000000 0.008270
0.763245 0.000000 0.008606
0.792969 0.000000 0.009064
0.822418 0.000000 0.009430
0.851318 0.001129 0.009766
0.879730 0.010132 0.009857
0.907562 0.023071 0.010223
0.934875 0.038635 0.010651
0.961487 0.055573 0.010651
0.009674 0.051147 0.022156
0.035370 0.046204 0.014038
0.058411 0.041809 0.004211
0.087646 0.038513 0.001282
0.117157 0.035706 0.000824
0.147095 0.032196 0.001099
0.177277 0.028687 0.001160
0.207672 0.024872 0.001404
0.238098 0.020813 0.001556
0.268402 0.017151 0.001862
0.299011 0.013062 0.002258
0.329529 0.008789 0.002716
0.360229 0.004517 0.003021
0.390900 0.001282 0.003235
0.421600 0.000244 0.003662
0.452393 0.000092 0.004242
0.483063 0.000000 0.004700
0.513824 0.000000 0.005096
0.544647 0.000000 0.005615
0.575439 0.000000 0.006073
0.606110 0.000000 0.006500
0.636780 0.000000 0.007080
0.667450 0.000000 0.007568
0.697906 0.000000 0.008118
0.728210 0.000000 0.008209
0.758301 0.000000 0.008606
0.787994 0.000000 0.008789
0.817505 0.000000 0.009460
0.846588 0.000916 0.009857
0.875000 0.008484 0.010132
0.903015 0.020721 0.009888
0.930420 0.035522 0.010651
0.957062 0.053009 0.010651
0.015564 0.076416 0.033783
0.041107 0.071289 0.025574
0.062408 0.067108 0.016022
0.084595 0.062439 0.006561
0.113068 0.059479 0.002045
0.142822 0.056488 0.001862
0.172852 0.053162 0.001892
0.203064 0.049591 0.001953
0.233276 0.046112 0.001984
0.263763 0.042236 0.002228
0.294342 0.037933 0.002411
0.324890 0.033539 0.002625
0.355469 0.029022 0.002991
0.386108 0.024536 0.003387
0.416809 0.020203 0.003967
0.447540 0.016205 0.004517
0.478271 0.011932 0.004791
0.509003 0.007721 0.005157
0.539734 0.003815 0.005615
0.570435 0.001190 0.006134
0.601166 0.000427 0.006531
0.631805 0.000244 0.006897
0.662354 0.000061 0.007355
0.692902 0.000000 0.007751
0.723175 0.000000 0.008301
0.753296 0.000000 0.008667
0.783142 0.000000 0.008972
0.812622 0.000000 0.009399
0.841705 0.000702 0.009491
0.870361 0.006866 0.009857
0.898407 0.018341 0.010193
0.925934 0.032379 0.010284
0.952698 0.050140 0.010651
0.022522 0.101929 0.045441
0.047211 0.096436 0.038025
0.066925 0.092346 0.027924
0.088043 0.087616 0.018341
0.110443 0.083008 0.009247
0.138824 0.080383 0.002960
0.168732 0.077393 0.002380
0.198486 0.074249 0.002350
0.228760 0.070984 0.002655
0.259064 0.067566 0.002533
0.289520 0.063995 0.002747
0.320007 0.059998 0.002991
0.350616 0.055878 0.003448
0.381287 0.051605 0.003754
0.412018 0.047180 0.003845
0.442719 0.042694 0.004395
0.473389 0.038025 0.004913
0.504120 0.033264 0.005188
0.534851 0.028870 0.005585
0.565582 0.024658 0.006134
0.596252 0.021179 0.006622
0.626862 0.018036 0.006805
0.657440 0.015137 0.007141
0.687897 0.012909 0.007629
0.718231 0.010986 0.008240
0.748352 0.010040 0.008606
0.778229 0.010193 0.008728
0.807770 0.011719 0.009094
0.836945 0.014465 0.009399
0.865631 0.019928 0.009766
0.893768 0.027771 0.009857
0.921387 0.038879 0.010223
0.948273 0.051697 0.010651
0.031586 0.127655 0.056824
0.054199 0.121918 0.049866
0.072357 0.117584 0.040405
0.091919 0.113373 0.030548
0.113068 0.108856 0.021301
0.136078 0.104218 0.011780
0.164764 0.101288 0.004761
0.194244 0.098633 0.003479
0.224304 0.095551 0.003418
0.254395 0.092407 0.003418
0.284729 0.089050 0.003235
0.315155 0.085663 0.003693
0.345734 0.082153 0.003845
0.376343 0.078369 0.003998
0.407043 0.074463 0.004303
0.437744 0.070465 0.004639
0.468414 0.066467 0.005005
0.499146 0.062347 0.005280
0.529938 0.058105 0.005737
0.560699 0.054047 0.006073
0.591339 0.050079 0.006317
0.621918 0.046387 0.006744
0.652557 0.042908 0.007111
0.683044 0.039795 0.007477
0.713348 0.037567 0.007843
0.743500 0.036041 0.007996
0.773376 0.035583 0.008423
0.802979 0.036926 0.009003
0.832153 0.039917 0.009369
0.860870 0.044617 0.009430
0.889130 0.050720 0.009521
0.916840 0.059204 0.010162
0.943817 0.068817 0.010284
0.041260 0.153687 0.068390
0.062225 0.147827 0.061279
0.078583 0.143188 0.052673
0.096069 0.139069 0.043488
0.116730 0.134827 0.033447
0.138794 0.130035 0.024261
0.162048 0.125397 0.014526
0.190491 0.122620 0.007050
0.219971 0.119904 0.004608
0.250000 0.116943 0.004517
0.280060 0.114075 0.004303
0.310333 0.110931 0.004303
0.340790 0.107727 0.004578
0.371368 0.104340 0.004700
0.401978 0.100891 0.004913
0.432678 0.097290 0.005005
0.463379 0.093658 0.005402
0.494049 0.090088 0.005676
0.524811 0.086426 0.005798
0.555542 0.082703 0.006195
0.586243 0.079071 0.006500
0.616913 0.075500 0.006744
0.647552 0.072388 0.007111
0.678070 0.069458 0.007446
0.708405 0.066895 0.007751
0.738617 0.065033 0.007843
0.768555 0.063751 0.008270
0.798187 0.063934 0.008667
0.827362 0.065338 0.009003
0.856171 0.068146 0.009094
0.884460 0.072571 0.009369
0.912262 0.078491 0.009827
0.939362 0.085876 0.009857
0.051758 0.179779 0.079773
0.070312 0.173645 0.072754
0.084930 0.169006 0.064331
0.101471 0.164734 0.055084
0.120361 0.160583 0.046082
0.141876 0.156128 0.036133
0.164185 0.151520 0.027161
0.187653 0.146851 0.017273
0.216309 0.144135 0.009888
0.245728 0.141388 0.005981
0.275726 0.138611 0.005463
0.305847 0.135773 0.005341
0.336121 0.132751 0.005493
0.366486 0.129761 0.005554
0.397064 0.126556 0.005585
0.427673 0.123230 0.005859
0.458313 0.119934 0.006042
0.488983 0.116638 0.006195
0.519684 0.113281 0.006378
0.550385 0.109955 0.006714
0.581116 0.106659 0.007141
0.611786 0.103455 0.007263
0.642365 0.100403 0.007324
0.672913 0.097687 0.007629
0.703339 0.095093 0.007904
0.733551 0.093018 0.008087
0.763519 0.091431 0.008240
0.793243 0.090668 0.008392
0.822540 0.090912 0.008698
0.851410 0.092468 0.009003
0.879791 0.095123 0.009155
0.907593 0.098938 0.009491
0.934723 0.104309 0.009735
0.061737 0.206146 0.091034
0.078369 0.200043 0.084076
0.092010 0.195099 0.075867
0.107147 0.190674 0.066956
0.124878 0.186584 0.057678
0.145203 0.182220 0.048279
0.167114 0.177765 0.038879
0.189728 0.173096 0.030121
0.213379 0.168396 0.020203
0.242126 0.165680 0.012848
0.271545 0.163147 0.007355
0.301422 0.160431 0.006805
0.331604 0.157623 0.006653
0.361786 0.154755 0.006744
0.392181 0.151886 0.006561
0.422791 0.148834 0.006622
0.453339 0.145752 0.006683
0.483917 0.142700 0.006958
0.514587 0.139618 0.007080
0.545258 0.136475 0.007263
0.575958 0.133331 0.007568
0.606628 0.130402 0.007874
0.637207 0.127533 0.007935
0.667786 0.124725 0.008087
0.698151 0.122223 0.008209
0.728424 0.120026 0.008301
0.758392 0.118317 0.008484
0.788147 0.117157 0.008636
0.817505 0.116638 0.008911
0.846405 0.117218 0.009064
0.874878 0.118683 0.009247
0.902771 0.121216 0.009460
0.929993 0.125153 0.009460
0.071411 0.232849 0.102325
0.086151 0.226715 0.095062
0.098999 0.221527 0.087067
0.112793 0.217041 0.078644
0.129913 0.212646 0.069305
0.148987 0.208466 0.060120
0.170135 0.204102 0.050598
0.192322 0.199524 0.041809
0.215302 0.194824 0.033020
0.239044 0.190308 0.023315
0.267792 0.187653 0.016113
0.297241 0.185059 0.009125
0.327087 0.182434 0.008118
0.357208 0.179688 0.007751
0.387482 0.176910 0.007843
0.417908 0.174103 0.007751
0.448395 0.171234 0.007843
0.478943 0.168335 0.007629
0.509521 0.165405 0.007965
0.540161 0.162506 0.007996
0.570831 0.159637 0.007996
0.601440 0.156738 0.008179
0.631989 0.153961 0.008392
0.662567 0.151276 0.008514
0.692993 0.148804 0.008575
0.723206 0.146637 0.008636
0.753235 0.144775 0.008759
0.782990 0.143341 0.008911
0.812378 0.142456 0.009094
0.841400 0.142303 0.009308
0.869812 0.143005 0.009399
0.897827 0.144623 0.009491
0.925171 0.147369 0.009705
0.080536 0.259796 0.113525
0.093964 0.253601 0.106262
0.105988 0.248169 0.098358
0.119354 0.243469 0.089996
0.135040 0.239075 0.080780
0.153229 0.234802 0.071594
0.173462 0.230591 0.062378
0.195007 0.226196 0.053253
0.217590 0.221558 0.044891
0.240753 0.216827 0.035950
0.264709 0.212433 0.026337
0.293549 0.209717 0.019165
0.322906 0.207123 0.011780
0.352814 0.204529 0.009521
0.382904 0.201935 0.009125
0.413147 0.199280 0.008911
0.443512 0.196533 0.008850
0.473999 0.193787 0.008881
0.504547 0.190979 0.008789
0.535126 0.188202 0.008911
0.565704 0.185486 0.008881
0.596283 0.182770 0.008850
0.626831 0.180054 0.008972
0.657318 0.177521 0.009064
0.687775 0.175079 0.009094
0.718018 0.172852 0.009216
0.748016 0.170929 0.009094
0.777802 0.169250 0.009308
0.807220 0.168152 0.009491
0.836273 0.167603 0.009491
0.864807 0.167786 0.009491
0.892853 0.168610 0.009674
0.920197 0.170380 0.009796
0.089294 0.286835 0.124481
0.101624 0.280670 0.117218
0.113251 0.275085 0.109650
0.125702 0.270203 0.101318
0.140411 0.265686 0.092407
0.157715 0.261383 0.083130
0.176971 0.257141 0.073822
0.197998 0.252808 0.064667
0.219940 0.248383 0.055786
0.242828 0.243713 0.047638
0.266235 0.238983 0.038910
0.290283 0.234528 0.029419
0.319214 0.231903 0.021942
0.348602 0.229401 0.014435
0.378510 0.226868 0.011047
0.408569 0.224335 0.010376
0.438782 0.221741 0.010071
0.469177 0.219086 0.009857
0.499634 0.216431 0.009888
0.530090 0.213745 0.009766
0.560638 0.211121 0.009735
0.591156 0.208496 0.009796
0.621674 0.205902 0.009705
0.652161 0.203430 0.009735
0.682526 0.201080 0.009644
0.712799 0.198853 0.009796
0.742828 0.196838 0.009674
0.772583 0.195099 0.009735
0.802032 0.193726 0.009796
0.831085 0.192810 0.009766
0.859680 0.192596 0.009705
0.887817 0.192932 0.010101
0.915253 0.194031 0.010101
0.097748 0.314087 0.135284
0.109161 0.307953 0.128143
0.120392 0.302185 0.120483
0.131866 0.297241 0.112549
0.146118 0.292542 0.103699
0.162445 0.288086 0.094543
0.181000 0.283783 0.085236
0.201080 0.279602 0.075897
0.222687 0.275177 0.066742
0.245056 0.270721 0.057983
0.268188 0.266052 0.050018
0.291748 0.261353 0.041779
0.315918 0.256836 0.032349
0.344910 0.254272 0.024963
0.374329 0.251831 0.017395
0.404114 0.249359 0.012665
0.434174 0.246826 0.011566
0.464355 0.244354 0.011261
0.494720 0.241791 0.010986
0.525146 0.239227 0.010956
0.555573 0.236664 0.010681
0.586090 0.234131 0.010620
0.616547 0.231659 0.010498
0.646973 0.229218 0.010406
0.677338 0.226837 0.010345
0.707550 0.224609 0.010223
0.737579 0.222565 0.010223
0.767365 0.220795 0.010193
0.796814 0.219299 0.010040
0.825897 0.218201 0.009979
0.854492 0.217621 0.010162
0.882660 0.217529 0.010254
0.910187 0.218109 0.010345
0.105896 0.341583 0.146118
0.116486 0.335388 0.138824
0.127258 0.329468 0.131378
0.138336 0.324371 0.123444
0.151703 0.319611 0.114838
0.167419 0.315033 0.105804
0.185150 0.310699 0.096558
0.204559 0.306458 0.087158
0.225433 0.302124 0.077698
0.247467 0.297760 0.068695
0.270264 0.293213 0.060272
0.293488 0.288544 0.052399
0.317139 0.283875 0.044617
0.341461 0.279358 0.035156
0.370483 0.276825 0.027863
0.399963 0.274414 0.020355
0.429688 0.271973 0.014221
0.459778 0.269501 0.012817
0.489960 0.267090 0.012390
0.520264 0.264618 0.012054
0.550598 0.262146 0.011841
0.580994 0.259705 0.011688
0.611450 0.257263 0.011475
0.641815 0.254883 0.011322
0.672150 0.252563 0.011139
0.702332 0.250305 0.010773
0.732300 0.248260 0.010742
0.762146 0.246399 0.010742
0.791595 0.244843 0.010590
0.820679 0.243591 0.010468
0.849304 0.242767 0.010620
0.877533 0.242310 0.010315
0.905060 0.242523 0.010529
0.113617 0.369263 0.156921
0.123718 0.362946 0.149536
0.133850 0.357056 0.142303
0.144745 0.351715 0.134338
0.157440 0.346802 0.125885
0.172485 0.342163 0.116913
0.189484 0.337769 0.107788
0.208191 0.333496 0.098480
0.228424 0.329193 0.089020
0.249939 0.324890 0.079681
0.272278 0.320496 0.070648
0.295380 0.315826 0.062378
0.318726 0.311127 0.054810
0.342560 0.306519 0.047150
0.366974 0.302032 0.037994
0.396027 0.299530 0.030609
0.425507 0.297150 0.023102
0.455261 0.294769 0.016113
0.485321 0.292358 0.013947
0.515472 0.289978 0.013428
0.545715 0.287628 0.012909
0.576019 0.285187 0.012695
0.606354 0.282806 0.012421
0.636719 0.280487 0.012085
0.666962 0.278229 0.011810
0.697144 0.276001 0.011475
0.727081 0.273895 0.011383
0.756897 0.272064 0.011292
0.786346 0.270477 0.011108
0.815430 0.269043 0.010803
0.844086 0.267975 0.010803
0.872314 0.267334 0.010651
0.899933 0.267181 0.010742
0.121216 0.397034 0.167664
0.130737 0.390717 0.160339
0.140411 0.384766 0.153015
0.150940 0.379211 0.145294
0.163300 0.374176 0.136841
0.177612 0.369476 0.128143
0.194061 0.364990 0.118988
0.212067 0.360626 0.109711
0.231689 0.356354 0.100220
0.252594 0.352020 0.090851
0.274536 0.347717 0.081451
0.297211 0.343262 0.072601
0.320465 0.338623 0.064453
0.344025 0.333923 0.056854
0.367981 0.329285 0.049347
0.392487 0.324829 0.040771
0.421509 0.322357 0.033173
0.451019 0.319977 0.025665
0.480804 0.317657 0.018341
0.510773 0.315308 0.015015
0.540924 0.312958 0.014313
0.571136 0.310699 0.013763
0.601349 0.308289 0.013428
0.631622 0.306000 0.012970
0.661865 0.303802 0.012573
0.691956 0.301605 0.012207
0.721863 0.299561 0.012085
0.751648 0.297638 0.011719
0.781036 0.295990 0.011566
0.810120 0.294464 0.011139
0.838806 0.293243 0.011047
0.867065 0.292450 0.011200
0.894684 0.292023 0.010925
0.128479 0.424835 0.178345
0.137451 0.418549 0.170990
0.146851 0.412506 0.163696
0.157166 0.406830 0.156067
0.169067 0.401672 0.147797
0.182861 0.396851 0.139191
0.198639 0.392303 0.130219
0.216217 0.387878 0.120850
0.235138 0.383575 0.111481
0.255432 0.379303 0.101898
0.276978 0.374969 0.092468
0.299225 0.370575 0.083099
0.322205 0.366058 0.074310
0.345612 0.361511 0.066315
0.369324 0.356781 0.058777
0.393341 0.352142 0.051544
0.417938 0.347717 0.043304
0.446991 0.345245 0.035797
0.476501 0.342896 0.028107
0.506256 0.340576 0.020538
0.536224 0.338318 0.016083
0.566284 0.335999 0.015076
0.596436 0.333740 0.014435
0.626617 0.331543 0.014069
0.656769 0.329315 0.013458
0.686829 0.327148 0.013214
0.716644 0.325104 0.012634
0.746399 0.323181 0.012299
0.775787 0.321411 0.011993
0.804810 0.319855 0.011749
0.833527 0.318542 0.011475
0.861755 0.317535 0.011597
0.889404 0.316925 0.011169
0.135468 0.452728 0.188995
0.144012 0.446442 0.181641
0.153137 0.440399 0.174377
0.163300 0.434570 0.166901
0.174896 0.429260 0.158752
0.188202 0.424316 0.150116
0.203461 0.419708 0.141266
0.220428 0.415222 0.132019
0.238708 0.410858 0.122650
0.258484 0.406616 0.113129
0.279480 0.402313 0.103516
0.301422 0.397980 0.093933
0.324005 0.393524 0.084717
0.347168 0.388977 0.075928
0.370758 0.384399 0.068085
0.394592 0.379669 0.060822
0.418701 0.375061 0.053558
0.443298 0.370697 0.045410
0.472412 0.368256 0.038422
0.501953 0.365906 0.030548
0.531677 0.363647 0.022858
0.561584 0.361450 0.017059
0.591553 0.359161 0.015594
0.621674 0.356964 0.015045
0.651703 0.354828 0.014435
0.681702 0.352631 0.013947
0.711487 0.350586 0.013397
0.741150 0.348633 0.012848
0.770538 0.346893 0.012573
0.799561 0.345276 0.012299
0.828217 0.343842 0.011963
0.856415 0.342743 0.011749
0.884064 0.341919 0.011475
0.142456 0.480652 0.199768
0.150513 0.474426 0.192474
0.159607 0.468323 0.185089
0.169434 0.462372 0.177704
0.180756 0.456970 0.169769
0.193665 0.451904 0.161194
0.208374 0.447205 0.152374
0.224792 0.442657 0.143219
0.242554 0.438232 0.133759
0.261749 0.433990 0.124298
0.282227 0.429688 0.114594
0.303680 0.425415 0.105042
0.325989 0.421051 0.095459
0.348846 0.416565 0.086304
0.372192 0.411987 0.077667
0.395905 0.407379 0.069855
0.419800 0.402649 0.062653
0.443970 0.398071 0.055389
0.468689 0.393707 0.047485
0.497742 0.391296 0.040558
0.527313 0.389038 0.032959
0.557007 0.386810 0.025238
0.586853 0.384613 0.018188
0.616791 0.382416 0.016296
0.646729 0.380249 0.015472
0.676605 0.378113 0.014923
0.706390 0.376099 0.014130
0.735931 0.374176 0.013611
0.765228 0.372345 0.013214
0.794281 0.370697 0.012787
0.822876 0.369202 0.012543
0.851105 0.367981 0.012024
0.878693 0.367004 0.011902
0.149323 0.508575 0.210754
0.157104 0.502319 0.203247
0.165955 0.496185 0.195862
0.175598 0.490204 0.188416
0.186707 0.484558 0.180603
0.199249 0.479462 0.172180
0.213501 0.474731 0.163483
0.229218 0.470123 0.154358
0.246552 0.465668 0.144928
0.265259 0.461365 0.135468
0.285217 0.457092 0.125824
0.306183 0.452789 0.116058
0.328064 0.448486 0.106415
0.350647 0.444153 0.096954
0.373749 0.439636 0.087830
0.397278 0.435059 0.079254
0.421082 0.430450 0.071472
0.445007 0.425751 0.064362
0.469238 0.421143 0.057068
0.493988 0.416779 0.049500
0.523102 0.414429 0.042633
0.552582 0.412140 0.035004
0.582275 0.409973 0.027313
0.612030 0.407806 0.019775
0.641815 0.405670 0.016815
0.671600 0.403564 0.015778
0.701263 0.401581 0.015137
0.730774 0.399628 0.014374
0.760010 0.397766 0.013855
0.788971 0.396118 0.013336
0.817566 0.394531 0.013031
0.845734 0.393188 0.012482
0.873383 0.392151 0.012299
0.156464 0.536469 0.221863
0.163849 0.530090 0.213989
0.172333 0.524078 0.206757
0.181854 0.518005 0.199249
0.192780 0.512268 0.191589
0.205048 0.507050 0.183258
0.218781 0.502197 0.174561
0.233978 0.497528 0.165436
0.250824 0.493073 0.156219
0.268982 0.488739 0.146729
0.288391 0.484436 0.137054
0.308868 0.480164 0.127197
0.330322 0.475861 0.117310
0.352509 0.471527 0.107635
0.375366 0.467224 0.098328
0.398682 0.462677 0.089172
0.422394 0.458160 0.080780
0.446228 0.453491 0.073029
0.470215 0.448853 0.066010
0.494476 0.444244 0.058594
0.519196 0.439941 0.051208
0.548431 0.437622 0.044708
0.577820 0.435303 0.037048
0.607361 0.433167 0.029083
0.637085 0.431061 0.021362
0.666687 0.428955 0.017303
0.696289 0.426971 0.016052
0.725647 0.425018 0.015259
0.754852 0.423126 0.014557
0.783691 0.421387 0.014130
0.812225 0.419800 0.013550
0.840393 0.418488 0.013031
0.868011 0.417328 0.012726
0.164001 0.564087 0.232971
0.170868 0.557831 0.225128
0.179108 0.551788 0.217743
0.188324 0.545776 0.210297
0.199005 0.539978 0.202728
0.210876 0.534637 0.194489
0.224182 0.529633 0.185699
0.238922 0.524933 0.176758
0.255280 0.520386 0.167419
0.272980 0.516052 0.157959
0.291870 0.511749 0.148315
0.311829 0.507477 0.138397
0.332855 0.503235 0.128571
0.354645 0.498962 0.118652
0.377136 0.494629 0.109009
0.400238 0.490265 0.099609
0.423676 0.485687 0.090515
0.447449 0.481171 0.082245
0.471344 0.476532 0.074585
0.495422 0.471924 0.067535
0.519684 0.467346 0.060120
0.544403 0.463074 0.052734
0.573578 0.460754 0.046448
0.602966 0.458527 0.039185
0.632385 0.456390 0.031067
0.661804 0.454224 0.023254
0.691284 0.452301 0.017944
0.720612 0.450317 0.016388
0.749634 0.448425 0.015564
0.778412 0.446655 0.015137
0.806915 0.445038 0.014435
0.835022 0.443665 0.013916
0.862579 0.442413 0.013306
0.171997 0.591461 0.244110
0.178314 0.585480 0.236603
0.186218 0.579254 0.228699
0.195038 0.573364 0.221497
0.205505 0.567505 0.213898
0.217041 0.562042 0.205627
0.229980 0.556976 0.196930
0.244232 0.552246 0.188171
0.260010 0.547668 0.178864
0.277161 0.543213 0.169250
0.295593 0.539001 0.159729
0.315125 0.534760 0.149902
0.335663 0.530548 0.139984
0.357086 0.526306 0.130035
0.379211 0.521973 0.120087
0.401978 0.517639 0.110382
0.425171 0.513275 0.100983
0.448669 0.508698 0.092010
0.472504 0.504150 0.083740
0.496460 0.499573 0.076050
0.520538 0.494965 0.069031
0.544891 0.490448 0.061737
0.569580 0.486176 0.054474
0.598663 0.483856 0.048096
0.627930 0.481689 0.041199
0.657196 0.479614 0.033142
0.686401 0.477478 0.025116
0.715576 0.475525 0.018646
0.744507 0.473663 0.016785
0.773254 0.471893 0.015869
0.801636 0.470245 0.015289
0.829590 0.468689 0.014862
0.857147 0.467346 0.014313
0.180817 0.618622 0.255859
0.186554 0.612671 0.248016
0.193970 0.606567 0.240173
0.202393 0.600616 0.232697
0.212402 0.594818 0.225189
0.223724 0.589264 0.217102
0.236145 0.584137 0.208466
0.250000 0.579407 0.199615
0.265259 0.574829 0.190460
0.281830 0.570343 0.180908
0.299744 0.566071 0.171234
0.318756 0.561859 0.161469
0.338806 0.557678 0.151550
0.359772 0.553467 0.141479
0.381500 0.549194 0.131409
0.403870 0.544922 0.121521
0.426758 0.540588 0.111725
0.450104 0.536163 0.102417
0.473785 0.531677 0.093628
0.497650 0.527161 0.085388
0.521576 0.522522 0.077728
0.545685 0.517944 0.070465
0.569977 0.513489 0.063446
0.594543 0.509155 0.056000
0.623505 0.506897 0.049988
0.652679 0.504822 0.042938
0.681671 0.502747 0.035187
0.710693 0.500732 0.027405
0.739502 0.498840 0.019989
0.768097 0.497009 0.017212
0.796417 0.495300 0.016418
0.824280 0.493713 0.015869
0.851746 0.492340 0.015259
0.190552 0.645355 0.268005
0.195587 0.639435 0.259888
0.202576 0.633514 0.252075
0.210388 0.627594 0.244263
0.220062 0.621765 0.236664
0.231140 0.616211 0.228821
0.242981 0.611053 0.220123
0.256256 0.606323 0.211273
0.270935 0.601685 0.202026
0.286926 0.597229 0.192535
0.304321 0.592896 0.182953
0.322815 0.588715 0.173218
0.342377 0.584595 0.163361
0.362854 0.580414 0.153198
0.384155 0.576172 0.142944
0.406158 0.571960 0.132904
0.428711 0.567719 0.122986
0.451721 0.563324 0.113190
0.475159 0.558929 0.104004
0.498901 0.554504 0.095245
0.522705 0.549957 0.087006
0.546631 0.545319 0.079437
0.570709 0.540833 0.072205
0.594940 0.536346 0.064941
0.619415 0.532043 0.057526
0.648254 0.529877 0.051727
0.677124 0.527771 0.044678
0.705994 0.525848 0.037903
0.734650 0.523865 0.029846
0.763031 0.522003 0.021881
0.791229 0.520264 0.018341
0.819031 0.518585 0.016998
0.846405 0.517242 0.016479
0.201385 0.671570 0.280487
0.205933 0.665710 0.272095
0.212158 0.659851 0.264008
0.219421 0.654053 0.256165
0.228516 0.648254 0.248352
0.239044 0.642761 0.240570
0.250519 0.637634 0.232056
0.263153 0.632874 0.223206
0.277191 0.628235 0.213959
0.292664 0.623779 0.204376
0.309479 0.619507 0.194855
0.327423 0.615326 0.185089
0.346466 0.611206 0.175232
0.366425 0.607056 0.165131
0.387207 0.602905 0.154846
0.408783 0.598755 0.144653
0.431000 0.594604 0.134583
0.453674 0.590302 0.124603
0.476868 0.585968 0.114960
0.500305 0.581573 0.105774
0.523956 0.577118 0.096863
0.547821 0.572632 0.088867
0.571716 0.568024 0.081207
0.595703 0.563538 0.074036
0.619781 0.559082 0.066803
0.644135 0.554871 0.059540
0.672729 0.552673 0.053680
0.701385 0.550659 0.047089
0.729858 0.548737 0.040039
0.758118 0.546814 0.032227
0.786194 0.545105 0.024811
0.813873 0.543365 0.019684
0.841125 0.541931 0.018036
0.213654 0.697235 0.293488
0.217621 0.691345 0.284668
0.222992 0.685669 0.276459
0.229584 0.680115 0.268616
0.238037 0.674408 0.260742
0.247894 0.668976 0.252808
0.258911 0.663757 0.244232
0.270874 0.658966 0.235229
0.284363 0.654449 0.226196
0.299255 0.649963 0.216614
0.315369 0.645691 0.206970
0.332672 0.641510 0.197205
0.351074 0.637360 0.187195
0.370514 0.633362 0.177185
0.390869 0.629272 0.166992
0.411957 0.625183 0.156738
0.433716 0.621063 0.146484
0.456055 0.616882 0.136322
0.478882 0.612610 0.126434
0.502106 0.608368 0.116974
0.525543 0.603973 0.107880
0.549164 0.599518 0.099060
0.572968 0.595093 0.091125
0.596741 0.590546 0.083496
0.620544 0.586029 0.076141
