滤镜资源/Professional Luts Collection/Lutify.me Professional/Vintage Films/Tiger Iron.cube
# Created by: Lutify.me
# Copyright: (c) Copyright Lutify.me 2015
# Website: https://lutify.me
#LUT size
LUT_3D_SIZE 9
#LUT data points
0.000000 0.000000 0.000000
0.125702 0.000000 0.000427
0.247528 0.000000 0.001404
0.370148 0.000000 0.003021
0.493347 0.000000 0.004913
0.616302 0.000000 0.006775
0.738220 0.000000 0.008301
0.856049 0.002411 0.009430
0.965790 0.058350 0.010651
0.022522 0.101929 0.045441
0.110443 0.083008 0.009247
0.228760 0.070984 0.002655
0.350616 0.055878 0.003448
0.473389 0.038025 0.004913
0.596252 0.021179 0.006622
0.718231 0.010986 0.008240
0.836945 0.014465 0.009399
0.948273 0.051697 0.010651
0.061737 0.206146 0.091034
0.124878 0.186584 0.057678
0.213379 0.168396 0.020203
0.331604 0.157623 0.006653
0.453339 0.145752 0.006683
0.575958 0.133331 0.007568
0.698151 0.122223 0.008209
0.817505 0.116638 0.008911
0.929993 0.125153 0.009460
0.097748 0.314087 0.135284
0.146118 0.292542 0.103699
0.222687 0.275177 0.066742
0.315918 0.256836 0.032349
0.434174 0.246826 0.011566
0.555573 0.236664 0.010681
0.677338 0.226837 0.010345
0.796814 0.219299 0.010040
0.910187 0.218109 0.010345
0.128479 0.424835 0.178345
0.169067 0.401672 0.147797
0.235138 0.383575 0.111481
0.322205 0.366058 0.074310
0.417938 0.347717 0.043304
0.536224 0.338318 0.016083
0.656769 0.329315 0.013458
0.775787 0.321411 0.011993
0.889404 0.316925 0.011169
0.156464 0.536469 0.221863
0.192780 0.512268 0.191589
0.250824 0.493073 0.156219
0.330322 0.475861 0.117310
0.422394 0.458160 0.080780
0.519196 0.439941 0.051208
0.637085 0.431061 0.021362
0.754852 0.423126 0.014557
0.868011 0.417328 0.012726
0.190552 0.645355 0.268005
0.220062 0.621765 0.236664
0.270935 0.601685 0.202026
0.342377 0.584595 0.163361
0.428711 0.567719 0.122986
0.522705 0.549957 0.087006
0.619415 0.532043 0.057526
0.734650 0.523865 0.029846
0.846405 0.517242 0.016479
0.242432 0.746185 0.320435
0.260559 0.724731 0.286316
0.301361 0.705292 0.251221
0.362610 0.688568 0.212311
0.440826 0.672791 0.171539
0.529510 0.656464 0.131012
0.622833 0.639130 0.096130
0.716705 0.622040 0.067261
0.825836 0.614594 0.043488
0.315613 0.834625 0.380890
0.322113 0.816467 0.343964
0.349060 0.799255 0.306671
0.397430 0.783783 0.267151
0.464172 0.769226 0.226166
0.543945 0.754669 0.184998
0.630890 0.739044 0.145660
0.720032 0.722626 0.112762
0.808044 0.706879 0.085632
0.004150 0.000885 0.121155
0.084808 0.000000 0.070038
0.201019 0.000000 0.042450
0.321411 0.000000 0.017120
0.444031 0.000000 0.004150
0.567169 0.000000 0.006073
0.689728 0.000000 0.007904
0.809601 0.000000 0.009430
0.923096 0.031158 0.010620
0.027588 0.087006 0.086029
0.153412 0.131012 0.124481
0.267242 0.118225 0.098511
0.386841 0.104767 0.073456
0.508362 0.090332 0.048767
0.630432 0.076050 0.025085
0.751648 0.066193 0.008453
0.868561 0.071106 0.009308
0.976868 0.099762 0.010193
0.061340 0.191650 0.128448
0.168732 0.235199 0.168884
0.253143 0.217529 0.133179
0.369598 0.206238 0.107056
0.489655 0.194672 0.081665
0.610748 0.183502 0.056946
0.731537 0.173889 0.032898
0.848969 0.169220 0.010498
0.958649 0.176270 0.010254
0.095581 0.299042 0.171906
0.187439 0.344025 0.212646
0.262878 0.325043 0.177795
0.354156 0.306793 0.141846
0.471344 0.296570 0.115204
0.591248 0.286377 0.089508
0.711182 0.277100 0.064606
0.828308 0.270416 0.039917
0.938690 0.269684 0.015472
0.125458 0.409576 0.215546
0.205536 0.455353 0.256470
0.276459 0.433746 0.223663
0.360626 0.416687 0.185089
0.455048 0.398224 0.149719
0.572357 0.388641 0.122894
0.691132 0.379578 0.096802
0.807373 0.372131 0.071625
0.917755 0.368195 0.045868
0.151764 0.521362 0.259766
0.224426 0.566895 0.301819
0.292847 0.543304 0.269958
0.369904 0.525818 0.231415
0.459808 0.508667 0.192169
0.555450 0.490326 0.157043
0.671814 0.481354 0.130188
0.786682 0.473480 0.103943
0.896179 0.467957 0.078247
0.181671 0.631256 0.306488
0.250153 0.674805 0.350800
0.313873 0.650757 0.318420
0.384338 0.632690 0.280304
0.467590 0.616425 0.239471
0.559601 0.599335 0.200012
0.654419 0.581451 0.164886
0.766846 0.573181 0.138428
0.874634 0.566559 0.112762
0.228271 0.734436 0.359253
0.293732 0.773682 0.405914
0.346252 0.751251 0.371307
0.408325 0.733215 0.333069
0.482910 0.717834 0.291748
0.568085 0.702362 0.249786
0.658569 0.685760 0.210785
0.749451 0.668884 0.175751
0.854523 0.661407 0.150421
0.297577 0.825348 0.419556
0.358521 0.859528 0.468689
0.396301 0.839905 0.431366
0.446686 0.823120 0.391876
0.510071 0.808960 0.349823
0.585358 0.795166 0.306915
0.668304 0.780701 0.265198
0.753693 0.765137 0.227356
0.837646 0.749634 0.192810
0.015747 0.000000 0.238251
0.072418 0.000000 0.189117
0.162170 0.000000 0.138977
0.279266 0.000000 0.109741
0.398285 0.000000 0.084503
0.519287 0.000000 0.060486
0.641235 0.000000 0.036041
0.762299 0.000000 0.013489
0.878754 0.009766 0.009949
0.024689 0.087189 0.205078
0.141266 0.129700 0.243469
0.230072 0.131042 0.192017
0.343811 0.120300 0.165192
0.462799 0.107086 0.140137
0.583740 0.093384 0.114960
0.704803 0.081238 0.089783
0.823273 0.078217 0.064819
0.935120 0.094177 0.040009
0.065582 0.175232 0.170929
0.175934 0.220825 0.208252
0.296051 0.267822 0.247253
0.409698 0.255737 0.220398
0.528015 0.244202 0.194702
0.647705 0.233337 0.169006
0.766510 0.224396 0.143188
0.880737 0.220734 0.117371
0.986176 0.227386 0.092224
0.095551 0.283539 0.211609
0.192871 0.329437 0.250977
0.306213 0.375366 0.292633
0.394653 0.358124 0.255646
0.510651 0.347504 0.228394
0.629333 0.337067 0.201965
0.747498 0.327789 0.175751
0.861511 0.321594 0.149506
0.967438 0.321503 0.123810
0.123932 0.393860 0.254791
0.209290 0.440521 0.295624
0.319031 0.485748 0.339325
0.401215 0.467896 0.302063
0.493958 0.449707 0.264374
0.610199 0.439972 0.236481
0.727295 0.430725 0.209351
0.840820 0.423279 0.182556
0.946777 0.419769 0.156189
0.148590 0.505829 0.299652
0.225433 0.552307 0.342133
0.331207 0.596710 0.387665
0.411987 0.575989 0.352081
0.498871 0.559448 0.310852
0.592987 0.541321 0.273132
0.707367 0.532288 0.244965
0.819550 0.524323 0.217316
0.925018 0.518860 0.190491
0.174408 0.616577 0.347168
0.246399 0.661377 0.392181
0.349030 0.703064 0.440308
0.428284 0.680603 0.405029
0.508362 0.664429 0.363129
0.597504 0.648163 0.321045
0.689911 0.630585 0.283142
0.799164 0.622345 0.255035
0.903076 0.615784 0.227539
0.214539 0.721710 0.400116
0.282867 0.762482 0.447998
0.380981 0.799500 0.498474
0.453918 0.777283 0.462494
0.526215 0.761292 0.420410
0.607361 0.746735 0.376343
0.694397 0.731110 0.334290
0.781891 0.714630 0.296112
0.882599 0.707306 0.268616
0.277985 0.815430 0.460083
0.342377 0.850952 0.510101
0.431549 0.882599 0.561127
0.492432 0.862366 0.524414
0.555481 0.846680 0.483093
0.626526 0.833618 0.438507
0.705109 0.820160 0.393829
0.786438 0.805542 0.352386
0.866119 0.790710 0.314331
0.031860 0.000000 0.357849
0.064819 0.000000 0.309113
0.149994 0.000000 0.256714
0.239990 0.000000 0.207458
0.357971 0.000000 0.177246
0.476562 0.000000 0.150909
0.596313 0.000000 0.125977
0.716339 0.000000 0.101257
0.833862 0.000000 0.076813
0.037109 0.080414 0.327393
0.127808 0.126129 0.367157
0.218414 0.127563 0.313049
0.307709 0.128906 0.261658
0.422668 0.118927 0.232422
0.540710 0.106964 0.206360
0.660431 0.094543 0.180847
0.779175 0.087036 0.155273
0.893005 0.094208 0.129822
0.059692 0.177887 0.289246
0.160461 0.223511 0.329712
0.282898 0.267944 0.369324
0.372955 0.270386 0.316193
0.486328 0.260132 0.288879
0.604065 0.249176 0.262756
0.722626 0.239227 0.236725
0.838440 0.232666 0.210602
0.947418 0.233704 0.184387
0.098267 0.266296 0.255981
0.196838 0.313782 0.294403
0.316528 0.360657 0.334534
0.435455 0.409790 0.375763
0.549957 0.398560 0.347107
0.666931 0.388000 0.319672
0.782501 0.378937 0.292633
0.893066 0.373169 0.265869
0.994690 0.373230 0.239349
0.122467 0.377747 0.297272
0.211700 0.425262 0.337524
0.326141 0.471741 0.380798
0.442566 0.518463 0.426331
0.533417 0.501862 0.386322
0.648407 0.491821 0.356873
0.763031 0.482422 0.328613
0.873016 0.475159 0.301025
0.974518 0.471924 0.273956
0.144531 0.489990 0.342163
0.225311 0.537354 0.384918
0.334961 0.583282 0.430847
0.452240 0.626923 0.479492
0.538116 0.609802 0.439056
0.630371 0.592255 0.397461
0.742340 0.583160 0.367554
0.851044 0.575226 0.338715
0.951996 0.569824 0.310822
0.166077 0.601654 0.390625
0.241364 0.647461 0.436157
0.347839 0.690887 0.484833
0.464508 0.730988 0.535126
0.549133 0.711029 0.497040
0.634552 0.695862 0.451996
0.724365 0.678864 0.410309
0.829895 0.670715 0.380341
0.929230 0.664154 0.351379
0.198456 0.708374 0.443939
0.270721 0.750488 0.492279
0.373901 0.789337 0.542938
0.487579 0.824005 0.593597
0.568512 0.803070 0.557373
0.645355 0.788910 0.513123
0.728516 0.774536 0.467865
0.812439 0.758759 0.426178
0.908386 0.751587 0.396545
0.255219 0.804749 0.503174
0.323914 0.841339 0.552979
0.419525 0.874573 0.603882
0.524841 0.904053 0.653351
0.597321 0.883972 0.618561
0.665436 0.869812 0.576996
0.739075 0.857483 0.531830
0.816223 0.843994 0.487701
0.892090 0.829803 0.446350
0.027649 0.000000 0.486267
0.051086 0.000000 0.434509
0.137146 0.000000 0.380646
0.226990 0.000000 0.326111
0.318085 0.000000 0.276733
0.436768 0.000000 0.245514
0.555267 0.000000 0.217896
0.673950 0.000000 0.192017
0.791504 0.000000 0.166718
0.037567 0.069550 0.454926
0.104584 0.119080 0.498993
0.199829 0.120361 0.443115
0.294342 0.125000 0.384857
0.385284 0.125061 0.332977
0.501709 0.115295 0.301697
0.619324 0.104492 0.274017
0.737396 0.095093 0.247650
0.852356 0.095276 0.221649
0.061279 0.174713 0.417419
0.141479 0.221283 0.461029
0.258484 0.265961 0.505676
0.359406 0.267578 0.445862
0.450623 0.270020 0.390320
0.564453 0.262085 0.359650
0.680573 0.253021 0.332245
0.795990 0.245575 0.305634
0.906708 0.243408 0.279327
0.093628 0.270447 0.377167
0.180389 0.318237 0.419342
0.292877 0.365601 0.464172
0.417328 0.411041 0.509277
0.511749 0.414154 0.451385
0.625427 0.404266 0.421509
0.740845 0.394470 0.392944
0.852936 0.386963 0.364838
0.957733 0.384186 0.337280
0.124084 0.359894 0.344055
0.214417 0.408417 0.384949
0.329468 0.456909 0.427521
0.452087 0.504486 0.473053
0.569977 0.553131 0.518768
0.683838 0.543060 0.487915
0.795654 0.533600 0.457611
0.901642 0.526550 0.428131
0.998474 0.523590 0.399445
0.140411 0.473358 0.388184
0.224213 0.521393 0.431366
0.336060 0.568848 0.477112
0.456909 0.614716 0.525574
0.576019 0.658203 0.575500
0.665405 0.642670 0.532990
0.774780 0.633484 0.501129
0.879578 0.625458 0.470459
0.975952 0.620148 0.440735
0.156219 0.585846 0.437256
0.235199 0.632660 0.483490
0.344910 0.677551 0.531708
0.464844 0.720001 0.581451
0.584503 0.758484 0.631104
0.669220 0.741516 0.591644
0.755737 0.725800 0.547760
0.857208 0.717743 0.516205
0.952209 0.711151 0.485596
0.180817 0.694366 0.491241
0.257629 0.737457 0.539398
0.365631 0.777802 0.588867
0.483490 0.814758 0.638580
0.600433 0.847412 0.686646
0.681763 0.828461 0.651489
0.759216 0.815491 0.607544
0.839172 0.800812 0.564758
0.930878 0.793762 0.534058
0.230804 0.793274 0.549438
0.304901 0.830841 0.598297
0.406464 0.865204 0.647430
0.517273 0.896393 0.695587
0.626404 0.924286 0.740631
0.701599 0.904999 0.708862
0.769623 0.892517 0.668915
0.841949 0.880432 0.625977
0.914459 0.867035 0.584625
0.000000 0.000000 0.627258
0.001587 0.000000 0.571289
0.111816 0.000000 0.513733
0.210083 0.000000 0.455292
0.303345 0.000000 0.398682
0.395874 0.000000 0.347870
0.515442 0.000000 0.315491
0.633820 0.000000 0.286346
0.751160 0.000000 0.259277
0.000000 0.050476 0.593811
0.025208 0.107361 0.641785
0.164307 0.109711 0.583771
0.272003 0.113922 0.522156
0.369324 0.120422 0.460907
0.462250 0.119537 0.407166
0.580170 0.109436 0.373871
0.697479 0.100403 0.344238
0.812897 0.096893 0.316528
0.025177 0.168152 0.555603
0.096619 0.216766 0.602844
0.219177 0.262421 0.650604
0.330383 0.262085 0.591339
0.433167 0.266815 0.526520
0.526855 0.268829 0.468872
0.642426 0.262238 0.434814
0.756805 0.255737 0.405029
0.867889 0.252319 0.376984
0.071381 0.269897 0.513245
0.147430 0.317932 0.560089
0.259277 0.364716 0.609253
0.384216 0.409882 0.656860
0.492371 0.410828 0.595245
0.587738 0.414307 0.534027
0.700867 0.407623 0.500061
0.812012 0.400574 0.469788
0.918243 0.396362 0.440613
0.113678 0.364716 0.471985
0.192169 0.413513 0.517700
0.300781 0.462189 0.565247
0.420227 0.510132 0.613953
0.545227 0.555176 0.661438
0.643951 0.557861 0.601562
0.754059 0.549408 0.569519
0.861633 0.541412 0.538696
0.961639 0.536499 0.508240
0.139740 0.454956 0.438232
0.225311 0.503662 0.482941
0.337280 0.552307 0.529266
0.458130 0.600189 0.576538
0.581024 0.646545 0.624084
0.696106 0.690521 0.669586
0.802490 0.681763 0.640137
0.902771 0.673859 0.609802
0.994965 0.668579 0.579651
0.146362 0.568695 0.487274
0.229706 0.616272 0.534088
0.342010 0.662537 0.581757
0.463654 0.706726 0.629547
0.585815 0.748169 0.676971
0.701813 0.785309 0.723145
0.783600 0.770538 0.684875
0.880463 0.762573 0.654694
0.971497 0.755890 0.624908
0.162201 0.678955 0.541260
0.245575 0.723053 0.589020
0.358063 0.764771 0.636932
0.478882 0.803406 0.684082
0.598816 0.838562 0.729736
0.711243 0.869720 0.772614
0.787750 0.853455 0.739624
0.862518 0.840424 0.700012
0.950195 0.833527 0.670990
0.205322 0.780304 0.597931
0.286743 0.818909 0.645477
0.394440 0.854462 0.692291
0.509827 0.886871 0.737274
0.622955 0.916504 0.779724
0.727325 0.943665 0.818634
0.799255 0.925995 0.790527
0.865143 0.914856 0.754150
0.934143 0.902466 0.716675
0.000000 0.000000 0.770325
0.000000 0.000000 0.715668
0.026459 0.000000 0.657928
0.175354 0.000000 0.597046
0.282135 0.000000 0.534943
0.378754 0.000000 0.475586
0.472961 0.000000 0.422302
0.593506 0.000000 0.388367
0.711639 0.000000 0.357452
0.000000 0.019440 0.737915
0.000000 0.089874 0.784058
0.087341 0.093567 0.729279
0.231140 0.097870 0.669189
0.343231 0.104980 0.605255
0.443115 0.113434 0.542114
0.538177 0.111755 0.485596
0.657593 0.100830 0.450195
0.773895 0.095612 0.418243
0.000000 0.158997 0.700500
0.000488 0.210388 0.746796
0.163177 0.257751 0.791962
0.288666 0.256348 0.737976
0.402740 0.258789 0.675781
0.505768 0.265228 0.610748
0.601410 0.267029 0.551849
0.718475 0.261261 0.515228
0.830536 0.258301 0.482666
0.001343 0.266052 0.658844
0.078583 0.315308 0.705750
0.213257 0.362579 0.753143
0.347656 0.408295 0.797119
0.458771 0.406738 0.743286
0.565216 0.410858 0.679443
0.660889 0.414093 0.619385
0.774231 0.409302 0.582977
0.880981 0.405945 0.550598
0.058228 0.366028 0.615540
0.143585 0.414948 0.662994
0.259125 0.463043 0.710693
0.384705 0.510132 0.757324
0.513916 0.554932 0.799896
0.619690 0.554474 0.745422
0.714966 0.558319 0.685760
0.822510 0.553345 0.651337
0.922699 0.548889 0.620453
0.115082 0.460052 0.574829
0.193695 0.508972 0.622040
0.304535 0.557526 0.669159
0.425812 0.605133 0.715363
0.549072 0.650818 0.760132
0.670013 0.692688 0.801544
0.763794 0.694031 0.748535
0.863220 0.687836 0.718292
0.956818 0.681824 0.689606
0.142761 0.549957 0.540344
0.229675 0.597961 0.587433
0.343475 0.645081 0.634521
0.465485 0.690521 0.680756
0.587494 0.733795 0.725342
0.704071 0.774506 0.767487
0.809540 0.811462 0.805298
0.901276 0.803955 0.781128
0.988129 0.797180 0.755219
0.146271 0.661682 0.592926
0.237366 0.706848 0.640106
0.353638 0.749664 0.686218
0.476593 0.789856 0.730652
0.597870 0.826752 0.772644
0.711761 0.860535 0.811737
0.814392 0.891235 0.847992
0.885040 0.877441 0.817932
0.968750 0.870575 0.793427
0.181213 0.765411 0.647491
0.271820 0.805267 0.693359
0.385437 0.842041 0.737488
0.504608 0.875671 0.779083
0.620331 0.906525 0.817657
0.727020 0.935394 0.853302
0.823242 0.962646 0.886078
0.889465 0.947479 0.860962
0.953735 0.936279 0.829895
0.000000 0.000000 0.898132
0.000000 0.000000 0.851257
0.000000 0.000000 0.799805
0.103485 0.000000 0.742859
0.243500 0.000000 0.681641
0.353333 0.000000 0.618652
0.452820 0.000000 0.557434
0.548889 0.000000 0.501221
0.670471 0.000000 0.465454
0.000000 0.000244 0.870972
0.000000 0.066132 0.910095
0.000000 0.071167 0.863617
0.173950 0.076141 0.811035
0.303680 0.083008 0.752228
0.414978 0.093079 0.689270
0.516022 0.103485 0.626465
0.612579 0.101837 0.568634
0.732941 0.089966 0.531464
0.000000 0.146790 0.837921
0.000000 0.202240 0.878143
0.119781 0.252411 0.915436
0.248505 0.250854 0.870514
0.366058 0.251434 0.817261
0.476562 0.255920 0.757233
0.578247 0.263275 0.694855
0.674286 0.265106 0.636749
0.791351 0.260223 0.599365
0.000000 0.260590 0.799896
0.000031 0.311523 0.841339
0.172607 0.359955 0.881592
0.323669 0.406799 0.917358
0.428558 0.404327 0.873657
0.536163 0.405487 0.819672
0.637665 0.411316 0.759979
0.731476 0.414642 0.703217
0.843445 0.410950 0.666870
0.000000 0.364563 0.758881
0.069885 0.414185 0.801880
0.219879 0.462494 0.843567
0.357544 0.509674 0.882446
0.492371 0.554962 0.916321
0.592377 0.552704 0.873383
0.692108 0.555756 0.819214
0.782135 0.559875 0.765259
0.886810 0.556396 0.731506
0.031708 0.462585 0.717468
0.140930 0.511688 0.761780
0.265991 0.559937 0.804321
0.395325 0.606812 0.844177
0.523895 0.651642 0.881073
0.648041 0.693298 0.913574
0.740875 0.691803 0.870911
0.826324 0.695526 0.820801
0.921570 0.691620 0.791046
0.105133 0.555389 0.679199
0.194855 0.603271 0.724030
0.313141 0.650146 0.767059
0.438202 0.695312 0.807465
0.561890 0.738037 0.844940
0.679413 0.777618 0.879791
0.787598 0.813080 0.911682
0.867279 0.813507 0.869659
0.953400 0.808472 0.844971
0.141327 0.642883 0.645264
0.237885 0.688629 0.691040
0.356995 0.732544 0.735107
0.480804 0.773804 0.776642
0.602203 0.812103 0.815216
0.715546 0.847443 0.850708
0.817535 0.880585 0.883209
0.909119 0.911743 0.912079
0.989075 0.904846 0.893341
0.164337 0.748932 0.697174
0.263794 0.789856 0.740753
0.382233 0.827820 0.781830
0.503845 0.862671 0.819977
0.620789 0.894684 0.855042
0.728119 0.924774 0.887085
0.825134 0.953674 0.916351
0.914154 0.981476 0.943481
0.975922 0.968903 0.920563
0.000000 0.000000 1.000000
0.000000 0.000000 0.963501
0.000000 0.000000 0.922577
0.007629 0.000000 0.875610
0.192017 0.000000 0.822296
0.316650 0.000000 0.763763
0.425446 0.000000 0.702545
0.526001 0.000000 0.641846
0.623352 0.000000 0.584564
0.000000 0.000000 0.979919
0.000000 0.041199 1.000000
0.000061 0.047974 0.974304
0.137482 0.052887 0.932190
0.266418 0.058228 0.883911
0.381592 0.065979 0.829224
0.488770 0.078613 0.770142
0.588989 0.090820 0.710114
0.685669 0.089752 0.653198
0.000000 0.131714 0.954590
0.000000 0.192444 0.986481
0.157776 0.246887 1.000000
0.241730 0.246063 0.978729
0.343384 0.245758 0.936249
0.449158 0.248108 0.887085
0.552856 0.253845 0.832245
0.651123 0.261688 0.774933
0.745300 0.264069 0.719849
0.000000 0.253540 0.922913
0.000000 0.306519 0.955841
0.181061 0.356964 0.986847
0.330444 0.405579 1.000000
0.417847 0.403229 0.978882
0.515564 0.402863 0.936035
0.614990 0.406250 0.886566
0.709778 0.412842 0.833405
0.799530 0.416534 0.781921
0.000000 0.361420 0.886841
0.039490 0.412262 0.921143
0.212830 0.461426 0.953918
0.354523 0.509338 0.983948
0.489258 0.555511 1.000000
0.577881 0.552917 0.975525
0.671967 0.553558 0.932434
0.762482 0.558655 0.884064
0.846161 0.562897 0.836823
0.000000 0.462860 0.848511
0.106812 0.512543 0.884766
0.249847 0.560883 0.918823
0.384308 0.607635 0.950165
0.514465 0.652405 0.978668
0.638397 0.694336 1.000000
0.723083 0.691833 0.969971
0.808289 0.694122 0.927338
0.885223 0.698395 0.884094
0.037537 0.558746 0.811096
0.162964 0.606781 0.848846
0.291962 0.653442 0.883972
0.421204 0.698090 0.916229
0.546570 0.740051 0.945831
0.664917 0.778839 0.973022
0.773438 0.813934 0.997498
0.849976 0.812042 0.964386
0.921814 0.815125 0.925049
0.111420 0.648224 0.776398
0.215851 0.693756 0.815552
0.339050 0.737305 0.851807
0.464478 0.778259 0.885101
0.585815 0.816132 0.915619
0.698334 0.850952 0.943695
0.800018 0.883209 0.969696
0.893127 0.912781 0.994446
0.960907 0.912781 0.960815
0.161835 0.731293 0.745453
0.266632 0.772888 0.785980
0.387482 0.811981 0.823853
0.509888 0.847931 0.858673
0.626892 0.881012 0.890564
0.733826 0.912018 0.919678
0.830170 0.941956 0.946075
0.918304 0.971436 0.970337
1.000000 0.999969 0.995117
