滤镜资源/Professional Luts Collection/Lutify.me Professional/Vintage Films/Tiger Iron.cube
# Created by: Lutify.me
# Copyright: (c) Copyright Lutify.me 2015
# Website: https://lutify.me
#LUT size
LUT_3D_SIZE 5
#LUT data points
0.000000 0.000000 0.000000
0.247528 0.000000 0.001404
0.493347 0.000000 0.004913
0.738220 0.000000 0.008301
0.965790 0.058350 0.010651
0.061737 0.206146 0.091034
0.213379 0.168396 0.020203
0.453339 0.145752 0.006683
0.698151 0.122223 0.008209
0.929993 0.125153 0.009460
0.128479 0.424835 0.178345
0.235138 0.383575 0.111481
0.417938 0.347717 0.043304
0.656769 0.329315 0.013458
0.889404 0.316925 0.011169
0.190552 0.645355 0.268005
0.270935 0.601685 0.202026
0.428711 0.567719 0.122986
0.619415 0.532043 0.057526
0.846405 0.517242 0.016479
0.315613 0.834625 0.380890
0.349060 0.799255 0.306671
0.464172 0.769226 0.226166
0.630890 0.739044 0.145660
0.808044 0.706879 0.085632
0.015747 0.000000 0.238251
0.162170 0.000000 0.138977
0.398285 0.000000 0.084503
0.641235 0.000000 0.036041
0.878754 0.009766 0.009949
0.065582 0.175232 0.170929
0.296051 0.267822 0.247253
0.528015 0.244202 0.194702
0.766510 0.224396 0.143188
0.986176 0.227386 0.092224
0.123932 0.393860 0.254791
0.319031 0.485748 0.339325
0.493958 0.449707 0.264374
0.727295 0.430725 0.209351
0.946777 0.419769 0.156189
0.174408 0.616577 0.347168
0.349030 0.703064 0.440308
0.508362 0.664429 0.363129
0.689911 0.630585 0.283142
0.903076 0.615784 0.227539
0.277985 0.815430 0.460083
0.431549 0.882599 0.561127
0.555481 0.846680 0.483093
0.705109 0.820160 0.393829
0.866119 0.790710 0.314331
0.027649 0.000000 0.486267
0.137146 0.000000 0.380646
0.318085 0.000000 0.276733
0.555267 0.000000 0.217896
0.791504 0.000000 0.166718
0.061279 0.174713 0.417419
0.258484 0.265961 0.505676
0.450623 0.270020 0.390320
0.680573 0.253021 0.332245
0.906708 0.243408 0.279327
0.124084 0.359894 0.344055
0.329468 0.456909 0.427521
0.569977 0.553131 0.518768
0.795654 0.533600 0.457611
0.998474 0.523590 0.399445
0.156219 0.585846 0.437256
0.344910 0.677551 0.531708
0.584503 0.758484 0.631104
0.755737 0.725800 0.547760
0.952209 0.711151 0.485596
0.230804 0.793274 0.549438
0.406464 0.865204 0.647430
0.626404 0.924286 0.740631
0.769623 0.892517 0.668915
0.914459 0.867035 0.584625
0.000000 0.000000 0.770325
0.026459 0.000000 0.657928
0.282135 0.000000 0.534943
0.472961 0.000000 0.422302
0.711639 0.000000 0.357452
0.000000 0.158997 0.700500
0.163177 0.257751 0.791962
0.402740 0.258789 0.675781
0.601410 0.267029 0.551849
0.830536 0.258301 0.482666
0.058228 0.366028 0.615540
0.259125 0.463043 0.710693
0.513916 0.554932 0.799896
0.714966 0.558319 0.685760
0.922699 0.548889 0.620453
0.142761 0.549957 0.540344
0.343475 0.645081 0.634521
0.587494 0.733795 0.725342
0.809540 0.811462 0.805298
0.988129 0.797180 0.755219
0.181213 0.765411 0.647491
0.385437 0.842041 0.737488
0.620331 0.906525 0.817657
0.823242 0.962646 0.886078
0.953735 0.936279 0.829895
0.000000 0.000000 1.000000
0.000000 0.000000 0.922577
0.192017 0.000000 0.822296
0.425446 0.000000 0.702545
0.623352 0.000000 0.584564
0.000000 0.131714 0.954590
0.157776 0.246887 1.000000
0.343384 0.245758 0.936249
0.552856 0.253845 0.832245
0.745300 0.264069 0.719849
0.000000 0.361420 0.886841
0.212830 0.461426 0.953918
0.489258 0.555511 1.000000
0.671967 0.553558 0.932434
0.846161 0.562897 0.836823
0.037537 0.558746 0.811096
0.291962 0.653442 0.883972
0.546570 0.740051 0.945831
0.773438 0.813934 0.997498
0.921814 0.815125 0.925049
0.161835 0.731293 0.745453
0.387482 0.811981 0.823853
0.626892 0.881012 0.890564
0.830170 0.941956 0.946075
1.000000 0.999969 0.995117
