滤镜资源/Professional Luts Collection/Lutify.me Professional/Vintage Films/Tiger Eye.cube
# Created by: Lutify.me
# Copyright: (c) Copyright Lutify.me 2015
# Website: https://lutify.me
#LUT size
LUT_3D_SIZE 5
#LUT data points
0.000000 0.000000 0.000000
0.199432 0.008392 0.005981
0.405731 0.032837 0.024567
0.630249 0.052582 0.056793
0.853638 0.082428 0.090485
0.053375 0.173676 0.085083
0.173981 0.142914 0.030518
0.372986 0.134399 0.031952
0.594482 0.126526 0.057648
0.818237 0.126831 0.087860
0.112427 0.363464 0.174103
0.200104 0.324463 0.123260
0.349762 0.296631 0.081177
0.563354 0.286469 0.080322
0.784485 0.279358 0.099945
0.154602 0.568176 0.269440
0.236328 0.522736 0.215973
0.370270 0.492584 0.159698
0.539886 0.463715 0.127045
0.753510 0.454712 0.125458
0.235901 0.767395 0.384674
0.299957 0.720795 0.323395
0.410614 0.686768 0.260193
0.562164 0.658936 0.204376
0.729736 0.630859 0.176361
0.012695 0.005066 0.205811
0.130585 0.006104 0.119873
0.325378 0.023682 0.081818
0.539734 0.047119 0.063660
0.765533 0.066681 0.077301
0.053772 0.149750 0.152100
0.245758 0.231903 0.227203
0.443756 0.217163 0.187958
0.662842 0.204834 0.157959
0.880310 0.203278 0.140137
0.105621 0.337372 0.239044
0.267181 0.424622 0.323700
0.423431 0.390900 0.259216
0.635925 0.377930 0.220612
0.849609 0.369781 0.192200
0.130707 0.543030 0.341431
0.294098 0.629364 0.435974
0.449066 0.587921 0.368134
0.613190 0.558411 0.298309
0.820557 0.547211 0.260315
0.201752 0.744629 0.459778
0.348114 0.825348 0.553711
0.492035 0.779205 0.489899
0.635742 0.750366 0.414673
0.797546 0.721436 0.347870
0.000000 0.002441 0.447266
0.100616 0.005249 0.342926
0.260315 0.016083 0.246796
0.463623 0.036316 0.202179
0.682465 0.058441 0.171783
0.024689 0.160309 0.379578
0.194458 0.238373 0.475586
0.376648 0.240082 0.368042
0.587128 0.230621 0.316742
0.802368 0.223236 0.278412
0.102112 0.309235 0.320984
0.271637 0.399292 0.411713
0.499268 0.491394 0.506470
0.710358 0.476624 0.454956
0.917725 0.466492 0.408844
0.104889 0.515167 0.427521
0.287323 0.605316 0.521515
0.518066 0.692352 0.614624
0.686188 0.657379 0.545197
0.889191 0.644012 0.495941
0.164734 0.718811 0.542267
0.334106 0.802551 0.632629
0.550415 0.883240 0.719940
0.709015 0.843231 0.659424
0.863800 0.815521 0.588318
0.000000 0.000000 0.714325
0.000000 0.000000 0.612915
0.211151 0.005768 0.500702
0.390259 0.026794 0.391846
0.610260 0.034851 0.336853
0.000000 0.164307 0.648773
0.057861 0.246796 0.735138
0.320465 0.238892 0.639648
0.513031 0.247375 0.527588
0.732819 0.239685 0.468506
0.000000 0.324554 0.579834
0.195465 0.413116 0.672302
0.446442 0.499878 0.763306
0.637695 0.501984 0.662689
0.846802 0.494019 0.606842
0.091034 0.483795 0.521301
0.292145 0.575226 0.612976
0.526031 0.665833 0.702454
0.755066 0.752014 0.786377
0.953918 0.740112 0.739807
0.132843 0.689880 0.629181
0.327301 0.775665 0.714691
0.552429 0.860199 0.795654
0.775085 0.941956 0.870117
0.929108 0.909241 0.815033
0.000000 0.000000 0.944427
0.000000 0.000000 0.861206
0.037994 0.000000 0.768433
0.338837 0.002960 0.659210
0.527740 0.026001 0.552704
0.000000 0.163818 0.890533
0.000000 0.252625 0.956207
0.248535 0.240021 0.883759
0.467987 0.243408 0.786133
0.652863 0.254791 0.683624
0.000000 0.333801 0.829376
0.127441 0.423645 0.903107
0.414032 0.508453 0.975830
0.597412 0.504089 0.899536
0.773743 0.513062 0.805206
0.000000 0.501129 0.767700
0.239136 0.590942 0.846191
0.485474 0.678192 0.921051
0.723541 0.761292 0.986755
0.889038 0.763245 0.910095
0.124817 0.658691 0.715332
0.337708 0.745361 0.795349
0.566315 0.831116 0.869690
0.789154 0.915863 0.935577
1.000000 0.999817 0.995422
