滤镜资源/Professional Luts Collection/Lutify.me Professional/Vintage Films/Tiger Eye.cube
# Created by: Lutify.me
# Copyright: (c) Copyright Lutify.me 2015
# Website: https://lutify.me
#LUT size
LUT_3D_SIZE 9
#LUT data points
0.000000 0.000000 0.000000
0.097870 0.002289 0.001495
0.199432 0.008392 0.005981
0.300903 0.019104 0.013397
0.405731 0.032837 0.024567
0.516449 0.044037 0.039612
0.630249 0.052582 0.056793
0.743317 0.063416 0.073914
0.853638 0.082428 0.090485
0.018127 0.084442 0.039581
0.086700 0.068665 0.011353
0.184601 0.063782 0.008759
0.284973 0.062653 0.014923
0.388702 0.064575 0.024597
0.498444 0.066132 0.038452
0.611664 0.066589 0.054840
0.724731 0.070221 0.071655
0.835510 0.080872 0.087921
0.053375 0.173676 0.085083
0.102936 0.156525 0.058716
0.173981 0.142914 0.030518
0.270660 0.138031 0.024139
0.372986 0.134399 0.031952
0.481598 0.130768 0.043945
0.594482 0.126526 0.057648
0.707520 0.123993 0.072540
0.818237 0.126831 0.087860
0.088776 0.265472 0.130280
0.126404 0.245758 0.105347
0.185516 0.231812 0.077606
0.260590 0.218292 0.056061
0.359497 0.213226 0.047943
0.466400 0.208435 0.056274
0.578064 0.203278 0.066803
0.690552 0.198822 0.078796
0.801300 0.197449 0.091644
0.112427 0.363464 0.174103
0.148804 0.340607 0.150269
0.200104 0.324463 0.123260
0.269836 0.310547 0.097900
0.349762 0.296631 0.081177
0.453552 0.291351 0.073273
0.563354 0.286469 0.080322
0.674561 0.282043 0.089630
0.784485 0.279358 0.099945
0.129364 0.465881 0.219360
0.164856 0.442261 0.193695
0.215881 0.422516 0.168793
0.280670 0.407684 0.141083
0.358734 0.393433 0.118225
0.443604 0.379150 0.104492
0.550323 0.373871 0.097992
0.659698 0.369476 0.103119
0.768463 0.366119 0.111389
0.154602 0.568176 0.269440
0.182312 0.546112 0.238861
0.236328 0.522736 0.215973
0.296448 0.506897 0.187134
0.370270 0.492584 0.159698
0.453064 0.478088 0.139099
0.539886 0.463715 0.127045
0.646454 0.458679 0.122650
0.753510 0.454712 0.125458
0.191437 0.668854 0.325043
0.212158 0.647522 0.290680
0.264679 0.622406 0.266785
0.319519 0.605072 0.236938
0.387360 0.590698 0.206848
0.465698 0.576569 0.180359
0.549622 0.562103 0.161713
0.635834 0.548035 0.150635
0.740356 0.543213 0.147705
0.235901 0.767395 0.384674
0.253876 0.745819 0.350006
0.299957 0.720795 0.323395
0.350037 0.701721 0.292816
0.410614 0.686768 0.260193
0.482666 0.672974 0.229950
0.562164 0.658936 0.204376
0.645203 0.644440 0.187103
0.729736 0.630859 0.176361
0.003815 0.003479 0.100952
0.064941 0.002655 0.057434
0.161682 0.006409 0.037720
0.260712 0.015167 0.022858
0.363098 0.027191 0.019592
0.471619 0.040070 0.033051
0.584656 0.049164 0.049957
0.698273 0.058319 0.067413
0.809814 0.073792 0.083893
0.020935 0.072540 0.073608
0.124359 0.113129 0.110870
0.217926 0.105927 0.091461
0.316406 0.101837 0.075531
0.420410 0.099091 0.063812
0.530640 0.096313 0.058594
0.643707 0.094086 0.061523
0.756104 0.096313 0.077301
0.865753 0.106506 0.093292
0.050629 0.162537 0.115845
0.140442 0.200989 0.153931
0.208496 0.186493 0.125366
0.304260 0.180115 0.107239
0.406586 0.174591 0.092926
0.515320 0.169098 0.083313
0.627411 0.163879 0.079529
0.739380 0.160614 0.080658
0.849243 0.162720 0.094330
0.084625 0.253723 0.160065
0.158508 0.293854 0.198212
0.220520 0.276367 0.170471
0.294769 0.262360 0.141998
0.394562 0.256256 0.125092
0.501648 0.250214 0.112213
0.612183 0.244598 0.104218
0.722900 0.240417 0.101227
0.832153 0.239166 0.102081
0.108643 0.350586 0.204865
0.172333 0.393127 0.244171
0.235626 0.371460 0.217346
0.304535 0.357086 0.186340
0.385132 0.342407 0.159729
0.489624 0.336395 0.144104
0.598358 0.330811 0.132324
0.707642 0.326355 0.125244
0.815735 0.323700 0.122437
0.121857 0.453156 0.251465
0.183685 0.496521 0.293518
0.251556 0.471954 0.265747
0.317780 0.455231 0.234558
0.395172 0.440979 0.203400
0.479858 0.426025 0.178101
0.585938 0.420197 0.163635
0.693481 0.415253 0.152924
0.800171 0.411530 0.146545
0.142303 0.555939 0.303558
0.201324 0.599701 0.347961
0.270416 0.574036 0.317871
0.336548 0.554230 0.286987
0.408813 0.539703 0.253021
0.490265 0.525238 0.222321
0.575958 0.510376 0.198029
0.680878 0.504852 0.184601
0.785950 0.500305 0.174835
0.175873 0.657532 0.361053
0.231384 0.700104 0.406616
0.295685 0.674622 0.374847
0.361145 0.652191 0.344269
0.427765 0.636841 0.308868
0.503906 0.622803 0.274048
0.586243 0.608276 0.244110
0.670837 0.593689 0.220428
0.773560 0.588409 0.207916
0.218597 0.756561 0.421295
0.272125 0.797302 0.467712
0.327423 0.772736 0.434998
0.389862 0.749084 0.404541
0.451721 0.732147 0.369659
0.521484 0.718048 0.333099
0.599030 0.704224 0.298645
0.680542 0.689728 0.269684
0.763428 0.675476 0.246063
0.012695 0.005066 0.205811
0.055359 0.004272 0.162933
0.130585 0.006104 0.119873
0.227325 0.010651 0.097992
0.325378 0.023682 0.081818
0.429199 0.037445 0.070160
0.539734 0.047119 0.063660
0.653076 0.054321 0.063293
0.765533 0.066681 0.077301
0.019684 0.077881 0.177673
0.112213 0.115906 0.215790
0.188354 0.117065 0.171814
0.282043 0.113525 0.150848
0.381927 0.110229 0.133728
0.489014 0.106812 0.119110
0.600830 0.102814 0.107880
0.712799 0.101685 0.101898
0.822906 0.106995 0.101379
0.053772 0.149750 0.152100
0.144135 0.190186 0.188629
0.245758 0.231903 0.227203
0.340668 0.223938 0.206146
0.443756 0.217163 0.187958
0.552246 0.210602 0.171753
0.662842 0.204834 0.157959
0.772644 0.201691 0.147095
0.880310 0.203278 0.140137
0.082336 0.241486 0.193939
0.159973 0.282654 0.231964
0.257324 0.324219 0.273376
0.331879 0.309204 0.242310
0.433136 0.302063 0.221649
0.540222 0.295197 0.203613
0.649475 0.289124 0.187866
0.758179 0.284882 0.174561
0.865082 0.283600 0.164307
0.105621 0.337372 0.239044
0.172485 0.380981 0.279510
0.267181 0.424622 0.323700
0.342651 0.405792 0.292114
0.423431 0.390900 0.259216
0.528168 0.384125 0.238586
0.635925 0.377930 0.220612
0.743530 0.372864 0.205048
0.849609 0.369781 0.192200
0.115784 0.439728 0.287567
0.181030 0.484070 0.331482
0.277893 0.527557 0.378326
0.358032 0.504700 0.346924
0.434021 0.490082 0.310272
0.518188 0.474792 0.277649
0.623322 0.468414 0.257111
0.729492 0.462769 0.239227
0.834656 0.458405 0.223999
0.130707 0.543030 0.341431
0.194977 0.587402 0.387512
0.294098 0.629364 0.435974
0.375854 0.604919 0.403961
0.449066 0.587921 0.368134
0.528748 0.573669 0.330658
0.613190 0.558411 0.298309
0.716827 0.552368 0.278015
0.820557 0.547211 0.260315
0.160126 0.645142 0.399658
0.221100 0.688416 0.446350
0.317749 0.728699 0.494934
0.396179 0.704437 0.462250
0.468872 0.684174 0.428833
0.542542 0.670044 0.390472
0.623291 0.655701 0.353638
0.706573 0.640656 0.321594
0.807922 0.635010 0.301880
0.201752 0.744629 0.459778
0.259369 0.786316 0.506348
0.348114 0.825348 0.553711
0.420258 0.801697 0.521149
0.492035 0.779205 0.489899
0.560455 0.764008 0.453033
0.635742 0.750366 0.414673
0.715942 0.736023 0.379242
0.797546 0.721436 0.347870
0.012848 0.005035 0.318298
0.045441 0.005096 0.272095
0.120636 0.007202 0.225037
0.195770 0.010437 0.182343
0.293182 0.015686 0.159241
0.392944 0.031403 0.141205
0.499420 0.044434 0.126587
0.610474 0.053101 0.115417
0.722229 0.062927 0.108673
0.023071 0.079865 0.288818
0.093536 0.118683 0.330566
0.175323 0.118195 0.282196
0.252380 0.121185 0.235870
0.349243 0.118988 0.212128
0.451904 0.116455 0.193359
0.561066 0.112183 0.176971
0.672729 0.108124 0.162598
0.782196 0.110443 0.151703
0.046234 0.156281 0.257568
0.127441 0.195923 0.299164
0.227783 0.234802 0.343536
0.310699 0.236328 0.293732
0.408966 0.231232 0.269653
0.514252 0.224670 0.249939
0.623322 0.218414 0.232147
0.732727 0.213745 0.216095
0.840576 0.212769 0.202087
0.084045 0.227814 0.232544
0.162598 0.269653 0.271820
0.261108 0.313385 0.314056
0.369781 0.358215 0.358398
0.472260 0.349792 0.333618
0.578918 0.342346 0.311340
0.686584 0.336060 0.290985
0.793457 0.331665 0.272552
0.898376 0.329956 0.255981
0.102234 0.323822 0.277649
0.171387 0.367981 0.319641
0.268524 0.413483 0.364807
0.378967 0.458191 0.411987
0.462463 0.441589 0.376862
0.567627 0.433899 0.351929
0.674225 0.426941 0.329407
0.780182 0.421356 0.308868
0.884460 0.417725 0.290314
0.109558 0.425629 0.328033
0.177216 0.470947 0.373047
0.276886 0.516266 0.420380
0.388855 0.560150 0.468445
0.473419 0.540100 0.434784
0.556610 0.525085 0.396851
0.661072 0.518036 0.372009
0.765991 0.511688 0.349365
0.869568 0.506653 0.328735
0.117828 0.529602 0.383026
0.187836 0.574432 0.429718
0.290497 0.618195 0.477814
0.402527 0.660553 0.525635
0.489441 0.637482 0.493713
0.566711 0.622864 0.455322
0.650177 0.607635 0.418396
0.752747 0.601105 0.394073
0.855194 0.595276 0.371613
0.142822 0.632019 0.441010
0.210663 0.675720 0.487823
0.312134 0.717743 0.535675
0.420837 0.758545 0.582428
0.506104 0.735199 0.550812
0.581207 0.717621 0.516144
0.659637 0.703827 0.477295
0.741882 0.688721 0.441589
0.842041 0.682648 0.418030
0.183197 0.731934 0.500031
0.246399 0.774017 0.546051
0.340881 0.814636 0.592865
0.443970 0.854095 0.638092
0.524658 0.831268 0.606964
0.599579 0.810669 0.575684
0.672119 0.796906 0.538361
0.750580 0.783051 0.500854
0.831024 0.768311 0.466400
0.000000 0.002441 0.447266
0.004822 0.003052 0.395538
0.100616 0.005249 0.342926
0.183472 0.011200 0.291351
0.260315 0.016083 0.246796
0.360138 0.020538 0.222137
0.463623 0.036316 0.202179
0.572052 0.048370 0.185699
0.682465 0.058441 0.171783
0.000305 0.081726 0.413849
0.033752 0.121765 0.459961
0.145142 0.118378 0.409271
0.236450 0.121613 0.353912
0.316864 0.125397 0.304230
0.418823 0.123047 0.277710
0.524902 0.120270 0.256317
0.634949 0.115906 0.237762
0.744537 0.114441 0.221375
0.024689 0.160309 0.379578
0.091614 0.199829 0.426666
0.194458 0.238373 0.475586
0.290039 0.236908 0.422699
0.376648 0.240082 0.368042
0.480774 0.235809 0.339569
0.587128 0.230621 0.316742
0.695068 0.225677 0.296600
0.802368 0.223236 0.278412
0.066254 0.235413 0.347137
0.136353 0.277039 0.393158
0.233124 0.319580 0.442017
0.345001 0.361542 0.491150
0.438782 0.363098 0.436798
0.543579 0.357788 0.407959
0.649567 0.351532 0.383942
0.755920 0.346283 0.361633
0.861084 0.343109 0.340851
0.102112 0.309235 0.320984
0.173553 0.353363 0.365204
0.271637 0.399292 0.411713
0.382446 0.446167 0.459717
0.499268 0.491394 0.506470
0.604675 0.484070 0.479828
0.710358 0.476624 0.454956
0.814972 0.470612 0.431274
0.917725 0.466492 0.408844
0.103790 0.410858 0.372284
0.174194 0.456482 0.418182
0.276184 0.502808 0.465485
0.389893 0.548981 0.513336
0.507050 0.593475 0.559967
0.593994 0.576141 0.525055
0.697998 0.568298 0.499176
0.801788 0.561340 0.474823
0.903961 0.555725 0.451569
0.104889 0.515167 0.427521
0.181183 0.560486 0.474304
0.287323 0.605316 0.521515
0.401947 0.649719 0.568726
0.518066 0.692352 0.614624
0.604889 0.671875 0.582611
0.686188 0.657379 0.545197
0.787903 0.650391 0.519897
0.889191 0.644012 0.495941
0.125183 0.618347 0.484833
0.201172 0.662231 0.531036
0.306793 0.705292 0.577484
0.418945 0.747986 0.623627
0.532410 0.788910 0.668121
0.619568 0.766602 0.637970
0.695465 0.751892 0.602417
0.776306 0.737152 0.566254
0.875366 0.730774 0.541870
0.164734 0.718811 0.542267
0.234772 0.761139 0.587402
0.334106 0.802551 0.632629
0.441101 0.843719 0.677216
0.550415 0.883240 0.719940
0.634369 0.861176 0.690674
0.709015 0.843231 0.659424
0.784576 0.830109 0.622894
0.863800 0.815521 0.588318
0.000000 0.000000 0.583069
0.000000 0.000061 0.530457
0.024567 0.000427 0.476929
0.154999 0.005615 0.420105
0.244263 0.015442 0.364502
0.324768 0.022034 0.316010
0.429352 0.023895 0.289062
0.536530 0.037781 0.266571
0.645660 0.050293 0.247772
0.000000 0.081299 0.549530
0.000000 0.124176 0.594025
0.075409 0.119354 0.544861
0.201080 0.119019 0.490112
0.297394 0.124725 0.431854
0.382355 0.129120 0.379150
0.490387 0.125000 0.349823
0.599121 0.122070 0.325073
0.708832 0.118530 0.303528
0.000000 0.163147 0.514099
0.007874 0.204803 0.559326
0.140808 0.242157 0.609100
0.253021 0.238068 0.560181
0.354523 0.239868 0.502655
0.444092 0.243866 0.447113
0.553375 0.238831 0.416290
0.660522 0.235352 0.390289
0.766937 0.232819 0.367432
0.004639 0.241119 0.478821
0.081512 0.282715 0.526337
0.192078 0.324310 0.576355
0.312469 0.365784 0.624481
0.414001 0.363831 0.573700
0.507324 0.367706 0.516937
0.615784 0.362976 0.486023
0.720642 0.359070 0.459991
0.824738 0.355896 0.436340
0.065216 0.317719 0.446198
0.135620 0.361877 0.493866
0.237732 0.407135 0.542419
0.352356 0.452332 0.591461
0.473083 0.495453 0.638947
0.569366 0.496887 0.586243
0.675385 0.491852 0.556427
0.778503 0.486359 0.531494
0.881042 0.481628 0.507812
0.101379 0.395264 0.419464
0.176300 0.440948 0.466064
0.280212 0.487488 0.513428
0.394470 0.534058 0.560852
0.511353 0.580322 0.608032
0.628296 0.623383 0.652802
0.732819 0.617584 0.626160
0.835083 0.610382 0.602142
0.935974 0.604462 0.578705
0.095245 0.499664 0.473877
0.178650 0.545258 0.520355
0.287445 0.590790 0.566864
0.403351 0.636017 0.612915
0.520294 0.680817 0.658203
0.635956 0.724213 0.701385
0.721863 0.706909 0.668427
0.822479 0.699310 0.644196
0.922333 0.692535 0.620819
0.108887 0.603668 0.529907
0.194611 0.647827 0.575439
0.303741 0.691711 0.620697
0.418091 0.735229 0.665253
0.533386 0.778168 0.708862
0.647400 0.819489 0.750549
0.732483 0.799255 0.721405
0.810394 0.785370 0.686951
0.908142 0.778687 0.663239
0.146973 0.704895 0.585632
0.225708 0.747498 0.629761
0.329041 0.789642 0.673431
0.438995 0.831512 0.716278
0.550781 0.872803 0.757996
0.661774 0.912598 0.797791
0.745605 0.891235 0.770721
0.818878 0.876617 0.739227
0.896210 0.862579 0.705994
0.000000 0.000000 0.714325
0.000000 0.000000 0.664276
0.000000 0.000000 0.612915
0.081757 0.000000 0.558929
0.211151 0.005768 0.500702
0.305054 0.019440 0.443542
0.390259 0.026794 0.391846
0.500488 0.023865 0.362518
0.610260 0.034851 0.336853
0.000000 0.079041 0.682678
0.000000 0.123657 0.724701
0.000000 0.122833 0.675201
0.138275 0.116882 0.626984
0.261932 0.119873 0.570709
0.360901 0.127258 0.512512
0.449860 0.131836 0.458679
0.562531 0.125122 0.428070
0.672821 0.122406 0.400635
0.000000 0.164307 0.648773
0.000000 0.206940 0.691376
0.057861 0.246796 0.735138
0.205200 0.240234 0.691956
0.320465 0.238892 0.639648
0.422089 0.242981 0.582184
0.513031 0.247375 0.527588
0.625366 0.241394 0.496460
0.732819 0.239685 0.468506
0.000000 0.244812 0.613983
0.000122 0.287994 0.657288
0.138367 0.329132 0.704865
0.277405 0.369995 0.750549
0.382507 0.366150 0.705475
0.484772 0.367676 0.650818
0.576324 0.372528 0.596039
0.686646 0.367523 0.565216
0.791077 0.365662 0.537842
0.000000 0.324554 0.579834
0.072144 0.369202 0.624176
0.195465 0.413116 0.672302
0.320679 0.457245 0.719177
0.446442 0.499878 0.763306
0.545227 0.497864 0.716827
0.637695 0.501984 0.662689
0.745209 0.497162 0.632721
0.846802 0.494019 0.606842
0.037262 0.404419 0.548126
0.133972 0.450012 0.593903
0.245819 0.495911 0.640411
0.364624 0.541504 0.686493
0.484650 0.585999 0.732086
0.604828 0.628113 0.775421
0.697906 0.629181 0.726776
0.801666 0.624420 0.698334
0.900696 0.619507 0.674591
0.091034 0.483795 0.521301
0.180969 0.529419 0.567200
0.292145 0.575226 0.612976
0.408997 0.620697 0.658142
0.526031 0.665833 0.702454
0.641357 0.710419 0.745728
0.755066 0.752014 0.786377
0.856201 0.746918 0.761627
0.953918 0.740112 0.739807
0.098907 0.587830 0.575226
0.193878 0.632477 0.620117
0.305542 0.676727 0.664246
0.421265 0.720795 0.707550
0.536987 0.764465 0.749573
0.651215 0.807678 0.790070
0.763153 0.849945 0.828308
0.845001 0.833069 0.798950
0.941162 0.825897 0.777313
0.132843 0.689880 0.629181
0.220642 0.732910 0.672363
0.327301 0.775665 0.714691
0.439331 0.818146 0.755890
0.552429 0.860199 0.795654
0.664734 0.901703 0.833862
0.775085 0.941956 0.870117
0.855133 0.922424 0.845245
0.929108 0.909241 0.815033
0.000000 0.000000 0.835938
0.000000 0.000000 0.790009
0.000000 0.000000 0.742371
0.000000 0.000000 0.692932
0.150513 0.000000 0.638550
0.271851 0.005554 0.581146
0.368744 0.020782 0.524567
0.457977 0.028320 0.471924
0.572418 0.019379 0.441650
0.000000 0.074554 0.806946
0.000000 0.121552 0.845093
0.000000 0.121338 0.799927
0.031982 0.116638 0.754791
0.211823 0.115265 0.704742
0.329010 0.120636 0.649017
0.428345 0.128845 0.592407
0.519257 0.133484 0.539459
0.634338 0.124207 0.508881
0.000000 0.164612 0.775452
0.000000 0.208099 0.814423
0.000183 0.251038 0.851135
0.152283 0.242920 0.813721
0.281616 0.239075 0.767853
0.392853 0.240662 0.715057
0.492249 0.246216 0.659546
0.582855 0.250916 0.606873
0.696106 0.244476 0.576538
0.000000 0.247375 0.742645
0.000000 0.291290 0.782227
0.076447 0.334229 0.823273
0.247498 0.374084 0.866058
0.352936 0.369446 0.826355
0.457642 0.368378 0.778107
0.556061 0.372375 0.724670
0.645416 0.377625 0.672760
0.756012 0.372437 0.642975
0.000000 0.329651 0.709381
0.000031 0.374878 0.749817
0.152679 0.418701 0.793427
0.292816 0.461914 0.836884
0.424469 0.504242 0.876556
0.520599 0.500885 0.836456
0.617462 0.502289 0.786774
0.705811 0.507294 0.735931
0.813416 0.502411 0.707184
0.000000 0.411926 0.676788
0.073425 0.457825 0.718414
0.210052 0.502747 0.762756
0.337189 0.547211 0.805817
0.461853 0.590729 0.847412
0.584808 0.632477 0.885895
0.677094 0.630554 0.844666
0.764984 0.634399 0.795685
0.868805 0.629700 0.768311
0.016357 0.493286 0.646973
0.144867 0.538574 0.689789
0.262451 0.583801 0.733398
0.382904 0.628662 0.775757
0.502075 0.672791 0.816986
0.619598 0.715820 0.856934
0.736267 0.756866 0.894348
0.823242 0.757812 0.851257
0.922333 0.753235 0.826080
0.094238 0.571838 0.620636
0.196564 0.616638 0.664429
0.311035 0.661224 0.707581
0.427673 0.705505 0.749542
0.543915 0.749390 0.790192
0.658234 0.792908 0.829193
0.769897 0.836060 0.866425
0.879303 0.877472 0.901093
0.974579 0.871948 0.880463
0.126923 0.674255 0.672485
0.221985 0.717560 0.714508
0.331238 0.760651 0.755493
0.444305 0.803528 0.795166
0.557800 0.846069 0.833252
0.669922 0.888336 0.869354
0.780304 0.930237 0.903290
0.888794 0.971161 0.935211
0.963684 0.955231 0.911499
0.000000 0.000000 0.944427
0.000000 0.000000 0.903931
0.000000 0.000000 0.861206
0.000000 0.000000 0.816284
0.037994 0.000000 0.768433
0.224915 0.000000 0.714539
0.338837 0.002960 0.659210
0.436584 0.019196 0.604431
0.527740 0.026001 0.552704
0.000000 0.067078 0.918793
0.000000 0.117767 0.952087
0.000000 0.118103 0.912445
0.000000 0.116669 0.870483
0.153229 0.110626 0.828003
0.291473 0.113739 0.777527
0.401276 0.121002 0.723816
0.498901 0.129852 0.669739
0.589874 0.134277 0.618744
0.000000 0.163818 0.890533
0.000000 0.208435 0.924591
0.000000 0.252625 0.956207
0.111877 0.244995 0.923340
0.248535 0.240021 0.883759
0.363495 0.239746 0.837219
0.467987 0.243408 0.786133
0.563721 0.249878 0.733643
0.652863 0.254791 0.683624
0.000000 0.249329 0.860474
0.000000 0.294159 0.895325
0.052490 0.337952 0.930725
0.237396 0.377625 0.968353
0.333862 0.372955 0.934052
0.434509 0.370575 0.892609
0.533966 0.372375 0.845093
0.627441 0.377838 0.794708
0.714355 0.383240 0.746124
0.000000 0.333801 0.829376
0.000000 0.379608 0.865051
0.127441 0.423645 0.903107
0.278748 0.466187 0.941895
0.414032 0.508453 0.975830
0.503235 0.504730 0.941925
0.597412 0.504089 0.899536
0.688995 0.507874 0.852051
0.773743 0.513062 0.805206
0.000000 0.418060 0.797852
0.012360 0.464264 0.834839
0.186096 0.508606 0.874603
0.320312 0.552185 0.913239
0.448364 0.595184 0.949432
0.573151 0.636810 0.981842
0.659973 0.633881 0.947815
0.749146 0.635376 0.904755
0.831818 0.639984 0.860199
0.000000 0.501129 0.767700
0.110229 0.546570 0.805969
0.239136 0.590942 0.846191
0.363647 0.634918 0.884583
0.485474 0.678192 0.921051
0.605347 0.720490 0.955383
0.723541 0.761292 0.986755
0.808075 0.759613 0.951599
0.889038 0.763245 0.910095
0.047485 0.581299 0.739929
0.174347 0.625641 0.779602
0.290222 0.669830 0.819427
0.408508 0.713623 0.857391
0.525787 0.756958 0.893646
0.641205 0.799652 0.927856
0.754333 0.841614 0.960144
0.866119 0.882172 0.990662
0.945557 0.883179 0.954010
0.124817 0.658691 0.715332
0.226074 0.701996 0.755768
0.337708 0.745361 0.795349
0.452087 0.788391 0.833435
0.566315 0.831116 0.869690
0.678894 0.873566 0.903839
0.789154 0.915863 0.935577
0.896667 0.958191 0.965302
1.000000 0.999817 0.995422
