滤镜资源/Professional Luts Collection/Lutify.me Professional/Vintage Films/Topaz.cube
# Created by: Lutify.me
# Copyright: (c) Copyright Lutify.me 2015
# Website: https://lutify.me
#LUT size
LUT_3D_SIZE 33
#LUT data points
0.000000 0.000000 0.000000
0.012115 0.000000 0.001495
0.026794 0.000000 0.000122
0.046753 0.000000 0.000031
0.068146 0.000000 0.000000
0.090210 0.000000 0.000305
0.112823 0.000000 0.000366
0.135529 0.000000 0.000397
0.158691 0.000000 0.000153
0.182526 0.000000 0.000061
0.207245 0.000000 0.000031
0.232819 0.000000 0.000092
0.259491 0.000000 0.000061
0.287628 0.000000 0.000000
0.317322 0.000000 0.000000
0.348572 0.000000 0.000000
0.381348 0.000000 0.000000
0.415619 0.000000 0.000000
0.451416 0.000000 0.000000
0.488678 0.000000 0.000000
0.527466 0.000000 0.000000
0.567749 0.000000 0.000000
0.609497 0.000000 0.000000
0.652649 0.000000 0.000000
0.697083 0.000000 0.000000
0.742676 0.000000 0.000000
0.789185 0.000000 0.000000
0.836121 0.000000 0.000000
0.881958 0.000000 0.000000
0.926208 0.000000 0.000000
0.968018 0.000000 0.000000
0.999817 0.000000 0.000000
1.000000 0.000000 0.000000
0.000793 0.011322 0.000397
0.013672 0.010895 0.000000
0.027618 0.011261 0.000397
0.047699 0.010559 0.000366
0.068939 0.010101 0.000366
0.090881 0.010010 0.000366
0.113342 0.008667 0.000061
0.136078 0.007507 0.000336
0.159180 0.006592 0.000336
0.183197 0.004547 0.000397
0.207947 0.002136 0.000122
0.233490 0.000488 0.000000
0.260193 0.000031 0.000183
0.288361 0.000000 0.000122
0.318115 0.000000 0.000000
0.349365 0.000000 0.000000
0.382141 0.000000 0.000000
0.416443 0.000000 0.000000
0.452271 0.000000 0.000000
0.489532 0.000000 0.000000
0.528320 0.000000 0.000000
0.568634 0.000000 0.000000
0.610352 0.000000 0.000000
0.653534 0.000000 0.000000
0.697998 0.000000 0.000000
0.743561 0.000000 0.000000
0.790009 0.000000 0.000000
0.836884 0.000000 0.000000
0.882599 0.000000 0.000000
0.926788 0.000000 0.000000
0.968475 0.000000 0.000000
0.999817 0.000000 0.000000
1.000000 0.000000 0.000000
0.000824 0.024872 0.000031
0.014465 0.024109 0.000000
0.029114 0.023743 0.000366
0.049011 0.023376 0.000397
0.069946 0.023346 0.000397
0.091675 0.022644 0.000397
0.113922 0.021881 0.000732
0.136536 0.020752 0.000427
0.159882 0.019531 0.000397
0.183777 0.017761 0.000397
0.208466 0.015228 0.000397
0.234100 0.011688 0.000397
0.260925 0.007141 0.000122
0.289124 0.002045 0.000031
0.318939 0.000031 0.000000
0.350281 0.000000 0.000000
0.383057 0.000000 0.000000
0.417389 0.000000 0.000000
0.453247 0.000000 0.000000
0.490540 0.000000 0.000000
0.529327 0.000000 0.000000
0.569672 0.000000 0.000000
0.611420 0.000000 0.000000
0.654510 0.000000 0.000000
0.698944 0.000000 0.000000
0.744507 0.000000 0.000000
0.790985 0.000000 0.000000
0.837738 0.000000 0.000000
0.883392 0.000000 0.000000
0.927460 0.000000 0.000000
0.968994 0.000000 0.000000
0.999817 0.000000 0.000000
1.000000 0.000000 0.000000
0.001831 0.043915 0.000000
0.014465 0.043549 0.000000
0.029572 0.043121 0.000366
0.049713 0.042419 0.000366
0.070831 0.042023 0.000397
0.092712 0.041382 0.000732
0.114746 0.040985 0.000763
0.137482 0.039948 0.000458
0.160614 0.038727 0.000641
0.184570 0.036987 0.000702
0.209320 0.034698 0.000458
0.235046 0.031281 0.000427
0.261963 0.026764 0.000153
0.290222 0.020813 0.000000
0.320129 0.012695 0.000000
0.351532 0.003967 0.000000
0.384338 0.000092 0.000000
0.418671 0.000000 0.000000
0.454559 0.000000 0.000000
0.491913 0.000000 0.000000
0.530731 0.000000 0.000000
0.571045 0.000000 0.000000
0.612793 0.000000 0.000000
0.655945 0.000000 0.000000
0.700378 0.000000 0.000000
0.745850 0.000000 0.000000
0.792206 0.000000 0.000000
0.838928 0.000000 0.000000
0.884460 0.000000 0.000000
0.928375 0.000000 0.000000
0.969757 0.000000 0.000000
0.999847 0.000000 0.000000
1.000000 0.000000 0.000000
0.001587 0.065674 0.000000
0.015167 0.065094 0.000000
0.030243 0.064575 0.000031
0.050690 0.064270 0.000061
0.071808 0.063721 0.000366
0.093536 0.063202 0.000336
0.115906 0.062622 0.000702
0.138397 0.062073 0.000458
0.161804 0.061218 0.000610
0.185699 0.060059 0.000549
0.210632 0.058167 0.000336
0.236237 0.055786 0.000183
0.263245 0.052277 0.000092
0.291687 0.047119 0.000000
0.321686 0.039856 0.000000
0.353149 0.029816 0.000000
0.386017 0.016968 0.000000
0.420410 0.005432 0.000000
0.456360 0.000183 0.000000
0.493744 0.000000 0.000000
0.532593 0.000000 0.000000
0.572876 0.000000 0.000000
0.614624 0.000000 0.000000
0.657745 0.000000 0.000000
0.702087 0.000000 0.000000
0.747589 0.000000 0.000000
0.793945 0.000000 0.000000
0.840515 0.000000 0.000000
0.885864 0.000000 0.000000
0.929626 0.000000 0.000000
0.970734 0.000000 0.000000
0.999847 0.000000 0.000000
1.000000 0.000000 0.000000
0.001221 0.087891 0.000000
0.014465 0.087830 0.000000
0.030609 0.087219 0.000000
0.051056 0.086578 0.000000
0.072906 0.086182 0.000000
0.094727 0.085693 0.000061
0.117065 0.085297 0.000061
0.139832 0.084778 0.000122
0.163147 0.084015 0.000061
0.187195 0.083252 0.000092
0.212006 0.082001 0.000092
0.237854 0.080353 0.000031
0.264923 0.077698 0.000031
0.293457 0.074219 0.000000
0.323578 0.069336 0.000000
0.355103 0.062225 0.000000
0.388062 0.052277 0.000000
0.422577 0.038208 0.000000
0.458557 0.019989 0.000000
0.495972 0.005707 0.000000
0.534851 0.000183 0.000000
0.575165 0.000000 0.000000
0.616913 0.000000 0.000000
0.660034 0.000000 0.000000
0.704346 0.000000 0.000000
0.749786 0.000000 0.000000
0.796051 0.000000 0.000000
0.842468 0.000000 0.000000
0.887573 0.000000 0.000000
0.931091 0.000000 0.000000
0.971893 0.000000 0.000000
0.999878 0.000000 0.000000
1.000000 0.000000 0.000000
0.000214 0.111267 0.000000
0.012665 0.111115 0.000000
0.028931 0.110748 0.000000
0.050354 0.110229 0.000000
0.072815 0.109650 0.000000
0.095154 0.109314 0.000000
0.118134 0.108795 0.000000
0.141113 0.108337 0.000000
0.164764 0.107727 0.000000
0.188995 0.106934 0.000000
0.213837 0.106140 0.000000
0.239807 0.104950 0.000000
0.267059 0.103149 0.000000
0.295685 0.100586 0.000000
0.325775 0.097137 0.000000
0.357452 0.092194 0.000000
0.390533 0.085571 0.000000
0.425079 0.076477 0.000000
0.461151 0.063812 0.000000
0.498627 0.045624 0.000000
0.537537 0.022552 0.000000
0.577881 0.004883 0.000000
0.619598 0.000000 0.000000
0.662689 0.000000 0.000000
0.707031 0.000000 0.000000
0.752411 0.000000 0.000000
0.798553 0.000000 0.000000
0.844727 0.000000 0.000000
0.889587 0.000000 0.000000
0.932800 0.000000 0.000000
0.973206 0.000000 0.000000
0.999878 0.000000 0.000000
1.000000 0.000000 0.000000
0.000000 0.135529 0.000000
0.009125 0.135284 0.000000
0.024811 0.135132 0.000000
0.047363 0.134796 0.000000
0.071014 0.134430 0.000000
0.094788 0.133759 0.000000
0.117950 0.133453 0.000000
0.141998 0.132904 0.000000
0.166077 0.132385 0.000000
0.190521 0.131897 0.000000
0.215942 0.131042 0.000000
0.242157 0.130066 0.000000
0.269653 0.128754 0.000000
0.298462 0.126801 0.000000
0.328674 0.124268 0.000000
0.360321 0.120819 0.000000
0.393311 0.116150 0.000000
0.427917 0.109985 0.000000
0.464020 0.101746 0.000000
0.501556 0.090851 0.000000
0.540527 0.075623 0.000000
0.580902 0.053650 0.000000
0.622620 0.028229 0.000000
0.665710 0.006042 0.000000
0.709961 0.000031 0.000000
0.755280 0.000000 0.000000
0.801331 0.000000 0.000000
0.847260 0.000000 0.000000
0.891846 0.000000 0.000000
0.934723 0.000000 0.000000
0.974701 0.000000 0.000000
0.999908 0.000000 0.000000
1.000000 0.000000 0.000000
0.000000 0.161011 0.000000
0.002411 0.161011 0.000000
0.017456 0.160919 0.000000
0.040955 0.160767 0.000000
0.067047 0.160431 0.000000
0.092316 0.159790 0.000000
0.116852 0.159271 0.000000
0.141479 0.158844 0.000000
0.166290 0.158478 0.000000
0.191589 0.157990 0.000000
0.217438 0.157410 0.000000
0.244324 0.156555 0.000000
0.272278 0.155457 0.000000
0.301453 0.154053 0.000000
0.331970 0.152191 0.000000
0.363800 0.149628 0.000000
0.396881 0.146362 0.000000
0.431335 0.142090 0.000000
0.467316 0.136597 0.000000
0.504730 0.129486 0.000000
0.543732 0.120056 0.000000
0.584198 0.107788 0.000000
0.625946 0.091034 0.000000
0.669037 0.066284 0.000000
0.713287 0.040344 0.000000
0.758545 0.013184 0.000000
0.804474 0.001740 0.000000
0.850037 0.000000 0.000000
0.894257 0.000000 0.000000
0.936768 0.000000 0.000000
0.976288 0.000000 0.000000
0.999939 0.000000 0.000000
1.000000 0.000000 0.000000
0.000000 0.188293 0.000000
0.000183 0.188293 0.000000
0.006104 0.188324 0.000000
0.028870 0.188293 0.000000
0.058868 0.188019 0.000000
0.086670 0.187683 0.000000
0.113373 0.187073 0.000000
0.139160 0.186554 0.000000
0.165161 0.186157 0.000000
0.191254 0.186005 0.000000
0.218170 0.185608 0.000000
0.245880 0.184906 0.000000
0.274475 0.184143 0.000000
0.304199 0.183075 0.000000
0.335144 0.181641 0.000000
0.367310 0.179871 0.000000
0.400726 0.177460 0.000000
0.435333 0.174561 0.000000
0.471313 0.170746 0.000000
0.508667 0.165924 0.000000
0.547424 0.159790 0.000000
0.587708 0.151794 0.000000
0.629456 0.141785 0.000000
0.672546 0.128632 0.000000
0.716827 0.111298 0.000000
0.761993 0.085297 0.000000
0.807800 0.061279 0.000000
0.852997 0.034851 0.000000
0.896820 0.010468 0.000000
0.938873 0.003632 0.000000
0.977814 0.000000 0.000000
0.999969 0.000000 0.000000
1.000000 0.000000 0.000000
0.000000 0.217896 0.000000
0.000000 0.217987 0.000000
0.000854 0.218018 0.000000
0.009552 0.218079 0.000000
0.040924 0.218079 0.000000
0.074707 0.218018 0.000000
0.105072 0.217590 0.000000
0.133545 0.217102 0.000000
0.161346 0.216614 0.000000
0.188965 0.216248 0.000000
0.217133 0.216156 0.000000
0.246033 0.215759 0.000000
0.275787 0.215210 0.000000
0.306335 0.214447 0.000000
0.337891 0.213440 0.000000
0.370544 0.212158 0.000000
0.404327 0.210510 0.000000
0.439362 0.208344 0.000000
0.475616 0.205688 0.000000
0.513184 0.202240 0.000000
0.552002 0.197998 0.000000
0.592102 0.192657 0.000000
0.633575 0.186005 0.000000
0.676392 0.177704 0.000000
0.720459 0.167206 0.000000
0.765594 0.154175 0.000000
0.811157 0.138184 0.000000
0.855988 0.117218 0.000000
0.899353 0.094330 0.000000
0.940918 0.080994 0.000000
0.979309 0.069031 0.000000
0.999969 0.058807 0.000000
1.000000 0.051086 0.000000
0.000000 0.250305 0.000000
0.000000 0.250366 0.000000
0.000000 0.250458 0.000000
0.001190 0.250580 0.000000
0.010956 0.250763 0.000000
0.050171 0.250946 0.000000
0.088440 0.251038 0.000000
0.122040 0.250641 0.000000
0.153290 0.250153 0.000000
0.183563 0.249664 0.000000
0.213684 0.249298 0.000000
0.244049 0.249084 0.000000
0.275177 0.248871 0.000000
0.306976 0.248383 0.000000
0.339569 0.247620 0.000000
0.373016 0.246735 0.000000
0.407410 0.245575 0.000000
0.442932 0.244019 0.000000
0.479675 0.242065 0.000000
0.517578 0.239655 0.000000
0.556763 0.236572 0.000000
0.597076 0.232788 0.000000
0.638641 0.228088 0.000000
0.681305 0.222443 0.000000
0.725067 0.215576 0.000000
0.769714 0.207336 0.000000
0.814697 0.197845 0.000000
0.858948 0.187531 0.000000
0.901733 0.177063 0.000000
0.942810 0.167175 0.000000
0.980621 0.158173 0.000000
1.000000 0.150269 0.000000
1.000000 0.145325 0.000000
0.000000 0.285675 0.000000
0.000000 0.285767 0.000000
0.000000 0.285889 0.000000
0.000000 0.286072 0.000000
0.000763 0.286285 0.000000
0.010529 0.286591 0.000000
0.055725 0.286865 0.000000
0.100952 0.287140 0.000000
0.138489 0.286865 0.000000
0.173248 0.286255 0.000000
0.206573 0.285706 0.000000
0.239380 0.285217 0.000000
0.272156 0.284973 0.000000
0.305481 0.284882 0.000000
0.339478 0.284485 0.000000
0.374115 0.283844 0.000000
0.409485 0.283020 0.000000
0.445770 0.281921 0.000000
0.483124 0.280487 0.000000
0.521576 0.278717 0.000000
0.561157 0.276550 0.000000
0.601929 0.273773 0.000000
0.643738 0.270416 0.000000
0.686646 0.266327 0.000000
0.730469 0.261505 0.000000
0.774902 0.255951 0.000000
0.819336 0.249908 0.000000
0.862854 0.243713 0.000000
0.904907 0.237854 0.000000
0.945129 0.232880 0.000000
0.982178 0.229370 0.000000
1.000000 0.227295 0.000000
1.000000 0.227295 0.000000
0.000000 0.323883 0.000000
0.000000 0.324036 0.000000
0.000000 0.324188 0.000000
0.000000 0.324432 0.000000
0.000000 0.324707 0.000000
0.000000 0.325012 0.000000
0.010712 0.325470 0.000000
0.058472 0.325867 0.000000
0.113007 0.326233 0.000000
0.155273 0.326050 0.000000
0.194000 0.325287 0.000000
0.230591 0.324615 0.000000
0.266113 0.324097 0.000000
0.301300 0.323792 0.000000
0.336945 0.323730 0.000000
0.373169 0.323517 0.000000
0.409912 0.322968 0.000000
0.447357 0.322174 0.000000
0.485596 0.321167 0.000000
0.524780 0.319885 0.000000
0.564972 0.318298 0.000000
0.606201 0.316315 0.000000
0.648468 0.313904 0.000000
0.691681 0.310974 0.000000
0.735718 0.307556 0.000000
0.780212 0.303680 0.000000
0.824371 0.299622 0.000000
0.867340 0.295837 0.000000
0.908783 0.292603 0.000000
0.948334 0.290222 0.000000
0.984589 0.289185 0.000000
1.000000 0.289154 0.000000
1.000000 0.290771 0.000000
0.000000 0.365021 0.000000
0.000000 0.365204 0.000000
0.000000 0.365387 0.000000
0.000000 0.365631 0.000000
0.000000 0.365936 0.000000
0.000000 0.366333 0.000000
0.000000 0.366791 0.000000
0.010712 0.367310 0.000000
0.060303 0.367828 0.000000
0.125244 0.368286 0.000000
0.172760 0.368195 0.000000
0.215637 0.367249 0.000000
0.255432 0.366516 0.000000
0.293823 0.365936 0.000000
0.331635 0.365540 0.000000
0.369507 0.365479 0.000000
0.407990 0.365417 0.000000
0.446899 0.365021 0.000000
0.486450 0.364319 0.000000
0.526672 0.363403 0.000000
0.567719 0.362274 0.000000
0.609650 0.360809 0.000000
0.652466 0.359131 0.000000
0.696136 0.357056 0.000000
0.740417 0.354645 0.000000
0.785004 0.352020 0.000000
0.828857 0.349426 0.000000
0.871429 0.347260 0.000000
0.912323 0.345703 0.000000
0.951355 0.345001 0.000000
0.987091 0.345398 0.000000
1.000000 0.346680 0.000000
1.000000 0.349335 0.000000
0.000000 0.408997 0.000000
0.000000 0.409180 0.000000
0.000000 0.409393 0.000000
0.000000 0.409607 0.000000
0.000000 0.409943 0.000000
0.000000 0.410400 0.000000
0.000000 0.410858 0.000000
0.000000 0.411438 0.000000
0.010590 0.411987 0.000000
0.061279 0.412659 0.000000
0.138031 0.413208 0.000000
0.190765 0.413177 0.000000
0.237946 0.412140 0.000000
0.281158 0.411316 0.000000
0.322479 0.410645 0.000000
0.362946 0.410217 0.000000
0.403076 0.410095 0.000000
0.443848 0.410156 0.000000
0.485016 0.409943 0.000000
0.526672 0.409393 0.000000
0.568909 0.408600 0.000000
0.611755 0.407623 0.000000
0.655365 0.406403 0.000000
0.699615 0.404968 0.000000
0.744263 0.403320 0.000000
0.788879 0.401642 0.000000
0.832458 0.400208 0.000000
0.874634 0.399200 0.000000
0.915009 0.398895 0.000000
0.953461 0.399414 0.000000
0.988647 0.400909 0.000000
1.000000 0.403198 0.000000
1.000000 0.406616 0.000000
0.000000 0.455719 0.000000
0.000000 0.455872 0.000000
0.000000 0.456116 0.000000
0.000000 0.456360 0.000000
0.000000 0.456696 0.000000
0.000000 0.457184 0.000000
0.000000 0.457703 0.000000
0.000000 0.458252 0.000000
0.000000 0.458923 0.000000
0.010132 0.459625 0.000000
0.063690 0.460388 0.000000
0.151154 0.461029 0.000000
0.209351 0.461029 0.000000
0.260803 0.459900 0.000000
0.307678 0.458923 0.000000
0.352051 0.458191 0.000000
0.395081 0.457764 0.000000
0.437744 0.457581 0.000000
0.480743 0.457703 0.000000
0.524139 0.457672 0.000000
0.567932 0.457306 0.000000
0.612091 0.456696 0.000000
0.656647 0.455872 0.000000
0.701691 0.454895 0.000000
0.746857 0.453827 0.000000
0.791473 0.452911 0.000000
0.834778 0.452332 0.000000
0.876587 0.452240 0.000000
0.916473 0.452850 0.000000
0.954376 0.454285 0.000000
0.989105 0.456604 0.000000
1.000000 0.459625 0.000000
1.000000 0.463623 0.000000
0.000000 0.505249 0.000000
0.000000 0.505371 0.000000
0.000000 0.505615 0.000000
0.000000 0.505890 0.000000
0.000000 0.506256 0.000000
0.000000 0.506714 0.000000
0.000000 0.507294 0.000000
0.000000 0.507843 0.000000
0.000000 0.508575 0.000000
0.000000 0.509338 0.000000
0.010406 0.510162 0.000000
0.066406 0.510986 0.000000
0.164612 0.511719 0.000000
0.228333 0.511810 0.000000
0.284424 0.510529 0.000000
0.334930 0.509430 0.000000
0.382385 0.508636 0.000000
0.428192 0.508148 0.000000
0.473389 0.507874 0.000000
0.518616 0.508026 0.000000
0.564148 0.508179 0.000000
0.609955 0.507996 0.000000
0.655853 0.507599 0.000000
0.701935 0.506958 0.000000
0.747681 0.506409 0.000000
0.792358 0.506073 0.000000
0.835480 0.506104 0.000000
0.876923 0.506744 0.000000
0.916351 0.507965 0.000000
0.953766 0.509979 0.000000
0.988190 0.512726 0.000000
1.000000 0.516174 0.000000
1.000000 0.520355 0.000000
0.000000 0.557465 0.000000
0.000000 0.557617 0.000000
0.000000 0.557831 0.000000
0.000000 0.558136 0.000000
0.000000 0.558502 0.000000
0.000000 0.558960 0.000000
0.000000 0.559540 0.000000
0.000000 0.560181 0.000000
0.000000 0.560913 0.000000
0.000000 0.561676 0.000000
0.000000 0.562531 0.000000
0.010376 0.563477 0.000000
0.068878 0.564362 0.000000
0.178314 0.565247 0.000000
0.248016 0.565338 0.000000
0.308807 0.563843 0.000000
0.363007 0.562653 0.000000
0.413635 0.561737 0.000000
0.462311 0.561157 0.000000
0.509979 0.560883 0.000000
0.557343 0.560913 0.000000
0.604858 0.561188 0.000000
0.652496 0.561249 0.000000
0.699738 0.561035 0.000000
0.746216 0.560822 0.000000
0.791107 0.560822 0.000000
0.834229 0.561218 0.000000
0.875458 0.562164 0.000000
0.914490 0.563660 0.000000
0.951599 0.565826 0.000000
0.985870 0.568512 0.000000
1.000000 0.571869 0.000000
1.000000 0.575806 0.000000
0.000000 0.612183 0.000000
0.000000 0.612396 0.000000
0.000000 0.612579 0.000000
0.000000 0.612854 0.000000
0.000000 0.613220 0.000000
0.000000 0.613678 0.000000
0.000000 0.614258 0.000000
0.000000 0.614960 0.000000
0.000000 0.615692 0.000000
0.000000 0.616486 0.000000
0.000000 0.617340 0.000000
0.000000 0.618286 0.000000
0.010406 0.619232 0.000000
0.072693 0.620209 0.000000
0.193390 0.621094 0.000000
0.269257 0.621063 0.000000
0.334656 0.619324 0.000000
0.392517 0.617920 0.000000
0.446411 0.616760 0.000000
0.497894 0.615997 0.000000
0.547974 0.615509 0.000000
0.597351 0.615326 0.000000
0.646606 0.615479 0.000000
0.695312 0.615631 0.000000
0.742493 0.615631 0.000000
0.787811 0.615784 0.000000
0.831116 0.616180 0.000000
0.872284 0.617004 0.000000
0.911194 0.618347 0.000000
0.948090 0.620239 0.000000
0.982422 0.622589 0.000000
0.999969 0.625519 0.000000
1.000000 0.628967 0.000000
0.000000 0.668610 0.000000
0.000000 0.668823 0.000000
0.000000 0.669006 0.000000
0.000000 0.669250 0.000000
0.000000 0.669617 0.000000
0.000000 0.670013 0.000000
0.000000 0.670563 0.000000
0.000000 0.671204 0.000000
0.000000 0.671875 0.000000
0.000000 0.672607 0.000000
0.000000 0.673431 0.000000
0.000000 0.674316 0.000000
0.000000 0.675171 0.000000
0.011078 0.676056 0.000000
0.084320 0.676941 0.000000
0.214142 0.677643 0.000000
0.295380 0.677094 0.000000
0.364777 0.674866 0.000000
0.425781 0.673096 0.000000
0.482483 0.671570 0.000000
0.536438 0.670319 0.000000
0.588684 0.669403 0.000000
0.639496 0.668854 0.000000
0.689270 0.668671 0.000000
0.737305 0.668762 0.000000
0.783081 0.668915 0.000000
0.826660 0.669220 0.000000
0.867828 0.669830 0.000000
0.906738 0.670837 0.000000
0.943604 0.672302 0.000000
0.978149 0.674164 0.000000
0.999939 0.676544 0.000000
1.000000 0.679413 0.000000
0.000000 0.724792 0.000000
0.000000 0.724945 0.000000
0.000000 0.725098 0.000000
0.000000 0.725311 0.000000
0.000000 0.725647 0.000000
0.000000 0.725983 0.000000
0.000000 0.726410 0.000000
0.000000 0.726929 0.000000
0.000000 0.727478 0.000000
0.000000 0.728058 0.000000
0.000000 0.728699 0.000000
0.000000 0.729401 0.000000
0.000000 0.730072 0.000000
0.000000 0.730713 0.000000
0.015381 0.731354 0.000000
0.121490 0.731934 0.000000
0.247253 0.732208 0.000000
0.331451 0.730377 0.000000
0.402557 0.727661 0.000000
0.465607 0.725372 0.000000
0.524109 0.723358 0.000000
0.579529 0.721649 0.000000
0.632538 0.720337 0.000000
0.683167 0.719482 0.000000
0.731506 0.719147 0.000000
0.777679 0.719208 0.000000
0.821472 0.719360 0.000000
0.862701 0.719757 0.000000
0.901611 0.720398 0.000000
0.938507 0.721344 0.000000
0.973389 0.722656 0.000000
0.999847 0.724304 0.000000
1.000000 0.726471 0.000000
0.000000 0.778564 0.000000
0.000000 0.778687 0.000000
0.000000 0.778778 0.000000
0.000000 0.778961 0.000000
0.000000 0.779205 0.000000
0.000000 0.779480 0.000000
0.000000 0.779785 0.000000
0.000000 0.780121 0.000000
0.000000 0.780518 0.000000
0.000000 0.780945 0.000000
0.000000 0.781372 0.000000
0.000000 0.781830 0.000000
0.000000 0.782257 0.000000
0.000000 0.782654 0.000000
0.000031 0.782990 0.000000
0.042236 0.783203 0.000000
0.186920 0.783386 0.000000
0.295715 0.782471 0.000000
0.378815 0.779236 0.000000
0.449158 0.776154 0.000000
0.512543 0.773376 0.000000
0.571228 0.770935 0.000000
0.626129 0.768951 0.000000
0.677795 0.767426 0.000000
0.726501 0.766357 0.000000
0.772583 0.765839 0.000000
0.816345 0.765717 0.000000
0.857635 0.765808 0.000000
0.896637 0.766052 0.000000
0.933563 0.766449 0.000000
0.968689 0.767090 0.000000
0.999359 0.768036 0.000000
1.000000 0.769318 0.000000
0.000000 0.828918 0.000000
0.000000 0.828979 0.000000
0.000000 0.829041 0.000000
0.000000 0.829163 0.000000
0.000000 0.829315 0.000000
0.000000 0.829468 0.000000
0.000000 0.829651 0.000000
0.000000 0.829865 0.000000
0.000000 0.830048 0.000000
0.000000 0.830261 0.000000
0.000000 0.830505 0.000000
0.000000 0.830658 0.000000
0.000000 0.830780 0.000000
0.000000 0.830872 0.000000
0.000031 0.830872 0.000000
0.009613 0.830750 0.000000
0.118195 0.830505 0.000000
0.262817 0.829620 0.000000
0.358002 0.826630 0.000000
0.436249 0.822662 0.000000
0.503906 0.819244 0.000000
0.565369 0.816162 0.000000
0.621796 0.813538 0.000000
0.674042 0.811371 0.000000
0.723083 0.809662 0.000000
0.769104 0.808441 0.000000
0.812469 0.807648 0.000000
0.853577 0.807251 0.000000
0.892578 0.807068 0.000000
0.929596 0.806946 0.000000
0.964691 0.806976 0.000000
0.997498 0.807220 0.000000
1.000000 0.807739 0.000000
0.000000 0.874634 0.000000
0.000000 0.874664 0.000000
0.000000 0.874695 0.000000
0.000000 0.874725 0.000000
0.000000 0.874756 0.000000
0.000000 0.874817 0.000000
0.000000 0.874847 0.000000
0.000000 0.874908 0.000000
0.000000 0.874908 0.000000
0.000000 0.874878 0.000000
0.000000 0.874847 0.000000
0.000000 0.874756 0.000000
0.000000 0.874573 0.000000
0.000000 0.874298 0.000000
0.000000 0.873932 0.000000
0.000000 0.873413 0.000000
0.086426 0.872772 0.000000
0.238770 0.871521 0.000000
0.345917 0.868378 0.000000
0.429932 0.863892 0.000000
0.500854 0.859863 0.000000
0.563660 0.856293 0.000000
0.620697 0.853149 0.000000
0.673279 0.850464 0.000000
0.722168 0.848206 0.000000
0.767883 0.846375 0.000000
0.810760 0.845032 0.000000
0.851501 0.844025 0.000000
0.890228 0.843323 0.000000
0.927002 0.842804 0.000000
0.962036 0.842346 0.000000
0.994659 0.842072 0.000000
1.000000 0.841980 0.000000
0.000000 0.914948 0.000000
0.000000 0.914948 0.000000
0.000000 0.914917 0.000000
0.000000 0.914886 0.000000
0.000000 0.914825 0.000000
0.000000 0.914734 0.000000
0.000000 0.914642 0.000000
0.000000 0.914520 0.000000
0.000000 0.914337 0.000000
0.000000 0.914124 0.000000
0.000000 0.913818 0.000000
0.000000 0.913452 0.000000
0.000000 0.912964 0.000000
0.000000 0.912384 0.000000
0.000000 0.911652 0.000000
0.000000 0.910797 0.000000
0.085693 0.909760 0.000000
0.231140 0.907898 0.000000
0.346466 0.904388 0.000000
0.432831 0.899475 0.000000
0.504333 0.895172 0.000000
0.566986 0.891327 0.000000
0.623749 0.887848 0.000000
0.675842 0.884827 0.000000
0.724091 0.882233 0.000000
0.769073 0.880035 0.000000
0.811432 0.878174 0.000000
0.851562 0.876740 0.000000
0.889709 0.875549 0.000000
0.926086 0.874634 0.000000
0.960754 0.873871 0.000000
0.993164 0.873108 0.000000
1.000000 0.872589 0.000000
0.000000 0.950012 0.000000
0.000000 0.949951 0.000000
0.000000 0.949890 0.000000
0.000000 0.949799 0.000000
0.000000 0.949677 0.000000
0.000000 0.949524 0.000000
0.000000 0.949280 0.000000
0.000000 0.948975 0.000000
0.000000 0.948669 0.000000
0.000000 0.948273 0.000000
0.000000 0.947754 0.000000
0.000000 0.947144 0.000000
0.000000 0.946411 0.000000
0.000000 0.945557 0.000000
0.000000 0.944519 0.000000
0.003448 0.943329 0.000000
0.098602 0.941956 0.000000
0.249298 0.939301 0.000000
0.360626 0.935089 0.000000
0.444550 0.930176 0.000000
0.514130 0.925812 0.000000
0.575348 0.921844 0.000000
0.630768 0.918243 0.000000
0.681702 0.915070 0.000000
0.728760 0.912231 0.000000
