滤镜资源/Professional Luts Collection/Lutify.me Professional/Vintage Films/Topaz.cube
# Created by: Lutify.me
# Copyright: (c) Copyright Lutify.me 2015
# Website: https://lutify.me
#LUT size
LUT_3D_SIZE 5
#LUT data points
0.000000 0.000000 0.000000
0.158691 0.000000 0.000153
0.381348 0.000000 0.000000
0.697083 0.000000 0.000000
1.000000 0.000000 0.000000
0.000000 0.161011 0.000000
0.166290 0.158478 0.000000
0.396881 0.146362 0.000000
0.713287 0.040344 0.000000
1.000000 0.000000 0.000000
0.000000 0.455719 0.000000
0.000000 0.458923 0.000000
0.395081 0.457764 0.000000
0.746857 0.453827 0.000000
1.000000 0.463623 0.000000
0.000000 0.874634 0.000000
0.000000 0.874908 0.000000
0.086426 0.872772 0.000000
0.722168 0.848206 0.000000
1.000000 0.841980 0.000000
0.000000 1.000000 0.000000
0.000000 1.000000 0.000000
0.486969 1.000000 0.000000
0.797119 1.000000 0.000000
1.000000 1.000000 0.000000
0.000000 0.000000 0.175964
0.159424 0.000000 0.171570
0.390015 0.000000 0.168915
0.706573 0.000000 0.166534
1.000000 0.000000 0.157440
0.000000 0.157288 0.175232
0.165466 0.155975 0.172882
0.403473 0.143799 0.170715
0.722382 0.028717 0.165039
1.000000 0.000000 0.150513
0.000000 0.454254 0.128113
0.000031 0.457214 0.121735
0.402283 0.456512 0.116455
0.753510 0.452789 0.092285
1.000000 0.463898 0.025757
0.000000 0.872437 0.000000
0.000000 0.872559 0.000000
0.106323 0.870056 0.000000
0.726715 0.846344 0.000000
1.000000 0.840759 0.000000
0.000000 1.000000 0.000000
0.000000 1.000000 0.000000
0.491272 1.000000 0.000000
0.797363 1.000000 0.000000
1.000000 1.000000 0.012756
0.000000 0.000000 0.472107
0.004181 0.000000 0.477295
0.381592 0.000000 0.470245
0.728790 0.000000 0.463745
1.000000 0.000000 0.463501
0.000000 0.140472 0.486176
0.009399 0.136383 0.485077
0.398743 0.112061 0.474701
0.744019 0.000000 0.468140
1.000000 0.000000 0.466675
0.000000 0.446045 0.487000
0.000000 0.448425 0.485229
0.387329 0.450897 0.478790
0.752716 0.452209 0.472504
1.000000 0.470001 0.470886
0.000000 0.863129 0.450714
0.000000 0.862946 0.448608
0.094055 0.859344 0.441895
0.722748 0.842377 0.442841
1.000000 0.835297 0.450897
0.000000 1.000000 0.513062
0.000000 1.000000 0.513458
0.478912 1.000000 0.515259
0.785156 1.000000 0.521240
1.000000 1.000000 0.536499
0.000000 0.000000 0.864197
0.000000 0.000000 0.867554
0.222137 0.000000 0.874359
0.712128 0.000000 0.862823
1.000000 0.000000 0.853607
0.000000 0.092621 0.896973
0.000000 0.078400 0.895050
0.240387 0.002045 0.888489
0.729218 0.000000 0.862762
1.000000 0.000000 0.853577
0.000000 0.429321 0.888702
0.000000 0.430634 0.886688
0.262299 0.429810 0.879852
0.744141 0.427948 0.858459
1.000000 0.452728 0.845551
0.000000 0.848175 0.854828
0.000000 0.847351 0.852814
0.028351 0.842224 0.846344
0.687286 0.832275 0.836670
0.983643 0.830078 0.830261
0.000000 1.000000 0.839935
0.000000 1.000000 0.839478
0.449432 1.000000 0.838165
0.762238 1.000000 0.836731
0.999908 1.000000 0.839142
0.000000 0.000000 1.000000
0.000000 0.000000 1.000000
0.344299 0.000000 1.000000
0.764862 0.000000 1.000000
1.000000 0.000000 1.000000
0.000000 0.115173 1.000000
0.000000 0.099426 1.000000
0.378662 0.008148 1.000000
0.778931 0.000000 1.000000
1.000000 0.000000 1.000000
0.000000 0.443512 1.000000
0.000000 0.443848 1.000000
0.415283 0.440887 1.000000
0.787140 0.429962 1.000000
1.000000 0.459198 1.000000
0.000000 0.837585 1.000000
0.000000 0.836914 1.000000
0.305664 0.833374 1.000000
0.729431 0.826385 1.000000
0.997772 0.827759 0.993805
0.000000 1.000000 0.990265
0.190857 1.000000 0.989655
0.527679 1.000000 0.987762
0.790558 1.000000 0.984589
1.000000 1.000000 0.989136
