滤镜资源/Professional Luts Collection/Lutify.me Professional/Vintage Films/Topaz Imperial.cube
# Created by: Lutify.me
# Copyright: (c) Copyright Lutify.me 2015
# Website: https://lutify.me
#LUT size
LUT_3D_SIZE 33
#LUT data points
0.000000 0.000000 0.000000
0.013275 0.000000 0.001129
0.029083 0.000000 0.000061
0.049744 0.000000 0.000000
0.072479 0.000000 0.000000
0.095917 0.000000 0.000000
0.120361 0.000000 0.000000
0.145447 0.000000 0.000000
0.171844 0.000000 0.000000
0.199402 0.000000 0.000000
0.228668 0.000000 0.000000
0.259766 0.000000 0.000000
0.293182 0.000000 0.000000
0.329315 0.000000 0.000000
0.368164 0.000000 0.000000
0.409393 0.000000 0.000000
0.452576 0.000000 0.000000
0.497437 0.000000 0.000000
0.543579 0.000000 0.000000
0.590637 0.000000 0.000000
0.637177 0.000000 0.000000
0.680878 0.000000 0.000000
0.720795 0.000000 0.000000
0.757294 0.000000 0.000000
0.791077 0.000000 0.000000
0.823059 0.000000 0.001129
0.854431 0.000000 0.007263
0.886292 0.000000 0.017792
0.919495 0.000000 0.024353
0.954437 0.000000 0.025879
0.987183 0.000000 0.024445
1.000000 0.000000 0.023621
1.000000 0.000000 0.022095
0.000397 0.012878 0.000000
0.015198 0.011292 0.000000
0.030304 0.010498 0.000031
0.051331 0.009705 0.000000
0.073944 0.008942 0.000000
0.097321 0.007812 0.000000
0.121368 0.005707 0.000000
0.146576 0.003387 0.000000
0.172821 0.000671 0.000000
0.200562 0.000000 0.000000
0.229858 0.000000 0.000000
0.261047 0.000000 0.000000
0.294495 0.000000 0.000000
0.330688 0.000000 0.000000
0.369629 0.000000 0.000000
0.410858 0.000000 0.000000
0.453979 0.000000 0.000000
0.498749 0.000000 0.000000
0.544891 0.000000 0.000000
0.591888 0.000000 0.000000
0.638336 0.000000 0.000000
0.681854 0.000000 0.000000
0.721619 0.000000 0.000000
0.758057 0.000000 0.000000
0.791779 0.000000 0.000000
0.823700 0.000000 0.001099
0.854980 0.000000 0.007141
0.886841 0.000000 0.017365
0.920013 0.000000 0.023590
0.954834 0.000000 0.024811
0.987518 0.000000 0.023621
1.000000 0.000000 0.022491
1.000000 0.000000 0.020935
0.000031 0.027618 0.000000
0.016327 0.025330 0.000000
0.033020 0.024506 0.000000
0.053589 0.023315 0.000000
0.075836 0.021912 0.000000
0.098877 0.020752 0.000000
0.122833 0.019073 0.000000
0.147827 0.016876 0.000000
0.174286 0.013519 0.000000
0.201874 0.008972 0.000000
0.231140 0.003540 0.000000
0.262299 0.000641 0.000000
0.295868 0.000031 0.000000
0.332153 0.000000 0.000000
0.371094 0.000000 0.000000
0.412384 0.000000 0.000000
0.455566 0.000000 0.000000
0.500366 0.000000 0.000000
0.546448 0.000000 0.000000
0.593323 0.000000 0.000000
0.639587 0.000000 0.000000
0.682983 0.000000 0.000000
0.722626 0.000000 0.000000
0.758911 0.000000 0.000000
0.792542 0.000000 0.000000
0.824432 0.000000 0.000946
0.855682 0.000000 0.006439
0.887451 0.000000 0.016663
0.920624 0.000000 0.023102
0.955383 0.000000 0.023651
0.987915 0.000000 0.022797
1.000000 0.000000 0.020935
1.000000 0.000000 0.019043
0.000000 0.049042 0.000000
0.015991 0.047028 0.000000
0.033112 0.045319 0.000000
0.056000 0.043579 0.000000
0.078094 0.042053 0.000000
0.101440 0.040283 0.000000
0.125305 0.038788 0.000000
0.150146 0.036530 0.000000
0.176331 0.033417 0.000000
0.204041 0.028992 0.000000
0.233307 0.023071 0.000000
0.264374 0.015167 0.000000
0.297882 0.005615 0.000000
0.334290 0.000824 0.000000
0.373322 0.000000 0.000000
0.414612 0.000000 0.000000
0.457794 0.000000 0.000000
0.502502 0.000000 0.000000
0.548492 0.000000 0.000000
0.595276 0.000000 0.000000
0.641388 0.000000 0.000000
0.684509 0.000000 0.000000
0.723938 0.000000 0.000000
0.760101 0.000000 0.000000
0.793579 0.000000 0.000000
0.825378 0.000000 0.000793
0.856567 0.000000 0.005737
0.888275 0.000000 0.015808
0.921387 0.000000 0.021973
0.956055 0.000000 0.022400
0.988464 0.000000 0.020966
1.000000 0.000000 0.019012
1.000000 0.000000 0.016724
0.000000 0.072662 0.000000
0.014130 0.071198 0.000000
0.033020 0.069366 0.000000
0.056030 0.067810 0.000000
0.079773 0.066223 0.000000
0.103882 0.064514 0.000000
0.128174 0.062866 0.000000
0.153259 0.060913 0.000000
0.179413 0.058411 0.000000
0.207153 0.054993 0.000000
0.236481 0.050446 0.000000
0.267578 0.043579 0.000000
0.301147 0.033722 0.000000
0.337372 0.019562 0.000000
0.376282 0.005432 0.000000
0.417480 0.000153 0.000000
0.460632 0.000000 0.000000
0.505310 0.000000 0.000000
0.551178 0.000000 0.000000
0.597870 0.000000 0.000000
0.643677 0.000000 0.000000
0.686462 0.000000 0.000000
0.725647 0.000000 0.000000
0.761566 0.000000 0.000000
0.794891 0.000000 0.000000
0.826599 0.000000 0.000488
0.857758 0.000000 0.004425
0.889435 0.000000 0.014252
0.922424 0.000000 0.020081
0.956940 0.000000 0.020142
0.989105 0.000000 0.018250
1.000000 0.000000 0.015961
1.000000 0.000000 0.013275
0.000000 0.097595 0.000000
0.009888 0.096619 0.000000
0.029999 0.095154 0.000000
0.055115 0.093414 0.000000
0.079926 0.091583 0.000000
0.104828 0.090515 0.000000
0.130310 0.088776 0.000000
0.156067 0.087006 0.000000
0.182892 0.084625 0.000000
0.210785 0.082184 0.000000
0.240326 0.078735 0.000000
0.271698 0.074219 0.000000
0.305481 0.067230 0.000000
0.341827 0.056976 0.000000
0.380585 0.041412 0.000000
0.421417 0.019775 0.000000
0.464203 0.004822 0.000000
0.508728 0.000122 0.000000
0.554535 0.000000 0.000000
0.600983 0.000000 0.000000
0.646454 0.000000 0.000000
0.688873 0.000000 0.000000
0.727753 0.000000 0.000000
0.763397 0.000000 0.000000
0.796570 0.000000 0.000000
0.828156 0.000000 0.000000
0.859192 0.000000 0.002167
0.890778 0.000000 0.011353
0.923645 0.000000 0.017303
0.957977 0.000000 0.016724
0.989868 0.000000 0.014435
1.000000 0.000000 0.011749
1.000000 0.000000 0.008881
0.000000 0.124512 0.000000
0.003357 0.123718 0.000000
0.023529 0.122589 0.000000
0.050842 0.120850 0.000000
0.077911 0.119110 0.000000
0.104492 0.117523 0.000000
0.131256 0.116516 0.000000
0.158112 0.114807 0.000000
0.185730 0.112976 0.000000
0.214355 0.110657 0.000000
0.244263 0.108124 0.000000
0.276276 0.104370 0.000000
0.310516 0.099457 0.000000
0.347168 0.092407 0.000000
0.386078 0.082581 0.000000
0.426880 0.068573 0.000000
0.469299 0.047821 0.000000
0.513184 0.021637 0.000000
0.558441 0.004486 0.000000
0.604523 0.000092 0.000000
0.649628 0.000000 0.000000
0.691620 0.000000 0.000000
0.730103 0.000000 0.000000
0.765472 0.000000 0.000000
0.798431 0.000000 0.000000
0.829865 0.000000 0.000000
0.860809 0.000000 0.001099
0.892273 0.000000 0.007568
0.925018 0.000000 0.013092
0.959137 0.000000 0.011780
0.990662 0.000000 0.009338
1.000000 0.000183 0.006195
1.000000 0.004944 0.003021
0.000000 0.153259 0.000000
0.000427 0.152832 0.000000
0.010284 0.152039 0.000000
0.041046 0.150482 0.000000
0.072662 0.148834 0.000000
0.101562 0.147125 0.000000
0.129669 0.145752 0.000000
0.158539 0.144745 0.000000
0.187378 0.143036 0.000000
0.217072 0.141174 0.000000
0.248169 0.138794 0.000000
0.280945 0.135864 0.000000
0.315918 0.131927 0.000000
0.353027 0.126770 0.000000
0.392212 0.119690 0.000000
0.433136 0.110596 0.000000
0.475586 0.098633 0.000000
0.519287 0.082214 0.000000
0.563934 0.058960 0.000000
0.609161 0.033295 0.000000
0.653351 0.012573 0.000000
0.694580 0.004181 0.000000
0.732574 0.002411 0.000000
0.767670 0.002075 0.000000
0.800415 0.003204 0.000000
0.831726 0.005463 0.000000
0.862518 0.008942 0.000153
0.893860 0.016632 0.002655
0.926453 0.029480 0.007019
0.960266 0.040344 0.005707
0.991516 0.054932 0.002899
1.000000 0.072479 0.001129
1.000000 0.091400 0.000397
0.000000 0.184784 0.000000
0.000000 0.184540 0.000000
0.001556 0.184052 0.000000
0.020416 0.182892 0.000000
0.059998 0.181274 0.000000
0.094421 0.179535 0.000000
0.125793 0.177887 0.000000
0.156097 0.176575 0.000000
0.187042 0.175598 0.000000
0.218414 0.174103 0.000000
0.250916 0.172058 0.000000
0.285065 0.169586 0.000000
0.320984 0.166504 0.000000
0.358856 0.162537 0.000000
0.398438 0.157440 0.000000
0.439667 0.151062 0.000000
0.482208 0.143250 0.000000
0.525879 0.133484 0.000000
0.570465 0.121307 0.000000
0.615265 0.106293 0.000000
0.658722 0.087982 0.000000
0.699127 0.076691 0.000000
0.736267 0.072876 0.000000
0.770630 0.073608 0.000000
0.802856 0.078552 0.000000
0.833771 0.086487 0.000000
0.864410 0.095428 0.000000
0.895569 0.105286 0.000214
0.927887 0.116516 0.001434
0.961365 0.125671 0.001160
0.992279 0.137695 0.000366
1.000000 0.152802 0.000000
1.000000 0.169861 0.000000
0.000000 0.219513 0.000000
0.000000 0.219391 0.000000
0.000000 0.219177 0.000000
0.003296 0.218567 0.000000
0.031219 0.217163 0.000000
0.078888 0.215454 0.000000
0.116241 0.213776 0.000000
0.150238 0.212280 0.000000
0.183319 0.211090 0.000000
0.217041 0.210266 0.000000
0.251678 0.208923 0.000000
0.287628 0.206879 0.000000
0.325012 0.204437 0.000000
0.363831 0.201447 0.000000
0.404175 0.197754 0.000000
0.445862 0.193329 0.000000
0.488647 0.187958 0.000000
0.532440 0.181610 0.000000
0.576996 0.174103 0.000000
0.621643 0.165588 0.000000
0.664734 0.157196 0.000000
0.704651 0.150879 0.000000
0.741364 0.148163 0.000000
0.775330 0.149475 0.000000
0.807159 0.154572 0.000000
0.837708 0.162537 0.000000
0.868011 0.171783 0.000000
0.898834 0.180969 0.000000
0.930817 0.189331 0.000000
0.964050 0.196350 0.000000
0.994568 0.205048 0.000000
1.000000 0.215912 0.000000
1.000000 0.228912 0.000000
0.000000 0.258514 0.000000
0.000000 0.258453 0.000000
0.000000 0.258423 0.000000
0.000000 0.258331 0.000000
0.005096 0.257690 0.000000
0.037445 0.256195 0.000000
0.094971 0.254517 0.000000
0.136749 0.252899 0.000000
0.174652 0.251495 0.000000
0.211548 0.250397 0.000000
0.249023 0.249634 0.000000
0.287476 0.248352 0.000000
0.326843 0.246521 0.000000
0.367218 0.244202 0.000000
0.408661 0.241455 0.000000
0.451050 0.238281 0.000000
0.494293 0.234589 0.000000
0.538422 0.230194 0.000000
0.583130 0.225250 0.000000
0.627686 0.219879 0.000000
0.670471 0.214874 0.000000
0.710114 0.211517 0.000000
0.746582 0.210602 0.000000
0.780365 0.212463 0.000000
0.812042 0.216858 0.000000
0.842468 0.223267 0.000000
0.872498 0.230865 0.000000
0.903076 0.238739 0.000000
0.934723 0.246155 0.000000
0.967621 0.252777 0.000000
0.997711 0.260590 0.000000
1.000000 0.270020 0.000000
1.000000 0.281189 0.000000
0.000000 0.302185 0.000000
0.000000 0.302246 0.000000
0.000000 0.302307 0.000000
0.000000 0.302429 0.000000
0.000000 0.302460 0.000000
0.005676 0.301971 0.000000
0.039886 0.300293 0.000000
0.108643 0.298584 0.000000
0.156952 0.296936 0.000000
0.200348 0.295441 0.000000
0.241852 0.294220 0.000000
0.283295 0.293365 0.000000
0.325470 0.292328 0.000000
0.367920 0.290680 0.000000
0.410950 0.288544 0.000000
0.454620 0.286072 0.000000
0.498657 0.283386 0.000000
0.543243 0.280273 0.000000
0.588318 0.276825 0.000000
0.632965 0.273193 0.000000
0.675659 0.269928 0.000000
0.715149 0.267883 0.000000
0.751495 0.267609 0.000000
0.785156 0.269440 0.000000
0.816711 0.273254 0.000000
0.847046 0.278656 0.000000
0.876953 0.285126 0.000000
0.907288 0.292053 0.000000
0.938599 0.298828 0.000000
0.970886 0.305206 0.000000
0.999298 0.312531 0.000000
1.000000 0.321136 0.000000
1.000000 0.331207 0.000000
0.000000 0.350250 0.000000
0.000000 0.350342 0.000000
0.000000 0.350494 0.000000
0.000000 0.350647 0.000000
0.000000 0.350830 0.000000
0.000000 0.350952 0.000000
0.005554 0.350525 0.000000
0.040192 0.348694 0.000000
0.123688 0.346802 0.000000
0.179657 0.344940 0.000000
0.228760 0.343262 0.000000
0.274719 0.341888 0.000000
0.319885 0.340912 0.000000
0.365173 0.340027 0.000000
0.410431 0.338562 0.000000
0.455719 0.336670 0.000000
0.501099 0.334503 0.000000
0.546539 0.332184 0.000000
0.592072 0.329651 0.000000
0.637054 0.326996 0.000000
0.679840 0.324554 0.000000
0.719391 0.323029 0.000000
0.755737 0.322815 0.000000
0.789429 0.324310 0.000000
0.820984 0.327423 0.000000
0.851257 0.331909 0.000000
0.881012 0.337494 0.000000
0.911102 0.343628 0.000000
0.942047 0.349854 0.000000
0.973663 0.355988 0.000000
0.999603 0.362915 0.000000
1.000000 0.370911 0.000000
1.000000 0.380127 0.000000
0.000000 0.401794 0.000000
0.000000 0.401886 0.000000
0.000000 0.401978 0.000000
0.000000 0.402222 0.000000
0.000000 0.402466 0.000000
0.000000 0.402710 0.000000
0.000000 0.402924 0.000000
0.005096 0.402405 0.000000
0.046600 0.400177 0.000000
0.143707 0.397919 0.000000
0.206512 0.395782 0.000000
0.260315 0.393951 0.000000
0.310150 0.392456 0.000000
0.358459 0.391388 0.000000
0.406403 0.390594 0.000000
0.453918 0.389282 0.000000
0.500946 0.387604 0.000000
0.547699 0.385681 0.000000
0.594116 0.383698 0.000000
0.639587 0.381622 0.000000
0.682739 0.379547 0.000000
0.722534 0.378021 0.000000
0.759125 0.377533 0.000000
0.792938 0.378418 0.000000
0.824615 0.380737 0.000000
0.854889 0.384308 0.000000
0.884552 0.388916 0.000000
0.914398 0.394318 0.000000
0.944946 0.400024 0.000000
0.975922 0.405853 0.000000
0.999695 0.412292 0.000000
1.000000 0.419708 0.000000
1.000000 0.428162 0.000000
0.000000 0.455902 0.000000
0.000000 0.456024 0.000000
0.000000 0.456146 0.000000
0.000000 0.456329 0.000000
0.000000 0.456573 0.000000
0.000000 0.456818 0.000000
0.000000 0.457092 0.000000
0.000000 0.457245 0.000000
0.006500 0.456299 0.000000
0.062775 0.453583 0.000000
0.169830 0.451080 0.000000
0.237427 0.448700 0.000000
0.294983 0.446716 0.000000
0.347931 0.445068 0.000000
0.398804 0.443848 0.000000
0.448761 0.443115 0.000000
0.497955 0.441956 0.000000
0.546265 0.440460 0.000000
0.593933 0.438812 0.000000
0.640289 0.436951 0.000000
0.684052 0.434967 0.000000
0.724396 0.433136 0.000000
0.761414 0.432159 0.000000
0.795532 0.432251 0.000000
0.827423 0.433624 0.000000
0.857788 0.436249 0.000000
0.887421 0.439880 0.000000
0.917023 0.444427 0.000000
0.947144 0.449554 0.000000
0.977509 0.454987 0.000000
0.999756 0.460968 0.000000
1.000000 0.467804 0.000000
1.000000 0.475525 0.000000
0.000000 0.511627 0.000000
0.000000 0.511749 0.000000
0.000000 0.511871 0.000000
0.000000 0.512024 0.000000
0.000000 0.512207 0.000000
0.000000 0.512421 0.000000
0.000000 0.512634 0.000000
0.000000 0.512878 0.000000
0.000000 0.512817 0.000000
0.010101 0.511108 0.000000
0.094269 0.507996 0.000000
0.202240 0.505219 0.000000
0.272522 0.502655 0.000000
0.332703 0.500488 0.000000
0.387970 0.498718 0.000000
0.440643 0.497375 0.000000
0.491943 0.496582 0.000000
0.542267 0.495575 0.000000
0.591339 0.494232 0.000000
0.638885 0.492554 0.000000
0.683624 0.490448 0.000000
0.724701 0.488220 0.000000
0.762390 0.486450 0.000000
0.797058 0.485687 0.000000
0.829315 0.486023 0.000000
0.859863 0.487610 0.000000
0.889496 0.490265 0.000000
0.918915 0.493958 0.000000
0.948639 0.498352 0.000000
0.978424 0.503326 0.000000
0.999786 0.508850 0.000000
1.000000 0.515106 0.000000
1.000000 0.522156 0.000000
0.000000 0.568024 0.000000
0.000000 0.568085 0.000000
0.000000 0.568207 0.000000
0.000000 0.568329 0.000000
0.000000 0.568451 0.000000
0.000000 0.568634 0.000000
0.000000 0.568787 0.000000
0.000000 0.568878 0.000000
0.000000 0.569000 0.000000
0.000031 0.568542 0.000000
0.019623 0.565735 0.000000
0.143311 0.562378 0.000000
0.240845 0.559326 0.000000
0.311737 0.556671 0.000000
0.373352 0.554321 0.000000
0.429993 0.552399 0.000000
0.483673 0.550995 0.000000
0.535736 0.550018 0.000000
0.586517 0.549133 0.000000
0.635437 0.547668 0.000000
0.681366 0.545410 0.000000
0.723511 0.542725 0.000000
0.761993 0.540192 0.000000
0.797394 0.538452 0.000000
0.830139 0.537720 0.000000
0.860992 0.538208 0.000000
0.890747 0.539856 0.000000
0.920044 0.542633 0.000000
0.949371 0.546295 0.000000
0.978607 0.550690 0.000000
0.999786 0.555756 0.000000
1.000000 0.561462 0.000000
1.000000 0.567841 0.000000
0.000000 0.624329 0.000000
0.000000 0.624359 0.000000
0.000000 0.624420 0.000000
0.000000 0.624512 0.000000
0.000000 0.624573 0.000000
0.000000 0.624664 0.000000
0.000000 0.624786 0.000000
0.000000 0.624725 0.000000
0.000000 0.624725 0.000000
0.000031 0.624634 0.000000
0.000854 0.623169 0.000000
0.050385 0.619415 0.000000
0.196533 0.615845 0.000000
0.284515 0.612671 0.000000
0.354736 0.609833 0.000000
0.416626 0.607361 0.000000
0.473694 0.605316 0.000000
0.527649 0.603790 0.000000
0.579773 0.602692 0.000000
0.630127 0.601624 0.000000
0.677429 0.599365 0.000000
0.720795 0.596191 0.000000
0.760376 0.592957 0.000000
0.796600 0.590240 0.000000
0.829987 0.588501 0.000000
0.861237 0.587921 0.000000
0.891144 0.588501 0.000000
0.920380 0.590363 0.000000
0.949341 0.593262 0.000000
0.978058 0.597046 0.000000
0.999756 0.601624 0.000000
1.000000 0.606781 0.000000
1.000000 0.612518 0.000000
0.000000 0.678802 0.000000
0.000000 0.678833 0.000000
0.000000 0.678833 0.000000
0.000000 0.678864 0.000000
0.000000 0.678864 0.000000
0.000000 0.678833 0.000000
0.000000 0.678802 0.000000
0.000000 0.678741 0.000000
0.000000 0.678589 0.000000
0.000000 0.678406 0.000000
0.000000 0.677734 0.000000
0.009247 0.674622 0.000000
0.123810 0.670532 0.000000
0.251129 0.666870 0.000000
0.332977 0.663574 0.000000
0.401093 0.660645 0.000000
0.462006 0.658081 0.000000
0.518494 0.655975 0.000000
0.571899 0.654358 0.000000
0.623230 0.653259 0.000000
0.672119 0.651611 0.000000
0.716858 0.648193 0.000000
0.757568 0.644318 0.000000
0.794739 0.640747 0.000000
0.828888 0.638031 0.000000
0.860626 0.636383 0.000000
0.890747 0.635986 0.000000
0.919922 0.636902 0.000000
0.948578 0.639008 0.000000
0.976868 0.642181 0.000000
0.999695 0.646179 0.000000
1.000000 0.650787 0.000000
1.000000 0.655945 0.000000
0.000000 0.728943 0.000000
0.000000 0.728943 0.000000
0.000000 0.728882 0.000000
0.000000 0.728851 0.000000
0.000000 0.728821 0.000000
0.000000 0.728729 0.000000
0.000000 0.728577 0.000000
0.000000 0.728424 0.000000
0.000000 0.728180 0.000000
0.000000 0.727844 0.000000
0.000000 0.727386 0.000000
0.000000 0.725189 0.000000
0.061279 0.721039 0.000000
0.214233 0.717072 0.000000
0.310944 0.713409 0.000000
0.385620 0.710114 0.000000
0.450165 0.707245 0.000000
0.508820 0.704742 0.000000
0.563538 0.702698 0.000000
0.615356 0.701111 0.000000
0.665131 0.700073 0.000000
0.711884 0.697998 0.000000
0.753906 0.693787 0.000000
0.792053 0.689484 0.000000
0.826935 0.685883 0.000000
0.859253 0.683289 0.000000
0.889679 0.681946 0.000000
0.918823 0.681946 0.000000
0.947205 0.683228 0.000000
0.975159 0.685699 0.000000
0.999603 0.689178 0.000000
1.000000 0.693237 0.000000
1.000000 0.697754 0.000000
0.000000 0.773560 0.000000
0.000000 0.773560 0.000000
0.000000 0.773499 0.000000
0.000000 0.773407 0.000000
0.000000 0.773346 0.000000
0.000000 0.773193 0.000000
0.000000 0.773010 0.000000
0.000000 0.772766 0.000000
0.000000 0.772491 0.000000
0.000000 0.772095 0.000000
0.000000 0.771637 0.000000
0.000000 0.770203 0.000000
0.031525 0.766388 0.000000
0.166077 0.762207 0.000000
0.292633 0.758423 0.000000
0.372925 0.754974 0.000000
0.440369 0.751862 0.000000
0.500549 0.749146 0.000000
0.555969 0.746887 0.000000
0.608032 0.745026 0.000000
0.657501 0.743591 0.000000
0.705078 0.742645 0.000000
0.749573 0.740601 0.000000
0.788818 0.735992 0.000000
0.824463 0.731628 0.000000
0.857300 0.728210 0.000000
0.888031 0.726013 0.000000
0.917175 0.725159 0.000000
0.945312 0.725647 0.000000
0.972809 0.727386 0.000000
0.998505 0.730255 0.000000
1.000000 0.733795 0.000000
1.000000 0.737701 0.000000
0.000000 0.813324 0.000000
0.000000 0.813293 0.000000
0.000000 0.813232 0.000000
0.000000 0.813141 0.000000
0.000000 0.813049 0.000000
0.000000 0.812897 0.000000
0.000000 0.812683 0.000000
0.000000 0.812408 0.000000
0.000000 0.812103 0.000000
0.000000 0.811707 0.000000
0.000000 0.811218 0.000000
0.000000 0.810272 0.000000
0.023285 0.806915 0.000000
0.149536 0.802673 0.000000
0.281616 0.798859 0.000000
0.365326 0.795380 0.000000
0.434235 0.792236 0.000000
0.495087 0.789429 0.000000
0.550720 0.786987 0.000000
0.602600 0.784973 0.000000
0.651642 0.783325 0.000000
0.698395 0.782074 0.000000
0.743317 0.781281 0.000000
0.785339 0.779510 0.000000
0.821777 0.774902 0.000000
0.855133 0.770782 0.000000
0.886078 0.767822 0.000000
0.915253 0.766174 0.000000
0.943146 0.765900 0.000000
0.970062 0.766968 0.000000
0.995514 0.769196 0.000000
1.000000 0.772156 0.000000
1.000000 0.775391 0.000000
0.000000 0.849030 0.000000
0.000000 0.848969 0.000000
0.000000 0.848938 0.000000
0.000000 0.848816 0.000000
0.000000 0.848694 0.000000
0.000000 0.848541 0.000000
0.000000 0.848328 0.000000
0.000000 0.848053 0.000000
0.000000 0.847717 0.000000
0.000000 0.847351 0.000000
0.000000 0.846863 0.000000
0.000000 0.846069 0.000000
0.024078 0.843048 0.000000
0.149200 0.838989 0.000000
0.280334 0.835236 0.000000
0.364380 0.831787 0.000000
0.433105 0.828644 0.000000
0.493561 0.825836 0.000000
0.548676 0.823334 0.000000
0.599945 0.821198 0.000000
0.648224 0.819427 0.000000
0.694153 0.817963 0.000000
0.737915 0.816925 0.000000
0.779938 0.816315 0.000000
0.819214 0.814850 0.000000
0.853058 0.810486 0.000000
0.884186 0.806885 0.000000
0.913300 0.804565 0.000000
0.940918 0.803619 0.000000
0.967316 0.803986 0.000000
0.992188 0.805573 0.000000
1.000000 0.807953 0.000000
1.000000 0.810577 0.000000
0.000000 0.881500 0.000000
0.000000 0.881439 0.000000
0.000000 0.881409 0.000000
0.000000 0.881287 0.000000
0.000000 0.881134 0.000000
0.000000 0.880981 0.000000
0.000000 0.880768 0.000000
0.000000 0.880463 0.000000
0.000000 0.880127 0.000000
0.000000 0.879730 0.000000
0.000000 0.879303 0.000000
0.000000 0.878510 0.000000
0.039093 0.875549 0.000000
0.160156 0.871704 0.000000
0.289368 0.868073 0.000000
0.370453 0.864716 0.000000
0.437439 0.861603 0.000000
0.496552 0.858795 0.000000
0.550537 0.856262 0.000000
0.600739 0.854065 0.000000
0.647919 0.852173 0.000000
0.692688 0.850586 0.000000
0.735413 0.849335 0.000000
0.776093 0.848450 0.000000
0.815033 0.847961 0.000000
0.851379 0.846680 0.000000
0.882721 0.842834 0.000000
0.911713 0.839935 0.000000
0.938934 0.838379 0.000000
0.964874 0.838104 0.000000
0.989288 0.838989 0.000000
1.000000 0.840759 0.000000
1.000000 0.842804 0.000000
0.000000 0.911285 0.000000
0.000000 0.911255 0.000000
0.000000 0.911194 0.000000
0.000000 0.911072 0.000000
0.000000 0.910919 0.000000
0.000000 0.910706 0.000000
0.000000 0.910492 0.000000
0.000000 0.910187 0.000000
0.000000 0.909851 0.000000
0.000000 0.909424 0.000000
0.000000 0.908966 0.000000
0.000000 0.907898 0.000000
0.076050 0.904968 0.000000
0.192963 0.901215 0.000000
0.307617 0.897705 0.000000
0.383484 0.894440 0.000000
0.447296 0.891418 0.000000
0.504272 0.888611 0.000000
0.556549 0.886078 0.000000
0.605194 0.883759 0.000000
0.651031 0.881775 0.000000
0.694519 0.880066 0.000000
0.735870 0.878632 0.000000
0.775360 0.877502 0.000000
0.812927 0.876709 0.000000
0.848846 0.876221 0.000000
0.881958 0.874969 0.000000
0.910828 0.871796 0.000000
0.937653 0.869690 0.000000
0.963135 0.868835 0.000000
0.987061 0.869080 0.000000
1.000000 0.870239 0.000000
1.000000 0.871643 0.000000
0.000000 0.938782 0.000000
0.000000 0.938721 0.000000
0.000000 0.938629 0.000000
0.000000 0.938507 0.000000
0.000000 0.938324 0.000000
0.000000 0.938110 0.000000
0.000000 0.937836 0.000000
0.000000 0.937500 0.000000
0.000000 0.937134 0.000000
0.000000 0.936676 0.000000
0.000000 0.936127 0.000000
0.012909 0.934418 0.000000
0.120422 0.931366 0.000000
0.245758 0.927765 0.000000
0.333527 0.924408 0.000000
0.402802 0.921204 0.000000
0.462646 0.918213 0.000000
0.516724 0.915436 0.000000
0.566742 0.912842 0.000000
0.613586 0.910461 0.000000
0.657745 0.908325 0.000000
0.699677 0.906464 0.000000
0.739655 0.904816 0.000000
0.777740 0.903503 0.000000
0.814056 0.902405 0.000000
0.848541 0.901611 0.000000
0.881256 0.901154 0.000000
0.911041 0.899658 0.000000
0.937500 0.897217 0.000000
0.962433 0.895844 0.000000
0.985870 0.895599 0.000000
0.999969 0.896149 0.000000
1.000000 0.896973 0.000000
0.000000 0.963959 0.000000
0.000000 0.963837 0.000000
0.000000 0.963745 0.000000
0.000000 0.963562 0.000000
0.000000 0.963379 0.000000
0.000000 0.963135 0.000000
0.000000 0.962799 0.000000
0.000000 0.962402 0.000000
0.000000 0.961945 0.000000
0.000031 0.961426 0.000000
0.003510 0.960419 0.000000
0.064514 0.958008 0.000000
0.177307 0.954681 0.000000
0.291199 0.951294 0.000000
0.365295 0.948059 0.000000
0.427582 0.944946 0.000000
0.483002 0.941986 0.000000
0.533813 0.939148 0.000000
0.581207 0.936493 0.000000
0.625885 0.934021 0.000000
0.668182 0.931763 0.000000
0.708374 0.929718 0.000000
0.746765 0.927917 0.000000
0.783386 0.926331 0.000000
0.818237 0.924988 0.000000
