滤镜资源/Professional Luts Collection/Lutify.me Professional/Vintage Films/Topaz.cube
# Created by: Lutify.me
# Copyright: (c) Copyright Lutify.me 2015
# Website: https://lutify.me
#LUT size
LUT_3D_SIZE 9
#LUT data points
0.000000 0.000000 0.000000
0.068146 0.000000 0.000000
0.158691 0.000000 0.000153
0.259491 0.000000 0.000061
0.381348 0.000000 0.000000
0.527466 0.000000 0.000000
0.697083 0.000000 0.000000
0.881958 0.000000 0.000000
1.000000 0.000000 0.000000
0.001587 0.065674 0.000000
0.071808 0.063721 0.000366
0.161804 0.061218 0.000610
0.263245 0.052277 0.000092
0.386017 0.016968 0.000000
0.532593 0.000000 0.000000
0.702087 0.000000 0.000000
0.885864 0.000000 0.000000
1.000000 0.000000 0.000000
0.000000 0.161011 0.000000
0.067047 0.160431 0.000000
0.166290 0.158478 0.000000
0.272278 0.155457 0.000000
0.396881 0.146362 0.000000
0.543732 0.120056 0.000000
0.713287 0.040344 0.000000
0.894257 0.000000 0.000000
1.000000 0.000000 0.000000
0.000000 0.285675 0.000000
0.000763 0.286285 0.000000
0.138489 0.286865 0.000000
0.272156 0.284973 0.000000
0.409485 0.283020 0.000000
0.561157 0.276550 0.000000
0.730469 0.261505 0.000000
0.904907 0.237854 0.000000
1.000000 0.227295 0.000000
0.000000 0.455719 0.000000
0.000000 0.456696 0.000000
0.000000 0.458923 0.000000
0.209351 0.461029 0.000000
0.395081 0.457764 0.000000
0.567932 0.457306 0.000000
0.746857 0.453827 0.000000
0.916473 0.452850 0.000000
1.000000 0.463623 0.000000
0.000000 0.668610 0.000000
0.000000 0.669617 0.000000
0.000000 0.671875 0.000000
0.000000 0.675171 0.000000
0.295380 0.677094 0.000000
0.536438 0.670319 0.000000
0.737305 0.668762 0.000000
0.906738 0.670837 0.000000
1.000000 0.679413 0.000000
0.000000 0.874634 0.000000
0.000000 0.874756 0.000000
0.000000 0.874908 0.000000
0.000000 0.874573 0.000000
0.086426 0.872772 0.000000
0.500854 0.859863 0.000000
0.722168 0.848206 0.000000
0.890228 0.843323 0.000000
1.000000 0.841980 0.000000
0.000000 0.999512 0.000000
0.000000 0.999359 0.000000
0.000000 0.997894 0.000000
0.000000 0.995026 0.000000
0.208344 0.990204 0.000000
0.549194 0.975464 0.000000
0.745789 0.962067 0.000000
0.899323 0.952698 0.000000
1.000000 0.946442 0.000000
0.000000 1.000000 0.000000
0.000000 1.000000 0.000000
0.000000 1.000000 0.000000
0.268005 1.000000 0.000000
0.486969 1.000000 0.000000
0.654114 1.000000 0.000000
0.797119 1.000000 0.000000
0.921783 1.000000 0.000031
1.000000 1.000000 0.000000
0.000000 0.000000 0.074188
0.069275 0.000000 0.071991
0.160187 0.000000 0.070740
0.261353 0.000000 0.070618
0.383667 0.000000 0.069885
0.529968 0.000000 0.067261
0.699554 0.000000 0.060669
0.884033 0.000000 0.046692
1.000000 0.000000 0.023651
0.000000 0.063751 0.073242
0.071655 0.062622 0.071991
0.162567 0.060638 0.071503
0.265045 0.051086 0.071106
0.388306 0.014252 0.069977
0.535034 0.000000 0.066620
0.704590 0.000000 0.058716
0.887878 0.000000 0.041992
1.000000 0.000000 0.016541
0.000000 0.159973 0.069427
0.065704 0.159729 0.068451
0.166840 0.157776 0.068848
0.273041 0.155090 0.068970
0.398468 0.145996 0.067078
0.546112 0.118927 0.061157
0.715637 0.037903 0.048553
0.896179 0.000000 0.023804
1.000000 0.000000 0.000702
0.000000 0.285034 0.040894
0.000580 0.285706 0.038635
0.139587 0.286316 0.034637
0.273926 0.284515 0.035614
0.411499 0.282593 0.027588
0.563416 0.276093 0.016266
0.732697 0.261017 0.004639
0.906586 0.237518 0.000092
1.000000 0.227203 0.000000
0.000000 0.455353 0.000000
0.000000 0.456329 0.000000
0.000000 0.458496 0.000000
0.212708 0.460419 0.000000
0.397583 0.457397 0.000000
0.570251 0.456970 0.000000
0.748962 0.453583 0.000000
0.917847 0.452789 0.000000
1.000000 0.463745 0.000000
0.000000 0.668304 0.000000
0.000000 0.669250 0.000000
0.000000 0.671509 0.000000
0.000000 0.674744 0.000000
0.299927 0.676422 0.000000
0.539215 0.669922 0.000000
0.739258 0.668488 0.000000
0.907776 0.670654 0.000000
1.000000 0.679321 0.000000
0.000000 0.874054 0.000000
0.000000 0.874207 0.000000
0.000000 0.874298 0.000000
0.000000 0.873901 0.000000
0.092346 0.872040 0.000000
0.504120 0.859070 0.000000
0.723785 0.847687 0.000000
0.890961 0.842957 0.000000
1.000000 0.841644 0.000000
0.000000 0.999451 0.000000
0.000000 0.999237 0.000000
0.000000 0.997772 0.000000
0.000000 0.994873 0.000000
0.215637 0.989899 0.000000
0.551331 0.974762 0.000000
0.746735 0.961487 0.000000
0.899597 0.952209 0.000000
1.000000 0.945984 0.000000
0.000000 1.000000 0.000000
0.000000 1.000000 0.000000
0.000000 1.000000 0.000000
0.271973 1.000000 0.000000
0.488556 1.000000 0.000000
0.654907 1.000000 0.000000
0.797455 1.000000 0.000000
0.921753 1.000000 0.000000
1.000000 1.000000 0.000000
0.000000 0.000000 0.175964
0.056274 0.000000 0.174896
0.159424 0.000000 0.171570
0.265717 0.000000 0.169891
0.390015 0.000000 0.168915
0.536987 0.000000 0.168304
0.706573 0.000000 0.166534
0.889771 0.000000 0.162811
1.000000 0.000000 0.157440
0.000000 0.059540 0.175781
0.060059 0.057770 0.175171
0.162720 0.055084 0.172150
0.269531 0.042938 0.170624
0.394745 0.006012 0.169678
0.542053 0.000000 0.168732
0.711517 0.000000 0.166626
0.893524 0.000000 0.162323
1.000000 0.000000 0.155975
0.000000 0.157288 0.175232
0.054077 0.157013 0.174713
0.165466 0.155975 0.172882
0.275330 0.154236 0.171570
0.403473 0.143799 0.170715
0.553040 0.113556 0.168610
0.722382 0.028717 0.165039
0.901367 0.000000 0.158997
1.000000 0.000000 0.150513
0.000000 0.283478 0.167389
0.000000 0.284088 0.166565
0.137268 0.285187 0.164307
0.276520 0.283569 0.163757
0.413971 0.281616 0.163177
0.565948 0.275879 0.160706
0.736115 0.260803 0.155212
0.909882 0.236969 0.145691
1.000000 0.227417 0.131683
0.000000 0.454254 0.128113
0.000000 0.455170 0.126434
0.000031 0.457214 0.121735
0.216705 0.459412 0.113586
0.402283 0.456512 0.116455
0.575043 0.455994 0.105560
0.753510 0.452789 0.092285
0.920776 0.452515 0.066254
1.000000 0.463898 0.025757
0.000000 0.667297 0.000702
0.000000 0.668243 0.000244
0.000000 0.670380 0.000061
0.000000 0.673462 0.000000
0.308136 0.674530 0.000000
0.544708 0.668762 0.000000
0.743164 0.667664 0.000000
0.909729 0.670105 0.000000
1.000000 0.678986 0.000000
0.000000 0.872437 0.000000
0.000000 0.872498 0.000000
0.000000 0.872559 0.000000
0.000000 0.872070 0.000000
0.106323 0.870056 0.000000
0.510529 0.857056 0.000000
0.726715 0.846344 0.000000
0.892029 0.841919 0.000000
1.000000 0.840759 0.000000
0.000000 0.999298 0.000000
0.000000 0.998901 0.000000
0.000000 0.997406 0.000000
0.000000 0.994476 0.000000
0.227081 0.988617 0.000000
0.555237 0.972717 0.000000
0.748016 0.959930 0.000000
0.899506 0.950928 0.000000
1.000000 0.944794 0.000000
0.000000 1.000000 0.000000
0.000000 1.000000 0.000000
0.000000 1.000000 0.000000
0.278748 1.000000 0.000000
0.491272 1.000000 0.000000
0.655884 1.000000 0.000000
0.797363 1.000000 0.000000
0.921082 1.000000 0.002747
1.000000 1.000000 0.012756
0.000000 0.000000 0.305084
0.000427 0.000000 0.306519
0.133087 0.000000 0.304932
0.260315 0.000000 0.299927
0.395538 0.000000 0.297455
0.547119 0.000000 0.295715
0.718201 0.000000 0.295166
0.899994 0.000000 0.294769
1.000000 0.000000 0.294281
0.000000 0.050323 0.307800
0.001648 0.048187 0.307373
0.137573 0.040466 0.305878
0.264923 0.024628 0.301056
0.400482 0.000122 0.298737
0.552216 0.000000 0.296997
0.723114 0.000000 0.296265
0.903564 0.000000 0.295532
1.000000 0.000000 0.294647
0.000000 0.151672 0.309692
0.000824 0.151215 0.309387
0.141022 0.149261 0.308441
0.273224 0.146057 0.303741
0.410339 0.132874 0.300995
0.563110 0.096893 0.299255
0.733765 0.007599 0.297943
0.910919 0.000000 0.296448
1.000000 0.000000 0.294525
0.000000 0.279785 0.309570
0.000000 0.280365 0.309082
0.109894 0.281097 0.307800
0.270599 0.280579 0.305237
0.415131 0.280670 0.301849
0.570465 0.274841 0.300964
0.743225 0.258148 0.299072
0.916779 0.232452 0.295685
1.000000 0.223877 0.292114
0.000000 0.451508 0.297607
0.000000 0.452332 0.296875
0.000000 0.454224 0.294830
0.208984 0.456573 0.290985
0.403900 0.455750 0.288086
0.578003 0.453766 0.288269
0.754272 0.451996 0.286865
0.918457 0.453583 0.282562
1.000000 0.466217 0.274719
0.000000 0.664856 0.256012
0.000000 0.665710 0.254791
0.000000 0.667755 0.251526
0.000000 0.670624 0.245514
0.308350 0.673340 0.235748
0.549622 0.667786 0.239288
0.746704 0.665833 0.235504
0.909698 0.668610 0.229492
1.000000 0.678009 0.219971
0.000000 0.869019 0.177307
0.000000 0.869049 0.175659
0.000000 0.869019 0.171112
0.000000 0.868347 0.162598
0.122040 0.866058 0.147095
0.514893 0.854889 0.161682
0.728577 0.844177 0.177734
0.891327 0.839844 0.175903
1.000000 0.838806 0.172150
0.000000 0.997406 0.130798
0.000000 0.996735 0.130035
0.000000 0.994965 0.128204
0.000000 0.991547 0.124695
0.235565 0.985535 0.119415
0.555573 0.970673 0.144104
0.746918 0.957703 0.174896
0.896851 0.948578 0.189636
1.000000 0.942474 0.196198
0.000000 1.000000 0.286926
0.000000 1.000000 0.287170
0.000000 1.000000 0.287689
0.280640 1.000000 0.288757
0.490845 1.000000 0.290924
0.654114 1.000000 0.294891
0.794678 1.000000 0.301453
0.917755 1.000000 0.311737
1.000000 1.000000 0.326233
0.000000 0.000000 0.472107
0.000000 0.000000 0.473877
0.004181 0.000000 0.477295
0.212280 0.000000 0.478302
0.381592 0.000000 0.470245
0.549225 0.000000 0.466553
0.728790 0.000000 0.463745
0.911011 0.000000 0.462769
1.000000 0.000000 0.463501
0.000000 0.029846 0.483307
0.000000 0.026306 0.482971
0.005920 0.013977 0.482147
0.219696 0.000366 0.479218
0.387299 0.000000 0.471558
0.554565 0.000000 0.468048
0.733612 0.000000 0.465210
0.914246 0.000000 0.464081
1.000000 0.000000 0.464569
0.000000 0.140472 0.486176
0.000000 0.139648 0.485870
0.009399 0.136383 0.485077
0.231262 0.126709 0.482880
0.398743 0.112061 0.474701
0.565765 0.051758 0.471191
0.744019 0.000000 0.468140
0.920807 0.000000 0.466736
1.000000 0.000000 0.466675
0.000000 0.272461 0.489166
0.000000 0.272797 0.488800
0.001465 0.273010 0.487793
0.229309 0.271545 0.485962
0.406921 0.269012 0.479462
0.576965 0.261658 0.473877
0.754242 0.243439 0.470917
0.925507 0.216522 0.469452
1.000000 0.208191 0.468628
0.000000 0.446045 0.487000
0.000000 0.446808 0.486542
0.000000 0.448425 0.485229
0.154541 0.450317 0.482788
0.387329 0.450897 0.478790
0.574493 0.452087 0.473389
0.752716 0.452209 0.472504
0.914490 0.455383 0.471710
1.000000 0.470001 0.470886
0.000000 0.660156 0.472046
0.000000 0.660980 0.471375
0.000000 0.662842 0.469666
0.000031 0.665405 0.466492
0.288971 0.667633 0.461548
0.543732 0.667145 0.455475
0.744141 0.662598 0.457764
0.902161 0.666382 0.458862
1.000000 0.676788 0.458069
0.000000 0.863129 0.450714
0.000000 0.863129 0.450104
0.000000 0.862946 0.448608
0.000000 0.862000 0.445984
0.094055 0.859344 0.441895
0.503204 0.854187 0.436554
0.722748 0.842377 0.442841
0.884155 0.836456 0.447876
1.000000 0.835297 0.450897
0.000000 0.990875 0.454590
0.000000 0.990173 0.454193
0.000000 0.988342 0.453186
0.000000 0.984833 0.451324
0.209473 0.978912 0.448792
0.538666 0.970184 0.447052
0.736359 0.956268 0.456024
0.887177 0.945129 0.466217
1.000000 0.938690 0.471649
0.000000 1.000000 0.513062
0.000000 1.000000 0.513153
0.000000 1.000000 0.513458
0.260590 1.000000 0.514038
0.478912 1.000000 0.515259
0.643921 1.000000 0.517456
0.785156 1.000000 0.521240
0.908600 1.000000 0.527374
1.000000 1.000000 0.536499
0.000000 0.000000 0.675781
0.000000 0.000000 0.677246
0.000000 0.000000 0.680359
0.018799 0.000000 0.684418
0.317261 0.000000 0.687988
0.525574 0.000000 0.678619
0.723694 0.000000 0.672943
0.912537 0.000000 0.669739
1.000000 0.000000 0.668976
0.000000 0.002777 0.693542
0.000000 0.000183 0.694397
0.000000 0.000000 0.696045
0.013641 0.000000 0.696289
0.324310 0.000000 0.690460
0.531708 0.000000 0.679718
0.728729 0.000000 0.674164
0.915466 0.000000 0.670868
1.000000 0.000000 0.669922
0.000000 0.120300 0.701904
0.000000 0.118652 0.701538
0.000000 0.112976 0.700592
0.028717 0.096313 0.698914
0.341400 0.057281 0.692200
0.544495 0.005890 0.681976
0.739502 0.000000 0.676697
0.921173 0.000000 0.673248
1.000000 0.000000 0.672028
0.000000 0.260101 0.704437
0.000000 0.260101 0.704041
0.000000 0.259583 0.703033
0.034760 0.256805 0.701172
0.351318 0.248444 0.697632
0.558136 0.240509 0.685913
0.751709 0.215546 0.679352
0.925171 0.184021 0.675598
1.000000 0.173523 0.673828
0.000000 0.437317 0.703735
0.000000 0.437927 0.703247
0.000000 0.439209 0.702057
0.001862 0.440521 0.699860
0.332428 0.440277 0.696381
0.557678 0.438049 0.689148
0.753540 0.439484 0.679138
0.915070 0.446045 0.674774
1.000000 0.463379 0.673004
0.000000 0.653198 0.694611
0.000000 0.653900 0.694061
0.000000 0.655548 0.692627
0.000000 0.657684 0.690063
0.217010 0.659332 0.686066
0.519104 0.658966 0.680481
0.730469 0.658905 0.673767
0.885315 0.666565 0.672699
1.000000 0.678406 0.672760
0.000000 0.855103 0.681763
0.000000 0.855011 0.681244
0.000000 0.854584 0.679993
0.000000 0.853333 0.677704
0.037994 0.850311 0.674316
0.478485 0.845154 0.670013
0.701691 0.839600 0.665680
0.868347 0.832245 0.668396
0.997864 0.831299 0.671295
0.000000 0.982697 0.682648
0.000000 0.982025 0.682281
0.000000 0.980011 0.681305
0.000000 0.975830 0.679565
0.143341 0.969452 0.677216
0.513702 0.961578 0.674713
0.713165 0.953217 0.672638
0.870056 0.941956 0.676575
0.996765 0.934296 0.681396
0.000000 1.000000 0.703339
0.000000 1.000000 0.703339
0.000000 1.000000 0.703278
0.216888 1.000000 0.703217
0.456940 1.000000 0.703339
0.626862 1.000000 0.703888
0.770447 1.000000 0.705292
0.895538 1.000000 0.708191
1.000000 1.000000 0.713531
0.000000 0.000000 0.864197
0.000000 0.000000 0.865265
0.000000 0.000000 0.867554
0.000000 0.000000 0.870880
0.222137 0.000000 0.874359
0.488434 0.000000 0.875305
0.712128 0.000000 0.862823
0.904663 0.000000 0.856628
1.000000 0.000000 0.853607
0.000000 0.000000 0.878876
0.000000 0.000000 0.879608
0.000000 0.000000 0.881256
0.000000 0.000000 0.883545
0.212860 0.000000 0.885834
0.496582 0.000000 0.875183
0.717682 0.000000 0.862915
0.907532 0.000000 0.856842
1.000000 0.000000 0.853729
0.000000 0.092621 0.896973
0.000000 0.089264 0.896423
0.000000 0.078400 0.895050
0.000000 0.046295 0.892639
0.240387 0.002045 0.888489
0.513733 0.000000 0.874329
0.729218 0.000000 0.862762
0.912933 0.000000 0.856964
1.000000 0.000000 0.853577
0.000000 0.246765 0.895020
0.000000 0.246368 0.894501
0.000000 0.244873 0.893127
0.000000 0.240204 0.890625
0.270233 0.227966 0.886780
0.531586 0.212402 0.874786
0.742096 0.189240 0.861633
0.916595 0.148926 0.855713
1.000000 0.132782 0.851776
0.000000 0.429321 0.888702
0.000000 0.429779 0.888153
0.000000 0.430634 0.886688
0.000000 0.431152 0.884003
0.262299 0.429810 0.879852
0.534058 0.425110 0.873047
0.744141 0.427948 0.858459
0.908447 0.434906 0.850586
1.000000 0.452728 0.845551
0.000000 0.647583 0.874023
0.000000 0.648224 0.873383
0.000000 0.649536 0.871765
0.000000 0.651154 0.868835
0.117889 0.652039 0.864410
0.500183 0.651154 0.858398
0.716949 0.650787 0.851288
0.880615 0.660614 0.840363
1.000000 0.674561 0.835327
0.000000 0.848175 0.854828
0.000000 0.847992 0.854279
0.000000 0.847351 0.852814
0.000000 0.845673 0.850220
0.028351 0.842224 0.846344
0.463959 0.837219 0.841614
0.687286 0.832275 0.836670
0.854401 0.828857 0.832062
0.983643 0.830078 0.830261
0.000000 0.974762 0.844269
0.000000 0.973877 0.843811
0.000000 0.971527 0.842590
0.000000 0.967316 0.840485
0.130432 0.961212 0.837677
0.502991 0.953827 0.834473
0.700836 0.946014 0.831268
0.855957 0.938660 0.828461
0.985382 0.930756 0.829285
0.000000 1.000000 0.839935
0.000000 1.000000 0.839813
0.000000 1.000000 0.839478
0.208160 1.000000 0.838898
0.449432 1.000000 0.838165
0.618835 1.000000 0.837341
0.762238 1.000000 0.836731
0.888062 1.000000 0.836853
0.999908 1.000000 0.839142
0.000000 0.000000 0.985626
0.000000 0.000000 0.986328
0.000000 0.000000 0.987823
0.000000 0.000000 0.989929
0.210480 0.000000 0.990326
0.499573 0.000000 0.990417
0.725739 0.000000 0.982178
0.911133 0.000000 0.973633
1.000000 0.000000 0.969238
0.000000 0.000000 0.990540
0.000000 0.000000 0.990540
0.000000 0.000000 0.990540
0.000000 0.000000 0.990601
0.228943 0.000000 0.990601
0.507935 0.000000 0.990509
0.731232 0.000000 0.981476
0.913696 0.000000 0.973145
1.000000 0.000000 0.968689
0.000000 0.101898 0.990601
0.000000 0.097595 0.990601
0.000000 0.084625 0.990570
0.000000 0.049072 0.990570
0.263184 0.001099 0.990509
0.526001 0.000000 0.989838
0.742706 0.000000 0.979431
0.918610 0.000000 0.971497
1.000000 0.000000 0.966888
0.000000 0.254944 0.989929
0.000000 0.254181 0.989929
0.000000 0.251434 0.989868
0.000031 0.244507 0.989746
0.295380 0.228302 0.989532
0.546783 0.193481 0.988251
0.755005 0.165558 0.975342
0.921356 0.126129 0.967499
1.000000 0.129669 0.962524
0.000000 0.432770 0.986633
0.000000 0.432922 0.986572
0.000000 0.432983 0.986389
0.000000 0.432037 0.986084
0.294037 0.427856 0.985596
0.553223 0.418671 0.983276
0.755554 0.422180 0.969177
0.912201 0.433838 0.959198
1.000000 0.452972 0.953339
0.000000 0.646393 0.977570
0.000000 0.646851 0.977448
0.000000 0.647766 0.977081
0.000000 0.648529 0.975922
0.182434 0.648407 0.972198
0.523132 0.647278 0.965973
0.726715 0.648102 0.958435
0.884094 0.658875 0.946594
1.000000 0.672913 0.939667
0.000000 0.844238 0.958923
0.000000 0.843933 0.958313
0.000000 0.842957 0.956696
0.000000 0.840820 0.953888
0.097168 0.837097 0.949860
0.492157 0.832458 0.944977
0.698151 0.828217 0.939789
0.857147 0.825531 0.934692
0.987030 0.827728 0.928040
0.000000 0.968506 0.942047
0.000000 0.967590 0.941528
0.000000 0.965240 0.940216
0.000000 0.961151 0.938080
0.240540 0.955353 0.935089
0.528320 0.948547 0.931671
0.711731 0.941376 0.928070
0.859589 0.934662 0.924652
0.986053 0.928528 0.922119
0.000000 1.000000 0.928040
0.000000 1.000000 0.927856
0.000000 1.000000 0.927429
0.278290 1.000000 0.926697
0.475861 1.000000 0.925598
0.632477 1.000000 0.924225
0.769409 1.000000 0.922729
0.892212 1.000000 0.921448
1.000000 1.000000 0.922241
0.000000 0.000000 1.000000
0.000000 0.000000 1.000000
0.000000 0.000000 1.000000
0.000000 0.000000 1.000000
0.344299 0.000000 1.000000
0.567993 0.000000 1.000000
0.764862 0.000000 1.000000
0.931763 0.000000 1.000000
1.000000 0.000000 1.000000
0.000000 0.000000 1.000000
0.000000 0.000000 1.000000
0.000000 0.000000 1.000000
0.009186 0.000000 1.000000
0.355469 0.000000 1.000000
0.575256 0.000000 1.000000
0.769379 0.000000 1.000000
0.934082 0.000000 1.000000
1.000000 0.000000 1.000000
0.000000 0.115173 1.000000
0.000000 0.111389 1.000000
0.000000 0.099426 1.000000
0.055145 0.067841 1.000000
0.378662 0.008148 1.000000
0.590912 0.000000 1.000000
0.778931 0.000000 1.000000
0.938568 0.000000 1.000000
1.000000 0.000000 1.000000
0.000000 0.268768 1.000000
0.000000 0.267944 1.000000
0.000000 0.265381 1.000000
0.106873 0.259308 1.000000
0.405060 0.246124 1.000000
0.609680 0.219940 1.000000
0.788879 0.179871 1.000000
0.941162 0.126526 1.000000
1.000000 0.135284 1.000000
0.000000 0.443512 1.000000
0.000000 0.443726 1.000000
0.000000 0.443848 1.000000
0.110596 0.443359 1.000000
0.415283 0.440887 1.000000
0.616669 0.435272 1.000000
0.787140 0.429962 1.000000
0.930237 0.437958 1.000000
1.000000 0.459198 1.000000
0.000000 0.649750 1.000000
0.000000 0.650177 1.000000
0.000000 0.650970 1.000000
0.003204 0.651886 1.000000
0.375977 0.651947 1.000000
0.589417 0.651276 1.000000
0.758728 0.651154 1.000000
0.901367 0.661743 1.000000
1.000000 0.675934 1.000000
0.000000 0.837585 1.000000
0.000000 0.837433 1.000000
0.000000 0.836914 1.000000
0.000000 0.835663 1.000000
0.305664 0.833374 1.000000
0.550140 0.829865 1.000000
0.729431 0.826385 1.000000
0.875305 0.824402 0.999420
0.997772 0.827759 0.993805
0.000000 0.962585 1.000000
0.000000 0.962097 1.000000
0.000000 0.960175 1.000000
0.004059 0.956268 0.999878
0.367096 0.950958 0.999268
0.578491 0.944763 0.996094
0.740387 0.938293 0.992645
0.877075 0.932159 0.989197
0.996674 0.927612 0.985718
0.000000 1.000000 0.990265
0.000000 1.000000 0.990112
0.190857 1.000000 0.989655
0.375977 1.000000 0.988892
0.527679 1.000000 0.987762
0.664703 1.000000 0.986328
0.790558 1.000000 0.984589
0.906891 1.000000 0.983063
1.000000 1.000000 0.989136
