滤镜资源/Professional Luts Collection/Lutify.me Professional/Vintage Films/Topaz Imperial.cube
# Created by: Lutify.me
# Copyright: (c) Copyright Lutify.me 2015
# Website: https://lutify.me
#LUT size
LUT_3D_SIZE 5
#LUT data points
0.000000 0.000000 0.000000
0.171844 0.000000 0.000000
0.452576 0.000000 0.000000
0.791077 0.000000 0.000000
1.000000 0.000000 0.022095
0.000000 0.184784 0.000000
0.187042 0.175598 0.000000
0.482208 0.143250 0.000000
0.802856 0.078552 0.000000
1.000000 0.169861 0.000000
0.000000 0.568024 0.000000
0.000000 0.569000 0.000000
0.483673 0.550995 0.000000
0.830139 0.537720 0.000000
1.000000 0.567841 0.000000
0.000000 0.911285 0.000000
0.000000 0.909851 0.000000
0.447296 0.891418 0.000000
0.812927 0.876709 0.000000
1.000000 0.871643 0.000000
0.296844 1.000000 0.000000
0.434357 1.000000 0.000000
0.668396 1.000000 0.000000
0.885559 1.000000 0.000000
1.000000 0.995758 0.000000
0.000000 0.000000 0.197235
0.178497 0.000000 0.182800
0.471130 0.000000 0.173157
0.803589 0.000000 0.182709
1.000000 0.000000 0.211334
0.000000 0.173645 0.186646
0.187592 0.168976 0.179535
0.488495 0.139862 0.174377
0.812988 0.079193 0.185028
1.000000 0.178467 0.211731
0.000000 0.561798 0.037323
0.000000 0.562378 0.021881
0.493164 0.546936 0.023895
0.832550 0.538055 0.099915
1.000000 0.571838 0.158936
0.000000 0.908875 0.000000
0.000000 0.907349 0.000000
0.454407 0.890137 0.000000
0.814178 0.876678 0.005829
1.000000 0.873199 0.102966
0.282013 1.000000 0.166199
0.425110 1.000000 0.184937
0.665588 1.000000 0.233093
0.882568 1.000000 0.279175
1.000000 0.996613 0.310608
0.000000 0.000000 0.584015
0.000031 0.000000 0.584320
0.466949 0.000000 0.554779
0.831085 0.000000 0.534332
1.000000 0.000000 0.542419
0.000000 0.134766 0.587646
0.000031 0.122620 0.583160
0.492340 0.049133 0.556854
0.838867 0.016357 0.538971
1.000000 0.166687 0.547516
0.000000 0.540405 0.566650
0.000000 0.540192 0.561798
0.475128 0.533783 0.547028
0.819824 0.545685 0.547363
1.000000 0.591125 0.564545
0.000000 0.901489 0.536804
0.000000 0.899872 0.535492
0.428619 0.894348 0.531921
0.804901 0.877563 0.546051
1.000000 0.876770 0.571350
0.253601 1.000000 0.593048
0.399292 1.000000 0.593414
0.643036 1.000000 0.595917
0.867432 1.000000 0.616638
1.000000 0.998596 0.633728
0.000000 0.000000 0.920105
0.000000 0.000000 0.917572
0.432922 0.000000 0.896545
0.829163 0.000000 0.881012
1.000000 0.000000 0.872498
0.000000 0.125305 0.917267
0.000000 0.107544 0.915131
0.463348 0.047791 0.896942
0.836639 0.006287 0.881073
1.000000 0.152527 0.872620
0.000000 0.523376 0.904083
0.000000 0.523956 0.902100
0.458588 0.523254 0.896240
0.825409 0.542023 0.876373
1.000000 0.595306 0.868408
0.000000 0.891937 0.876709
0.000000 0.890198 0.875305
0.415070 0.884827 0.871307
0.784607 0.878113 0.865509
0.988495 0.884766 0.868896
0.277008 1.000000 0.873840
0.407715 1.000000 0.873566
0.634308 1.000000 0.872833
0.845032 1.000000 0.872406
1.000000 1.000000 0.880249
0.000000 0.000000 1.000000
0.097351 0.000000 1.000000
0.568634 0.000000 1.000000
0.881317 0.000000 1.000000
1.000000 0.000000 1.000000
0.000000 0.090820 1.000000
0.204773 0.070160 1.000000
0.589783 0.054840 1.000000
0.885193 0.067719 1.000000
1.000000 0.201385 1.000000
0.000000 0.527740 1.000000
0.234894 0.528107 1.000000
0.586121 0.530365 1.000000
0.869934 0.558350 1.000000
1.000000 0.606079 0.997253
0.000000 0.882996 0.996887
0.199646 0.881744 0.995728
0.562408 0.878265 0.992401
0.826508 0.876129 0.987305
1.000000 0.888000 0.978516
0.470337 1.000000 0.976166
0.542755 1.000000 0.975616
0.701050 1.000000 0.974182
0.870728 1.000000 0.972137
1.000000 0.999939 0.982086
