滤镜资源/Professional Luts Collection/Lutify.me Professional/Vintage Films/Topaz Imperial.cube
# Created by: Lutify.me
# Copyright: (c) Copyright Lutify.me 2015
# Website: https://lutify.me
#LUT size
LUT_3D_SIZE 9
#LUT data points
0.000000 0.000000 0.000000
0.072479 0.000000 0.000000
0.171844 0.000000 0.000000
0.293182 0.000000 0.000000
0.452576 0.000000 0.000000
0.637177 0.000000 0.000000
0.791077 0.000000 0.000000
0.919495 0.000000 0.024353
1.000000 0.000000 0.022095
0.000000 0.072662 0.000000
0.079773 0.066223 0.000000
0.179413 0.058411 0.000000
0.301147 0.033722 0.000000
0.460632 0.000000 0.000000
0.643677 0.000000 0.000000
0.794891 0.000000 0.000000
0.922424 0.000000 0.020081
1.000000 0.000000 0.013275
0.000000 0.184784 0.000000
0.059998 0.181274 0.000000
0.187042 0.175598 0.000000
0.320984 0.166504 0.000000
0.482208 0.143250 0.000000
0.658722 0.087982 0.000000
0.802856 0.078552 0.000000
0.927887 0.116516 0.001434
1.000000 0.169861 0.000000
0.000000 0.350250 0.000000
0.000000 0.350830 0.000000
0.123688 0.346802 0.000000
0.319885 0.340912 0.000000
0.501099 0.334503 0.000000
0.679840 0.324554 0.000000
0.820984 0.327423 0.000000
0.942047 0.349854 0.000000
1.000000 0.380127 0.000000
0.000000 0.568024 0.000000
0.000000 0.568451 0.000000
0.000000 0.569000 0.000000
0.240845 0.559326 0.000000
0.483673 0.550995 0.000000
0.681366 0.545410 0.000000
0.830139 0.537720 0.000000
0.949371 0.546295 0.000000
1.000000 0.567841 0.000000
0.000000 0.773560 0.000000
0.000000 0.773346 0.000000
0.000000 0.772491 0.000000
0.031525 0.766388 0.000000
0.440369 0.751862 0.000000
0.657501 0.743591 0.000000
0.824463 0.731628 0.000000
0.945312 0.725647 0.000000
1.000000 0.737701 0.000000
0.000000 0.911285 0.000000
0.000000 0.910919 0.000000
0.000000 0.909851 0.000000
0.076050 0.904968 0.000000
0.447296 0.891418 0.000000
0.651031 0.881775 0.000000
0.812927 0.876709 0.000000
0.937653 0.869690 0.000000
1.000000 0.871643 0.000000
0.000000 0.999695 0.000000
0.000000 0.999664 0.000000
0.015350 0.999512 0.000000
0.328857 0.991394 0.000000
0.536743 0.979889 0.000000
0.699066 0.969208 0.000000
0.834747 0.961060 0.000000
0.945190 0.956146 0.000000
1.000000 0.952576 0.000000
0.296844 1.000000 0.000000
0.343475 1.000000 0.000000
0.434357 1.000000 0.000000
0.548523 1.000000 0.000000
0.668396 1.000000 0.000000
0.783203 1.000000 0.000000
0.885559 1.000000 0.000000
0.973297 0.999878 0.000000
1.000000 0.995758 0.000000
0.000000 0.000000 0.078949
0.076599 0.000000 0.070892
0.176819 0.000000 0.066437
0.298431 0.000000 0.063629
0.457764 0.000000 0.058380
0.641296 0.000000 0.048645
0.794006 0.000000 0.068146
0.922272 0.000000 0.100281
1.000000 0.000000 0.102905
0.000000 0.066223 0.071167
0.078888 0.063354 0.067627
0.179382 0.057404 0.066193
0.304108 0.030518 0.063293
0.465607 0.000000 0.056122
0.647552 0.000000 0.045135
0.797699 0.000000 0.066956
0.925049 0.000000 0.098816
1.000000 0.000000 0.099731
0.000000 0.181152 0.050323
0.058411 0.179810 0.046722
0.188782 0.173370 0.048462
0.321991 0.164886 0.047119
0.483398 0.142578 0.038055
0.660461 0.086945 0.022064
0.805054 0.080505 0.054749
0.930267 0.120575 0.090790
1.000000 0.173462 0.087372
0.000000 0.348022 0.000031
0.000000 0.348602 0.000000
0.128662 0.345154 0.000000
0.323669 0.339508 0.000000
0.504150 0.333160 0.000000
0.682220 0.323700 0.000000
0.822845 0.328064 0.000031
0.943939 0.351440 0.020447
1.000000 0.381714 0.006165
0.000000 0.566254 0.000000
0.000000 0.566681 0.000000
0.000000 0.567139 0.000000
0.247711 0.557648 0.000000
0.487152 0.549805 0.000000
0.683502 0.544373 0.000000
0.831604 0.537842 0.000000
0.950745 0.547211 0.000000
1.000000 0.568909 0.000000
0.000000 0.772125 0.000000
0.000000 0.771851 0.000000
0.000000 0.770996 0.000000
0.041870 0.764648 0.000000
0.444183 0.750763 0.000000
0.659607 0.742798 0.000000
0.825592 0.731323 0.000000
0.946106 0.726196 0.000000
1.000000 0.738373 0.000000
0.000000 0.910645 0.000000
0.000000 0.910248 0.000000
0.000000 0.909149 0.000000
0.086945 0.904144 0.000000
0.450226 0.890961 0.000000
0.652557 0.881592 0.000000
0.813690 0.876678 0.000000
0.937836 0.869995 0.000000
1.000000 0.872101 0.000000
0.000000 0.999695 0.000000
0.000000 0.999634 0.000000
0.016235 0.999512 0.000000
0.331726 0.991058 0.000000
0.537994 0.979736 0.000000
0.699677 0.969269 0.000000
0.834839 0.961243 0.000000
0.944763 0.956390 0.000000
1.000000 0.952850 0.000000
0.297913 1.000000 0.000000
0.344513 1.000000 0.000000
0.435028 1.000000 0.000000
0.548798 1.000000 0.000000
0.668304 1.000000 0.000000
0.782837 1.000000 0.009003
0.884857 1.000000 0.071960
0.972290 0.999939 0.114075
1.000000 0.996002 0.146851
0.000000 0.000000 0.197235
0.054047 0.000000 0.191345
0.178497 0.000000 0.182800
0.309357 0.000000 0.177338
0.471130 0.000000 0.173157
0.653107 0.000000 0.169830
0.803589 0.000000 0.182709
0.931549 0.000000 0.204254
1.000000 0.000000 0.211334
0.000000 0.054382 0.193420
0.058838 0.049683 0.190918
0.183929 0.042145 0.182404
0.315521 0.008606 0.177460
0.478851 0.000000 0.173523
0.659149 0.000000 0.170105
0.807129 0.000000 0.184021
0.934113 0.000000 0.205231
1.000000 0.000000 0.211639
0.000000 0.173645 0.186646
0.035553 0.172394 0.184662
0.187592 0.168976 0.179535
0.323853 0.163116 0.177673
0.488495 0.139862 0.174377
0.667023 0.080841 0.169891
0.812988 0.079193 0.185028
0.938232 0.123596 0.206360
1.000000 0.178467 0.211731
0.000000 0.342926 0.159973
0.000000 0.343414 0.157318
0.124756 0.343689 0.150330
0.329468 0.336090 0.151093
0.506378 0.329956 0.148560
0.680939 0.323364 0.146118
0.821198 0.332428 0.173706
0.943024 0.357941 0.199829
1.000000 0.388641 0.200256
0.000000 0.561798 0.037323
0.000000 0.562073 0.033020
0.000000 0.562378 0.021881
0.253876 0.556763 0.018219
0.493164 0.546936 0.023895
0.686340 0.541473 0.019928
0.832550 0.538055 0.099915
0.951447 0.549805 0.160339
1.000000 0.571838 0.158936
0.000000 0.768219 0.000000
0.000000 0.767914 0.000000
0.000000 0.767029 0.000000
0.053864 0.761902 0.000000
0.449738 0.748596 0.000000
0.662628 0.740814 0.000000
0.826996 0.730682 0.001587
0.947052 0.727631 0.088013
1.000000 0.740112 0.099182
0.000000 0.908875 0.000000
0.000000 0.908447 0.000000
0.000000 0.907349 0.000000
0.098907 0.902405 0.000000
0.454407 0.890137 0.000000
0.654572 0.881287 0.002380
0.814178 0.876678 0.005829
0.937378 0.870850 0.068573
1.000000 0.873199 0.102966
0.000000 0.999573 0.001892
0.000000 0.999542 0.002014
0.015198 0.999390 0.002106
0.331573 0.991699 0.016571
0.538239 0.980896 0.066589
0.699799 0.970184 0.108398
0.834076 0.961914 0.145294
0.942963 0.957001 0.171814
1.000000 0.953583 0.199585
0.282013 1.000000 0.166199
0.330811 1.000000 0.171326
0.425110 1.000000 0.184937
0.543274 1.000000 0.207184
0.665588 1.000000 0.233093
0.781006 1.000000 0.258148
0.882568 1.000000 0.279175
0.969391 1.000000 0.296051
1.000000 0.996613 0.310608
0.000000 0.000000 0.370117
0.000000 0.000000 0.367889
0.128845 0.000000 0.358063
0.302460 0.000000 0.347412
0.482025 0.000000 0.340973
0.667877 0.000000 0.335846
0.818634 0.000000 0.339264
0.946777 0.000000 0.352631
1.000000 0.000000 0.361389
0.000000 0.029602 0.368652
0.000000 0.022736 0.366943
0.137573 0.006378 0.359589
0.310944 0.000061 0.348389
0.489746 0.000000 0.342255
0.673615 0.000000 0.337341
0.821960 0.000000 0.341553
0.948975 0.000000 0.354858
1.000000 0.000000 0.363068
0.000000 0.158905 0.367401
0.000000 0.157410 0.365997
0.143005 0.151489 0.362610
0.326111 0.143524 0.350189
0.502075 0.112457 0.343628
0.681305 0.045868 0.339813
0.827209 0.062683 0.345886
0.952209 0.117035 0.359467
1.000000 0.176727 0.367035
0.000000 0.332855 0.359802
0.000000 0.333191 0.358307
0.051636 0.332855 0.354370
0.322601 0.329071 0.346985
0.503113 0.327820 0.343048
0.679169 0.324005 0.341827
0.821350 0.339355 0.353638
0.943329 0.368622 0.369690
1.000000 0.401398 0.377014
0.000000 0.553009 0.332489
0.000000 0.553223 0.330688
0.000000 0.553284 0.326050
0.238708 0.551941 0.317688
0.493469 0.541901 0.317993
0.683472 0.536652 0.320953
0.827698 0.539795 0.345306
0.945465 0.556061 0.368439
1.000000 0.579224 0.373688
0.000000 0.761047 0.291718
0.000000 0.760712 0.290100
0.000000 0.759796 0.286011
0.033630 0.757629 0.278778
0.444122 0.749725 0.277374
0.662018 0.737885 0.290558
0.825195 0.729431 0.317352
0.942963 0.729492 0.356506
1.000000 0.742798 0.365448
0.000000 0.905762 0.298248
0.000000 0.905334 0.297668
0.000000 0.904175 0.296204
0.079254 0.902039 0.293732
0.444458 0.895874 0.296906
0.652740 0.884064 0.316254
0.812012 0.876953 0.331909
0.933929 0.872192 0.356415
1.000000 0.874634 0.372925
0.000000 0.999420 0.339630
0.000000 0.999359 0.339661
0.013062 0.997955 0.339905
0.314911 0.994751 0.340363
0.528564 0.986816 0.349884
0.695740 0.974121 0.369080
0.830536 0.963745 0.387604
0.937897 0.957947 0.400391
1.000000 0.954681 0.412933
0.269867 1.000000 0.403168
0.317932 1.000000 0.403473
0.410889 1.000000 0.404236
0.531158 1.000000 0.409698
0.657776 1.000000 0.422272
0.775482 1.000000 0.438202
0.877075 1.000000 0.453247
0.963135 1.000000 0.465271
1.000000 0.997498 0.474548
0.000000 0.000000 0.584015
0.000000 0.000000 0.587708
0.000031 0.000000 0.584320
0.240173 0.000000 0.568390
0.466949 0.000000 0.554779
0.670807 0.000000 0.546509
0.831085 0.000000 0.534332
0.961609 0.000000 0.535675
1.000000 0.000000 0.542419
0.000000 0.000183 0.588928
0.000000 0.000031 0.587463
0.000000 0.000000 0.583954
0.254456 0.000000 0.568359
0.475677 0.000000 0.555511
0.676605 0.000000 0.547302
0.834106 0.000000 0.535889
0.963257 0.000000 0.537628
1.000000 0.000000 0.543976
0.000000 0.134766 0.587646
0.000000 0.132202 0.586365
0.000031 0.122620 0.583160
0.275818 0.099701 0.572388
0.492340 0.049133 0.556854
0.686432 0.001678 0.548065
0.838867 0.016357 0.538971
0.965179 0.100861 0.541809
1.000000 0.166687 0.547516
0.000000 0.317535 0.582428
0.000000 0.317505 0.581116
0.000000 0.316254 0.577667
0.272064 0.310791 0.571747
0.500519 0.308746 0.555420
0.688141 0.306519 0.545715
0.833099 0.334625 0.542206
0.953461 0.372345 0.548676
1.000000 0.407227 0.555176
0.000000 0.540405 0.566650
0.000000 0.540466 0.565277
0.000000 0.540192 0.561798
0.176910 0.538422 0.555695
0.475128 0.533783 0.547028
0.670898 0.534424 0.542053
0.819824 0.545685 0.547363
0.938721 0.566650 0.558075
1.000000 0.591125 0.564545
0.000000 0.751221 0.541992
0.000000 0.750885 0.540924
0.000000 0.749847 0.538177
0.005676 0.747650 0.533539
0.422333 0.743896 0.527100
0.652985 0.734589 0.526764
0.817596 0.728333 0.539703
0.933929 0.733582 0.559326
1.000000 0.748108 0.566528
0.000000 0.901489 0.536804
0.000000 0.901031 0.536407
0.000000 0.899872 0.535492
0.045929 0.897675 0.533997
0.428619 0.894348 0.531921
0.641907 0.887421 0.533691
0.804901 0.877563 0.546051
0.926025 0.874054 0.559387
1.000000 0.876770 0.571350
0.000000 0.997803 0.556641
0.000000 0.997040 0.556641
0.005920 0.995239 0.556641
0.301147 0.992065 0.556702
0.514557 0.987640 0.556976
0.684479 0.978394 0.562225
0.822388 0.966339 0.575439
0.928619 0.959229 0.586426
1.000000 0.956024 0.594849
0.253601 1.000000 0.593048
0.303925 1.000000 0.593109
0.399292 1.000000 0.593414
0.517914 1.000000 0.594025
0.643036 1.000000 0.595917
0.764191 1.000000 0.604736
0.867432 1.000000 0.616638
0.953217 1.000000 0.626984
1.000000 0.998596 0.633728
0.000000 0.000000 0.788910
0.000000 0.000000 0.789551
0.000000 0.000000 0.786469
0.081451 0.000000 0.775726
0.433136 0.000000 0.757935
0.654419 0.000000 0.746277
0.833618 0.000000 0.729584
0.969208 0.000000 0.718964
1.000000 0.000000 0.722534
0.000000 0.000000 0.789581
0.000000 0.000000 0.788391
0.000000 0.000000 0.785431
0.113403 0.000000 0.774353
0.444000 0.000000 0.757507
0.660706 0.000000 0.746490
0.836487 0.000000 0.729950
0.970245 0.000000 0.720093
1.000000 0.000000 0.723389
0.000000 0.113983 0.786957
0.000000 0.109741 0.785889
0.000000 0.094940 0.783142
0.157745 0.054382 0.776184
0.463470 0.009003 0.758423
0.671844 0.000000 0.746368
0.840912 0.001770 0.730652
0.971069 0.083801 0.722412
1.000000 0.152893 0.725067
0.000000 0.305176 0.780823
0.000000 0.304871 0.779755
0.000000 0.303040 0.777039
0.183929 0.297211 0.772339
0.472992 0.291473 0.759766
0.677612 0.292328 0.744324
0.839905 0.317993 0.730133
0.962860 0.367157 0.724060
1.000000 0.403809 0.726776
0.000000 0.526337 0.768005
0.000000 0.526398 0.766968
0.000000 0.526123 0.764313
0.079620 0.524689 0.759766
0.448395 0.521179 0.753387
0.666107 0.523407 0.739349
0.827545 0.540649 0.727905
0.944916 0.570251 0.726440
1.000000 0.596771 0.730164
0.000000 0.740021 0.749542
0.000000 0.739655 0.748596
0.000000 0.738617 0.746185
0.000000 0.736420 0.742096
0.394104 0.732910 0.736420
0.633789 0.728638 0.729523
0.804749 0.729553 0.726929
0.921783 0.741241 0.732422
1.000000 0.757355 0.737488
0.000000 0.896637 0.729675
0.000000 0.896179 0.729309
0.000000 0.894958 0.728424
0.020691 0.892731 0.726929
0.412628 0.889465 0.724884
0.626984 0.885529 0.722504
0.793915 0.879517 0.723450
0.914917 0.875885 0.732239
0.999390 0.879730 0.741058
0.000000 0.994476 0.734558
0.000000 0.993774 0.734497
0.001648 0.991943 0.734314
0.287537 0.988922 0.734039
0.504547 0.984283 0.733765
0.671112 0.978180 0.733673
0.809631 0.969940 0.736481
0.917145 0.960754 0.745941
0.999786 0.957275 0.752441
0.243805 1.000000 0.754181
0.295074 1.000000 0.754211
0.391113 1.000000 0.754242
0.509338 1.000000 0.754333
0.632355 1.000000 0.754639
0.749084 1.000000 0.755249
0.854401 1.000000 0.760498
0.941681 1.000000 0.769409
1.000000 0.999481 0.774994
0.000000 0.000000 0.920105
0.000000 0.000000 0.919373
0.000000 0.000000 0.917572
0.074951 0.000000 0.911865
0.432922 0.000000 0.896545
0.648926 0.000000 0.885803
0.829163 0.000000 0.881012
0.972290 0.000000 0.871674
1.000000 0.000000 0.872498
0.000000 0.000000 0.919220
0.000000 0.000000 0.918518
0.000000 0.000000 0.916870
0.104248 0.000000 0.910522
0.443909 0.000000 0.895996
0.654907 0.000000 0.885773
0.832123 0.000000 0.881134
0.972961 0.000000 0.872009
1.000000 0.000000 0.872681
0.000000 0.125305 0.917267
0.000000 0.121002 0.916656
0.000000 0.107544 0.915131
0.146301 0.071930 0.911194
0.463348 0.047791 0.896942
0.665649 0.014404 0.885712
0.836639 0.006287 0.881073
0.972931 0.076141 0.872437
1.000000 0.152527 0.872620
0.000000 0.312653 0.912842
0.000000 0.312347 0.912262
0.000000 0.311035 0.910828
0.191650 0.307190 0.908325
0.473572 0.304871 0.900269
0.672150 0.312927 0.887115
0.836548 0.324402 0.879852
0.966705 0.363312 0.871613
1.000000 0.401764 0.871155
0.000000 0.523376 0.904083
0.000000 0.523590 0.903503
0.000000 0.523956 0.902100
0.136597 0.523926 0.899658
0.458588 0.523254 0.896240
0.662415 0.527374 0.887299
0.825409 0.542023 0.876373
0.950623 0.567352 0.869354
1.000000 0.595306 0.868408
0.000000 0.726440 0.891205
0.000000 0.726379 0.890686
0.000000 0.726044 0.889343
0.037994 0.725311 0.887115
0.424622 0.724121 0.884003
0.636536 0.723083 0.880157
0.804993 0.727051 0.872467
0.926422 0.742340 0.866058
1.000000 0.761475 0.866028
0.000000 0.891937 0.876709
0.000000 0.891479 0.876282
0.000000 0.890198 0.875305
0.043854 0.887970 0.873627
0.415070 0.884827 0.871307
0.623627 0.881134 0.868500
0.784607 0.878113 0.865509
0.905426 0.878021 0.865448
0.988495 0.884766 0.868896
0.000000 0.990906 0.868439
0.000000 0.990234 0.868256
0.017456 0.988525 0.867889
0.306732 0.985413 0.867279
0.509918 0.980591 0.866455
0.669373 0.974854 0.865540
0.800873 0.969116 0.864746
0.908447 0.962891 0.866089
0.991730 0.958313 0.871674
0.277008 1.000000 0.873840
0.321289 1.000000 0.873749
0.407715 1.000000 0.873566
0.517944 1.000000 0.873230
0.634308 1.000000 0.872833
0.745270 1.000000 0.872528
0.845032 1.000000 0.872406
0.933594 1.000000 0.875275
1.000000 1.000000 0.880249
0.000000 0.000000 0.999908
0.000000 0.000000 0.999878
0.000000 0.000000 0.999756
0.202087 0.000000 0.997223
0.482391 0.000000 0.985291
0.677979 0.000000 0.975464
0.843567 0.000000 0.970032
0.981384 0.000000 0.968109
1.000000 0.000000 0.967377
0.000000 0.000000 0.999817
0.000000 0.000000 0.999786
0.000000 0.000000 0.999695
0.232117 0.000000 0.995911
0.492157 0.000000 0.984436
0.683228 0.000000 0.975006
0.846130 0.000000 0.969788
0.981659 0.000000 0.967804
1.000000 0.000000 0.966888
0.000000 0.122772 0.999634
0.000000 0.117554 0.999603
0.000000 0.102203 0.999512
0.271973 0.074066 0.995728
0.509521 0.062195 0.983856
0.692657 0.053070 0.973846
0.849731 0.053497 0.968750
0.980865 0.088287 0.966614
1.000000 0.173309 0.965363
0.000000 0.318359 0.997284
0.000000 0.317932 0.996826
0.000031 0.316559 0.995728
0.296661 0.313324 0.993866
0.518768 0.315216 0.986267
0.697815 0.326538 0.974731
0.849152 0.344604 0.966858
0.974762 0.369598 0.963562
1.000000 0.408569 0.961761
0.000000 0.526337 0.988098
0.000000 0.526550 0.987671
0.000000 0.526978 0.986542
0.285614 0.527435 0.984589
0.508331 0.527985 0.981842
0.688721 0.534851 0.973358
0.838348 0.551514 0.962769
0.957886 0.571472 0.958069
1.000000 0.598267 0.955627
0.000000 0.723969 0.973602
0.000000 0.723938 0.973175
0.000000 0.723877 0.972137
0.239807 0.723663 0.970428
0.486176 0.723541 0.967926
0.666809 0.724091 0.964874
0.817780 0.729828 0.958008
0.932770 0.744690 0.950256
1.000000 0.762024 0.947571
0.000000 0.885559 0.957825
0.000000 0.885193 0.957489
0.000031 0.884155 0.956635
0.237488 0.882416 0.955200
0.481598 0.880035 0.953186
0.656036 0.877594 0.950714
0.798004 0.876099 0.947968
0.911102 0.878418 0.943695
0.993256 0.887390 0.940796
0.000000 0.987457 0.945374
0.016113 0.986786 0.945160
0.150757 0.984985 0.944641
0.383179 0.981689 0.943756
0.548553 0.977173 0.942535
0.690216 0.971863 0.941101
0.810120 0.966766 0.939575
0.910309 0.962494 0.938110
0.991241 0.959290 0.940033
0.366241 1.000000 0.941345
0.397858 1.000000 0.941223
0.465118 1.000000 0.940857
0.557465 1.000000 0.940277
0.659546 1.000000 0.939514
0.759644 1.000000 0.938629
0.851898 1.000000 0.937775
0.935425 1.000000 0.936981
1.000000 0.999939 0.939850
0.000000 0.000000 1.000000
0.000000 0.000000 1.000000
0.097351 0.000000 1.000000
0.379425 0.000000 1.000000
0.568634 0.000000 1.000000
0.734283 0.000000 1.000000
0.881317 0.000000 1.000000
0.999359 0.000000 1.000000
1.000000 0.000000 1.000000
0.000000 0.000000 1.000000
0.000000 0.000000 1.000000
0.135162 0.000000 1.000000
0.393250 0.000000 1.000000
0.576202 0.000000 1.000000
0.738464 0.000000 1.000000
0.883057 0.000000 1.000000
0.999359 0.000000 1.000000
1.000000 0.000000 1.000000
0.000000 0.090820 1.000000
0.000000 0.082397 1.000000
0.204773 0.070160 1.000000
0.416565 0.061707 1.000000
0.589783 0.054840 1.000000
0.745697 0.053101 1.000000
0.885193 0.067719 1.000000
0.999207 0.109039 1.000000
1.000000 0.201385 1.000000
0.000000 0.316437 1.000000
0.000000 0.315735 1.000000
0.243683 0.313873 1.000000
0.428619 0.312988 1.000000
0.596680 0.319641 1.000000
0.748657 0.333374 1.000000
0.882538 0.353668 1.000000
0.992950 0.381378 1.000000
1.000000 0.421448 1.000000
0.000000 0.527740 1.000000
0.000000 0.527893 1.000000
0.234894 0.528107 1.000000
0.421173 0.528564 1.000000
0.586121 0.530365 1.000000
0.739014 0.540649 1.000000
0.869934 0.558350 1.000000
0.975586 0.580078 0.999146
1.000000 0.606079 0.997253
0.000000 0.723999 1.000000
0.000000 0.723969 1.000000
0.186981 0.723907 1.000000
0.398376 0.723877 1.000000
0.566925 0.724152 1.000000
0.716888 0.725555 1.000000
0.848022 0.733826 0.997894
0.949371 0.749603 0.990295
1.000000 0.765930 0.987732
0.000000 0.882996 0.996887
0.000000 0.882660 0.996552
0.199646 0.881744 0.995728
0.400726 0.880219 0.994324
0.562408 0.878265 0.992401
0.704773 0.876526 0.990021
0.826508 0.876129 0.987305
0.926788 0.879791 0.982513
1.000000 0.888000 0.978516
0.183167 0.983734 0.983215
0.248779 0.983002 0.983002
0.358185 0.981140 0.982452
0.484100 0.978058 0.981506
0.611023 0.973846 0.980225
0.729492 0.969177 0.978668
0.834137 0.964752 0.976959
0.925049 0.961090 0.975281
1.000000 0.960419 0.973633
0.470337 1.000000 0.976166
0.492615 1.000000 0.976013
0.542755 1.000000 0.975616
0.616058 1.000000 0.975006
0.701050 1.000000 0.974182
0.787842 1.000000 0.973175
0.870728 1.000000 0.972137
0.948212 1.000000 0.971039
1.000000 0.999939 0.982086
