滤镜资源/Professional Luts Collection/Lutify.me Professional/Vintage Films/Triphylite.cube
# Created by: Lutify.me
# Copyright: (c) Copyright Lutify.me 2015
# Website: https://lutify.me
#LUT size
LUT_3D_SIZE 9
#LUT data points
0.000000 0.000000 0.000000
0.038727 0.000824 0.000763
0.103210 0.002991 0.002319
0.173523 0.004303 0.005341
0.254852 0.001068 0.010010
0.348663 0.000000 0.016327
0.450836 0.000000 0.023956
0.559753 0.000000 0.033234
0.675537 0.000000 0.043610
0.004272 0.029724 0.003845
0.040588 0.025146 0.003052
0.104919 0.027802 0.004547
0.175507 0.029907 0.007385
0.257141 0.027710 0.011902
0.351013 0.014801 0.018127
0.452942 0.000000 0.025757
0.561554 0.000000 0.034790
0.677155 0.000000 0.044037
0.013275 0.084869 0.012604
0.046234 0.077087 0.010559
0.106689 0.070496 0.009552
0.177704 0.074005 0.011719
0.260468 0.074005 0.015900
0.354858 0.067413 0.021118
0.456787 0.049774 0.028107
0.565033 0.016052 0.036682
0.680298 0.000000 0.045380
0.022797 0.147400 0.025665
0.055969 0.136444 0.023499
0.111542 0.129913 0.019287
0.181152 0.122131 0.019623
0.264832 0.124664 0.022644
0.359192 0.123901 0.027252
0.461273 0.118683 0.032654
0.569977 0.107422 0.038940
0.685272 0.085968 0.046082
0.019287 0.221161 0.041779
0.059418 0.206970 0.040192
0.115662 0.197876 0.035034
0.187012 0.189972 0.030762
0.270203 0.180725 0.031738
0.364227 0.183929 0.034973
0.465881 0.184845 0.039215
0.574280 0.182343 0.043915
0.690277 0.174500 0.048157
0.000336 0.304169 0.055817
0.048523 0.288269 0.054749
0.118286 0.275391 0.053711
0.192078 0.267761 0.043884
0.277069 0.258270 0.042786
0.369934 0.248016 0.043549
0.471222 0.252014 0.045959
0.579407 0.253784 0.048615
0.695404 0.252228 0.051544
0.000000 0.393463 0.067291
0.030273 0.376282 0.066620
0.119507 0.360840 0.068390
0.197632 0.351501 0.059418
0.284119 0.343018 0.049194
0.377319 0.332184 0.051544
0.477386 0.321075 0.051819
0.585510 0.325409 0.052551
0.701630 0.327332 0.053680
0.000000 0.488403 0.074951
0.007996 0.469849 0.075226
0.117615 0.453003 0.077301
0.204102 0.440063 0.074371
0.290741 0.432007 0.058838
0.385681 0.422241 0.050537
0.485382 0.410492 0.055786
0.592682 0.398560 0.055511
0.709106 0.402771 0.054596
0.000000 0.590271 0.077118
0.000000 0.570312 0.078552
0.107849 0.551788 0.081696
0.209198 0.535034 0.086700
0.297119 0.525848 0.068970
0.392761 0.516876 0.050995
0.494659 0.505554 0.047089
0.601776 0.492950 0.053619
0.717712 0.479919 0.052307
0.000000 0.000336 0.042358
0.019562 0.001526 0.019104
0.077484 0.003387 0.016663
0.144592 0.004974 0.015259
0.220123 0.004395 0.015045
0.309052 0.000000 0.016418
0.407990 0.000000 0.020905
0.514130 0.000000 0.029388
0.626953 0.000000 0.039551
0.003906 0.020630 0.027954
0.057190 0.057007 0.060944
0.121643 0.058838 0.056030
0.193359 0.060577 0.052948
0.277405 0.057983 0.051422
0.372284 0.046875 0.051483
0.474823 0.020966 0.053253
0.584015 0.000000 0.055908
0.700439 0.000000 0.059265
0.012024 0.070282 0.034180
0.065765 0.112030 0.068604
0.123444 0.104797 0.055420
0.196198 0.107758 0.051605
0.281433 0.108246 0.050018
0.376709 0.104340 0.049835
0.479492 0.094727 0.050690
0.588623 0.076294 0.053101
0.704956 0.040192 0.056305
0.022400 0.128723 0.046387
0.072754 0.176544 0.079254
0.128479 0.167786 0.065552
0.200073 0.159119 0.054443
0.285767 0.162628 0.051880
0.380920 0.164093 0.051025
0.483490 0.162628 0.051208
0.593018 0.156891 0.052246
0.710327 0.144165 0.052917
0.026398 0.197510 0.060455
0.069885 0.253052 0.089508
0.132263 0.241241 0.078003
0.206177 0.233063 0.062897
0.290985 0.222900 0.055542
0.385956 0.227264 0.053741
0.488312 0.229919 0.052948
0.597626 0.229919 0.052734
0.714966 0.225647 0.052124
0.011230 0.277466 0.072937
0.062561 0.336975 0.100128
0.135925 0.322876 0.090485
0.211639 0.314331 0.073364
0.298431 0.304596 0.061768
0.391937 0.293762 0.057037
0.493988 0.298645 0.054932
0.603210 0.301819 0.053040
0.720825 0.302063 0.053589
0.000000 0.364624 0.083374
0.049835 0.427490 0.108276
0.138550 0.411255 0.100739
0.217834 0.400787 0.085144
0.305328 0.391998 0.067139
0.399994 0.380859 0.060883
0.500671 0.369476 0.056000
0.609985 0.374664 0.055023
0.727936 0.377747 0.054535
0.000000 0.457977 0.091553
0.026031 0.524139 0.114105
0.136658 0.506409 0.106903
0.224548 0.492340 0.097168
0.312042 0.483612 0.074890
0.408112 0.473724 0.057404
0.509399 0.461517 0.055786
0.617920 0.449432 0.055176
0.736206 0.454529 0.053192
0.000000 0.557434 0.095825
0.000000 0.628632 0.117035
0.122894 0.609100 0.110077
0.227448 0.591248 0.106689
0.317474 0.581055 0.083252
0.414520 0.571564 0.056458
0.518585 0.560333 0.038879
0.627838 0.547211 0.047974
0.745514 0.533936 0.047363
0.000000 0.000702 0.105560
0.011230 0.001190 0.077972
0.054443 0.003235 0.050659
0.118591 0.005707 0.045441
0.189575 0.006836 0.042847
0.272675 0.001953 0.042114
0.367645 0.000000 0.043152
0.470612 0.000000 0.045807
0.580261 0.000000 0.049744
0.000153 0.021698 0.089783
0.043304 0.057861 0.122559
0.097809 0.060272 0.095673
0.165863 0.063110 0.090363
0.244324 0.062836 0.087128
0.335205 0.055634 0.085114
0.434509 0.036743 0.083954
0.540405 0.004700 0.084076
0.653229 0.000000 0.084442
0.010376 0.056519 0.073761
0.068329 0.098328 0.107025
0.146576 0.144135 0.141449
0.222504 0.145782 0.136200
0.309479 0.146576 0.132538
0.404755 0.145172 0.129547
0.507050 0.140533 0.127045
0.616272 0.130737 0.124878
0.733643 0.111206 0.122528
0.018890 0.114044 0.078674
0.077209 0.159637 0.112610
0.153778 0.210876 0.149323
0.225830 0.202972 0.134857
0.313812 0.206604 0.129608
0.409668 0.208771 0.125671
0.512238 0.209045 0.122437
0.621643 0.206360 0.119537
0.739227 0.198792 0.116882
0.027344 0.178101 0.087708
0.076935 0.232544 0.120239
0.160156 0.288910 0.158020
0.232086 0.280640 0.141907
0.317749 0.270233 0.128601
0.413513 0.274841 0.123413
0.516174 0.278198 0.119202
0.625702 0.279541 0.115814
0.743530 0.277618 0.112610
0.021820 0.253632 0.098724
0.073944 0.313293 0.129456
0.164307 0.374695 0.166046
0.239349 0.364197 0.150635
0.325073 0.354950 0.132446
0.418671 0.343262 0.121613
0.520935 0.348480 0.117004
0.630920 0.352386 0.112305
0.749786 0.353699 0.107330
0.005707 0.337128 0.109650
0.072632 0.400055 0.139801
0.166718 0.466583 0.173737
0.246033 0.454224 0.158112
0.332123 0.444794 0.137085
0.427094 0.433228 0.122620
0.527771 0.420898 0.112946
0.638062 0.426453 0.107239
0.757355 0.430267 0.101044
0.000000 0.428131 0.118073
0.062347 0.494019 0.147949
0.165833 0.564209 0.182373
0.251709 0.549561 0.167480
0.338470 0.539551 0.143738
0.434631 0.528870 0.122498
0.537109 0.516083 0.110870
0.646332 0.503113 0.100586
0.766052 0.508850 0.093231
0.000000 0.525269 0.124268
0.026642 0.595825 0.153870
0.148468 0.671051 0.187592
0.251953 0.652649 0.176788
0.342346 0.640961 0.152100
0.440094 0.630493 0.124878
0.545624 0.618774 0.101929
0.656769 0.604797 0.093689
0.775604 0.591003 0.082062
0.000000 0.001526 0.170135
0.003143 0.001984 0.141632
0.040497 0.003113 0.113434
0.094482 0.005249 0.086060
0.162781 0.007385 0.080475
0.240051 0.006104 0.077454
0.330261 0.000000 0.075958
0.429657 0.000000 0.075623
0.536011 0.000000 0.076324
0.000000 0.022858 0.153809
0.029907 0.059631 0.187561
0.084076 0.060608 0.159241
0.141022 0.063751 0.131256
0.214996 0.065491 0.125519
0.300995 0.061981 0.122070
0.396942 0.048492 0.119476
0.499542 0.020874 0.118011
0.608887 0.000000 0.116974
0.004059 0.058685 0.136475
0.054932 0.100464 0.170319
0.132904 0.144989 0.207916
0.196045 0.148346 0.178223
0.278351 0.150146 0.172699
0.369904 0.149872 0.168854
0.468964 0.146820 0.165558
0.574921 0.139618 0.162659
0.688751 0.124969 0.159698
0.019531 0.097931 0.120789
0.081146 0.142975 0.154510
0.161499 0.194397 0.190857
0.257599 0.251465 0.230621
0.346954 0.254425 0.223907
0.443207 0.256653 0.218750
0.545807 0.257690 0.214172
0.655670 0.256470 0.210022
0.774048 0.251251 0.206085
0.026154 0.161011 0.124878
0.084869 0.212830 0.158691
0.170898 0.268951 0.197845
0.266449 0.330688 0.239777
0.350555 0.321930 0.222382
0.447266 0.326324 0.215515
0.550842 0.329559 0.209808
0.661652 0.331085 0.204834
0.780945 0.329803 0.200134
0.025085 0.233459 0.131500
0.081635 0.292267 0.165192
0.177063 0.351868 0.206512
0.276184 0.416534 0.249695
0.357849 0.408783 0.229340
0.451477 0.396820 0.213287
0.555054 0.401978 0.206360
0.666565 0.405792 0.200226
0.786621 0.407440 0.194702
0.013611 0.314270 0.140289
0.081635 0.377045 0.174164
0.178772 0.442383 0.213745
0.284546 0.508972 0.259552
0.365967 0.499969 0.238831
0.459625 0.489471 0.217468
0.560913 0.476318 0.203186
0.672546 0.481903 0.196381
0.792908 0.486023 0.190308
0.004425 0.401093 0.150574
0.082489 0.467133 0.184570
0.180237 0.537872 0.222534
0.288300 0.609192 0.268738
0.372650 0.598236 0.247772
0.466705 0.588013 0.223022
0.570160 0.575134 0.204712
0.680145 0.561035 0.191376
0.800995 0.567078 0.184357
0.000000 0.494446 0.160278
0.075317 0.563995 0.195038
0.177429 0.639496 0.233551
0.281799 0.718994 0.275085
0.374207 0.705536 0.254395
0.471283 0.694458 0.227295
0.577820 0.681824 0.204041
0.690765 0.667145 0.189117
0.810211 0.652283 0.174683
0.000000 0.002228 0.242035
0.000000 0.002747 0.209564
0.025665 0.003479 0.178772
0.081573 0.005280 0.148865
0.137360 0.007141 0.121979
0.210785 0.007904 0.116241
0.296173 0.001434 0.112976
0.391663 0.000000 0.110962
0.494720 0.000000 0.109863
0.000000 0.024078 0.223480
0.010773 0.061707 0.261169
0.066925 0.061432 0.229523
0.128082 0.064026 0.196930
0.188202 0.066620 0.167725
0.269928 0.065704 0.161713
0.361908 0.057037 0.157837
0.461456 0.036163 0.155090
0.567322 0.002533 0.153107
0.001099 0.060486 0.204376
0.038574 0.102692 0.241577
0.116638 0.146759 0.284027
0.183105 0.148529 0.250763
0.250397 0.151855 0.218231
0.337891 0.153198 0.211884
0.433319 0.151642 0.207520
0.535858 0.146545 0.203735
0.645996 0.135590 0.200256
0.010864 0.101105 0.185455
0.067352 0.146149 0.222717
0.147034 0.197296 0.264038
0.244965 0.253510 0.307648
0.317810 0.258392 0.273651
0.410461 0.260803 0.267273
0.509979 0.262268 0.261993
0.616333 0.262024 0.257202
0.730743 0.258728 0.252899
0.030670 0.143005 0.169312
0.092773 0.193146 0.205872
0.177155 0.250397 0.245789
0.279541 0.311005 0.289978
0.386658 0.376251 0.335693
0.484833 0.380493 0.327911
0.589539 0.383209 0.321259
0.701599 0.384613 0.315308
0.822235 0.383728 0.309845
0.028839 0.213898 0.173065
0.091217 0.271118 0.209778
0.186493 0.331268 0.251526
0.290741 0.394043 0.299561
0.396149 0.464294 0.346680
0.489075 0.454254 0.326385
0.594360 0.459076 0.318024
0.707947 0.462555 0.310852
0.829956 0.464050 0.304474
0.018524 0.293304 0.178833
0.090088 0.355316 0.216187
0.192627 0.418427 0.259888
0.300049 0.484253 0.309845
0.406403 0.557861 0.358459
0.497040 0.549530 0.334381
0.599365 0.535980 0.315308
0.713348 0.541504 0.306976
0.836060 0.545593 0.299316
0.009308 0.378632 0.187347
0.091278 0.443939 0.224884
0.191101 0.513458 0.266815
0.305695 0.582062 0.319824
0.413910 0.659851 0.370178
0.504639 0.650635 0.345551
0.608276 0.638733 0.320770
0.720062 0.623749 0.303131
0.842499 0.630066 0.294769
0.003174 0.469116 0.197510
0.090271 0.538208 0.235199
0.190186 0.612885 0.276917
0.300446 0.690338 0.326660
0.417725 0.769440 0.381714
0.511292 0.758881 0.356750
0.615845 0.747986 0.328156
0.730286 0.733795 0.306183
0.849335 0.718140 0.289062
0.000000 0.003052 0.323334
0.000000 0.003387 0.286591
0.005585 0.004150 0.251831
0.064758 0.005127 0.218323
0.124512 0.007507 0.186157
0.183563 0.008514 0.158203
0.264954 0.004761 0.152466
0.356567 0.000000 0.148926
0.456207 0.000000 0.146606
0.000000 0.024994 0.302399
0.000000 0.062836 0.345276
0.037567 0.063416 0.308258
0.110199 0.063965 0.272858
0.175018 0.067230 0.237701
0.240814 0.067749 0.206940
0.329437 0.062622 0.200500
0.425903 0.047424 0.196045
0.528625 0.018341 0.192780
0.000000 0.062073 0.281311
0.008728 0.105042 0.322601
0.092224 0.149170 0.369659
0.165466 0.149261 0.333496
0.237579 0.152283 0.295044
0.308411 0.154846 0.261139
0.400574 0.155029 0.254211
0.499725 0.151947 0.249207
0.606079 0.144073 0.244873
0.001556 0.103424 0.260132
0.047028 0.149231 0.300720
0.128937 0.199768 0.347961
0.227570 0.255463 0.397888
0.305359 0.258789 0.358154
0.379791 0.263519 0.320465
0.475555 0.265991 0.313324
0.578369 0.266724 0.307648
0.688965 0.264862 0.302612
0.018829 0.146698 0.239838
0.077942 0.197327 0.280396
0.162659 0.254486 0.325348
0.262970 0.316284 0.374207
0.373383 0.380127 0.426514
0.453308 0.385376 0.386841
0.554901 0.387939 0.378967
0.663605 0.389709 0.372192
0.780487 0.389648 0.366089
0.039124 0.193329 0.222595
0.103394 0.249268 0.262573
0.193726 0.310547 0.306244
0.298370 0.375305 0.353882
0.411224 0.441925 0.408264
0.528046 0.514069 0.462006
0.636841 0.519196 0.453094
0.752991 0.521912 0.444733
0.876221 0.523376 0.437195
0.024628 0.272064 0.226318
0.100281 0.333221 0.266724
0.201904 0.396790 0.311615
0.310883 0.462708 0.362518
0.422852 0.532928 0.419708
0.538208 0.612030 0.475952
0.641785 0.600311 0.451355
0.758759 0.605621 0.441284
0.882507 0.609589 0.432404
0.014587 0.356995 0.232147
0.100555 0.421570 0.273102
0.206421 0.488495 0.319580
0.319183 0.557190 0.373383
0.431946 0.632477 0.432007
0.548401 0.716125 0.490417
0.650360 0.706787 0.461578
0.764221 0.691254 0.438324
0.886444 0.697815 0.428314
0.008453 0.446289 0.240509
0.100708 0.514465 0.281799
0.201752 0.587860 0.327240
0.319824 0.661072 0.383514
0.436707 0.740723 0.444336
0.559570 0.824738 0.505157
0.660706 0.815643 0.475677
0.774414 0.802948 0.446533
0.890961 0.786957 0.424652
0.000000 0.002594 0.416077
0.000000 0.003876 0.373962
0.000000 0.004486 0.334381
0.033020 0.005035 0.297211
0.107544 0.006683 0.260712
0.170532 0.008911 0.226593
0.235321 0.006836 0.196686
0.323883 0.000000 0.190704
0.420319 0.000000 0.186646
0.000000 0.025513 0.392059
0.000000 0.063416 0.441650
0.000000 0.064819 0.398193
0.079071 0.064362 0.358490
0.157532 0.066437 0.318909
0.227509 0.068634 0.281647
0.298340 0.066071 0.249054
0.392273 0.055176 0.242340
0.492279 0.031799 0.237335
0.000000 0.063354 0.368378
0.000000 0.106415 0.415985
0.039398 0.152771 0.467041
0.138367 0.150574 0.427094
0.219940 0.152161 0.384216
0.295197 0.155487 0.342957
0.369476 0.156921 0.307068
0.465912 0.155670 0.299561
0.568878 0.150452 0.293915
0.000000 0.105255 0.344666
0.004486 0.151825 0.390625
0.099243 0.203125 0.442932
0.200836 0.258087 0.501068
0.285278 0.259521 0.457336
0.366394 0.263916 0.411163
0.443848 0.268005 0.370941
0.543488 0.270172 0.362915
0.650330 0.269806 0.356628
0.000397 0.149841 0.321594
0.052551 0.201355 0.366211
0.140625 0.257965 0.418182
0.240936 0.319061 0.475311
0.350708 0.382355 0.535706
0.438660 0.386292 0.487854
0.520508 0.391602 0.442596
0.625580 0.394196 0.434143
0.738831 0.395020 0.426971
0.021759 0.197845 0.299835
0.088776 0.254333 0.344086
0.177673 0.315613 0.393860
0.279846 0.380859 0.448425
0.390900 0.449341 0.508148
0.511292 0.519379 0.572144
0.601044 0.524841 0.524048
0.714355 0.527374 0.514526
0.834961 0.529022 0.506073
0.041107 0.249634 0.281097
0.115540 0.309723 0.325012
0.210175 0.374176 0.373322
0.315826 0.442169 0.426331
0.431213 0.513123 0.484558
0.554077 0.587158 0.550323
0.684021 0.668182 0.615570
0.805450 0.673950 0.605286
0.927887 0.677734 0.594971
0.023987 0.334229 0.285309
0.111755 0.398438 0.329895
0.215698 0.465302 0.378998
0.326782 0.535431 0.434082
0.443787 0.609222 0.495850
0.566132 0.688690 0.564240
0.695557 0.776703 0.633148
0.809418 0.763397 0.602966
0.929321 0.769623 0.591034
0.013672 0.423492 0.291290
0.110321 0.491028 0.336487
0.215759 0.562347 0.386780
0.332214 0.635681 0.444824
0.450775 0.714417 0.509094
0.576996 0.797302 0.579315
0.711975 0.882263 0.650970
0.819580 0.872650 0.616638
0.932007 0.856995 0.588470
0.000000 0.000397 0.523193
0.000000 0.002594 0.474426
0.000000 0.003998 0.428711
0.000000 0.004700 0.385956
0.076660 0.005585 0.345459
0.153503 0.007446 0.306152
0.222046 0.007721 0.270050
0.292633 0.000793 0.238220
0.386566 0.000000 0.231903
0.000000 0.024384 0.495575
0.000000 0.062195 0.552917
0.000000 0.064362 0.502716
0.013275 0.065491 0.455505
0.128113 0.065186 0.411621
0.210419 0.067169 0.368439
0.284607 0.067413 0.328949
0.359558 0.060669 0.294312
0.457672 0.042297 0.287140
0.000000 0.063538 0.468292
0.000000 0.106873 0.523743
0.000000 0.153717 0.582611
0.084351 0.154114 0.532867
0.190735 0.152252 0.486664
0.276886 0.154846 0.439026
0.355347 0.157776 0.394928
0.433105 0.157898 0.356415
0.533752 0.154785 0.348419
0.000000 0.106720 0.441437
0.000000 0.153534 0.494812
0.021729 0.206848 0.552612
0.151428 0.262268 0.618042
0.253357 0.261230 0.570404
0.344940 0.263855 0.518585
0.428833 0.268646 0.469025
0.509949 0.271973 0.425659
0.614166 0.273163 0.416748
0.000000 0.152344 0.415192
0.000183 0.204590 0.466675
0.101288 0.262543 0.523529
0.204926 0.322510 0.590210
0.316010 0.385315 0.659790
0.412354 0.387085 0.607635
0.504181 0.391998 0.552216
0.590179 0.396759 0.503510
0.700165 0.399139 0.493927
0.000000 0.201843 0.389618
0.051758 0.259125 0.439789
0.148834 0.320343 0.497009
0.250671 0.384888 0.560547
0.361237 0.452576 0.629822
0.481049 0.522034 0.703613
0.581940 0.525879 0.646149
0.675079 0.531647 0.591187
0.792572 0.534302 0.580933
0.019775 0.255371 0.366302
0.097534 0.315674 0.415436
0.189819 0.380157 0.471130
0.293457 0.448364 0.531982
0.405579 0.520081 0.598419
0.527039 0.595734 0.671356
0.660889 0.674164 0.750092
0.763947 0.680115 0.690460
0.886475 0.683472 0.678894
0.045135 0.310272 0.345581
0.127319 0.373596 0.394501
0.224701 0.440948 0.448608
0.331329 0.512024 0.507782
0.446808 0.587341 0.572266
0.572937 0.667236 0.642670
0.710968 0.750549 0.721008
0.848999 0.837311 0.801178
0.967407 0.842773 0.788757
0.024872 0.399780 0.350800
0.120850 0.466644 0.400391
0.225525 0.537292 0.455139
0.337372 0.612030 0.515503
0.456757 0.691437 0.582031
0.586639 0.774414 0.656006
0.726837 0.856964 0.738312
0.861267 0.941010 0.821564
0.968842 0.928131 0.786102
0.000000 0.000000 0.646606
0.000000 0.000000 0.590393
0.000000 0.001373 0.537598
0.000000 0.003113 0.488129
0.009155 0.003815 0.441803
0.124695 0.004730 0.397247
0.205322 0.005341 0.354980
0.278900 0.001831 0.316711
0.353729 0.000000 0.282867
0.000000 0.020050 0.614532
0.000000 0.057983 0.681152
0.000000 0.061646 0.623199
0.000000 0.063782 0.568573
0.058380 0.063599 0.517944
0.181610 0.064209 0.468842
0.267120 0.065582 0.422028
0.345123 0.062378 0.379944
0.423676 0.050079 0.342865
0.000000 0.061676 0.583618
0.000000 0.105865 0.647644
0.000000 0.153931 0.716034
0.000000 0.155762 0.656616
0.132172 0.153412 0.603394
0.245667 0.153961 0.550293
0.335632 0.156891 0.498596
0.417725 0.159027 0.451538
0.499084 0.157562 0.409821
0.000000 0.106720 0.553040
0.000000 0.154480 0.614746
0.000000 0.208649 0.681641
0.016968 0.267548 0.752380
0.195221 0.264771 0.698212
0.309052 0.264465 0.641693
0.405640 0.268188 0.584686
0.493103 0.272736 0.531769
0.578430 0.274994 0.485107
0.000000 0.153992 0.523285
0.000000 0.207184 0.582611
0.000000 0.266052 0.647278
0.133789 0.328644 0.719086
0.254395 0.389923 0.800232
0.370544 0.389221 0.743591
0.475708 0.391907 0.681641
0.571350 0.397339 0.621979
0.662476 0.401123 0.569550
0.000000 0.205200 0.493958
0.000000 0.263184 0.551636
0.084015 0.325562 0.614624
0.200378 0.389557 0.687805
0.313477 0.456482 0.767975
0.435883 0.525513 0.850189
0.546814 0.526855 0.790070
0.653473 0.531982 0.723938
0.752136 0.537079 0.664703
0.000000 0.260071 0.466125
0.036041 0.321289 0.522369
0.151154 0.386078 0.584839
0.253998 0.453583 0.656128
0.365814 0.524628 0.733429
0.487823 0.599365 0.816315
0.623596 0.677185 0.900330
0.738220 0.680695 0.836578
0.843414 0.687500 0.771484
0.011261 0.316864 0.440460
0.098419 0.380493 0.495819
0.196777 0.447876 0.557617
0.301666 0.519073 0.625610
0.415070 0.594604 0.699951
0.538727 0.674805 0.780457
0.675446 0.758972 0.864685
0.818756 0.842377 0.949799
0.924408 0.848053 0.884827
0.046936 0.375061 0.418091
0.134888 0.440948 0.472687
0.234863 0.511078 0.532928
0.342773 0.585724 0.598785
0.459595 0.665436 0.670807
0.587494 0.750153 0.749146
0.728241 0.836243 0.831848
0.868378 0.919342 0.915924
0.999878 1.000000 0.999847
