滤镜资源/Professional Luts Collection/Lutify.me Professional/Vintage Films/Triphylite.cube
# Created by: Lutify.me
# Copyright: (c) Copyright Lutify.me 2015
# Website: https://lutify.me
#LUT size
LUT_3D_SIZE 5
#LUT data points
0.000000 0.000000 0.000000
0.103210 0.002991 0.002319
0.254852 0.001068 0.010010
0.450836 0.000000 0.023956
0.675537 0.000000 0.043610
0.013275 0.084869 0.012604
0.106689 0.070496 0.009552
0.260468 0.074005 0.015900
0.456787 0.049774 0.028107
0.680298 0.000000 0.045380
0.019287 0.221161 0.041779
0.115662 0.197876 0.035034
0.270203 0.180725 0.031738
0.465881 0.184845 0.039215
0.690277 0.174500 0.048157
0.000000 0.393463 0.067291
0.119507 0.360840 0.068390
0.284119 0.343018 0.049194
0.477386 0.321075 0.051819
0.701630 0.327332 0.053680
0.000000 0.590271 0.077118
0.107849 0.551788 0.081696
0.297119 0.525848 0.068970
0.494659 0.505554 0.047089
0.717712 0.479919 0.052307
0.000000 0.000702 0.105560
0.054443 0.003235 0.050659
0.189575 0.006836 0.042847
0.367645 0.000000 0.043152
0.580261 0.000000 0.049744
0.010376 0.056519 0.073761
0.146576 0.144135 0.141449
0.309479 0.146576 0.132538
0.507050 0.140533 0.127045
0.733643 0.111206 0.122528
0.027344 0.178101 0.087708
0.160156 0.288910 0.158020
0.317749 0.270233 0.128601
0.516174 0.278198 0.119202
0.743530 0.277618 0.112610
0.005707 0.337128 0.109650
0.166718 0.466583 0.173737
0.332123 0.444794 0.137085
0.527771 0.420898 0.112946
0.757355 0.430267 0.101044
0.000000 0.525269 0.124268
0.148468 0.671051 0.187592
0.342346 0.640961 0.152100
0.545624 0.618774 0.101929
0.775604 0.591003 0.082062
0.000000 0.002228 0.242035
0.025665 0.003479 0.178772
0.137360 0.007141 0.121979
0.296173 0.001434 0.112976
0.494720 0.000000 0.109863
0.001099 0.060486 0.204376
0.116638 0.146759 0.284027
0.250397 0.151855 0.218231
0.433319 0.151642 0.207520
0.645996 0.135590 0.200256
0.030670 0.143005 0.169312
0.177155 0.250397 0.245789
0.386658 0.376251 0.335693
0.589539 0.383209 0.321259
0.822235 0.383728 0.309845
0.018524 0.293304 0.178833
0.192627 0.418427 0.259888
0.406403 0.557861 0.358459
0.599365 0.535980 0.315308
0.836060 0.545593 0.299316
0.003174 0.469116 0.197510
0.190186 0.612885 0.276917
0.417725 0.769440 0.381714
0.615845 0.747986 0.328156
0.849335 0.718140 0.289062
0.000000 0.002594 0.416077
0.000000 0.004486 0.334381
0.107544 0.006683 0.260712
0.235321 0.006836 0.196686
0.420319 0.000000 0.186646
0.000000 0.063354 0.368378
0.039398 0.152771 0.467041
0.219940 0.152161 0.384216
0.369476 0.156921 0.307068
0.568878 0.150452 0.293915
0.000397 0.149841 0.321594
0.140625 0.257965 0.418182
0.350708 0.382355 0.535706
0.520508 0.391602 0.442596
0.738831 0.395020 0.426971
0.041107 0.249634 0.281097
0.210175 0.374176 0.373322
0.431213 0.513123 0.484558
0.684021 0.668182 0.615570
0.927887 0.677734 0.594971
0.013672 0.423492 0.291290
0.215759 0.562347 0.386780
0.450775 0.714417 0.509094
0.711975 0.882263 0.650970
0.932007 0.856995 0.588470
0.000000 0.000000 0.646606
0.000000 0.001373 0.537598
0.009155 0.003815 0.441803
0.205322 0.005341 0.354980
0.353729 0.000000 0.282867
0.000000 0.061676 0.583618
0.000000 0.153931 0.716034
0.132172 0.153412 0.603394
0.335632 0.156891 0.498596
0.499084 0.157562 0.409821
0.000000 0.153992 0.523285
0.000000 0.266052 0.647278
0.254395 0.389923 0.800232
0.475708 0.391907 0.681641
0.662476 0.401123 0.569550
0.000000 0.260071 0.466125
0.151154 0.386078 0.584839
0.365814 0.524628 0.733429
0.623596 0.677185 0.900330
0.843414 0.687500 0.771484
0.046936 0.375061 0.418091
0.234863 0.511078 0.532928
0.459595 0.665436 0.670807
0.728241 0.836243 0.831848
0.999878 1.000000 0.999847
