滤镜资源/Professional Luts Collection/Lutify.me Professional/Vintage Films/Triphylite.cube
# Created by: Lutify.me
# Copyright: (c) Copyright Lutify.me 2015
# Website: https://lutify.me
#LUT size
LUT_3D_SIZE 33
#LUT data points
0.000000 0.000000 0.000000
0.007324 0.000000 0.000366
0.015198 0.000397 0.000031
0.025208 0.000763 0.000397
0.038727 0.000824 0.000763
0.054260 0.001495 0.000824
0.070526 0.001587 0.001434
0.086700 0.002258 0.001953
0.103210 0.002991 0.002319
0.119995 0.003204 0.003265
0.137360 0.003784 0.003632
0.155182 0.004211 0.004242
0.173523 0.004303 0.005341
0.192566 0.004120 0.006256
0.212433 0.003662 0.007355
0.233154 0.002655 0.008728
0.254852 0.001068 0.010010
0.277344 0.000061 0.011292
0.300507 0.000000 0.012909
0.324310 0.000000 0.014709
0.348663 0.000000 0.016327
0.373566 0.000000 0.017975
0.398926 0.000000 0.020020
0.424713 0.000000 0.021942
0.450836 0.000000 0.023956
0.477478 0.000000 0.026276
0.504517 0.000000 0.028564
0.531952 0.000000 0.030884
0.559753 0.000000 0.033234
0.587921 0.000000 0.035645
0.616638 0.000000 0.038422
0.645813 0.000000 0.041077
0.675537 0.000000 0.043610
0.001526 0.005402 0.001160
0.007324 0.005402 0.000397
0.015259 0.005768 0.000763
0.025177 0.005798 0.000793
0.039734 0.006165 0.001129
0.055206 0.006531 0.001526
0.070679 0.007294 0.001862
0.087097 0.007721 0.002350
0.103729 0.008118 0.002808
0.120636 0.008728 0.003418
0.138000 0.009277 0.004181
0.155823 0.009613 0.004944
0.174133 0.009827 0.005676
0.193146 0.009796 0.006714
0.212982 0.009277 0.007874
0.233704 0.008331 0.009033
0.255341 0.006683 0.010345
0.277863 0.004242 0.011749
0.301056 0.001678 0.013336
0.324829 0.000183 0.014954
0.349213 0.000000 0.016479
0.374084 0.000000 0.018372
0.399353 0.000000 0.020416
0.425140 0.000000 0.022308
0.451355 0.000000 0.024323
0.477936 0.000000 0.026642
0.504944 0.000000 0.028870
0.532379 0.000000 0.030975
0.560150 0.000000 0.033691
0.588348 0.000000 0.036346
0.617065 0.000000 0.038422
0.646210 0.000000 0.041107
0.675903 0.000000 0.043610
0.001953 0.011688 0.001556
0.007751 0.011688 0.001526
0.015961 0.010529 0.001495
0.026337 0.011292 0.001526
0.039825 0.012024 0.001526
0.055267 0.012207 0.001587
0.071350 0.012787 0.002014
0.087524 0.013306 0.002655
0.104187 0.013947 0.003357
0.120941 0.014465 0.003845
0.138275 0.015076 0.004578
0.156128 0.015350 0.005341
0.174591 0.015564 0.006256
0.193573 0.015411 0.007294
0.213379 0.015228 0.008331
0.234222 0.014252 0.009308
0.255951 0.012634 0.010620
0.278412 0.010437 0.012238
0.301575 0.007385 0.013702
0.325378 0.003540 0.015228
0.349670 0.000671 0.017059
0.374542 0.000000 0.018921
0.399872 0.000000 0.020782
0.425659 0.000000 0.022705
0.451843 0.000000 0.024719
0.478424 0.000000 0.027039
0.505371 0.000000 0.029327
0.532806 0.000000 0.031616
0.560608 0.000000 0.033997
0.588776 0.000000 0.036438
0.617432 0.000000 0.039154
0.646606 0.000000 0.041748
0.676270 0.000000 0.043976
0.003113 0.019440 0.002716
0.008881 0.019012 0.002716
0.016052 0.018280 0.002319
0.026367 0.017120 0.001923
0.040222 0.017517 0.002319
0.055634 0.018280 0.002594
0.071625 0.018951 0.003021
0.087860 0.019470 0.003418
0.104401 0.020111 0.003784
0.121368 0.020599 0.004578
0.138733 0.021057 0.005341
0.156586 0.021637 0.005798
0.175018 0.021820 0.006744
0.194061 0.022003 0.007751
0.213959 0.021576 0.008698
0.234772 0.020813 0.009827
0.256500 0.019287 0.011139
0.278961 0.017181 0.012543
0.302094 0.014313 0.014130
0.325928 0.010559 0.015778
0.350281 0.005859 0.017456
0.375092 0.001648 0.019196
0.400391 0.000000 0.020996
0.426147 0.000000 0.023102
0.452332 0.000000 0.025146
0.478912 0.000000 0.027344
0.505859 0.000000 0.029388
0.533264 0.000000 0.031738
0.561066 0.000000 0.034119
0.589264 0.000000 0.036804
0.617889 0.000000 0.039154
0.647064 0.000000 0.041504
0.676666 0.000000 0.044342
0.004272 0.029724 0.003845
0.010468 0.028229 0.003845
0.017151 0.027130 0.003510
0.026764 0.026337 0.003082
0.040588 0.025146 0.003052
0.055878 0.025543 0.003479
0.072083 0.026642 0.003510
0.088257 0.027100 0.003876
0.104919 0.027802 0.004547
0.121826 0.028595 0.005005
0.139191 0.029236 0.005737
0.157104 0.029633 0.006500
0.175507 0.029907 0.007385
0.194550 0.030121 0.008362
0.214600 0.029907 0.009277
0.235474 0.029114 0.010498
0.257141 0.027710 0.011902
0.279663 0.025482 0.013214
0.302856 0.022736 0.014679
0.326630 0.019196 0.016418
0.351013 0.014801 0.018127
0.375824 0.009491 0.019745
0.401062 0.004028 0.021362
0.426788 0.000366 0.023682
0.452942 0.000000 0.025757
0.479492 0.000000 0.027802
0.506439 0.000000 0.029968
0.533813 0.000000 0.032166
0.561554 0.000000 0.034790
0.589783 0.000000 0.037201
0.618378 0.000000 0.039551
0.647552 0.000000 0.042053
0.677155 0.000000 0.044037
0.006073 0.042572 0.005707
0.011719 0.040833 0.005402
0.018921 0.039032 0.005005
0.028534 0.037872 0.004608
0.040955 0.036438 0.004517
0.056213 0.034882 0.004272
0.072327 0.035797 0.004669
0.088531 0.036835 0.004913
0.105103 0.037476 0.005310
0.122253 0.038330 0.006104
0.139740 0.038849 0.006714
0.157562 0.039734 0.007294
0.176025 0.040100 0.008179
0.195190 0.040222 0.009155
0.215240 0.040131 0.010101
0.236237 0.039398 0.011322
0.257965 0.038177 0.012756
0.280487 0.036133 0.014008
0.303741 0.033386 0.015320
0.327515 0.029907 0.017059
0.351776 0.025604 0.018799
0.376587 0.020721 0.020386
0.401855 0.014801 0.022034
0.427582 0.007721 0.024048
0.453674 0.002289 0.026215
0.480225 0.000000 0.028168
0.507141 0.000000 0.030518
0.534546 0.000000 0.032745
0.562256 0.000000 0.034943
0.590424 0.000000 0.037598
0.619080 0.000000 0.039917
0.648224 0.000000 0.042236
0.677795 0.000000 0.044647
0.008667 0.056396 0.007324
0.014313 0.054047 0.007233
0.020630 0.052368 0.006897
0.030151 0.050781 0.006500
0.042480 0.049530 0.006073
0.057098 0.047913 0.006012
0.072784 0.046509 0.005676
0.089172 0.047241 0.006134
0.105621 0.048248 0.006439
0.122772 0.049133 0.006866
0.140106 0.049927 0.007629
0.158020 0.050598 0.008392
0.176575 0.051178 0.009125
0.195740 0.051300 0.010071
0.215881 0.051331 0.011078
0.236938 0.050842 0.012207
0.258820 0.049774 0.013519
0.281342 0.048126 0.014801
0.304626 0.045746 0.016113
0.328491 0.042786 0.017578
0.352753 0.038940 0.019287
0.377533 0.034119 0.021118
0.402802 0.028534 0.022919
0.428497 0.021881 0.024658
0.454590 0.014221 0.026733
0.481140 0.006592 0.028809
0.508026 0.000946 0.030914
0.535370 0.000000 0.033264
0.563049 0.000000 0.035522
0.591187 0.000000 0.037994
0.619812 0.000000 0.040314
0.648956 0.000000 0.042542
0.678558 0.000000 0.045013
0.011108 0.070374 0.009613
0.016418 0.068207 0.009552
0.022675 0.066132 0.009155
0.032043 0.064453 0.008484
0.044189 0.063110 0.007996
0.058563 0.061676 0.007660
0.073730 0.060028 0.007599
0.089661 0.058380 0.007385
0.106049 0.059357 0.007751
0.122986 0.060272 0.008057
0.140503 0.061005 0.008759
0.158569 0.061768 0.009460
0.177063 0.062378 0.010468
0.196381 0.062775 0.011200
0.216553 0.062775 0.012207
0.237671 0.062531 0.013367
0.259583 0.061829 0.014435
0.282257 0.060638 0.015778
0.305542 0.058685 0.017151
0.329468 0.056274 0.018585
0.353821 0.053253 0.020111
0.378632 0.049286 0.021790
0.403870 0.044403 0.023682
0.429535 0.038452 0.025604
0.455627 0.031250 0.027283
0.482147 0.023132 0.029388
0.508972 0.014160 0.031647
0.536285 0.006500 0.033966
0.564026 0.000824 0.036041
0.592133 0.000000 0.038391
0.620789 0.000000 0.040466
0.649811 0.000000 0.042847
0.679382 0.000000 0.045166
0.013275 0.084869 0.012604
0.018982 0.082336 0.012299
0.025696 0.080078 0.011627
0.034119 0.078400 0.011444
0.046234 0.077087 0.010559
0.060028 0.075562 0.009613
0.074707 0.074005 0.009613
0.090515 0.072205 0.009491
0.106689 0.070496 0.009552
0.123657 0.071564 0.009888
0.141113 0.072388 0.010223
0.159088 0.073212 0.011139
0.177704 0.074005 0.011719
0.197021 0.074310 0.012817
0.217285 0.074615 0.013763
0.238464 0.074432 0.014771
0.260468 0.074005 0.015900
0.283142 0.073120 0.016998
0.306458 0.071777 0.018402
0.330414 0.069855 0.019714
0.354858 0.067413 0.021118
0.379730 0.064209 0.022705
0.405029 0.060333 0.024292
0.430725 0.055603 0.026245
0.456787 0.049774 0.028107
0.483276 0.043030 0.030060
0.510101 0.034973 0.032196
0.537323 0.025787 0.034485
0.565033 0.016052 0.036682
0.593109 0.007629 0.038818
0.621765 0.001099 0.040955
0.650787 0.000000 0.043274
0.680298 0.000000 0.045380
0.015900 0.099854 0.015411
0.021362 0.097229 0.015106
0.028198 0.094666 0.014648
0.037415 0.092743 0.014282
0.048615 0.091248 0.013489
0.061798 0.089874 0.012207
0.076233 0.088196 0.011566
0.091644 0.086365 0.011658
0.107697 0.084686 0.011871
0.124359 0.083008 0.011932
0.141663 0.084015 0.012146
0.159821 0.084839 0.012726
0.178406 0.085541 0.013550
0.197784 0.086304 0.014404
0.218231 0.086578 0.015350
0.239380 0.086700 0.016296
0.261414 0.086334 0.017365
0.284119 0.085815 0.018463
0.307465 0.084839 0.019562
0.331390 0.083374 0.020996
0.355865 0.081451 0.022339
0.380768 0.078888 0.023865
0.406158 0.075806 0.025360
0.431946 0.072205 0.027008
0.458038 0.067780 0.028931
0.484467 0.062775 0.030792
0.511292 0.056641 0.032837
0.538513 0.049469 0.035095
0.566162 0.041016 0.037170
0.594269 0.031006 0.039276
0.622772 0.020050 0.041656
0.651855 0.010193 0.043640
0.681396 0.001892 0.045685
0.018250 0.115173 0.018463
0.024475 0.112366 0.018097
0.031036 0.109680 0.018005
0.040161 0.107635 0.017181
0.051056 0.105743 0.016571
0.063690 0.104279 0.015411
0.077789 0.102905 0.014374
0.093170 0.101196 0.013947
0.108887 0.099243 0.014130
0.125305 0.097473 0.014130
0.142609 0.095795 0.014099
0.160522 0.096680 0.014709
0.179230 0.097534 0.015198
0.198669 0.098206 0.016144
0.219147 0.098816 0.016998
0.240448 0.098999 0.017975
0.262390 0.099030 0.018951
0.285187 0.098602 0.020050
0.308563 0.097961 0.021179
0.332489 0.096893 0.022369
0.356934 0.095398 0.023834
0.381836 0.093506 0.025269
0.407196 0.091156 0.026794
0.432983 0.088470 0.028259
0.459198 0.085114 0.029907
0.485748 0.081238 0.031647
0.512604 0.076752 0.033569
0.539795 0.071533 0.035645
0.567444 0.065582 0.037628
0.595490 0.058136 0.039581
0.624023 0.049072 0.041870
0.653076 0.037811 0.043915
0.682556 0.025452 0.045898
0.020508 0.131012 0.021912
0.026917 0.128052 0.021545
0.033722 0.125244 0.021240
0.042847 0.122803 0.020599
0.053558 0.120880 0.019775
0.065796 0.119202 0.018616
0.079437 0.117798 0.017639
0.094299 0.116241 0.016754
0.110229 0.114380 0.016571
0.126465 0.112427 0.016693
0.143524 0.110596 0.016815
0.161407 0.108795 0.016724
0.180115 0.109619 0.017426
0.199677 0.110535 0.017944
0.220215 0.111145 0.018921
0.241577 0.111572 0.019714
0.263580 0.111725 0.020874
0.286316 0.111664 0.021881
0.309692 0.111237 0.023041
0.333618 0.110565 0.024231
0.358063 0.109528 0.025421
0.382965 0.108185 0.026825
0.408295 0.106506 0.028320
0.434052 0.104523 0.029755
0.460205 0.102081 0.031128
0.486816 0.099091 0.032715
0.513794 0.095673 0.034454
0.541077 0.091705 0.036285
0.568787 0.087219 0.038177
0.596802 0.081879 0.040100
0.625366 0.075531 0.041931
0.654388 0.067535 0.044006
0.683868 0.057831 0.046021
0.022797 0.147400 0.025665
0.028625 0.144379 0.025116
0.036316 0.141388 0.024719
0.045135 0.138702 0.024475
0.055969 0.136444 0.023499
0.068115 0.134705 0.022400
0.081207 0.133148 0.021240
0.095947 0.131653 0.020050
0.111542 0.129913 0.019287
0.127838 0.127899 0.019287
0.144806 0.125854 0.019592
0.162537 0.124023 0.019806
0.181152 0.122131 0.019623
0.200867 0.122986 0.020142
0.221344 0.123779 0.020996
0.242737 0.124359 0.021759
0.264832 0.124664 0.022644
0.287537 0.124878 0.023712
0.310883 0.124817 0.024780
0.334808 0.124451 0.025970
0.359192 0.123901 0.027252
0.384064 0.123016 0.028534
0.409424 0.121887 0.029968
0.435120 0.120453 0.031342
0.461273 0.118683 0.032654
0.487823 0.116486 0.034119
0.514832 0.113953 0.035645
0.542206 0.110901 0.037415
0.569977 0.107422 0.038940
0.598145 0.103210 0.040710
0.626740 0.098480 0.042297
0.655792 0.092773 0.043976
0.685272 0.085968 0.046082
0.023651 0.164734 0.029358
0.030029 0.161438 0.028870
0.037872 0.158203 0.028625
0.047150 0.155365 0.028259
0.058075 0.152802 0.027527
0.070038 0.150787 0.026398
0.083038 0.149139 0.025116
0.097290 0.147522 0.023834
0.112976 0.145874 0.022430
0.129272 0.144012 0.021973
0.146118 0.141907 0.022278
0.163849 0.139832 0.022552
0.182465 0.137817 0.022675
0.202026 0.135925 0.022614
0.222687 0.136658 0.023163
0.243988 0.137421 0.024078
0.266083 0.138092 0.024841
0.288849 0.138458 0.025818
0.312164 0.138702 0.026825
0.335999 0.138702 0.027893
0.360413 0.138458 0.028961
0.385254 0.138062 0.030212
0.410522 0.137360 0.031616
0.436279 0.136383 0.032928
0.462372 0.135223 0.034241
0.488892 0.133667 0.035797
0.515808 0.131805 0.037140
0.543213 0.129547 0.038635
0.570984 0.126984 0.040131
0.599304 0.123627 0.041565
0.627960 0.119843 0.043091
0.657196 0.115356 0.044464
0.686737 0.110077 0.046143
0.023499 0.182831 0.033295
0.030182 0.179352 0.032928
0.038361 0.176025 0.032623
0.048309 0.172882 0.032227
0.059448 0.170074 0.031799
0.071472 0.167694 0.030762
0.084534 0.165894 0.029144
0.098602 0.164185 0.027740
0.114014 0.162476 0.026245
0.130463 0.160706 0.025055
0.147522 0.158783 0.024872
0.165283 0.156525 0.025208
0.183899 0.154358 0.025482
0.203430 0.152252 0.025696
0.223969 0.150238 0.025665
0.245392 0.150970 0.026306
0.267426 0.151825 0.027100
0.290161 0.152527 0.027893
0.313446 0.152954 0.028900
0.337311 0.153290 0.029938
0.361633 0.153351 0.030945
0.386444 0.153320 0.032074
0.411713 0.152985 0.033386
0.437408 0.152527 0.034760
0.463501 0.151733 0.035889
0.489990 0.150726 0.037292
0.516876 0.149384 0.038757
0.544281 0.147766 0.039856
0.572083 0.145874 0.041351
0.600311 0.143311 0.042694
0.629028 0.140320 0.043945
0.658356 0.136841 0.045166
0.688019 0.132660 0.046631
0.021973 0.201660 0.037567
0.029083 0.198090 0.036957
0.037506 0.194611 0.036713
0.048126 0.191284 0.036194
0.059937 0.188141 0.036194
0.072327 0.185516 0.035339
0.085663 0.183411 0.033875
0.099701 0.181610 0.032104
0.114960 0.179871 0.030487
0.131348 0.178070 0.028900
0.148651 0.176239 0.027924
0.166748 0.174133 0.027740
0.185455 0.171722 0.028351
0.204987 0.169556 0.028503
0.225464 0.167328 0.028687
0.246765 0.165161 0.028625
0.268829 0.165985 0.029358
0.291504 0.166840 0.030182
0.314850 0.167572 0.030945
0.338593 0.168121 0.031952
0.362915 0.168549 0.032867
0.387726 0.168762 0.033997
0.412933 0.168823 0.035217
0.438599 0.168640 0.036438
0.464661 0.168274 0.037598
0.491119 0.167633 0.038849
0.518036 0.166779 0.040100
0.545410 0.165649 0.041351
0.573151 0.164185 0.042633
0.601379 0.162323 0.043945
0.630096 0.160095 0.045074
0.659393 0.157410 0.046234
0.689148 0.154114 0.047302
0.019287 0.221161 0.041779
0.026794 0.217438 0.040985
0.035522 0.213837 0.040802
0.046783 0.210358 0.040253
0.059418 0.206970 0.040192
0.072662 0.204010 0.039917
0.086121 0.201660 0.038788
0.100433 0.199707 0.036926
0.115662 0.197876 0.035034
0.132202 0.196106 0.032959
0.149597 0.194244 0.031586
0.167877 0.192261 0.030518
0.187012 0.189972 0.030762
0.206604 0.187592 0.031494
0.227051 0.185272 0.031647
0.248322 0.182983 0.031738
0.270203 0.180725 0.031738
0.292938 0.181580 0.032501
0.316162 0.182465 0.033295
0.339996 0.183258 0.034149
0.364227 0.183929 0.034973
0.388977 0.184387 0.035980
0.414215 0.184723 0.037170
0.439850 0.184875 0.038177
0.465881 0.184845 0.039215
0.492340 0.184570 0.040405
0.519196 0.184052 0.041504
0.546570 0.183380 0.042786
0.574280 0.182343 0.043915
0.602509 0.180939 0.045074
0.631226 0.179260 0.046143
0.660492 0.177094 0.047394
0.690277 0.174500 0.048157
0.015259 0.241211 0.045502
0.023224 0.237366 0.045044
0.032532 0.233643 0.044739
0.044464 0.230072 0.044250
0.057709 0.226532 0.044189
0.072205 0.223236 0.044189
0.086334 0.220520 0.043427
0.100861 0.218384 0.041779
0.116333 0.216492 0.039612
0.132965 0.214722 0.037445
0.150574 0.212860 0.035522
0.169006 0.210938 0.034149
0.188354 0.208771 0.033295
0.208282 0.206390 0.033813
0.228668 0.203979 0.034576
0.249878 0.201538 0.035004
0.271790 0.199158 0.034943
0.294312 0.196869 0.035004
0.317627 0.197754 0.035645
0.341339 0.198730 0.036469
0.365631 0.199585 0.037262
0.390320 0.200317 0.037933
0.415466 0.200806 0.039154
0.441132 0.201202 0.039978
0.467102 0.201447 0.041107
0.493561 0.201477 0.041931
0.520416 0.201324 0.042999
0.547729 0.200897 0.044159
0.575470 0.200348 0.045197
0.603699 0.199402 0.046082
0.632416 0.198029 0.047180
0.661652 0.196411 0.048157
0.691437 0.194366 0.049072
0.009918 0.261749 0.048920
0.018524 0.257782 0.048798
0.028442 0.253998 0.048431
0.040924 0.250275 0.048035
0.055359 0.246674 0.047974
0.070648 0.243195 0.048004
0.086029 0.240082 0.047760
0.101227 0.237671 0.046509
0.116913 0.235626 0.044373
0.133667 0.233826 0.042084
0.151459 0.232025 0.039856
0.170135 0.230133 0.038116
0.189697 0.228088 0.036621
0.209808 0.225769 0.036072
0.230469 0.223236 0.036957
0.251556 0.220795 0.037750
0.273376 0.218353 0.038116
0.295929 0.215851 0.037994
0.319000 0.213501 0.038055
0.342773 0.214417 0.038696
0.367004 0.215454 0.039520
0.391724 0.216339 0.040100
0.416840 0.217133 0.040802
0.442413 0.217743 0.041779
0.468445 0.218140 0.042633
0.494843 0.218445 0.043549
0.521698 0.218567 0.044403
0.548981 0.218445 0.045441
0.576691 0.218170 0.046417
0.604950 0.217590 0.047150
0.633636 0.216705 0.048248
0.662933 0.215485 0.048920
0.692657 0.213898 0.049896
0.004303 0.282745 0.052429
0.012878 0.278656 0.052216
0.023315 0.274780 0.051758
0.036285 0.270905 0.051544
0.052338 0.267212 0.051453
0.068665 0.263672 0.051483
0.085083 0.260345 0.051666
0.101379 0.257446 0.051147
0.117554 0.255310 0.049042
0.134369 0.253448 0.046783
0.152344 0.251617 0.044250
0.171173 0.249756 0.042023
0.190887 0.247742 0.040192
0.211304 0.245605 0.038849
0.232147 0.243164 0.038849
0.253418 0.240570 0.040070
0.275177 0.238098 0.040741
0.297546 0.235596 0.040924
0.320648 0.233002 0.040802
0.344208 0.230560 0.040955
0.368469 0.231567 0.041473
0.393127 0.232574 0.042206
0.418243 0.233490 0.042633
0.443848 0.234344 0.043427
0.469788 0.235016 0.044312
0.496185 0.235535 0.045044
0.523010 0.235870 0.045837
0.550293 0.236053 0.046692
0.578033 0.236023 0.047516
0.606262 0.235687 0.048401
0.634949 0.235199 0.049164
0.664246 0.234314 0.049835
0.693970 0.233185 0.050720
0.000336 0.304169 0.055817
0.006500 0.299927 0.055511
0.017456 0.296021 0.055084
0.031281 0.292053 0.054779
0.048523 0.288269 0.054749
0.066101 0.284607 0.054840
0.083832 0.281128 0.055145
0.101379 0.277832 0.055298
0.118286 0.275391 0.053711
0.135345 0.273468 0.051208
0.153412 0.271576 0.048615
0.172333 0.269714 0.046173
0.192078 0.267761 0.043884
0.212616 0.265656 0.042053
0.233765 0.263489 0.041229
0.255249 0.260895 0.041565
0.277069 0.258270 0.042786
0.299408 0.255707 0.043427
0.322357 0.253174 0.043579
0.345917 0.250488 0.043488
0.369934 0.248016 0.043549
0.394653 0.249084 0.044037
0.419708 0.250061 0.044678
0.445221 0.251068 0.045197
0.471222 0.252014 0.045959
0.497589 0.252655 0.046722
0.524384 0.253235 0.047272
0.551666 0.253601 0.048035
0.579407 0.253784 0.048615
0.607605 0.253754 0.049591
0.636322 0.253540 0.050079
0.665619 0.253052 0.050720
0.695404 0.252228 0.051544
0.000000 0.325958 0.058868
0.001678 0.321686 0.058655
0.011475 0.317627 0.058411
0.026062 0.313660 0.058136
0.044525 0.309784 0.058044
0.063477 0.306000 0.058075
0.082275 0.302338 0.058380
0.100952 0.298859 0.058868
0.118927 0.295929 0.058197
0.136383 0.293854 0.055847
0.154541 0.291962 0.052979
0.173584 0.290070 0.050323
0.193359 0.288177 0.047699
0.213959 0.286133 0.045532
0.235199 0.283997 0.043945
0.256958 0.281647 0.043365
0.278931 0.278961 0.044067
0.301300 0.276276 0.045288
0.324188 0.273682 0.045898
0.347656 0.271088 0.045990
0.371613 0.268372 0.045990
0.396210 0.265839 0.045837
0.421265 0.266937 0.046448
0.446777 0.267975 0.046997
0.472656 0.268982 0.047485
0.499023 0.269836 0.048218
0.525848 0.270660 0.048615
0.553131 0.271210 0.049255
0.580811 0.271576 0.049805
0.609009 0.271790 0.050415
0.637726 0.271820 0.050903
0.667053 0.271637 0.051514
0.696838 0.271027 0.052338
0.000000 0.348022 0.061890
0.000000 0.343903 0.061584
0.005310 0.339569 0.061249
0.020447 0.335632 0.061218
0.039856 0.331635 0.061310
0.060974 0.327667 0.061279
0.080902 0.323914 0.061523
0.100311 0.320374 0.062012
0.119354 0.317078 0.062073
0.137512 0.314636 0.060242
0.155731 0.312744 0.057495
0.174835 0.310852 0.054382
0.194733 0.308960 0.051575
0.215363 0.307007 0.048950
0.236664 0.304840 0.046906
0.258514 0.302582 0.045563
0.280762 0.300079 0.045227
0.303223 0.297333 0.046509
0.326111 0.294586 0.047729
0.349457 0.291992 0.048187
0.373413 0.289307 0.048187
0.397858 0.286621 0.048218
0.422852 0.283997 0.048065
0.448303 0.285095 0.048584
0.474243 0.286224 0.048889
0.500519 0.287262 0.049438
0.527313 0.288025 0.049805
0.554565 0.288818 0.050446
0.582306 0.289459 0.050842
0.610535 0.289856 0.051178
0.639252 0.290100 0.051788
0.668488 0.290009 0.052368
0.698303 0.289764 0.052887
0.000000 0.370575 0.064636
0.000000 0.366302 0.064301
0.000671 0.361969 0.064056
0.015015 0.357849 0.064056
0.035095 0.353821 0.064087
0.057892 0.349762 0.064178
0.079254 0.345917 0.064331
0.099609 0.342255 0.064911
0.119537 0.338776 0.065399
0.138550 0.335907 0.064331
0.157074 0.333862 0.061676
0.176147 0.331970 0.058533
0.196106 0.330078 0.055359
0.216797 0.328094 0.052643
0.238129 0.326050 0.050049
0.260071 0.323822 0.048126
0.282501 0.321411 0.047058
0.305206 0.318787 0.047089
0.328156 0.315979 0.048676
0.351501 0.313293 0.049805
0.375305 0.310577 0.050110
0.399658 0.307861 0.050110
0.424530 0.305145 0.050232
0.449890 0.302429 0.050049
0.475800 0.303497 0.050507
0.502106 0.304718 0.050568
0.528870 0.305725 0.050934
0.556122 0.306610 0.051270
0.583832 0.307434 0.051727
0.612091 0.308014 0.052368
0.640839 0.308380 0.052490
0.670074 0.308563 0.053040
0.699921 0.308502 0.053375
0.000000 0.393463 0.067291
0.000000 0.389008 0.066895
0.000061 0.384735 0.066772
0.009399 0.380463 0.066772
0.030273 0.376282 0.066620
0.054688 0.372253 0.066895
0.077332 0.368317 0.067139
0.098755 0.364532 0.067749
0.119507 0.360840 0.068390
0.139496 0.357574 0.068237
0.158478 0.355255 0.065796
0.177643 0.353363 0.062622
0.197632 0.351501 0.059418
0.218323 0.349518 0.056244
0.239685 0.347412 0.053436
0.261627 0.345306 0.050964
0.284119 0.343018 0.049194
0.307007 0.340515 0.048309
0.330170 0.337769 0.048889
0.353546 0.334961 0.050568
0.377319 0.332184 0.051544
0.401611 0.329407 0.051849
0.426361 0.326752 0.051910
0.451660 0.323883 0.052002
0.477386 0.321075 0.051819
0.503754 0.322266 0.051941
0.530457 0.323425 0.052185
0.557800 0.324524 0.052368
0.585510 0.325409 0.052551
0.613647 0.326141 0.053009
0.642487 0.326752 0.053314
0.671753 0.327087 0.053650
0.701630 0.327332 0.053680
0.000000 0.416687 0.069702
0.000000 0.412109 0.069458
0.000000 0.407654 0.069244
0.004395 0.403351 0.069244
0.025055 0.399048 0.069275
0.050964 0.395020 0.069366
0.075195 0.390991 0.069733
0.097656 0.387146 0.070221
0.119202 0.383331 0.070923
0.140259 0.379730 0.071564
0.159973 0.377106 0.069885
0.179260 0.375061 0.066589
0.199188 0.373169 0.063202
0.219849 0.371246 0.059845
0.241211 0.369171 0.056580
0.263245 0.367065 0.053680
0.285736 0.364899 0.051453
0.308685 0.362457 0.049835
0.332062 0.359863 0.049500
0.355652 0.357025 0.050568
0.379425 0.354126 0.052124
0.403595 0.351379 0.053101
0.428314 0.348602 0.053375
0.453552 0.345825 0.053223
0.479187 0.342926 0.053375
0.505432 0.340057 0.053101
0.532135 0.341248 0.053345
0.559448 0.342438 0.053406
0.587158 0.343536 0.053406
0.615387 0.344360 0.053680
0.644165 0.345184 0.053894
0.673492 0.345764 0.054291
0.703369 0.346100 0.053986
0.000000 0.440338 0.071747
0.000000 0.435516 0.071564
0.000000 0.431000 0.071564
0.000549 0.426697 0.071472
0.019806 0.422363 0.071533
0.046936 0.418213 0.071777
0.073059 0.414032 0.072052
0.096619 0.410065 0.072510
0.118866 0.406250 0.073242
0.140533 0.402466 0.074066
0.161102 0.399323 0.073547
0.180786 0.397095 0.070679
0.200806 0.395081 0.067078
0.221497 0.393188 0.063446
0.242859 0.391205 0.059937
0.264893 0.389099 0.056671
0.287415 0.386963 0.053833
0.310425 0.384674 0.051605
0.333893 0.382172 0.050140
0.357666 0.379486 0.050262
0.381561 0.376556 0.051727
0.405731 0.373596 0.053436
0.430389 0.370850 0.054321
0.455566 0.368042 0.054382
0.481171 0.365143 0.054443
