滤镜资源/Professional Luts Collection/Lutify.me Professional/Vintage Films/Tsavorite.cube
# Created by: Lutify.me
# Copyright: (c) Copyright Lutify.me 2015
# Website: https://lutify.me
#LUT size
LUT_3D_SIZE 33
#LUT data points
0.000000 0.000000 0.000000
0.003479 0.000000 0.000366
0.006989 0.000397 0.000793
0.012146 0.001129 0.001526
0.020355 0.001556 0.001923
0.029755 0.002319 0.003052
0.042358 0.003387 0.003876
0.055908 0.004272 0.005371
0.070496 0.005371 0.006897
0.085236 0.006836 0.009308
0.101410 0.008301 0.011658
0.118988 0.009460 0.014496
0.138458 0.010468 0.017700
0.160126 0.011139 0.021454
0.184143 0.011108 0.026123
0.210663 0.009949 0.031799
0.239624 0.007355 0.038300
0.270966 0.003448 0.045380
0.304718 0.000519 0.052979
0.340698 0.000000 0.060913
0.378906 0.000000 0.069275
0.419189 0.000000 0.077850
0.461426 0.000000 0.086578
0.505371 0.000000 0.095673
0.550751 0.000000 0.104980
0.597382 0.000000 0.114502
0.644836 0.000000 0.124146
0.691956 0.000000 0.133881
0.737305 0.000000 0.143188
0.780579 0.000000 0.152466
0.821503 0.000000 0.161377
0.859924 0.000000 0.169861
0.895599 0.000000 0.178070
0.000000 0.004242 0.001160
0.004272 0.004242 0.001526
0.008118 0.004639 0.001923
0.013672 0.005005 0.002686
0.021576 0.005768 0.003784
0.031982 0.006500 0.004608
0.043732 0.007629 0.005707
0.057373 0.008789 0.006958
0.071808 0.009979 0.008942
0.086792 0.011261 0.011078
0.102692 0.012787 0.013458
0.120361 0.014069 0.016327
0.139923 0.015137 0.019592
0.161652 0.015839 0.023376
0.185760 0.015808 0.028168
0.212250 0.014801 0.033875
0.241180 0.012634 0.040314
0.272522 0.008911 0.047302
0.306274 0.003632 0.054749
0.342285 0.000183 0.062622
0.380463 0.000000 0.070770
0.420715 0.000000 0.079132
0.462921 0.000000 0.087982
0.506866 0.000000 0.097015
0.552307 0.000000 0.106262
0.598877 0.000000 0.115692
0.646240 0.000000 0.125244
0.693268 0.000000 0.134979
0.738434 0.000000 0.144348
0.781616 0.000000 0.153381
0.822510 0.000000 0.162384
0.860779 0.000000 0.170898
0.896393 0.000000 0.179047
0.000000 0.009674 0.002319
0.004242 0.009674 0.002716
0.009308 0.009277 0.003479
0.015533 0.009674 0.004211
0.022827 0.010498 0.005341
0.032806 0.011292 0.006226
0.045929 0.012482 0.007355
0.059296 0.013611 0.008789
0.073212 0.014832 0.010712
0.088165 0.016296 0.012787
0.104126 0.017822 0.015320
0.121613 0.019379 0.018372
0.141357 0.020294 0.021545
0.163177 0.020966 0.025635
0.187347 0.021118 0.030304
0.213989 0.020447 0.035919
0.242950 0.018402 0.042603
0.274323 0.014618 0.049561
0.308105 0.008820 0.056793
0.344116 0.002686 0.064484
0.382294 0.000000 0.072510
0.422546 0.000000 0.080872
0.464691 0.000000 0.089600
0.508575 0.000000 0.098450
0.553955 0.000000 0.107758
0.600586 0.000000 0.117096
0.647827 0.000000 0.126648
0.694702 0.000000 0.136261
0.739838 0.000000 0.145599
0.782867 0.000000 0.154633
0.823608 0.000000 0.163452
0.861786 0.000000 0.171844
0.897217 0.000000 0.179932
0.000031 0.017120 0.003876
0.004944 0.017120 0.004242
0.010040 0.017090 0.005035
0.016388 0.017029 0.005768
0.025452 0.017487 0.006927
0.035522 0.017914 0.008453
0.047913 0.018982 0.009918
0.061096 0.020508 0.011230
0.075043 0.021942 0.013153
0.089844 0.023621 0.015411
0.106018 0.025085 0.017853
0.123535 0.026917 0.020782
0.143341 0.028076 0.024384
0.165375 0.028839 0.028534
0.189728 0.029083 0.033325
0.216431 0.028320 0.038971
0.245483 0.026550 0.045410
0.276855 0.023376 0.052246
0.310608 0.018127 0.059387
0.346649 0.010254 0.066986
0.384888 0.002869 0.074921
0.425110 0.000000 0.083160
0.467224 0.000000 0.091827
0.511078 0.000000 0.100677
0.556366 0.000000 0.109741
0.602875 0.000000 0.119080
0.650085 0.000000 0.128601
0.696808 0.000000 0.137970
0.741730 0.000000 0.147247
0.784576 0.000000 0.156189
0.825165 0.000000 0.164825
0.863190 0.000000 0.173370
0.898438 0.000000 0.181305
0.000000 0.027771 0.006439
0.005035 0.027374 0.006866
0.010132 0.027740 0.007263
0.017487 0.027405 0.008057
0.027252 0.027039 0.009216
0.037933 0.028107 0.010529
0.050903 0.028595 0.012421
0.063873 0.029999 0.014313
0.077667 0.031555 0.016296
0.092590 0.033447 0.018524
0.108704 0.035431 0.021210
0.126404 0.037018 0.024506
0.145966 0.038818 0.028015
0.168030 0.039856 0.032440
0.192627 0.040375 0.037598
0.219604 0.039948 0.043091
0.248779 0.038269 0.049255
0.280273 0.035309 0.055908
0.314056 0.030579 0.062927
0.350098 0.023529 0.070404
0.388275 0.013916 0.078186
0.428436 0.004608 0.086243
0.470551 0.000000 0.094666
0.514343 0.000000 0.103394
0.559540 0.000000 0.112396
0.605927 0.000000 0.121643
0.653015 0.000000 0.131042
0.699585 0.000000 0.140289
0.744202 0.000000 0.149445
0.786865 0.000000 0.158264
0.827209 0.000000 0.166840
0.865051 0.000000 0.175171
0.900085 0.000000 0.183075
0.000000 0.041504 0.009613
0.004272 0.041504 0.010010
0.009735 0.041504 0.010071
0.017853 0.041473 0.010834
0.028442 0.041138 0.012024
0.040558 0.041107 0.013580
0.053925 0.041870 0.015411
0.067352 0.042877 0.017670
0.081329 0.044342 0.019958
0.096130 0.045990 0.022339
0.112274 0.047791 0.025299
0.130066 0.049408 0.028656
0.149780 0.051025 0.032532
0.171783 0.052460 0.037292
0.196289 0.053436 0.042389
0.223328 0.053558 0.048035
0.252838 0.052490 0.053864
0.284454 0.050507 0.060211
0.318298 0.047119 0.067139
0.354370 0.041473 0.074341
0.392517 0.033325 0.081940
0.432678 0.022461 0.089935
0.474731 0.009888 0.098236
0.518433 0.001282 0.106842
0.563568 0.000000 0.115753
0.609863 0.000000 0.124786
0.656738 0.000000 0.134003
0.703003 0.000000 0.143219
0.747375 0.000000 0.152252
0.789764 0.000000 0.160919
0.829803 0.000000 0.169434
0.867340 0.000000 0.177490
0.902100 0.000000 0.185486
0.000000 0.057404 0.013184
0.003510 0.057709 0.013550
0.009247 0.057648 0.013885
0.017456 0.057434 0.014648
0.028809 0.057220 0.015808
0.042175 0.057098 0.017334
0.056335 0.057159 0.019196
0.070496 0.057739 0.021149
0.084869 0.058929 0.023773
0.100311 0.060181 0.026520
0.116669 0.061737 0.029724
0.134766 0.063293 0.033600
0.154694 0.065063 0.037903
0.176758 0.066742 0.042755
0.201202 0.067871 0.047943
0.227966 0.068695 0.053589
0.257416 0.068634 0.059479
0.289368 0.067474 0.065369
0.323425 0.065399 0.071991
0.359497 0.061981 0.079102
0.397614 0.056702 0.086426
0.437775 0.049164 0.094238
0.479797 0.038605 0.102478
0.523407 0.024567 0.110931
0.568451 0.011292 0.119598
0.614563 0.001648 0.128540
0.661255 0.000000 0.137726
0.707123 0.000000 0.146667
0.751160 0.000000 0.155457
0.793182 0.000000 0.164093
0.832855 0.000000 0.172363
0.870087 0.000000 0.180328
0.904541 0.000000 0.188080
0.000000 0.074310 0.017395
0.001923 0.074615 0.017731
0.007782 0.074646 0.018158
0.016388 0.074371 0.018860
0.027557 0.074707 0.019714
0.042511 0.074493 0.021240
0.057617 0.073914 0.023743
0.072662 0.074371 0.026001
0.088104 0.075226 0.028046
0.104462 0.076233 0.031036
0.121338 0.077515 0.034821
0.139771 0.079102 0.038635
0.160309 0.080536 0.043457
0.182678 0.082306 0.048340
0.207306 0.083771 0.053558
0.234100 0.085022 0.059174
0.263153 0.086121 0.065216
0.294739 0.086395 0.071411
0.329010 0.085480 0.077515
0.365387 0.083679 0.084229
0.403595 0.080933 0.091644
0.443726 0.076721 0.099304
0.485596 0.070862 0.107178
0.529114 0.062531 0.115448
0.574036 0.051544 0.124023
0.620026 0.038116 0.132874
0.666443 0.024963 0.141754
0.711914 0.012329 0.150604
0.755554 0.004395 0.159210
0.797180 0.003235 0.167664
0.836456 0.002960 0.175812
0.873230 0.003723 0.183624
0.907288 0.005768 0.191162
0.000000 0.092987 0.022217
0.000366 0.093201 0.022614
0.003967 0.093414 0.022675
0.012817 0.093353 0.023712
0.024994 0.093414 0.024261
0.040619 0.093597 0.025391
0.057220 0.093231 0.027679
0.074066 0.093140 0.030731
0.090515 0.093567 0.033661
0.107758 0.094574 0.036163
0.126038 0.095703 0.039764
0.145294 0.097076 0.044342
0.166382 0.098663 0.048737
0.189301 0.100403 0.053802
0.214325 0.102112 0.058960
0.241394 0.103760 0.064575
0.270569 0.105286 0.070557
0.301941 0.106598 0.076965
0.335541 0.107483 0.083649
0.371765 0.107391 0.090210
0.410156 0.106384 0.097198
0.450409 0.104492 0.104706
0.492249 0.101807 0.112549
0.535706 0.097870 0.120667
0.580475 0.092560 0.128998
0.626251 0.085602 0.137604
0.672363 0.077026 0.146301
0.717346 0.068298 0.154938
0.760498 0.062195 0.163452
0.801636 0.060608 0.171692
0.840485 0.061859 0.179657
0.876770 0.066467 0.187347
0.910370 0.074768 0.194702
0.000000 0.114014 0.027283
0.000000 0.114319 0.027374
0.000702 0.114624 0.027618
0.005493 0.114929 0.028168
0.018402 0.114899 0.028900
0.035034 0.115112 0.030334
0.053955 0.115265 0.031891
0.072723 0.115051 0.035004
0.091125 0.115143 0.038757
0.109924 0.115875 0.041962
0.129791 0.117065 0.044739
0.150482 0.118378 0.048798
0.172668 0.119843 0.053650
0.196381 0.121552 0.058716
0.221985 0.123474 0.064056
0.249542 0.125458 0.069672
0.279022 0.127441 0.075714
0.310608 0.129303 0.082123
0.344208 0.131012 0.088898
0.379852 0.132385 0.095947
0.417694 0.133301 0.103241
0.457672 0.133423 0.110718
0.499512 0.132874 0.118317
0.542938 0.131592 0.126251
0.587616 0.129578 0.134491
0.633179 0.126892 0.142883
0.678925 0.123840 0.151428
0.723419 0.121246 0.159821
0.766052 0.119904 0.167999
0.806580 0.120636 0.176086
0.844879 0.123962 0.183868
0.880646 0.130219 0.191345
0.913757 0.139954 0.198517
0.000000 0.138367 0.032288
0.000000 0.138672 0.032257
0.000000 0.139038 0.032684
0.000854 0.139465 0.032867
0.005981 0.139923 0.033325
0.022400 0.140289 0.034302
0.044708 0.140564 0.036285
0.067169 0.140808 0.038605
0.088898 0.140717 0.042175
0.110077 0.140991 0.046661
0.131775 0.141907 0.050354
0.154510 0.143341 0.053467
0.178253 0.144836 0.057648
0.203400 0.146454 0.062805
0.229889 0.148407 0.068268
0.258209 0.150513 0.074066
0.288239 0.152832 0.080139
0.320251 0.155090 0.086578
0.354156 0.157379 0.093353
0.389954 0.159485 0.100494
0.427612 0.161469 0.107971
0.467041 0.163269 0.115784
0.508270 0.164551 0.123779
0.551117 0.165466 0.132019
0.595428 0.165771 0.140259
0.640717 0.165649 0.148529
0.686035 0.165466 0.156799
0.729919 0.165955 0.164948
0.771973 0.167480 0.173004
0.811920 0.170502 0.180908
0.849579 0.175415 0.188446
0.884796 0.182373 0.195770
0.917358 0.191620 0.202789
0.000000 0.166443 0.036652
0.000000 0.166779 0.036774
0.000000 0.167145 0.037079
0.000000 0.167694 0.037201
0.000671 0.168304 0.037537
0.004303 0.169128 0.038239
0.024384 0.169830 0.039276
0.053680 0.170319 0.041412
0.080994 0.170532 0.044373
0.106659 0.170593 0.048798
0.131348 0.170929 0.053772
0.156281 0.171936 0.058228
0.182251 0.173737 0.061676
0.209229 0.175476 0.065979
0.237335 0.177368 0.071411
0.266693 0.179535 0.077332
0.297668 0.181854 0.083557
0.330322 0.184357 0.090088
0.364807 0.186951 0.096924
0.400970 0.189545 0.104095
0.438934 0.192108 0.111603
0.478516 0.194641 0.119476
0.519562 0.197052 0.127594
0.561890 0.199371 0.136169
0.605408 0.201538 0.144867
0.649719 0.203613 0.153717
0.693817 0.205780 0.162323
0.736847 0.208344 0.170410
0.778168 0.211639 0.178375
0.817505 0.216187 0.185944
0.854523 0.222076 0.193298
0.889099 0.229645 0.200409
0.921021 0.238983 0.207214
0.000000 0.198547 0.039886
0.000000 0.198914 0.040009
0.000000 0.199341 0.040070
0.000000 0.199921 0.040283
0.000000 0.200562 0.040710
0.000000 0.201447 0.041168
0.003845 0.202545 0.041656
0.024811 0.203735 0.042633
0.063568 0.204468 0.044861
0.096558 0.204620 0.049011
0.126862 0.204742 0.054504
0.155396 0.205139 0.060211
0.183655 0.206329 0.065460
0.212891 0.208374 0.069244
0.243164 0.210480 0.073578
0.274323 0.212616 0.079163
0.306641 0.214966 0.085571
0.340363 0.217468 0.092163
0.375610 0.220184 0.099213
0.412476 0.223053 0.106476
0.450867 0.225983 0.114075
0.490723 0.228973 0.122009
0.531891 0.231964 0.130402
0.574280 0.235046 0.138947
0.617554 0.238159 0.147827
0.661194 0.241455 0.156891
0.704193 0.245178 0.165833
0.745972 0.249359 0.174316
0.786072 0.254211 0.182526
0.824219 0.260071 0.190308
0.860229 0.266998 0.197723
0.893951 0.275116 0.204742
0.925201 0.284637 0.211365
0.000000 0.234650 0.040863
0.000000 0.235016 0.041046
0.000000 0.235443 0.041138
0.000000 0.236053 0.041473
0.000000 0.236786 0.041809
0.000000 0.237732 0.042145
0.000000 0.238922 0.042603
0.003571 0.240326 0.043152
0.026245 0.241791 0.044067
0.075684 0.242859 0.046539
0.115112 0.242859 0.052399
0.149841 0.242920 0.059113
0.182251 0.243530 0.065735
0.214020 0.244904 0.071655
0.246460 0.247192 0.075958
0.279938 0.249664 0.080261
0.314209 0.252045 0.085999
0.349487 0.254547 0.092743
0.385895 0.257263 0.099945
0.423584 0.260223 0.107635
0.462616 0.263336 0.115417
0.502930 0.266632 0.123596
0.544403 0.269989 0.132141
0.586945 0.273560 0.140808
0.630249 0.277252 0.149689
0.673706 0.281128 0.158722
0.716156 0.285492 0.167450
0.757111 0.290558 0.176056
0.796265 0.296295 0.184296
0.833466 0.302887 0.192139
0.868713 0.310364 0.199371
0.901855 0.318665 0.206055
0.932587 0.328156 0.212219
0.000000 0.274902 0.038940
0.000000 0.275238 0.038910
0.000000 0.275665 0.039215
0.000000 0.276306 0.039368
0.000000 0.277130 0.039734
0.000000 0.278137 0.039948
0.000000 0.279358 0.040344
0.000000 0.280792 0.040863
0.003632 0.282440 0.041443
0.030273 0.284210 0.042328
0.091156 0.285339 0.045532
0.136810 0.285095 0.053955
0.175873 0.285248 0.062012
0.212097 0.286041 0.069702
0.247406 0.287567 0.076569
0.282928 0.290009 0.081604
0.319550 0.292816 0.085907
0.356781 0.295502 0.091949
0.394867 0.298187 0.099121
0.433777 0.301147 0.107056
0.473755 0.304291 0.115326
0.514771 0.307678 0.123718
0.556732 0.311310 0.132477
0.599609 0.315063 0.141388
0.643005 0.319092 0.150360
0.686218 0.323425 0.159424
0.728149 0.328217 0.168060
0.768555 0.333710 0.176514
0.807098 0.339813 0.184601
0.843689 0.346649 0.192139
0.878448 0.354248 0.198853
0.911224 0.362579 0.204956
0.941528 0.371918 0.210510
0.000000 0.319092 0.032349
0.000000 0.319489 0.032501
0.000000 0.319946 0.032440
0.000000 0.320557 0.032684
0.000000 0.321381 0.032837
0.000000 0.322449 0.033234
0.000000 0.323700 0.033417
0.000000 0.325165 0.033875
0.000000 0.326874 0.034119
0.004303 0.328796 0.034698
0.038086 0.330750 0.035767
0.110077 0.331818 0.040497
0.161499 0.331360 0.052185
0.204895 0.331573 0.062592
0.244965 0.332397 0.071777
0.283600 0.334045 0.079926
0.322205 0.336609 0.085907
0.361816 0.339691 0.090393
0.401886 0.342621 0.096802
0.442535 0.345581 0.104553
0.483765 0.348724 0.113068
0.525787 0.352051 0.121887
0.568512 0.355682 0.130981
0.611908 0.359558 0.140198
0.655457 0.363739 0.149445
0.698364 0.368317 0.158508
0.739777 0.373413 0.167267
0.779602 0.379120 0.175629
0.817505 0.385468 0.183563
0.853424 0.392487 0.190979
0.887665 0.400146 0.197235
0.919952 0.408447 0.202698
0.949829 0.417633 0.207672
0.000000 0.366943 0.020050
0.000000 0.367340 0.020172
0.000000 0.367798 0.019989
0.000000 0.368408 0.020203
0.000000 0.369202 0.020264
0.000000 0.370300 0.020538
0.000000 0.371613 0.020691
0.000000 0.373047 0.020935
0.000000 0.374817 0.021332
0.000000 0.376709 0.021515
0.005798 0.378845 0.022034
0.050598 0.380981 0.023010
0.133301 0.381836 0.030304
0.189697 0.381256 0.046112
0.237213 0.381378 0.060120
0.280884 0.382233 0.071747
0.322662 0.383942 0.081360
0.364258 0.386566 0.088776
0.406555 0.389862 0.093597
0.449310 0.393066 0.100220
0.492249 0.396210 0.108582
0.535553 0.399536 0.117645
0.579254 0.403046 0.127167
0.623291 0.406860 0.136902
0.667084 0.411072 0.146515
0.709686 0.415710 0.155762
0.750671 0.420929 0.164612
0.789948 0.426727 0.173096
0.827240 0.433136 0.181000
0.862457 0.440216 0.188293
0.896118 0.447876 0.194214
0.927826 0.456116 0.199066
0.957153 0.465118 0.203461
0.000000 0.418060 0.006531
0.000000 0.418427 0.006409
0.000000 0.418915 0.006409
0.000000 0.419495 0.006500
0.000000 0.420319 0.006531
0.000000 0.421356 0.006561
0.000000 0.422668 0.006622
0.000000 0.424103 0.006683
0.000000 0.425842 0.006897
0.000000 0.427795 0.007050
0.000000 0.429901 0.007172
0.008362 0.432220 0.007324
0.073212 0.434448 0.008545
0.161377 0.434906 0.016205
0.221893 0.434143 0.035156
0.272980 0.434235 0.054016
0.319855 0.435089 0.069122
0.364624 0.436829 0.080811
0.408905 0.439423 0.089874
0.453674 0.442932 0.095367
0.498718 0.446350 0.102142
0.543671 0.449677 0.111053
0.588654 0.453125 0.120758
0.633484 0.456787 0.130951
0.677521 0.460907 0.141052
0.719910 0.465515 0.150696
0.760498 0.470642 0.159729
0.799255 0.476410 0.168427
0.835938 0.482758 0.176483
0.870514 0.489655 0.183807
0.903442 0.497223 0.189545
0.934570 0.505219 0.193909
0.963287 0.513885 0.197906
0.000000 0.471985 0.000000
0.000000 0.472382 0.000000
0.000000 0.472809 0.000000
0.000000 0.473419 0.000000
0.000000 0.474243 0.000000
0.000000 0.475250 0.000000
0.000000 0.476501 0.000000
0.000000 0.477936 0.000000
0.000000 0.479614 0.000000
0.000000 0.481537 0.000000
0.000000 0.483643 0.000000
0.000031 0.485931 0.000000
0.014679 0.488403 0.000000
0.108307 0.490601 0.000793
0.195007 0.490295 0.005432
0.258209 0.489441 0.020050
0.312286 0.489471 0.043457
0.361969 0.490356 0.063538
0.409424 0.492126 0.078247
0.456024 0.494690 0.088898
0.502838 0.498260 0.095581
0.549774 0.501862 0.102539
0.596283 0.505341 0.111938
0.641998 0.508911 0.122284
0.686310 0.512817 0.132782
0.728607 0.517212 0.142914
0.768951 0.522095 0.152466
0.807251 0.527527 0.161530
0.843353 0.533508 0.169830
0.877289 0.540039 0.177582
0.909485 0.547058 0.183441
0.940033 0.554565 0.187469
0.968140 0.562561 0.191223
0.000000 0.528168 0.000000
0.000000 0.528534 0.000000
0.000000 0.528931 0.000000
0.000000 0.529510 0.000000
0.000000 0.530304 0.000000
0.000000 0.531311 0.000000
0.000000 0.532501 0.000000
0.000000 0.533936 0.000000
0.000000 0.535553 0.000000
0.000000 0.537384 0.000000
0.000000 0.539429 0.000000
0.000031 0.541656 0.000000
0.000458 0.544067 0.000000
0.030701 0.546600 0.000000
0.150360 0.548462 0.000000
0.234253 0.547241 0.000977
0.298981 0.546326 0.007233
0.355347 0.546265 0.028473
0.407349 0.547058 0.055054
0.457001 0.548737 0.073822
0.505524 0.551239 0.086609
0.553955 0.554657 0.094635
0.602051 0.558289 0.101898
0.648773 0.561768 0.111755
0.693329 0.565369 0.122406
0.735718 0.569336 0.132996
0.775909 0.573700 0.143280
0.813873 0.578522 0.152954
0.849548 0.583801 0.161865
0.882904 0.589569 0.170105
0.914337 0.595795 0.176605
0.944214 0.602539 0.180573
0.971710 0.609711 0.184204
0.000000 0.585602 0.000000
0.000000 0.585938 0.000000
0.000000 0.586334 0.000000
0.000000 0.586914 0.000000
0.000000 0.587616 0.000000
0.000000 0.588531 0.000000
0.000000 0.589661 0.000000
0.000000 0.591003 0.000000
0.000000 0.592499 0.000000
0.000000 0.594208 0.000000
0.000000 0.596130 0.000000
0.000000 0.598236 0.000000
0.000031 0.600433 0.000000
0.004303 0.602814 0.000000
0.071838 0.605225 0.000000
0.198517 0.605896 0.000000
0.280212 0.603912 0.000031
0.345459 0.602814 0.001587
0.403137 0.602570 0.014648
0.456696 0.603119 0.046417
0.507935 0.604492 0.069733
0.557739 0.606689 0.084900
0.606628 0.609802 0.094116
0.654114 0.613220 0.101776
0.699066 0.616486 0.111908
0.741577 0.619904 0.122711
0.781647 0.623596 0.133575
0.819336 0.627686 0.143921
0.854584 0.632172 0.153564
0.887451 0.637115 0.162415
0.918121 0.642487 0.169708
0.947296 0.648438 0.173920
0.974182 0.654755 0.177612
0.000000 0.642365 0.000000
0.000000 0.642670 0.000000
0.000000 0.643036 0.000000
0.000000 0.643524 0.000000
0.000000 0.644165 0.000000
0.000000 0.644989 0.000000
0.000000 0.645996 0.000000
0.000000 0.647156 0.000000
0.000000 0.648468 0.000000
0.000000 0.649994 0.000000
0.000000 0.651642 0.000000
0.000000 0.653473 0.000000
0.000000 0.655426 0.000000
0.000031 0.657471 0.000000
0.029236 0.659637 0.000000
0.147858 0.661224 0.000000
0.257935 0.659790 0.000000
0.334778 0.657410 0.000000
0.398926 0.656067 0.000641
0.456818 0.655518 0.009369
0.510895 0.655792 0.044128
0.562347 0.656830 0.070038
0.611755 0.658752 0.086212
0.658997 0.661560 0.096008
0.704163 0.664673 0.103973
0.746674 0.667694 0.114105
0.786621 0.670807 0.125031
0.823975 0.674225 0.135803
0.858795 0.677979 0.146027
0.891083 0.682068 0.155548
0.921051 0.686584 0.163818
0.949554 0.691742 0.168335
0.975830 0.697174 0.172394
0.000000 0.696106 0.000000
0.000000 0.696350 0.000000
0.000000 0.696686 0.000000
0.000000 0.697113 0.000000
0.000000 0.697662 0.000000
0.000000 0.698364 0.000000
0.000000 0.699219 0.000000
0.000000 0.700195 0.000000
0.000000 0.701294 0.000000
0.000000 0.702576 0.000000
0.000000 0.703979 0.000000
0.000000 0.705475 0.000000
0.000000 0.707123 0.000000
0.000000 0.708832 0.000000
0.007355 0.710602 0.000000
0.108612 0.712311 0.000000
0.238159 0.711578 0.000000
0.326447 0.708527 0.000000
0.397003 0.706207 0.000000
0.458801 0.704681 0.000732
0.515411 0.703979 0.014862
0.568329 0.704041 0.051727
0.617889 0.704956 0.076447
0.664734 0.706726 0.091980
0.709320 0.709198 0.101501
0.751617 0.712006 0.109711
0.791260 0.714630 0.119659
0.828247 0.717468 0.130310
0.862579 0.720551 0.140869
0.894287 0.723907 0.150879
0.923523 0.727600 0.159943
0.951324 0.731903 0.164856
0.976990 0.736481 0.169464
0.000000 0.746002 0.000000
0.000000 0.746246 0.000000
0.000000 0.746490 0.000000
0.000000 0.746826 0.000000
0.000000 0.747284 0.000000
0.000000 0.747864 0.000000
0.000000 0.748566 0.000000
0.000000 0.749390 0.000000
0.000000 0.750275 0.000000
0.000000 0.751312 0.000000
0.000000 0.752441 0.000000
0.000000 0.753662 0.000000
0.000000 0.754944 0.000000
0.000000 0.756317 0.000000
0.000000 0.757690 0.000000
0.089081 0.759186 0.000000
0.227112 0.758636 0.000000
0.323883 0.755341 0.000000
0.399628 0.752167 0.000000
0.464447 0.749847 0.000000
0.522675 0.748322 0.005310
0.576111 0.747620 0.034302
0.625519 0.747711 0.067780
0.671814 0.748535 0.088745
0.715546 0.750122 0.102661
0.757050 0.752258 0.111603
0.796143 0.754639 0.119781
0.832581 0.756958 0.129456
0.866302 0.759399 0.139648
0.897400 0.762085 0.149567
0.925995 0.764984 0.159058
0.953033 0.768463 0.164764
0.978027 0.772217 0.169739
0.000000 0.791443 0.000000
0.000000 0.791656 0.000000
0.000000 0.791840 0.000000
0.000000 0.792114 0.000000
0.000000 0.792480 0.000000
0.000000 0.792908 0.000000
0.000000 0.793457 0.000000
0.000000 0.794098 0.000000
0.000000 0.794830 0.000000
0.000000 0.795624 0.000000
0.000000 0.796478 0.000000
0.000000 0.797394 0.000000
0.000000 0.798370 0.000000
0.000000 0.799377 0.000000
0.000122 0.800385 0.000000
0.093384 0.801453 0.000000
0.229767 0.800537 0.000000
0.330688 0.797119 0.000000
0.408905 0.793274 0.000000
0.474854 0.790375 0.000000
0.533386 0.788239 0.004791
0.586365 0.786896 0.027496
0.635162 0.786316 0.065063
0.680664 0.786407 0.089661
0.723450 0.787109 0.106506
0.763763 0.788452 0.118256
0.801819 0.790314 0.126129
0.837524 0.792206 0.134369
0.870453 0.794128 0.143646
0.900818 0.796173 0.153107
0.928741 0.798431 0.162354
0.954987 0.801147 0.168701
0.979309 0.804138 0.174072
0.000000 0.832062 0.000000
0.000000 0.832184 0.000000
0.000000 0.832336 0.000000
0.000000 0.832550 0.000000
0.000000 0.832794 0.000000
0.000000 0.833130 0.000000
0.000000 0.833527 0.000000
0.000000 0.833984 0.000000
0.000000 0.834503 0.000000
0.000000 0.835083 0.000000
0.000000 0.835724 0.000000
0.000000 0.836365 0.000000
0.000000 0.837006 0.000000
0.000031 0.837646 0.000000
0.009766 0.838287 0.000000
0.108398 0.838898 0.000000
0.251801 0.837311 0.000000
0.349121 0.833374 0.000000
0.425934 0.829193 0.000000
0.490845 0.825897 0.000000
0.547943 0.823364 0.010162
0.599701 0.821533 0.033386
0.647339 0.820374 0.072296
0.691711 0.819885 0.097473
0.733185 0.819977 0.115143
0.772186 0.820526 0.128326
0.808899 0.821655 0.137848
0.843475 0.823151 0.144958
0.875427 0.824646 0.152954
0.904938 0.826172 0.161652
0.932098 0.827820 0.170441
0.957520 0.829865 0.177063
0.981110 0.832184 0.182648
0.000000 0.867554 0.000000
0.000000 0.867615 0.000000
0.000000 0.867706 0.000000
0.000000 0.867859 0.000000
0.000000 0.868042 0.000000
0.000000 0.868256 0.000000
0.000000 0.868500 0.000000
0.000000 0.868805 0.000000
0.000000 0.869141 0.000000
0.000000 0.869507 0.000000
0.000000 0.869873 0.000000
0.000000 0.870239 0.000000
0.000000 0.870605 0.000000
0.000061 0.870972 0.000000
0.046234 0.871246 0.000000
0.151703 0.871124 0.000000
0.288452 0.868622 0.000000
0.378601 0.864014 0.000000
0.450562 0.859772 0.000000
0.512024 0.856323 0.004669
0.566650 0.853546 0.020538
0.616333 0.851440 0.055420
0.662292 0.849884 0.089722
0.705017 0.848907 0.112427
0.744965 0.848480 0.129181
