滤镜资源/Professional Luts Collection/Lutify.me Professional/Vintage Films/Tsavorite.cube
# Created by: Lutify.me
# Copyright: (c) Copyright Lutify.me 2015
# Website: https://lutify.me
#LUT size
LUT_3D_SIZE 5
#LUT data points
0.000000 0.000000 0.000000
0.070496 0.005371 0.006897
0.239624 0.007355 0.038300
0.550751 0.000000 0.104980
0.895599 0.000000 0.178070
0.000000 0.092987 0.022217
0.090515 0.093567 0.033661
0.270569 0.105286 0.070557
0.580475 0.092560 0.128998
0.910370 0.074768 0.194702
0.000000 0.366943 0.020050
0.000000 0.374817 0.021332
0.322662 0.383942 0.081360
0.667084 0.411072 0.146515
0.957153 0.465118 0.203461
0.000000 0.791443 0.000000
0.000000 0.794830 0.000000
0.229767 0.800537 0.000000
0.723450 0.787109 0.106506
0.979309 0.804138 0.174072
0.000000 0.993439 0.015839
0.201324 0.991974 0.035309
0.586151 0.969421 0.188782
0.840729 0.955017 0.267242
1.000000 0.954163 0.306519
0.000000 0.000000 0.201721
0.036957 0.000000 0.199707
0.284760 0.000000 0.181427
0.592102 0.000000 0.216522
0.926849 0.000000 0.273804
0.000000 0.095367 0.205261
0.029022 0.091064 0.207489
0.303955 0.102264 0.194794
0.619934 0.070435 0.232513
0.940308 0.055298 0.287018
0.000000 0.388733 0.198303
0.000000 0.394806 0.198181
0.334351 0.394135 0.225250
0.673767 0.421967 0.276245
0.957672 0.478699 0.321869
0.000000 0.796844 0.172119
0.000000 0.799896 0.175415
0.253113 0.804657 0.191559
0.732117 0.793152 0.281036
0.983093 0.810394 0.318634
0.000000 0.999268 0.268951
0.206482 0.998932 0.272491
0.591431 0.976685 0.329681
0.844574 0.960388 0.385132
1.000000 0.959137 0.416321
0.000000 0.000000 0.535095
0.000000 0.000000 0.546051
0.249756 0.000000 0.523834
0.682678 0.000000 0.494446
1.000000 0.000000 0.512573
0.000000 0.044250 0.570374
0.000000 0.032440 0.567444
0.290497 0.000336 0.527893
0.707428 0.000000 0.502899
1.000000 0.000000 0.521484
0.000000 0.400665 0.537659
0.000000 0.404968 0.535553
0.291626 0.407593 0.536774
0.714661 0.447906 0.524628
0.975342 0.512268 0.561981
0.000000 0.844940 0.509918
0.000000 0.845917 0.509521
0.158020 0.840179 0.512482
0.751007 0.812256 0.560822
0.984131 0.827728 0.593445
0.000000 1.000000 0.552612
0.001526 1.000000 0.553192
0.594177 0.996490 0.591888
0.850525 0.976929 0.625183
1.000000 0.973175 0.650024
0.000000 0.000000 0.894623
0.000000 0.000000 0.900146
0.000000 0.000000 0.907257
0.720581 0.000000 0.836945
1.000000 0.000000 0.829620
0.000000 0.000000 0.959381
0.000000 0.000000 0.955261
0.032501 0.000000 0.924988
0.746490 0.000000 0.837280
1.000000 0.000000 0.831421
0.000000 0.383606 0.906128
0.000000 0.385284 0.902191
0.096893 0.365906 0.909393
0.783661 0.406769 0.836243
1.000000 0.469604 0.826416
0.000000 0.856110 0.835876
0.000000 0.855438 0.834015
0.111908 0.850006 0.828125
0.763428 0.838470 0.819214
0.979309 0.854492 0.837463
0.000000 1.000000 0.822388
0.004059 1.000000 0.821777
0.574799 1.000000 0.823090
0.856354 0.996033 0.836792
1.000000 0.988220 0.855042
0.000000 0.000000 1.000000
0.000000 0.000000 1.000000
0.179779 0.000000 1.000000
0.804535 0.000000 1.000000
1.000000 0.000000 1.000000
0.000000 0.000000 1.000000
0.000000 0.000000 1.000000
0.293732 0.000000 1.000000
0.825500 0.000000 1.000000
1.000000 0.000000 1.000000
0.000000 0.387665 1.000000
0.000000 0.385071 1.000000
0.395111 0.365173 1.000000
0.849854 0.390808 1.000000
1.000000 0.460571 0.995850
0.000000 0.850464 1.000000
0.000000 0.848419 0.999969
0.378479 0.841614 0.999298
0.794403 0.823639 0.999969
1.000000 0.849609 0.975220
0.129181 1.000000 0.979248
0.353394 1.000000 0.978180
0.630096 1.000000 0.975311
0.864075 1.000000 0.971710
1.000000 0.998932 0.984650
