滤镜资源/Professional Luts Collection/Lutify.me Professional/Vintage Films/Tsavorite.cube
# Created by: Lutify.me
# Copyright: (c) Copyright Lutify.me 2015
# Website: https://lutify.me
#LUT size
LUT_3D_SIZE 9
#LUT data points
0.000000 0.000000 0.000000
0.020355 0.001556 0.001923
0.070496 0.005371 0.006897
0.138458 0.010468 0.017700
0.239624 0.007355 0.038300
0.378906 0.000000 0.069275
0.550751 0.000000 0.104980
0.737305 0.000000 0.143188
0.895599 0.000000 0.178070
0.000000 0.027771 0.006439
0.027252 0.027039 0.009216
0.077667 0.031555 0.016296
0.145966 0.038818 0.028015
0.248779 0.038269 0.049255
0.388275 0.013916 0.078186
0.559540 0.000000 0.112396
0.744202 0.000000 0.149445
0.900085 0.000000 0.183075
0.000000 0.092987 0.022217
0.024994 0.093414 0.024261
0.090515 0.093567 0.033661
0.166382 0.098663 0.048737
0.270569 0.105286 0.070557
0.410156 0.106384 0.097198
0.580475 0.092560 0.128998
0.760498 0.062195 0.163452
0.910370 0.074768 0.194702
0.000000 0.198547 0.039886
0.000000 0.200562 0.040710
0.063568 0.204468 0.044861
0.183655 0.206329 0.065460
0.306641 0.214966 0.085571
0.450867 0.225983 0.114075
0.617554 0.238159 0.147827
0.786072 0.254211 0.182526
0.925201 0.284637 0.211365
0.000000 0.366943 0.020050
0.000000 0.369202 0.020264
0.000000 0.374817 0.021332
0.133301 0.381836 0.030304
0.322662 0.383942 0.081360
0.492249 0.396210 0.108582
0.667084 0.411072 0.146515
0.827240 0.433136 0.181000
0.957153 0.465118 0.203461
0.000000 0.585602 0.000000
0.000000 0.587616 0.000000
0.000000 0.592499 0.000000
0.000031 0.600433 0.000000
0.280212 0.603912 0.000031
0.507935 0.604492 0.069733
0.699066 0.616486 0.111908
0.854584 0.632172 0.153564
0.974182 0.654755 0.177612
0.000000 0.791443 0.000000
0.000000 0.792480 0.000000
0.000000 0.794830 0.000000
0.000000 0.798370 0.000000
0.229767 0.800537 0.000000
0.533386 0.788239 0.004791
0.723450 0.787109 0.106506
0.870453 0.794128 0.143646
0.979309 0.804138 0.174072
0.000000 0.923706 0.000000
0.000000 0.923798 0.000000
0.000000 0.923889 0.000000
0.012115 0.923645 0.000000
0.390259 0.914978 0.000702
0.614258 0.900696 0.094757
0.773682 0.894073 0.169708
0.896759 0.893829 0.204010
0.990631 0.896698 0.227020
0.000000 0.993439 0.015839
0.000000 0.993042 0.021179
0.201324 0.991974 0.035309
0.419342 0.981873 0.121246
0.586151 0.969421 0.188782
0.724915 0.960266 0.234863
0.840729 0.955017 0.267242
0.935150 0.953308 0.289520
1.000000 0.954163 0.306519
0.000000 0.000000 0.084259
0.012054 0.000000 0.082245
0.085541 0.000122 0.071625
0.155609 0.004974 0.075134
0.255005 0.002655 0.090057
0.392151 0.000000 0.113586
0.561951 0.000000 0.143951
0.746063 0.000000 0.178284
0.902496 0.000000 0.210175
0.000000 0.028168 0.084045
0.008087 0.025818 0.084198
0.087341 0.029846 0.076508
0.159698 0.037933 0.081696
0.263733 0.034302 0.096375
0.401367 0.008362 0.119659
0.570587 0.000000 0.149628
0.752838 0.000000 0.183441
0.906799 0.000000 0.214630
0.000000 0.099792 0.086792
0.000702 0.099915 0.086761
0.089294 0.098419 0.088531
0.167206 0.104614 0.099274
0.275055 0.111267 0.114990
0.422363 0.105713 0.134216
0.591095 0.091003 0.163330
0.768585 0.062866 0.195770
0.916260 0.078125 0.225555
0.000000 0.207062 0.095123
0.000000 0.208740 0.095337
0.046783 0.210663 0.098297
0.186249 0.209930 0.113770
0.308624 0.218353 0.132355
0.452026 0.230957 0.157104
0.619476 0.243866 0.186310
0.789856 0.258759 0.216248
0.928528 0.289001 0.243011
0.000000 0.371613 0.093811
0.000000 0.373779 0.094299
0.000000 0.378906 0.095673
0.133759 0.384949 0.102753
0.326508 0.386688 0.134125
0.496124 0.398773 0.156433
0.670868 0.413971 0.187866
0.830444 0.436249 0.218140
0.959595 0.468292 0.239136
0.000000 0.587341 0.027710
0.000000 0.589325 0.028015
0.000000 0.594177 0.028503
0.000000 0.602020 0.029846
0.285004 0.605438 0.074951
0.511902 0.606537 0.140137
0.702332 0.618622 0.168762
0.856995 0.634430 0.201324
0.975922 0.657043 0.222076
0.000000 0.792786 0.000000
0.000000 0.793762 0.000000
0.000000 0.796051 0.000000
0.000000 0.799591 0.000000
0.238373 0.801544 0.000000
0.537140 0.789673 0.111053
0.726074 0.788849 0.172821
0.872223 0.795929 0.199585
0.980499 0.805939 0.223755
0.000000 0.924652 0.000092
0.000000 0.924713 0.000122
0.000000 0.924805 0.000183
0.014587 0.924530 0.001740
0.395355 0.915771 0.067261
0.617035 0.901917 0.172028
0.775635 0.895569 0.222595
0.898010 0.895294 0.250153
0.991425 0.898254 0.269897
0.000000 0.994202 0.142517
0.000000 0.993774 0.144531
0.209869 0.992706 0.149780
0.423370 0.982605 0.192780
0.588623 0.970459 0.240417
0.726654 0.961517 0.277679
0.841919 0.956390 0.305634
0.935822 0.954803 0.325409
1.000000 0.955597 0.340942
0.000000 0.000000 0.201721
0.000000 0.000000 0.208313
0.036957 0.000000 0.199707
0.164062 0.000000 0.182068
0.284760 0.000000 0.181427
0.424652 0.000000 0.193054
0.592102 0.000000 0.216522
0.772125 0.000000 0.246277
0.926849 0.000000 0.273804
0.000000 0.016510 0.209747
0.000000 0.014557 0.208435
0.036041 0.008392 0.204224
0.169647 0.015869 0.185516
0.292419 0.002197 0.185516
0.433197 0.000000 0.197693
0.600403 0.000000 0.221252
0.778717 0.000000 0.250671
0.931061 0.000000 0.277588
0.000000 0.095367 0.205261
0.000000 0.094971 0.204773
0.029022 0.091064 0.207489
0.182495 0.095245 0.193817
0.303955 0.102264 0.194794
0.452942 0.090698 0.208679
0.619934 0.070435 0.232513
0.793701 0.040924 0.261261
0.940308 0.055298 0.287018
0.000000 0.214966 0.203674
0.000000 0.216309 0.203430
0.000275 0.219055 0.202698
0.184082 0.219147 0.202179
0.313080 0.228210 0.216461
0.459412 0.242096 0.236023
0.631042 0.253387 0.259827
0.806763 0.262451 0.282867
0.947845 0.288788 0.304565
0.000000 0.388733 0.198303
0.000000 0.390503 0.198273
0.000000 0.394806 0.198181
0.108368 0.396790 0.202820
0.334351 0.394135 0.225250
0.503052 0.404755 0.248169
0.673767 0.421967 0.276245
0.830597 0.446014 0.302338
0.957672 0.478699 0.321869
0.000000 0.599854 0.185028
0.000000 0.601593 0.185364
0.000000 0.605804 0.186188
0.000000 0.612579 0.187805
0.289368 0.613281 0.207153
0.521088 0.612305 0.245728
0.709320 0.623718 0.269135
0.861176 0.639832 0.295074
0.978424 0.662689 0.312134
0.000000 0.796844 0.172119
0.000000 0.797760 0.173065
0.000000 0.799896 0.175415
0.000000 0.803131 0.179688
0.253113 0.804657 0.191559
0.545624 0.793579 0.246155
0.732117 0.793152 0.281036
0.876282 0.800293 0.300293
0.983093 0.810394 0.318634
0.000000 0.927307 0.200623
0.000000 0.927399 0.201874
0.000000 0.927399 0.205170
0.018341 0.927063 0.210907
0.405457 0.918488 0.240631
0.623260 0.905457 0.287506
0.779968 0.899323 0.320770
0.900726 0.899139 0.341522
0.992950 0.902100 0.357391
0.000000 0.999268 0.268951
0.000000 0.999176 0.269989
0.206482 0.998932 0.272491
0.424744 0.988861 0.297821
0.591431 0.976685 0.329681
0.730164 0.966492 0.360352
0.844574 0.960388 0.385132
0.937286 0.958344 0.402985
1.000000 0.959137 0.416321
0.000000 0.000000 0.352997
0.000000 0.000000 0.357941
0.000000 0.000000 0.366577
0.099854 0.000000 0.350922
0.291870 0.000000 0.325531
0.462921 0.000000 0.322876
0.638306 0.000000 0.331360
0.815674 0.000000 0.351807
0.969025 0.000000 0.373260
0.000000 0.001373 0.373962
0.000000 0.000519 0.372833
0.000000 0.000000 0.370453
0.112549 0.000000 0.352234
0.300507 0.000000 0.328156
0.471161 0.000000 0.326111
0.646057 0.000000 0.335083
0.821655 0.000000 0.355530
0.972900 0.000000 0.376526
0.000000 0.077454 0.370239
0.000000 0.076752 0.369476
0.000000 0.072571 0.367645
0.127197 0.052734 0.363342
0.320007 0.066589 0.334747
0.490082 0.025055 0.333588
0.664124 0.004303 0.343994
0.835236 0.000488 0.364502
0.981262 0.000916 0.384369
0.000000 0.211914 0.360413
0.000000 0.213013 0.359833
0.000000 0.214783 0.358307
0.121033 0.210999 0.363373
0.340576 0.218750 0.343384
0.498657 0.238342 0.344635
0.671387 0.248291 0.362030
0.845154 0.253204 0.381409
0.986298 0.275421 0.398651
0.000000 0.400879 0.350616
0.000000 0.402435 0.350220
0.000000 0.405975 0.349091
0.008209 0.410583 0.346954
0.338654 0.407227 0.349243
0.511871 0.416962 0.370056
0.681122 0.437286 0.392670
0.835358 0.462585 0.415131
0.957489 0.496307 0.434845
0.000000 0.623688 0.335358
0.000000 0.625122 0.335236
0.000000 0.628601 0.334900
0.000000 0.633881 0.334259
0.287567 0.625549 0.349854
0.534302 0.622742 0.375000
0.718994 0.632233 0.398712
0.864075 0.649261 0.422943
0.976685 0.672913 0.439301
0.000000 0.822052 0.329895
0.000000 0.822693 0.330231
0.000000 0.824127 0.330963
0.000000 0.826050 0.332275
0.226776 0.819336 0.346741
0.554230 0.805939 0.380157
0.741180 0.801086 0.412720
0.881226 0.807434 0.430756
0.984375 0.817383 0.447540
0.000000 0.949799 0.352020
0.000000 0.949615 0.352570
0.000000 0.949097 0.353912
0.003326 0.947693 0.356293
0.408295 0.928955 0.387665
0.628662 0.916931 0.414337
0.786224 0.907166 0.444977
0.904205 0.905670 0.464600
0.994263 0.908478 0.478027
0.000000 1.000000 0.397614
0.000000 1.000000 0.398193
0.107758 1.000000 0.399323
0.428314 0.996002 0.434448
0.592377 0.987549 0.449432
0.733917 0.975555 0.474396
0.847931 0.967346 0.497559
0.938782 0.964447 0.514221
1.000000 0.965240 0.525543
0.000000 0.000000 0.535095
0.000000 0.000000 0.538788
0.000000 0.000000 0.546051
0.000000 0.000000 0.553070
0.249756 0.000000 0.523834
0.475464 0.000000 0.498108
0.682678 0.000000 0.494446
0.866608 0.000000 0.499603
1.000000 0.000000 0.512573
0.000000 0.000000 0.572388
0.000000 0.000000 0.572113
0.000000 0.000000 0.570038
0.000031 0.000000 0.565338
0.263611 0.000000 0.523773
0.484772 0.000000 0.500397
0.690186 0.000000 0.496948
0.871887 0.000000 0.502472
1.000000 0.000000 0.515259
0.000000 0.044250 0.570374
0.000000 0.042053 0.569550
0.000000 0.032440 0.567444
0.000000 0.003265 0.565094
0.290497 0.000336 0.527893
0.505737 0.000000 0.505768
0.707428 0.000000 0.502899
0.883545 0.000000 0.509277
1.000000 0.000000 0.521484
0.000000 0.197418 0.558655
0.000000 0.198120 0.557800
0.000000 0.198639 0.555634
0.000061 0.192719 0.555084
0.311035 0.179260 0.543976
0.532440 0.201172 0.512848
0.723572 0.208557 0.510406
0.893372 0.217712 0.519958
1.000000 0.238129 0.531433
0.000000 0.400665 0.537659
0.000000 0.401978 0.537048
0.000000 0.404968 0.535553
0.000000 0.408539 0.532898
0.291626 0.407593 0.536774
0.546783 0.417969 0.516846
0.714661 0.447906 0.524628
0.860809 0.476379 0.543579
0.975342 0.512268 0.561981
0.000000 0.639130 0.521118
0.000000 0.640381 0.520691
0.000000 0.643188 0.519501
0.000000 0.647125 0.517395
0.219971 0.647583 0.514893
0.545746 0.638031 0.524689
0.728577 0.645111 0.547943
0.866455 0.664886 0.568085
0.973633 0.689484 0.583344
0.000000 0.844940 0.509918
0.000000 0.845276 0.509796
0.000000 0.845917 0.509521
0.000000 0.846344 0.509094
0.158020 0.840179 0.512482
0.560760 0.819183 0.536011
0.751007 0.812256 0.560822
0.885956 0.817596 0.578156
0.984131 0.827728 0.593445
0.000000 0.971466 0.522583
0.000000 0.971008 0.522736
0.000000 0.969696 0.523010
0.000000 0.966980 0.523438
0.394440 0.944366 0.543304
0.631897 0.929413 0.562469
0.792023 0.917877 0.585938
0.907074 0.914581 0.604492
0.994263 0.917206 0.615936
0.000000 1.000000 0.552612
0.000000 1.000000 0.552704
0.001526 1.000000 0.553192
0.406677 1.000000 0.574432
0.594177 0.996490 0.591888
0.735535 0.987152 0.605316
0.850525 0.976929 0.625183
0.939484 0.972565 0.640808
1.000000 0.973175 0.650024
0.000000 0.000000 0.730682
0.000000 0.000000 0.733398
0.000000 0.000000 0.738831
0.000000 0.000000 0.744873
0.040680 0.000000 0.747284
0.464050 0.000000 0.699738
0.703827 0.000000 0.681976
0.906006 0.000000 0.676971
1.000000 0.000000 0.680817
0.000000 0.000000 0.763062
0.000000 0.000000 0.764252
0.000000 0.000000 0.766541
0.000000 0.000000 0.768280
0.062134 0.000000 0.750214
0.475372 0.000000 0.699646
0.711945 0.000000 0.683411
0.910736 0.000000 0.678589
1.000000 0.000000 0.682495
0.000000 0.003082 0.783966
0.000000 0.001526 0.782990
0.000000 0.000000 0.780518
0.000000 0.000000 0.776184
0.140137 0.000000 0.746796
0.500183 0.000000 0.699615
0.730255 0.000000 0.686646
0.920868 0.000000 0.682281
1.000000 0.000000 0.686218
0.000000 0.173218 0.769623
0.000000 0.173248 0.768585
0.000000 0.171753 0.765930
0.000000 0.162964 0.761261
0.183929 0.120636 0.760223
0.531555 0.155609 0.706421
0.753326 0.141998 0.690369
0.930969 0.139191 0.686951
1.000000 0.166290 0.690887
0.000000 0.393829 0.740448
0.000000 0.394867 0.739532
0.000000 0.396973 0.737213
0.000000 0.398773 0.733185
0.192383 0.387909 0.743652
0.549347 0.389374 0.716705
0.765106 0.419556 0.690460
0.912781 0.459198 0.688751
1.000000 0.496979 0.696503
0.000000 0.640808 0.710052
0.000000 0.641876 0.709473
0.000000 0.644196 0.708008
0.000000 0.647278 0.705383
0.126099 0.649628 0.701721
0.528259 0.648956 0.698151
0.746796 0.660950 0.690216
0.875305 0.684845 0.704529
0.974243 0.710510 0.718445
0.000000 0.855865 0.691711
0.000000 0.855957 0.691315
0.000000 0.855865 0.690277
0.000000 0.855042 0.688477
0.100403 0.850952 0.685944
0.549225 0.837311 0.687408
0.760895 0.825592 0.701477
0.889923 0.829102 0.718384
0.981354 0.840271 0.731323
0.000000 0.982880 0.688904
0.000000 0.982239 0.688721
0.000000 0.980499 0.688263
0.000031 0.976624 0.687408
0.354126 0.961578 0.691162
0.632965 0.940735 0.703552
0.796753 0.929932 0.716766
0.910126 0.924042 0.733948
0.993225 0.926453 0.743622
0.000000 1.000000 0.701904
0.000000 1.000000 0.701813
0.000000 1.000000 0.701935
0.370087 1.000000 0.707947
0.584320 1.000000 0.717896
0.737335 0.996613 0.730042
0.852692 0.987488 0.742188
0.940430 0.981110 0.756714
1.000000 0.981293 0.764496
0.000000 0.000000 0.894623
0.000000 0.000000 0.896423
0.000000 0.000000 0.900146
0.000000 0.000000 0.904510
0.000000 0.000000 0.907257
0.448364 0.000000 0.874451
0.720581 0.000000 0.836945
0.928558 0.000000 0.830536
1.000000 0.000000 0.829620
0.000000 0.000000 0.920898
0.000000 0.000000 0.921814
0.000000 0.000000 0.923492
0.000000 0.000000 0.924988
0.000000 0.000000 0.924194
0.463470 0.000000 0.872498
0.728668 0.000000 0.837067
0.932983 0.000000 0.831085
1.000000 0.000000 0.830261
0.000000 0.000000 0.959381
0.000000 0.000000 0.958252
0.000000 0.000000 0.955261
0.000000 0.000000 0.950226
0.032501 0.000000 0.924988
0.495605 0.000000 0.868011
0.746490 0.000000 0.837280
0.942413 0.000000 0.832184
1.000000 0.000000 0.831421
0.000000 0.146210 0.941315
0.000000 0.144989 0.940125
0.000000 0.139740 0.937103
0.000000 0.121368 0.931824
0.075287 0.046814 0.930267
0.531311 0.072723 0.872528
0.769257 0.100311 0.837494
0.951996 0.081573 0.832672
1.000000 0.103180 0.831696
0.000000 0.383606 0.906128
0.000000 0.384247 0.905029
0.000000 0.385284 0.902191
0.000000 0.384979 0.897247
0.096893 0.365906 0.909393
0.548309 0.361603 0.882172
0.783661 0.406769 0.836243
0.946350 0.432343 0.827881
1.000000 0.469604 0.826416
0.000000 0.640717 0.863220
0.000000 0.641541 0.862427
0.000000 0.643188 0.860443
0.000000 0.645050 0.856934
0.096924 0.645142 0.855927
0.519592 0.636230 0.862244
0.775787 0.646759 0.832855
0.918915 0.677277 0.820618
1.000000 0.707520 0.823517
0.000000 0.856110 0.835876
0.000000 0.855988 0.835327
0.000000 0.855438 0.834015
0.000000 0.853729 0.831635
0.111908 0.850006 0.828125
0.538727 0.844543 0.823730
0.763428 0.838470 0.819214
0.894836 0.841583 0.828094
0.979309 0.854492 0.837463
0.000000 0.984497 0.822693
0.000000 0.983673 0.822327
0.000000 0.981506 0.821411
0.000000 0.976898 0.819885
0.349274 0.967346 0.817871
0.622742 0.954590 0.817505
0.803101 0.938782 0.824158
0.915985 0.932404 0.835754
0.993164 0.934601 0.844604
0.000000 1.000000 0.822388
0.000000 1.000000 0.822144
0.004059 1.000000 0.821777
0.369202 1.000000 0.821716
0.574799 1.000000 0.823090
0.736572 1.000000 0.828491
0.856354 0.996033 0.836792
0.943726 0.988739 0.847931
1.000000 0.988220 0.855042
0.000000 0.000000 0.999786
0.000000 0.000000 0.999878
0.000000 0.000000 1.000000
0.000000 0.000000 1.000000
0.000031 0.000000 1.000000
0.479065 0.000000 0.988617
0.754639 0.000000 0.946869
0.950806 0.000000 0.935577
1.000000 0.000000 0.934357
0.000000 0.000000 1.000000
0.000000 0.000000 1.000000
0.000000 0.000000 1.000000
0.000000 0.000000 1.000000
0.000000 0.000000 1.000000
0.495209 0.000000 0.985870
0.762299 0.000000 0.946106
0.954865 0.000000 0.935608
1.000000 0.000000 0.934357
0.000000 0.000000 1.000000
0.000000 0.000000 1.000000
0.000000 0.000000 1.000000
0.000000 0.000000 1.000000
0.049011 0.000000 1.000000
0.529724 0.000000 0.979309
0.778961 0.000000 0.944244
0.962524 0.000000 0.935455
1.000000 0.000000 0.933960
0.000000 0.117371 1.000000
0.000000 0.113312 1.000000
0.000000 0.098175 1.000000
0.000000 0.063416 1.000000
0.109711 0.005096 1.000000
0.567780 0.019379 0.979889
0.799591 0.066132 0.941742
0.969849 0.059998 0.933929
1.000000 0.088470 0.931915
0.000000 0.374634 1.000000
0.000000 0.374756 0.999969
0.000000 0.374329 0.999939
0.000000 0.371429 0.999664
0.139282 0.341522 1.000000
0.585663 0.345764 0.988098
0.811615 0.394562 0.940826
0.966827 0.422974 0.928436
1.000000 0.456329 0.925018
0.000000 0.639709 0.970215
0.000000 0.640228 0.969299
0.000000 0.641083 0.966980
0.000000 0.641571 0.962982
0.162354 0.636841 0.968231
0.551453 0.621246 0.976593
0.798035 0.635925 0.940826
0.944183 0.667267 0.918549
1.000000 0.694031 0.913910
0.000000 0.853516 0.934753
0.000000 0.853210 0.934174
0.000000 0.852173 0.932709
0.000000 0.849792 0.930145
0.241882 0.846008 0.927277
0.571167 0.840973 0.924652
0.770294 0.833771 0.925079
0.922546 0.840668 0.908844
0.999268 0.858734 0.908508
0.000000 0.980957 0.917419
0.000000 0.979889 0.916992
0.000000 0.977234 0.915924
0.022186 0.972443 0.914093
0.406647 0.965424 0.911469
0.636414 0.956940 0.908539
0.803711 0.947998 0.905914
0.926147 0.939056 0.909302
0.994904 0.942139 0.917389
0.000000 1.000000 0.910522
0.000000 1.000000 0.910156
0.189972 1.000000 0.909332
0.419250 1.000000 0.908112
0.591675 1.000000 0.906738
0.738708 1.000000 0.906067
0.861786 1.000000 0.908875
0.949890 0.995026 0.915588
1.000000 0.993774 0.922363
0.000000 0.000000 1.000000
0.000000 0.000000 1.000000
0.000000 0.000000 1.000000
0.000000 0.000000 1.000000
0.179779 0.000000 1.000000
0.560760 0.000000 1.000000
0.804535 0.000000 1.000000
0.978668 0.000000 1.000000
1.000000 0.000000 1.000000
0.000000 0.000000 1.000000
0.000000 0.000000 1.000000
0.000000 0.000000 1.000000
0.000000 0.000000 1.000000
0.227356 0.000000 1.000000
0.574890 0.000000 1.000000
0.811157 0.000000 1.000000
0.981659 0.000000 1.000000
1.000000 0.000000 1.000000
0.000000 0.000000 1.000000
0.000000 0.000000 1.000000
0.000000 0.000000 1.000000
0.000000 0.000000 1.000000
0.293732 0.000000 1.000000
0.604950 0.000000 1.000000
0.825500 0.000000 1.000000
0.987793 0.000000 1.000000
1.000000 0.000000 1.000000
0.000000 0.166870 1.000000
0.000000 0.163116 1.000000
0.000000 0.151794 1.000000
0.000000 0.121582 1.000000
0.360077 0.041534 1.000000
0.639160 0.007233 1.000000
0.842346 0.040192 1.000000
0.992584 0.059357 1.000000
1.000000 0.098114 1.000000
0.000000 0.387665 1.000000
0.000000 0.387146 1.000000
0.000000 0.385071 1.000000
0.000000 0.379211 1.000000
0.395111 0.365173 1.000000
0.653595 0.343048 1.000000
0.849854 0.390808 1.000000
0.986359 0.428070 0.998535
1.000000 0.460571 0.995850
0.000000 0.638306 1.000000
0.000000 0.638336 1.000000
0.000000 0.638214 1.000000
0.000000 0.636353 1.000000
0.350922 0.628967 1.000000
0.625488 0.618103 1.000000
0.831329 0.632874 1.000000
0.962646 0.669678 0.988770
1.000000 0.690338 0.985352
0.000000 0.850464 1.000000
0.000000 0.849945 1.000000
0.000000 0.848419 0.999969
0.000031 0.845673 0.999603
0.378479 0.841614 0.999298
0.616211 0.835052 0.999268
0.794403 0.823639 0.999969
0.939575 0.836487 0.981903
1.000000 0.849609 0.975220
0.000000 0.974579 0.987976
0.000000 0.973541 0.987549
0.000000 0.970886 0.986511
0.213257 0.966339 0.984833
0.494415 0.960114 0.982574
0.676666 0.952942 0.980042
0.819244 0.946167 0.977875
0.932648 0.938629 0.978546
1.000000 0.945557 0.971161
0.129181 1.000000 0.979248
0.221497 1.000000 0.978943
0.353394 1.000000 0.978180
0.493896 1.000000 0.976959
0.630096 1.000000 0.975311
0.754669 1.000000 0.973511
0.864075 1.000000 0.971710
0.955719 0.999878 0.971771
1.000000 0.998932 0.984650
