滤镜资源/Professional Luts Collection/Lutify.me Professional/Vintage Films/Tunellite.cube
# Created by: Lutify.me
# Copyright: (c) Copyright Lutify.me 2015
# Website: https://lutify.me
#LUT size
LUT_3D_SIZE 5
#LUT data points
0.000000 0.000000 0.000000
0.081665 0.010742 0.007141
0.270538 0.027618 0.039917
0.663605 0.000000 0.117065
1.000000 0.000000 0.187897
0.000000 0.130219 0.011688
0.092041 0.134033 0.021484
0.308563 0.150330 0.063477
0.698547 0.149323 0.139069
1.000000 0.221100 0.200195
0.000000 0.488434 0.000000
0.000000 0.499786 0.000000
0.333160 0.517609 0.000000
0.789856 0.549896 0.086700
1.000000 0.624573 0.126343
0.000000 0.916931 0.000000
0.000000 0.917847 0.000000
0.392914 0.908356 0.000000
0.851135 0.884583 0.019714
1.000000 0.893280 0.128662
0.490143 0.992249 0.215424
0.599365 0.982941 0.247559
0.800659 0.967560 0.301971
0.954163 0.960022 0.341064
1.000000 0.959106 0.375488
0.000000 0.000000 0.198608
0.079620 0.000000 0.184631
0.314087 0.003448 0.179626
0.701385 0.000000 0.231537
1.000000 0.000000 0.289703
0.000000 0.141357 0.190094
0.050476 0.144928 0.190399
0.327606 0.165039 0.198334
0.733490 0.148804 0.249664
1.000000 0.227051 0.303619
0.000000 0.503998 0.174347
0.000000 0.514191 0.174927
0.351929 0.528320 0.203461
0.802307 0.560028 0.269775
1.000000 0.635376 0.299866
0.000000 0.921478 0.131073
0.000000 0.922150 0.141479
0.418640 0.911774 0.202332
0.858032 0.891754 0.307251
1.000000 0.900818 0.345825
0.488647 1.000000 0.393463
0.601257 0.996246 0.410614
0.804565 0.976562 0.453369
0.953339 0.967163 0.486877
1.000000 0.966278 0.513489
0.000000 0.000000 0.638214
0.000000 0.000000 0.648682
0.271118 0.000000 0.610626
0.809845 0.000000 0.584442
1.000000 0.000000 0.609222
0.000000 0.109100 0.649811
0.000000 0.108307 0.647919
0.312988 0.069458 0.623932
0.836365 0.002533 0.597046
1.000000 0.088623 0.619843
0.000000 0.536438 0.626099
0.000000 0.544861 0.625000
0.294434 0.560242 0.621979
0.821014 0.601959 0.632111
1.000000 0.682129 0.668304
0.000000 0.969391 0.627594
0.000000 0.967316 0.628326
0.385193 0.947266 0.637421
0.864380 0.915283 0.681274
1.000000 0.922943 0.705719
0.449615 1.000000 0.719696
0.585022 1.000000 0.726379
0.799530 1.000000 0.742981
0.943878 0.985840 0.768158
1.000000 0.983948 0.782990
0.000000 0.000000 1.000000
0.000000 0.000000 1.000000
0.039185 0.000000 1.000000
0.864532 0.000000 0.934540
1.000000 0.000000 0.935760
0.000000 0.039429 1.000000
0.000000 0.017303 1.000000
0.139679 0.000000 0.999878
0.887817 0.000000 0.934784
1.000000 0.009308 0.935242
0.000000 0.541016 0.983795
0.000000 0.546326 0.979950
0.230225 0.543762 0.982880
0.893982 0.587646 0.928345
1.000000 0.671936 0.922607
0.000000 0.974457 0.922333
0.000000 0.970367 0.920990
0.427643 0.955627 0.916931
0.866852 0.937439 0.912567
0.994080 0.942383 0.922974
0.510925 1.000000 0.919403
0.612610 1.000000 0.918945
0.799774 1.000000 0.919128
0.939178 1.000000 0.925354
1.000000 0.995148 0.933899
0.000000 0.000000 1.000000
0.000000 0.000000 1.000000
0.507721 0.000000 1.000000
0.973358 0.000000 1.000000
1.000000 0.000000 1.000000
0.000000 0.069611 1.000000
0.000000 0.014587 1.000000
0.568024 0.000000 1.000000
0.983704 0.000000 1.000000
1.000000 0.114655 1.000000
0.000000 0.551941 1.000000
0.000000 0.551941 1.000000
0.604919 0.541718 1.000000
0.965057 0.607758 0.998688
1.000000 0.691223 0.993225
0.000000 0.963593 0.989258
0.148529 0.958923 0.987823
0.660339 0.946106 0.984314
0.905762 0.935516 0.982788
1.000000 0.947357 0.974426
0.686890 1.000000 0.973663
0.740387 1.000000 0.973145
0.852417 1.000000 0.971954
0.953217 1.000000 0.972046
1.000000 0.998932 0.984650
