滤镜资源/Professional Luts Collection/Lutify.me Professional/Vintage Films/Tunellite.cube
# Created by: Lutify.me
# Copyright: (c) Copyright Lutify.me 2015
# Website: https://lutify.me
#LUT size
LUT_3D_SIZE 33
#LUT data points
0.000000 0.000000 0.000000
0.003845 0.000397 0.000397
0.008484 0.001160 0.000397
0.015503 0.001953 0.001129
0.024719 0.003052 0.001892
0.036346 0.004578 0.003021
0.050385 0.006409 0.004211
0.065704 0.008362 0.005432
0.081665 0.010742 0.007141
0.098419 0.013519 0.009460
0.116516 0.016052 0.011963
0.136200 0.018829 0.014984
0.157654 0.021912 0.018188
0.181396 0.024658 0.022125
0.207916 0.026917 0.027222
0.237549 0.028015 0.033081
0.270538 0.027618 0.039917
0.307251 0.025238 0.047821
0.348145 0.019653 0.056213
0.393433 0.009705 0.065277
0.442719 0.001221 0.075012
0.495331 0.000000 0.085022
0.550354 0.000000 0.095551
0.606873 0.000000 0.106293
0.663605 0.000000 0.117065
0.719452 0.000000 0.127716
0.773254 0.000000 0.138275
0.823944 0.000000 0.148285
0.870361 0.000000 0.157745
0.911652 0.000000 0.166412
0.947205 0.000000 0.174316
0.977173 0.000000 0.181427
1.000000 0.000000 0.187897
0.000000 0.007324 0.000793
0.004608 0.007355 0.001190
0.009308 0.007690 0.001526
0.016663 0.008484 0.002655
0.026215 0.009308 0.003143
0.037964 0.011200 0.004517
0.052185 0.012878 0.005707
0.067139 0.015350 0.007172
0.083099 0.017761 0.008850
0.100128 0.020142 0.010742
0.118042 0.023285 0.013428
0.137421 0.026520 0.016449
0.158936 0.029633 0.019958
0.182831 0.032410 0.024048
0.209442 0.034790 0.029144
0.239075 0.036346 0.035126
0.272125 0.036346 0.041870
0.308990 0.034119 0.049500
0.350006 0.028809 0.057861
0.395355 0.019104 0.066956
0.444733 0.006927 0.076508
0.497375 0.000000 0.086487
0.552338 0.000000 0.096985
0.608765 0.000000 0.107635
0.665436 0.000000 0.118378
0.721100 0.000000 0.128937
0.774750 0.000000 0.139252
0.825256 0.000000 0.149323
0.871521 0.000000 0.158722
0.912628 0.000000 0.167236
0.947998 0.000000 0.175140
0.977753 0.000000 0.182190
1.000000 0.000000 0.188721
0.000000 0.015991 0.001526
0.003510 0.016022 0.001923
0.010040 0.016388 0.001984
0.017456 0.016785 0.003052
0.027405 0.017212 0.004272
0.040039 0.018982 0.005371
0.054047 0.020630 0.006866
0.069122 0.022888 0.008392
0.084839 0.025269 0.010132
0.101654 0.028198 0.012604
0.119598 0.031494 0.015076
0.139008 0.034851 0.018158
0.160492 0.038269 0.021851
0.184387 0.041473 0.025940
0.211090 0.044037 0.030823
0.240906 0.045532 0.037048
0.274109 0.045929 0.044037
0.311066 0.044250 0.051514
0.352173 0.039276 0.059723
0.397583 0.030182 0.068665
0.446991 0.015533 0.078125
0.499664 0.002502 0.088043
0.554626 0.000000 0.098419
0.610870 0.000000 0.109070
0.667450 0.000000 0.119720
0.722992 0.000000 0.130249
0.776489 0.000000 0.140503
0.826813 0.000000 0.150391
0.872833 0.000000 0.159729
0.913727 0.000000 0.168304
0.948883 0.000000 0.176086
0.978485 0.000000 0.183044
1.000000 0.000000 0.189423
0.000000 0.027924 0.002747
0.001984 0.028625 0.002716
0.008514 0.028656 0.003113
0.017487 0.029022 0.004181
0.028473 0.029480 0.005341
0.041870 0.030518 0.006531
0.056030 0.032135 0.008301
0.071350 0.034393 0.009674
0.087158 0.037140 0.011993
0.104004 0.039856 0.014557
0.122070 0.042999 0.017090
0.141510 0.046631 0.019958
0.163055 0.049683 0.023865
0.186890 0.052704 0.028381
0.213623 0.055359 0.033783
0.243500 0.057312 0.039917
0.276733 0.057953 0.046814
0.313843 0.056854 0.054382
0.355164 0.053192 0.062408
0.400696 0.045868 0.071136
0.450165 0.033081 0.080566
0.502869 0.014618 0.090363
0.557739 0.001465 0.100586
0.613953 0.000000 0.111053
0.670319 0.000000 0.121490
0.725677 0.000000 0.132019
0.778839 0.000000 0.142242
0.828918 0.000000 0.151947
0.874634 0.000000 0.161194
0.915222 0.000000 0.169678
0.950104 0.000000 0.177246
0.979401 0.000000 0.184235
1.000000 0.000000 0.190430
0.000000 0.045135 0.004181
0.000183 0.045532 0.004547
0.006195 0.045868 0.004608
0.015228 0.046539 0.005035
0.027466 0.046539 0.006531
0.042206 0.046906 0.008270
0.058350 0.048187 0.009613
0.073639 0.050079 0.011566
0.089813 0.052032 0.013824
0.106964 0.054596 0.016266
0.125122 0.057312 0.019196
0.144897 0.060303 0.022583
0.166504 0.063385 0.026489
0.190521 0.066193 0.031464
0.217285 0.068756 0.036987
0.247101 0.070923 0.043365
0.280334 0.072205 0.050232
0.317566 0.072052 0.057709
0.359131 0.069702 0.065735
0.404877 0.064423 0.074249
0.454407 0.055145 0.083557
0.507080 0.039520 0.093323
0.561890 0.017883 0.103363
0.617950 0.002106 0.113647
0.674072 0.000000 0.123932
0.729156 0.000000 0.134399
0.782043 0.000000 0.144379
0.831757 0.000000 0.154022
0.877045 0.000000 0.163055
0.917236 0.000000 0.171478
0.951721 0.000000 0.178925
0.980621 0.000000 0.185791
1.000000 0.000000 0.191803
0.000000 0.064148 0.005768
0.000000 0.064453 0.006165
0.002441 0.065002 0.006470
0.012115 0.065491 0.006836
0.024506 0.066010 0.007599
0.041473 0.065857 0.009613
0.058319 0.066376 0.011597
0.075714 0.067657 0.013153
0.092560 0.069336 0.015472
0.110107 0.071320 0.018127
0.128784 0.073608 0.021149
0.148926 0.076202 0.024963
0.170898 0.078949 0.029327
0.195160 0.081665 0.034363
0.222198 0.084290 0.040253
0.252136 0.086487 0.046692
0.285339 0.088196 0.053925
0.322449 0.088928 0.061615
0.364075 0.087860 0.069733
0.410065 0.084503 0.078156
0.459717 0.078461 0.087189
0.512360 0.068359 0.096771
0.567108 0.052704 0.106628
0.622986 0.030640 0.116821
0.678802 0.010590 0.127106
0.733551 0.000763 0.137299
0.785980 0.000000 0.147095
0.835236 0.000000 0.156464
0.880005 0.000000 0.165436
0.919708 0.000000 0.173615
0.953674 0.000244 0.181030
0.982117 0.004639 0.187653
1.000000 0.044006 0.193695
0.000000 0.084595 0.007629
0.000000 0.085022 0.007996
0.000305 0.085266 0.008392
0.006378 0.085907 0.008850
0.020203 0.086578 0.009277
0.037720 0.086609 0.010773
0.057434 0.086578 0.013214
0.075623 0.087250 0.015533
0.094116 0.088654 0.017670
0.112762 0.090332 0.020294
0.132263 0.092224 0.023651
0.153198 0.094391 0.027466
0.175751 0.096863 0.032043
0.200623 0.099335 0.037445
0.228058 0.101807 0.043610
0.258453 0.104187 0.050110
0.292023 0.106201 0.057343
0.329163 0.107697 0.065277
0.370483 0.108032 0.073792
0.416351 0.106445 0.082520
0.466156 0.102783 0.091431
0.518799 0.096619 0.100830
0.573425 0.087555 0.110596
0.629028 0.075012 0.120605
0.684540 0.058685 0.130646
0.738831 0.042267 0.140594
0.790741 0.027710 0.150269
0.839355 0.017487 0.159546
0.883575 0.016052 0.168152
0.922607 0.026306 0.176147
0.955933 0.049133 0.183380
0.983795 0.076599 0.189819
1.000000 0.112091 0.195618
0.000000 0.106323 0.009918
0.000000 0.106812 0.010101
0.000000 0.107025 0.010376
0.000763 0.107697 0.010773
0.012390 0.108398 0.011200
0.030731 0.109070 0.012085
0.053314 0.108978 0.014252
0.074097 0.108978 0.017090
0.093811 0.109802 0.020172
0.113953 0.111450 0.022675
0.135193 0.113220 0.025635
0.157166 0.115112 0.029541
0.180817 0.117188 0.034637
0.206451 0.119568 0.040375
0.234650 0.122040 0.046570
0.265625 0.124451 0.053345
0.299805 0.126678 0.060608
0.337494 0.128540 0.068756
0.378967 0.129822 0.077484
0.424316 0.130188 0.086792
0.473724 0.128906 0.096100
0.526276 0.125793 0.105469
0.580688 0.120911 0.114990
0.636017 0.114441 0.124817
0.691101 0.106689 0.134644
0.744873 0.098328 0.144348
0.796204 0.090607 0.153809
0.844116 0.086426 0.162872
0.887573 0.088593 0.171295
0.925842 0.099274 0.179016
0.958496 0.118591 0.185974
0.985657 0.142914 0.192230
1.000000 0.169617 0.197815
0.000000 0.130219 0.011688
0.000000 0.130676 0.012299
0.000000 0.130981 0.012146
0.000000 0.131592 0.012482
0.001831 0.132385 0.012848
0.019440 0.133331 0.013550
0.044373 0.133850 0.015076
0.069183 0.133911 0.017792
0.092041 0.134033 0.021484
0.113770 0.134949 0.025208
0.136230 0.136749 0.028198
0.160248 0.138763 0.031738
0.185486 0.140839 0.036591
0.212402 0.143036 0.042389
0.241638 0.145386 0.048859
0.273560 0.147949 0.055786
0.308563 0.150330 0.063477
0.346954 0.152588 0.071594
0.389038 0.154602 0.080444
0.434662 0.156097 0.089996
0.483368 0.156891 0.100067
0.535095 0.156555 0.110138
0.588989 0.154968 0.119812
0.643982 0.152252 0.129395
0.698547 0.149323 0.139069
0.751678 0.146729 0.148499
0.802307 0.145508 0.157715
0.849396 0.147156 0.166473
0.891998 0.152802 0.174622
0.929321 0.163483 0.182129
0.961212 0.178925 0.188843
0.987640 0.198547 0.194794
1.000000 0.221100 0.200195
0.000000 0.157013 0.013153
0.000000 0.157501 0.013397
0.000000 0.157898 0.013214
0.000000 0.158508 0.013580
0.000061 0.159332 0.014008
0.002777 0.160370 0.014435
0.027008 0.161499 0.015015
0.057648 0.162079 0.017151
0.085480 0.162140 0.020996
0.111115 0.162567 0.025604
0.135773 0.163788 0.030182
0.161346 0.165771 0.034149
0.188690 0.168121 0.037903
0.217590 0.170380 0.043457
0.248352 0.172821 0.049988
0.281677 0.175385 0.057373
0.317780 0.178101 0.065155
0.357269 0.180725 0.073639
0.400177 0.183228 0.082611
0.446411 0.185547 0.092285
0.495422 0.187500 0.102509
0.546539 0.189148 0.113220
0.599213 0.190399 0.123810
0.652924 0.191040 0.134003
0.706696 0.191376 0.143646
0.759064 0.192352 0.152832
0.808868 0.194611 0.161835
0.855072 0.199188 0.170288
0.896698 0.206818 0.178131
0.933014 0.218048 0.185364
0.963867 0.232788 0.191772
0.989502 0.250702 0.197510
1.000000 0.271088 0.202637
0.000000 0.187683 0.012543
0.000000 0.188171 0.012787
0.000000 0.188690 0.012939
0.000000 0.189362 0.013031
0.000000 0.190216 0.013489
0.000061 0.191345 0.013702
0.003387 0.192780 0.013977
0.031189 0.194366 0.014496
0.069885 0.195007 0.017242
0.101959 0.195312 0.022522
0.131683 0.195923 0.028229
0.160156 0.197357 0.034088
0.189728 0.199524 0.039307
0.221008 0.202332 0.043518
0.254120 0.204956 0.049377
0.289276 0.207642 0.056824
0.327087 0.210510 0.065094
0.367950 0.213470 0.074005
0.412048 0.216431 0.083466
0.459106 0.219299 0.093384
0.508575 0.222137 0.103699
0.559906 0.224915 0.114410
0.612274 0.227692 0.125275
0.664825 0.230804 0.136169
0.717041 0.234009 0.146576
0.767731 0.237946 0.156464
0.816101 0.243042 0.165588
0.861115 0.249725 0.173950
0.901520 0.258759 0.181641
0.936737 0.270569 0.188477
0.966705 0.284943 0.194427
0.991699 0.301666 0.199554
1.000000 0.320038 0.203613
0.000000 0.223328 0.009064
0.000000 0.223816 0.009247
0.000000 0.224335 0.009735
0.000000 0.225128 0.009460
0.000000 0.226105 0.009827
0.000000 0.227325 0.009918
0.000000 0.228882 0.010254
0.003601 0.230621 0.010376
0.031281 0.232635 0.010651
0.080963 0.233704 0.013885
0.119598 0.234100 0.020752
0.154358 0.234863 0.028076
0.187653 0.236389 0.035950
0.221619 0.238892 0.042572
0.257599 0.242065 0.047272
0.295532 0.245117 0.053772
0.335663 0.248108 0.062378
0.378448 0.251282 0.071716
0.424042 0.254547 0.081848
0.472168 0.257965 0.092285
0.522339 0.261505 0.102966
0.573944 0.265167 0.113800
0.626343 0.269073 0.124725
0.678711 0.273407 0.135590
0.730103 0.278290 0.146179
0.779602 0.284058 0.156403
0.826538 0.290924 0.165680
0.870239 0.299072 0.173889
0.909546 0.308838 0.181152
0.943848 0.320862 0.187195
0.973297 0.334717 0.192108
0.997345 0.350311 0.195953
1.000000 0.367279 0.198456
0.000000 0.264526 0.002808
0.000000 0.265015 0.002838
0.000000 0.265594 0.003021
0.000000 0.266418 0.002960
0.000000 0.267456 0.003113
0.000000 0.268860 0.003052
0.000000 0.270477 0.003143
0.000000 0.272430 0.003235
0.003296 0.274689 0.003235
0.028992 0.277069 0.003510
0.091675 0.278717 0.006470
0.138855 0.279114 0.013397
0.179779 0.279968 0.023773
0.218689 0.281647 0.033997
0.257843 0.284332 0.042542
0.299042 0.287933 0.048157
0.342438 0.291443 0.055603
0.387878 0.294861 0.065491
0.435425 0.298431 0.076355
0.484955 0.302185 0.087677
0.536041 0.306244 0.099091
0.588165 0.310547 0.110474
0.640656 0.315277 0.121704
0.692810 0.320496 0.132690
0.743713 0.326294 0.143188
0.792572 0.332916 0.153168
0.838562 0.340607 0.162292
0.881226 0.349487 0.170074
0.919617 0.359589 0.176453
0.953064 0.371460 0.181580
0.981323 0.384918 0.185364
0.999969 0.399750 0.188049
1.000000 0.415894 0.189453
0.000000 0.311707 0.000000
0.000000 0.312286 0.000000
0.000000 0.312866 0.000000
0.000000 0.313782 0.000000
0.000000 0.314911 0.000031
0.000000 0.316345 0.000031
0.000000 0.318176 0.000000
0.000000 0.320221 0.000000
0.000000 0.322662 0.000000
0.002777 0.325378 0.000000
0.023895 0.328308 0.000244
0.102905 0.330475 0.001434
0.160187 0.330872 0.004181
0.208649 0.331757 0.012756
0.253937 0.333557 0.025787
0.299011 0.336426 0.037476
0.345947 0.340363 0.044922
0.394928 0.344330 0.053345
0.445282 0.348114 0.065002
0.496674 0.352112 0.077606
0.549011 0.356354 0.090302
0.601868 0.361053 0.102783
0.654633 0.366180 0.114868
0.706604 0.371857 0.126373
0.757050 0.378204 0.137207
0.805115 0.385284 0.147247
0.850189 0.393372 0.156158
0.891907 0.402435 0.163300
0.929352 0.412659 0.168671
0.961792 0.424255 0.172852
0.988708 0.437286 0.175751
1.000000 0.451447 0.177582
1.000000 0.466797 0.178284
0.000000 0.365417 0.000000
0.000000 0.365967 0.000000
0.000000 0.366577 0.000000
0.000000 0.367523 0.000000
0.000000 0.368713 0.000000
0.000000 0.370239 0.000000
0.000000 0.372101 0.000000
0.000000 0.374298 0.000000
0.000000 0.376801 0.000000
0.000000 0.379700 0.000000
0.001740 0.382874 0.000000
0.017609 0.386261 0.000000
0.116058 0.388977 0.000000
0.185394 0.389099 0.000214
0.242310 0.389832 0.002991
0.294708 0.391602 0.012054
0.346069 0.394501 0.025391
0.398590 0.398621 0.035370
0.452301 0.402954 0.045288
0.506348 0.407074 0.059418
0.560455 0.411377 0.074280
0.614319 0.416046 0.088837
0.667572 0.421265 0.102478
0.719513 0.426971 0.115204
0.769501 0.433441 0.126892
0.816803 0.440643 0.137482
0.860840 0.448730 0.146637
0.901459 0.457764 0.153259
0.937744 0.467834 0.157745
0.969055 0.479065 0.161041
0.994720 0.491455 0.163086
1.000000 0.504913 0.164246
1.000000 0.519348 0.164246
0.000000 0.424835 0.000000
0.000000 0.425385 0.000000
0.000000 0.426025 0.000000
0.000000 0.426971 0.000000
0.000000 0.428131 0.000000
0.000000 0.429718 0.000000
0.000000 0.431610 0.000000
0.000000 0.433838 0.000000
0.000000 0.436371 0.000000
0.000000 0.439270 0.000000
0.000000 0.442505 0.000000
0.000763 0.446045 0.000000
0.016937 0.449738 0.000000
0.137909 0.452576 0.000000
0.218292 0.452148 0.000000
0.283325 0.452545 0.000000
0.342377 0.454102 0.002289
0.399231 0.456879 0.010101
0.456085 0.461060 0.018677
0.513184 0.465637 0.029419
0.569550 0.469971 0.046692
0.624908 0.474457 0.065186
0.678833 0.479401 0.082184
0.730957 0.484894 0.097351
0.780579 0.491089 0.110779
0.827118 0.498047 0.122589
0.870087 0.505859 0.132507
0.909424 0.514557 0.139160
0.944427 0.524200 0.142822
0.974396 0.534882 0.145447
0.998505 0.546478 0.146881
1.000000 0.559021 0.147461
1.000000 0.572357 0.146973
0.000000 0.488434 0.000000
0.000000 0.489014 0.000000
0.000000 0.489655 0.000000
0.000000 0.490570 0.000000
0.000000 0.491760 0.000000
0.000000 0.493286 0.000000
0.000000 0.495148 0.000000
0.000000 0.497284 0.000000
0.000000 0.499786 0.000000
0.000000 0.502625 0.000000
0.000000 0.505768 0.000000
0.000031 0.509186 0.000000
0.000977 0.512878 0.000000
0.034973 0.516693 0.000000
0.174500 0.518768 0.000000
0.262299 0.517517 0.000000
0.333160 0.517609 0.000000
0.397003 0.518890 0.000000
0.457672 0.521576 0.001160
0.517242 0.525696 0.004578
0.576080 0.530273 0.011383
0.633179 0.534668 0.026855
0.688049 0.539215 0.048309
0.740479 0.544281 0.069153
0.789856 0.549896 0.086700
0.835724 0.556305 0.101135
0.877594 0.563507 0.112701
0.915497 0.571625 0.120178
0.949127 0.580627 0.123444
0.977692 0.590485 0.125610
0.999695 0.601135 0.126740
1.000000 0.612518 0.126984
1.000000 0.624573 0.126343
0.000000 0.554596 0.000000
0.000000 0.555115 0.000000
0.000000 0.555725 0.000000
0.000000 0.556580 0.000000
0.000000 0.557739 0.000000
0.000000 0.559174 0.000000
0.000000 0.560913 0.000000
0.000000 0.562927 0.000000
0.000000 0.565277 0.000000
0.000000 0.567963 0.000000
0.000000 0.570923 0.000000
0.000000 0.574127 0.000000
0.000000 0.577545 0.000000
0.004578 0.581207 0.000000
0.087708 0.584747 0.000000
0.228546 0.584717 0.000000
0.317871 0.582977 0.000000
0.391327 0.582764 0.000000
0.457581 0.583862 0.000000
0.520050 0.586365 0.000000
0.580505 0.590302 0.000000
0.639343 0.594727 0.000977
0.695312 0.598999 0.008423
0.748108 0.603455 0.026947
0.797302 0.608459 0.049133
0.842499 0.614044 0.069641
0.883240 0.620392 0.085510
0.919678 0.627655 0.095367
0.951843 0.635773 0.098846
0.979187 0.644592 0.101166
0.999695 0.654053 0.102448
1.000000 0.664093 0.102997
1.000000 0.674683 0.102783
0.000000 0.621155 0.000000
0.000000 0.621674 0.000000
0.000000 0.622223 0.000000
0.000000 0.622955 0.000000
0.000000 0.624023 0.000000
0.000000 0.625336 0.000000
0.000000 0.626892 0.000000
0.000000 0.628754 0.000000
0.000000 0.630890 0.000000
0.000000 0.633301 0.000000
0.000000 0.635986 0.000000
0.000000 0.638885 0.000000
0.000000 0.641937 0.000000
0.000061 0.645172 0.000000
0.029419 0.648529 0.000000
0.174988 0.650574 0.000000
0.297394 0.648071 0.000000
0.383240 0.646179 0.000000
0.456299 0.645782 0.000000
0.522614 0.646698 0.000000
0.584778 0.649017 0.000000
0.644287 0.652557 0.000000
0.701111 0.656647 0.000000
0.754272 0.660614 0.000183
0.803192 0.664856 0.008148
0.847656 0.669556 0.026947
0.887299 0.674896 0.047394
0.922150 0.681061 0.063019
0.952881 0.688080 0.068359
0.979126 0.695709 0.071960
0.999481 0.703796 0.074646
1.000000 0.712372 0.076538
1.000000 0.721344 0.077759
0.000000 0.685913 0.000000
0.000000 0.686340 0.000000
0.000000 0.686829 0.000000
0.000000 0.687500 0.000000
0.000000 0.688416 0.000000
0.000000 0.689545 0.000000
0.000000 0.690918 0.000000
0.000000 0.692566 0.000000
0.000000 0.694427 0.000000
0.000000 0.696503 0.000000
0.000000 0.698792 0.000000
0.000000 0.701294 0.000000
0.000000 0.703857 0.000000
0.000031 0.706573 0.000000
0.005432 0.709381 0.000000
0.122345 0.711761 0.000000
0.274811 0.710266 0.000000
0.375397 0.706757 0.000000
0.455658 0.704834 0.000000
0.525909 0.704285 0.000000
0.590149 0.705017 0.000000
0.650055 0.707001 0.000000
0.706665 0.710114 0.000000
0.759735 0.713684 0.000000
0.808228 0.717194 0.000000
0.851807 0.721008 0.000122
0.890228 0.725250 0.008942
0.923523 0.730164 0.025726
0.952820 0.735962 0.033936
0.977844 0.742249 0.040527
0.998291 0.748840 0.046143
1.000000 0.755798 0.051178
1.000000 0.763092 0.055603
0.000000 0.746613 0.000000
0.000000 0.746979 0.000000
0.000000 0.747406 0.000000
0.000000 0.747986 0.000000
0.000000 0.748718 0.000000
0.000000 0.749664 0.000000
0.000000 0.750793 0.000000
0.000000 0.752167 0.000000
0.000000 0.753662 0.000000
0.000000 0.755341 0.000000
0.000000 0.757202 0.000000
0.000000 0.759186 0.000000
0.000000 0.761261 0.000000
0.000000 0.763367 0.000000
0.000000 0.765533 0.000000
0.096893 0.767639 0.000000
0.259857 0.766235 0.000000
0.372711 0.761932 0.000000
0.458618 0.758759 0.000000
0.532013 0.756836 0.000000
0.597717 0.756165 0.000000
0.657990 0.756683 0.000000
0.713837 0.758301 0.000000
0.765839 0.760925 0.000000
0.813446 0.763763 0.000000
0.855804 0.766693 0.000000
0.892853 0.769897 0.000000
0.924683 0.773560 0.001404
0.952515 0.777985 0.007812
0.976349 0.782867 0.016388
0.996002 0.788025 0.025940
1.000000 0.793427 0.035278
1.000000 0.799103 0.044128
0.000000 0.801270 0.000000
0.000000 0.801514 0.000000
0.000000 0.801849 0.000000
0.000000 0.802307 0.000000
0.000000 0.802887 0.000000
0.000000 0.803619 0.000000
0.000000 0.804504 0.000000
0.000000 0.805542 0.000000
0.000000 0.806671 0.000000
0.000000 0.807953 0.000000
0.000000 0.809296 0.000000
0.000000 0.810760 0.000000
0.000000 0.812225 0.000000
0.000000 0.813721 0.000000
0.000000 0.815155 0.000000
0.103851 0.816559 0.000000
0.259033 0.814697 0.000000
0.380249 0.809723 0.000000
0.468964 0.805420 0.000000
0.543488 0.802460 0.000000
0.609436 0.800598 0.000000
0.669159 0.799866 0.000000
0.723907 0.800171 0.000000
0.774170 0.801422 0.000000
0.819946 0.803406 0.000000
0.860718 0.805511 0.000000
0.896027 0.807800 0.000000
0.926361 0.810425 0.000366
0.952667 0.813568 0.002716
0.975311 0.817200 0.011780
0.994049 0.821075 0.025055
1.000000 0.825165 0.037506
1.000000 0.829468 0.049469
0.000000 0.848114 0.000000
0.000000 0.848297 0.000000
0.000000 0.848511 0.000000
0.000000 0.848846 0.000000
0.000000 0.849243 0.000000
0.000000 0.849762 0.000000
0.000000 0.850372 0.000000
0.000000 0.851074 0.000000
0.000000 0.851837 0.000000
0.000000 0.852661 0.000000
0.000000 0.853546 0.000000
0.000000 0.854431 0.000000
0.000000 0.855316 0.000000
0.000061 0.856140 0.000000
0.013000 0.856934 0.000000
0.125488 0.857239 0.000000
0.287109 0.854309 0.000000
0.402069 0.848663 0.000000
0.488922 0.843689 0.000000
0.561981 0.839966 0.000000
0.626373 0.837311 0.000000
0.684509 0.835602 0.000000
0.737183 0.834930 0.000000
0.785217 0.835114 0.000000
0.828552 0.836060 0.000000
0.867035 0.837524 0.000000
0.900360 0.839081 0.001892
0.929016 0.840851 0.006775
0.953766 0.843079 0.014160
0.975159 0.845703 0.029144
0.992889 0.848541 0.043915
1.000000 0.851624 0.057434
1.000000 0.854828 0.069672
0.000000 0.886383 0.000000
0.000000 0.886536 0.000000
0.000000 0.886688 0.000000
0.000000 0.886871 0.000000
0.000000 0.887115 0.000000
0.000000 0.887421 0.000000
0.000000 0.887787 0.000000
0.000000 0.888184 0.000000
0.000000 0.888580 0.000000
0.000000 0.889038 0.000000
0.000000 0.889496 0.000000
0.000000 0.889893 0.000000
0.000000 0.890228 0.000000
0.000061 0.890503 0.000000
0.059631 0.890717 0.000000
0.176025 0.889313 0.000000
0.334198 0.885284 0.000000
0.437286 0.878998 0.000000
0.518219 0.873810 0.000000
0.587311 0.869751 0.000000
0.648529 0.866638 0.000000
0.703705 0.864502 0.000000
0.753662 0.863159 0.000000
0.798676 0.862640 0.000000
0.839081 0.862823 0.004272
0.874817 0.863647 0.009521
0.905945 0.864655 0.014923
0.932709 0.865845 0.026794
0.955933 0.867371 0.046875
0.975922 0.869232 0.062378
0.992615 0.871277 0.075531
1.000000 0.873505 0.086945
1.000000 0.875916 0.097626
0.000000 0.916931 0.000000
0.000000 0.916992 0.000000
0.000000 0.917053 0.000000
0.000000 0.917145 0.000000
0.000000 0.917267 0.000000
0.000000 0.917389 0.000000
0.000000 0.917572 0.000000
0.000000 0.917725 0.000000
0.000000 0.917847 0.000000
0.000000 0.917969 0.000000
0.000000 0.918030 0.000000
0.000000 0.918060 0.000000
0.000000 0.917969 0.000000
0.027222 0.917786 0.000000
0.125244 0.917206 0.000000
0.271912 0.913910 0.000000
0.392914 0.908356 0.000000
0.481201 0.902222 0.000000
0.554077 0.897186 0.000000
0.617737 0.893097 0.000000
0.674652 0.889862 0.000031
0.725952 0.887451 0.000000
0.772339 0.885834 0.006653
0.814026 0.884918 0.014648
0.851135 0.884583 0.019714
0.883911 0.884888 0.035492
0.912598 0.885468 0.054474
0.937469 0.886230 0.073334
0.959015 0.887207 0.087799
0.977661 0.888489 0.099121
0.993164 0.889923 0.109680
1.000000 0.891541 0.119202
1.000000 0.893280 0.128662
0.000000 0.941010 0.000000
0.000000 0.940979 0.000000
0.000000 0.941010 0.000000
0.000000 0.941010 0.000000
0.000000 0.941010 0.000000
0.000000 0.941010 0.000000
0.000000 0.940979 0.000000
0.000000 0.940948 0.000000
0.000000 0.940857 0.000000
0.000000 0.940704 0.000000
0.000000 0.940491 0.000000
0.000000 0.940186 0.000000
0.024292 0.939758 0.000000
0.101471 0.939087 0.000000
0.231262 0.936523 0.000000
0.363098 0.931824 0.000000
0.455078 0.925262 0.000000
0.529327 0.919769 0.000000
0.593842 0.915131 0.000031
0.651337 0.911224 0.000000
0.703217 0.908081 0.006714
0.750153 0.905640 0.015564
0.792603 0.903870 0.023499
0.830597 0.902771 0.047577
0.864258 0.902191 0.074005
0.894012 0.902069 0.091370
0.920258 0.902344 0.103912
0.943146 0.902740 0.115601
0.963013 0.903351 0.125885
0.980225 0.904175 0.135010
0.994598 0.905151 0.143829
1.000000 0.906281 0.152069
1.000000 0.907501 0.160278
0.000000 0.959717 0.000000
0.000000 0.959656 0.000000
0.000000 0.959625 0.000000
0.000000 0.959564 0.000000
0.000000 0.959473 0.000000
0.000000 0.959381 0.000000
0.000000 0.959198 0.000000
0.000000 0.958984 0.000000
0.000000 0.958710 0.000000
0.000031 0.958313 0.000000
0.000000 0.957886 0.000000
0.031860 0.957306 0.000000
0.104309 0.956360 0.000000
0.231476 0.954163 0.000000
0.354279 0.949677 0.000000
0.443268 0.943329 0.000000
0.515717 0.937775 0.000000
0.578766 0.932922 0.000000
0.635223 0.928711 0.007843
0.686462 0.925140 0.015717
0.733063 0.922211 0.026611
0.775360 0.919891 0.055695
0.813507 0.918182 0.088074
0.847656 0.916992 0.109222
0.877960 0.916260 0.124237
