滤镜资源/Professional Luts Collection/Lutify.me Professional/Vintage Films/Tunellite.cube
# Created by: Lutify.me
# Copyright: (c) Copyright Lutify.me 2015
# Website: https://lutify.me
#LUT size
LUT_3D_SIZE 9
#LUT data points
0.000000 0.000000 0.000000
0.024719 0.003052 0.001892
0.081665 0.010742 0.007141
0.157654 0.021912 0.018188
0.270538 0.027618 0.039917
0.442719 0.001221 0.075012
0.663605 0.000000 0.117065
0.870361 0.000000 0.157745
1.000000 0.000000 0.187897
0.000000 0.045135 0.004181
0.027466 0.046539 0.006531
0.089813 0.052032 0.013824
0.166504 0.063385 0.026489
0.280334 0.072205 0.050232
0.454407 0.055145 0.083557
0.674072 0.000000 0.123932
0.877045 0.000000 0.163055
1.000000 0.000000 0.191803
0.000000 0.130219 0.011688
0.001831 0.132385 0.012848
0.092041 0.134033 0.021484
0.185486 0.140839 0.036591
0.308563 0.150330 0.063477
0.483368 0.156891 0.100067
0.698547 0.149323 0.139069
0.891998 0.152802 0.174622
1.000000 0.221100 0.200195
0.000000 0.264526 0.002808
0.000000 0.267456 0.003113
0.003296 0.274689 0.003235
0.179779 0.279968 0.023773
0.342438 0.291443 0.055603
0.536041 0.306244 0.099091
0.743713 0.326294 0.143188
0.919617 0.359589 0.176453
1.000000 0.415894 0.189453
0.000000 0.488434 0.000000
0.000000 0.491760 0.000000
0.000000 0.499786 0.000000
0.000977 0.512878 0.000000
0.333160 0.517609 0.000000
0.576080 0.530273 0.011383
0.789856 0.549896 0.086700
0.949127 0.580627 0.123444
1.000000 0.624573 0.126343
0.000000 0.746613 0.000000
0.000000 0.748718 0.000000
0.000000 0.753662 0.000000
0.000000 0.761261 0.000000
0.259857 0.766235 0.000000
0.597717 0.756165 0.000000
0.813446 0.763763 0.000000
0.952515 0.777985 0.007812
1.000000 0.799103 0.044128
0.000000 0.916931 0.000000
0.000000 0.917267 0.000000
0.000000 0.917847 0.000000
0.000000 0.917969 0.000000
0.392914 0.908356 0.000000
0.674652 0.889862 0.000031
0.851135 0.884583 0.019714
0.959015 0.887207 0.087799
1.000000 0.893280 0.128662
0.000000 0.984589 0.000000
0.000000 0.983978 0.000000
0.032623 0.982269 0.000000
0.401276 0.971313 0.004089
0.627991 0.953064 0.055786
0.791931 0.941589 0.161377
0.905670 0.936462 0.204468
0.978394 0.935547 0.230469
1.000000 0.936554 0.254761
0.490143 0.992249 0.215424
0.525177 0.989288 0.225861
0.599365 0.982941 0.247559
0.698486 0.974884 0.275238
0.800659 0.967560 0.301971
0.888000 0.962585 0.323639
0.954163 0.960022 0.341064
0.999573 0.959076 0.357513
1.000000 0.959106 0.375488
0.000000 0.000153 0.077759
0.025757 0.000000 0.071198
0.096497 0.008423 0.065460
0.171906 0.022064 0.073242
0.283417 0.028320 0.091095
0.454102 0.001312 0.119507
0.672424 0.000000 0.156647
0.876160 0.000000 0.193787
1.000000 0.000000 0.221893
0.000000 0.050140 0.071198
0.014832 0.051392 0.070923
0.093597 0.058502 0.070435
0.171753 0.070404 0.081421
0.291412 0.075226 0.098022
0.465424 0.056854 0.125793
0.682526 0.000000 0.162445
0.882446 0.000000 0.198669
1.000000 0.001038 0.225739
0.000000 0.137482 0.073669
0.000031 0.139160 0.073975
0.090851 0.139557 0.079193
0.187866 0.144775 0.093292
0.311096 0.156067 0.113678
0.489624 0.162170 0.142120
0.705658 0.153839 0.176086
0.896515 0.159882 0.209900
1.000000 0.227631 0.234253
0.000000 0.269226 0.073730
0.000000 0.271942 0.074341
0.002167 0.278687 0.075439
0.182922 0.283783 0.090546
0.347595 0.294525 0.113586
0.541718 0.309784 0.146423
0.749023 0.330139 0.184021
0.923370 0.363770 0.214569
1.000000 0.419922 0.228180
0.000000 0.490723 0.006104
0.000000 0.493988 0.005737
0.000000 0.501984 0.004913
0.001831 0.514893 0.004150
0.339691 0.519714 0.052887
0.581635 0.532867 0.107849
0.794128 0.552734 0.152954
0.951843 0.583649 0.180786
1.000000 0.627533 0.186218
0.000000 0.748413 0.000000
0.000000 0.750458 0.000000
0.000000 0.755341 0.000000
0.000000 0.762817 0.000000
0.271729 0.767365 0.000000
0.603027 0.758057 0.008118
0.816864 0.765900 0.090912
0.954254 0.780273 0.135223
1.000000 0.801361 0.152863
0.000000 0.918152 0.000000
0.000000 0.918488 0.000000
0.000000 0.919037 0.000000
0.000000 0.919067 0.000000
0.401520 0.909149 0.000000
0.678741 0.891449 0.059204
0.853394 0.886536 0.149811
0.960052 0.889221 0.182770
1.000000 0.895325 0.208252
0.000000 0.985596 0.006683
0.000000 0.984955 0.007538
0.033905 0.983215 0.009491
0.408295 0.972168 0.067566
0.631805 0.954498 0.179352
0.794098 0.943420 0.235413
0.906708 0.938446 0.267639
0.978699 0.937622 0.289062
1.000000 0.938629 0.309937
0.493530 0.993896 0.281250
0.528290 0.991058 0.288788
0.602020 0.985046 0.305359
0.700623 0.977173 0.327789
0.802094 0.969818 0.351013
0.888702 0.964691 0.370758
0.954132 0.962067 0.386902
0.999237 0.961151 0.402008
1.000000 0.961182 0.418427
0.000000 0.000000 0.198608
0.000000 0.000000 0.196594
0.079620 0.000000 0.184631
0.188629 0.003448 0.175720
0.314087 0.003448 0.179626
0.486786 0.000000 0.199341
0.701385 0.000000 0.231537
0.900696 0.000000 0.264862
1.000000 0.000000 0.289703
0.000000 0.043823 0.194733
0.000000 0.043854 0.193756
0.072418 0.041626 0.192078
0.192596 0.057312 0.179230
0.321991 0.060516 0.184296
0.497650 0.032745 0.204712
0.711151 0.000000 0.236877
0.906860 0.000000 0.269501
1.000000 0.000000 0.293762
0.000000 0.141357 0.190094
0.000000 0.142548 0.189911
0.050476 0.144928 0.190399
0.198212 0.150146 0.186737
0.327606 0.165039 0.198334
0.517670 0.162445 0.219666
0.733490 0.148804 0.249664
0.919769 0.155396 0.280792
1.000000 0.227051 0.303619
0.000000 0.283844 0.189423
0.000000 0.286316 0.189392
0.000000 0.292084 0.189209
0.182251 0.294098 0.195312
0.357391 0.302032 0.215668
0.548492 0.320648 0.244446
0.754425 0.343445 0.276093
0.925690 0.378143 0.303986
1.000000 0.434174 0.320435
0.000000 0.503998 0.174347
0.000000 0.506958 0.174530
0.000000 0.514191 0.174927
0.000702 0.525757 0.175903
0.351929 0.528320 0.203461
0.594177 0.539429 0.236816
0.802307 0.560028 0.269775
0.956696 0.591614 0.291626
1.000000 0.635376 0.299866
0.000000 0.753143 0.129211
0.000000 0.755127 0.129883
0.000000 0.759827 0.132141
0.000000 0.766998 0.136475
0.293671 0.770721 0.157623
0.614868 0.763245 0.229218
0.824402 0.771698 0.260010
0.958038 0.786407 0.283966
1.000000 0.807434 0.298187
0.000000 0.921478 0.131073
0.000000 0.921753 0.134064
0.000000 0.922150 0.141479
0.000031 0.922028 0.154236
0.418640 0.911774 0.202332
0.687622 0.895905 0.271179
0.858032 0.891754 0.307251
0.961823 0.894623 0.327789
1.000000 0.900818 0.345825
0.000000 0.991028 0.253723
0.000000 0.990479 0.255432
0.035919 0.988464 0.260529
0.416351 0.978210 0.285431
0.638367 0.960815 0.330750
0.798584 0.948975 0.366943
0.908356 0.943726 0.391174
0.978607 0.942871 0.407898
1.000000 0.943939 0.424469
0.488647 1.000000 0.393463
0.524567 1.000000 0.398102
0.601257 0.996246 0.410614
0.702911 0.986206 0.430939
0.804565 0.976562 0.453369
0.889496 0.970215 0.472351
0.953339 0.967163 0.486877
0.997772 0.966278 0.499603
1.000000 0.966278 0.513489
0.000000 0.000000 0.385437
0.000000 0.000000 0.384308
0.000000 0.000000 0.382111
0.140930 0.000000 0.363831
0.330811 0.000000 0.346039
0.535919 0.000000 0.348633
0.754059 0.000000 0.367126
0.949677 0.000000 0.393311
1.000000 0.000000 0.413879
0.000000 0.025238 0.384674
0.000000 0.024536 0.383911
0.000000 0.019531 0.382385
0.143951 0.010223 0.370331
0.339783 0.012177 0.350128
0.546448 0.000000 0.353394
0.763214 0.000000 0.372314
0.955353 0.000000 0.398010
1.000000 0.000000 0.417999
0.000000 0.133148 0.382416
0.000000 0.134003 0.381989
0.000000 0.134979 0.381134
0.140991 0.124451 0.385498
0.360046 0.141998 0.359955
0.569000 0.132141 0.364563
0.783936 0.112091 0.384766
0.966461 0.109009 0.409210
1.000000 0.194763 0.427643
0.000000 0.289062 0.378906
0.000000 0.291382 0.378723
0.000000 0.296600 0.378357
0.105530 0.303284 0.378784
0.377258 0.310425 0.372894
0.575043 0.337311 0.387207
0.780792 0.359711 0.414398
0.946075 0.394928 0.440491
1.000000 0.458130 0.464233
0.000000 0.528137 0.373505
0.000000 0.530853 0.373413
0.000000 0.537262 0.373108
0.000031 0.546967 0.372498
0.356354 0.545288 0.382446
0.610138 0.552155 0.410583
0.807770 0.575806 0.441254
0.952637 0.609619 0.463531
1.000000 0.653046 0.476318
0.000000 0.782349 0.366333
0.000000 0.783905 0.366669
0.000000 0.787567 0.367584
0.000000 0.792694 0.369232
0.283813 0.788147 0.383911
0.629486 0.777496 0.421021
0.833527 0.782562 0.450104
0.958649 0.797150 0.472168
1.000000 0.818359 0.484589
0.000000 0.946594 0.391205
0.000000 0.946564 0.392059
0.000000 0.946167 0.394073
0.000183 0.944580 0.397705
0.421417 0.926147 0.425446
0.696411 0.909821 0.459900
0.862793 0.901703 0.491669
0.961548 0.904236 0.508484
1.000000 0.910461 0.522247
0.000000 1.000000 0.453888
0.000000 1.000000 0.454742
0.026764 1.000000 0.457336
0.413300 0.990234 0.482269
0.639709 0.975952 0.502930
0.802277 0.960510 0.532166
0.908478 0.953033 0.554413
0.975861 0.951904 0.568054
1.000000 0.952972 0.580658
0.485046 1.000000 0.557922
0.523041 1.000000 0.561401
0.598969 1.000000 0.566376
0.701843 0.999084 0.577637
0.804932 0.987671 0.595886
0.888428 0.979462 0.613281
0.949982 0.975616 0.626282
0.993622 0.974609 0.636414
1.000000 0.974579 0.646973
0.000000 0.000000 0.638214
0.000000 0.000000 0.643250
0.000000 0.000000 0.648682
0.000000 0.000000 0.645264
0.271118 0.000000 0.610626
0.557739 0.000000 0.583496
0.809845 0.000000 0.584442
0.998199 0.000000 0.595520
1.000000 0.000000 0.609222
0.000000 0.000610 0.651489
0.000000 0.000183 0.650818
0.000000 0.000000 0.649261
0.000000 0.000000 0.646729
0.286621 0.000000 0.611542
0.569305 0.000000 0.586945
0.818146 0.000000 0.588165
0.999420 0.000000 0.599335
1.000000 0.000000 0.612457
0.000000 0.109100 0.649811
0.000000 0.109375 0.649261
0.000000 0.108307 0.647919
0.000031 0.095184 0.645660
0.312988 0.069458 0.623932
0.595245 0.054688 0.595154
0.836365 0.002533 0.597046
0.999786 0.002594 0.608093
1.000000 0.088623 0.619843
0.000000 0.282593 0.642029
0.000000 0.284729 0.641479
0.000000 0.289093 0.640015
0.000000 0.293304 0.637451
0.325378 0.278320 0.644012
0.625824 0.309418 0.606384
0.843353 0.338470 0.608215
0.997803 0.377258 0.622040
1.000000 0.448120 0.636047
0.000000 0.536438 0.626099
0.000000 0.538971 0.625824
0.000000 0.544861 0.625000
0.000000 0.553101 0.623505
0.294434 0.560242 0.621979
0.631500 0.568695 0.615082
0.821014 0.601959 0.632111
0.953094 0.638000 0.652374
1.000000 0.682129 0.668304
0.000000 0.805542 0.616699
0.000000 0.806763 0.616577
0.000000 0.809326 0.616211
0.000000 0.812347 0.615570
0.179199 0.811462 0.615295
0.635620 0.797211 0.628479
0.839996 0.797943 0.653198
0.953491 0.813538 0.672272
1.000000 0.834503 0.682373
0.000000 0.969391 0.627594
0.000000 0.968872 0.627808
0.000000 0.967316 0.628326
0.000000 0.963684 0.629242
0.385193 0.947266 0.637421
0.697693 0.926910 0.656708
0.864380 0.915283 0.681274
0.957031 0.916962 0.695404
1.000000 0.922943 0.705719
0.000000 1.000000 0.664673
0.000000 1.000000 0.664948
0.011475 1.000000 0.665741
0.365204 1.000000 0.672974
0.636475 0.988464 0.689026
0.800232 0.975616 0.703186
0.905273 0.965210 0.722046
0.969116 0.962982 0.733582
1.000000 0.963867 0.742249
0.449615 1.000000 0.719696
0.494263 1.000000 0.721497
0.585022 1.000000 0.726379
0.697296 1.000000 0.735138
0.799530 1.000000 0.742981
0.884186 0.991608 0.756348
0.943878 0.985840 0.768158
0.985931 0.984131 0.776093
1.000000 0.983948 0.782990
0.000000 0.000000 0.880951
0.000000 0.000000 0.884583
0.000000 0.000000 0.892242
0.000000 0.000000 0.899445
0.039734 0.000000 0.881500
0.554077 0.000000 0.821503
0.835022 0.000000 0.805756
1.000000 0.000000 0.807129
1.000000 0.000000 0.813232
0.000000 0.000000 0.906647
0.000000 0.000000 0.905731
0.000000 0.000000 0.903473
0.000000 0.000000 0.899261
0.063782 0.000000 0.878723
0.567871 0.000000 0.821472
0.843292 0.000000 0.807526
1.000000 0.000000 0.808960
1.000000 0.000000 0.814667
0.000000 0.074249 0.901367
0.000000 0.073120 0.900543
0.000000 0.066406 0.898407
0.000000 0.030182 0.894684
0.125183 0.000000 0.880676
0.597717 0.000610 0.821686
0.860840 0.000000 0.811401
1.000000 0.000000 0.812866
1.000000 0.007996 0.817535
0.000000 0.269104 0.886078
0.000000 0.270782 0.885162
0.000000 0.273895 0.882812
0.000000 0.274628 0.878571
0.174622 0.247192 0.885071
0.631744 0.278076 0.831757
0.877289 0.300751 0.815155
1.000000 0.339966 0.815125
1.000000 0.414062 0.818298
0.000000 0.538849 0.854187
0.000000 0.541046 0.853424
0.000000 0.545990 0.851440
0.000000 0.552216 0.847931
0.173950 0.553589 0.850494
0.631317 0.546692 0.845886
0.871704 0.587646 0.814789
0.995850 0.632751 0.814789
1.000000 0.681854 0.820190
0.000000 0.811157 0.827393
0.000000 0.812073 0.826965
0.000000 0.813873 0.825897
0.000000 0.815430 0.823944
0.133026 0.814941 0.821045
0.619049 0.811920 0.817474
0.846100 0.814819 0.816986
0.946594 0.833679 0.828766
0.999878 0.854187 0.837341
0.000000 0.976562 0.819122
0.000000 0.975677 0.818939
0.000000 0.973175 0.818390
0.000000 0.968109 0.817505
0.350952 0.957703 0.816254
0.689026 0.941956 0.817780
0.864868 0.929169 0.827698
0.951813 0.928497 0.839630
0.999481 0.934204 0.846985
0.000000 1.000000 0.828583
0.000000 1.000000 0.828491
0.020050 1.000000 0.828217
0.349243 1.000000 0.828278
0.622101 0.999908 0.830353
0.797180 0.986023 0.837585
0.901764 0.976746 0.846405
0.962860 0.972168 0.856476
1.000000 0.972717 0.861725
0.447906 1.000000 0.846954
0.489563 1.000000 0.847137
0.575836 1.000000 0.847809
0.687042 1.000000 0.849823
0.795593 1.000000 0.854828
0.879639 1.000000 0.860687
0.939423 0.994812 0.868927
0.979736 0.991547 0.875824
1.000000 0.991089 0.879822
0.000000 0.000000 1.000000
0.000000 0.000000 1.000000
0.000000 0.000000 1.000000
0.000000 0.000000 1.000000
0.039185 0.000000 1.000000
0.584717 0.000000 0.962738
0.864532 0.000000 0.934540
1.000000 0.000000 0.934204
1.000000 0.000000 0.935760
0.000000 0.000000 1.000000
0.000000 0.000000 1.000000
0.000000 0.000000 1.000000
0.000000 0.000000 1.000000
0.070648 0.000000 1.000000
0.599945 0.000000 0.960632
0.872162 0.000000 0.934662
1.000000 0.000000 0.934540
1.000000 0.000000 0.935822
0.000000 0.039429 1.000000
0.000000 0.035278 1.000000
0.000000 0.017303 1.000000
0.000000 0.000214 1.000000
0.139679 0.000000 0.999878
0.632172 0.000000 0.955933
0.887817 0.000000 0.934784
1.000000 0.000000 0.934784
1.000000 0.009308 0.935242
0.000000 0.261230 1.000000
0.000000 0.262085 1.000000
0.000000 0.262817 1.000000
0.000000 0.257904 1.000000
0.197296 0.219696 1.000000
0.665833 0.254578 0.961456
0.901672 0.298004 0.933716
1.000000 0.331818 0.932373
1.000000 0.408936 0.931458
0.000000 0.541016 0.983795
0.000000 0.542725 0.982666
0.000000 0.546326 0.979950
0.000000 0.550110 0.975220
0.230225 0.543762 0.982880
0.664185 0.538971 0.969452
0.893982 0.587646 0.928345
1.000000 0.624054 0.924011
1.000000 0.671936 0.922607
0.000000 0.813416 0.942200
0.000000 0.813934 0.941589
0.000000 0.814850 0.940002
0.000000 0.815063 0.937256
0.244598 0.813446 0.934540
0.644958 0.809052 0.934570
0.867554 0.809479 0.924744
0.969421 0.835815 0.914215
1.000000 0.858826 0.916077
0.000000 0.974457 0.922333
0.000000 0.973358 0.921936
0.000000 0.970367 0.920990
0.003784 0.964630 0.919312
0.427643 0.955627 0.916931
0.703247 0.945343 0.914368
0.866852 0.937439 0.912567
0.952209 0.935883 0.918030
0.994080 0.942383 0.922974
0.000000 1.000000 0.917175
0.005096 1.000000 0.916901
0.058868 1.000000 0.916229
0.432617 1.000000 0.915039
0.647217 1.000000 0.913879
0.800171 0.992920 0.913788
0.903564 0.982483 0.917114
0.962524 0.977814 0.922882
0.999237 0.977875 0.927032
0.510925 1.000000 0.919403
0.543396 1.000000 0.919250
0.612610 1.000000 0.918945
0.704987 1.000000 0.918701
0.799774 1.000000 0.919128
0.881439 1.000000 0.921600
0.939178 1.000000 0.925354
0.978699 0.996033 0.930817
1.000000 0.995148 0.933899
0.000000 0.000000 1.000000
0.000000 0.000000 1.000000
0.000000 0.000000 1.000000
0.000000 0.000000 1.000000
0.245850 0.000000 1.000000
0.672363 0.000000 1.000000
0.915680 0.000000 0.990540
1.000000 0.000000 0.989532
1.000000 0.000000 0.989502
0.000000 0.000000 1.000000
0.000000 0.000000 1.000000
0.000000 0.000000 1.000000
0.000000 0.000000 1.000000
0.292755 0.000000 1.000000
0.685272 0.000000 1.000000
0.921967 0.000000 0.990173
1.000000 0.000000 0.989288
1.000000 0.000000 0.989014
0.000000 0.068756 1.000000
0.000000 0.059906 1.000000
0.000000 0.030518 1.000000
0.000031 0.000000 1.000000
0.369690 0.000000 1.000000
0.712738 0.000000 0.999939
0.934265 0.000000 0.989044
1.000000 0.000000 0.988129
1.000000 0.037506 0.987152
0.000000 0.272125 1.000000
0.000000 0.271240 1.000000
0.000000 0.267151 1.000000
0.000031 0.252380 1.000000
0.419891 0.212830 1.000000
0.741821 0.258087 1.000000
0.942261 0.302826 0.985931
1.000000 0.346222 0.983948
1.000000 0.425995 0.981873
0.000000 0.545197 1.000000
0.000000 0.546234 1.000000
0.000000 0.548126 1.000000
0.000000 0.548798 1.000000
0.414948 0.532562 1.000000
0.741577 0.545654 1.000000
0.927795 0.594391 0.978485
1.000000 0.630737 0.974121
1.000000 0.678131 0.971405
0.000000 0.815216 0.992950
0.000000 0.815369 0.992218
0.000000 0.815308 0.990387
0.000854 0.814301 0.987366
0.435425 0.811371 0.987701
0.708069 0.803894 0.991028
0.894684 0.810791 0.973724
0.984283 0.835541 0.961151
1.000000 0.856659 0.959381
0.000000 0.969727 0.968292
0.000000 0.968445 0.967865
0.000031 0.965179 0.966827
0.162231 0.959198 0.964996
0.548523 0.950806 0.962616
0.752075 0.942444 0.960114
0.882385 0.937317 0.958313
0.962128 0.939087 0.954590
0.998047 0.947418 0.956482
0.041931 1.000000 0.958160
0.132172 1.000000 0.957825
0.365051 1.000000 0.957062
0.547394 1.000000 0.955841
0.702209 0.999725 0.954376
0.823181 0.992584 0.953094
0.910767 0.985535 0.952667
0.967316 0.980713 0.955170
0.999969 0.980652 0.958801
0.600494 1.000000 0.954742
0.623810 1.000000 0.954529
0.675079 1.000000 0.954132
0.746338 1.000000 0.953522
0.822479 1.000000 0.953003
0.890808 1.000000 0.953094
0.944733 1.000000 0.955109
0.982086 0.998352 0.958405
1.000000 0.997375 0.964233
0.000000 0.000000 1.000000
0.000000 0.000000 1.000000
0.000000 0.000000 1.000000
0.089478 0.000000 1.000000
0.507721 0.000000 1.000000
0.778564 0.000000 1.000000
0.973358 0.000000 1.000000
1.000000 0.000000 1.000000
1.000000 0.000000 1.000000
0.000000 0.000000 1.000000
0.000000 0.000000 1.000000
0.000000 0.000000 1.000000
0.130280 0.000000 1.000000
0.526855 0.000000 1.000000
0.788391 0.000000 1.000000
0.977051 0.000000 1.000000
1.000000 0.000000 1.000000
1.000000 0.000000 1.000000
0.000000 0.069611 1.000000
0.000000 0.057465 1.000000
0.000000 0.014587 1.000000
0.231964 0.000031 1.000000
0.568024 0.000000 1.000000
0.808990 0.000000 1.000000
0.983704 0.000000 1.000000
1.000000 0.000000 1.000000
1.000000 0.114655 1.000000
0.000000 0.286774 1.000000
0.000000 0.284973 1.000000
0.000000 0.278778 1.000000
0.319794 0.262421 1.000000
0.604187 0.231110 1.000000
0.829956 0.280823 1.000000
0.985352 0.316925 1.000000
1.000000 0.368835 1.000000
1.000000 0.450348 1.000000
0.000000 0.551941 1.000000
0.000000 0.552094 1.000000
0.000000 0.551941 1.000000
0.315613 0.549011 1.000000
0.604919 0.541718 1.000000
0.827454 0.564819 1.000000
0.965057 0.607758 0.998688
1.000000 0.644135 0.996124
1.000000 0.691223 0.993225
0.000000 0.815796 1.000000
0.000000 0.815582 1.000000
0.000000 0.814758 1.000000
0.301971 0.812805 1.000000
0.584839 0.807892 1.000000
0.785919 0.799286 1.000000
0.927521 0.817932 0.992004
0.996826 0.840363 0.983093
1.000000 0.859619 0.981354
0.000000 0.963593 0.989258
0.000000 0.962250 0.988800
0.148529 0.958923 0.987823
0.463806 0.953247 0.986237
0.660339 0.946106 0.984314
0.805359 0.939850 0.982727
0.905762 0.935516 0.982788
0.973785 0.939819 0.975403
1.000000 0.947357 0.974426
0.412201 1.000000 0.978210
0.455627 1.000000 0.977905
0.543396 1.000000 0.977264
0.654480 1.000000 0.976196
0.763397 0.996613 0.974976
0.855316 0.990356 0.973755
0.924927 0.985474 0.972717
0.975220 0.981964 0.972961
1.000000 0.982727 0.975861
0.686890 1.000000 0.973663
0.703369 1.000000 0.973511
0.740387 1.000000 0.973145
0.793610 1.000000 0.972595
0.852417 1.000000 0.971954
0.906982 1.000000 0.971558
0.953217 1.000000 0.972046
0.988098 0.999298 0.974487
1.000000 0.998932 0.984650
