滤镜资源/Professional Luts Collection/Lutify.me Professional/Vintage Films/Turquoise.cube
# Created by: Lutify.me
# Copyright: (c) Copyright Lutify.me 2015
# Website: https://lutify.me
#LUT size
LUT_3D_SIZE 33
#LUT data points
0.000000 0.000000 0.000000
0.017151 0.000000 0.000397
0.036652 0.000000 0.000397
0.060791 0.000000 0.000397
0.086426 0.000000 0.000061
0.112000 0.000000 0.000000
0.138733 0.000000 0.000000
0.166260 0.000000 0.000000
0.195587 0.000000 0.000000
0.227173 0.000000 0.000000
0.261200 0.000000 0.000000
0.297455 0.000000 0.000000
0.336090 0.000000 0.000000
0.377075 0.000000 0.000000
0.420685 0.000000 0.000000
0.466827 0.000000 0.000000
0.514191 0.000000 0.000000
0.562073 0.000000 0.000000
0.610931 0.000000 0.000000
0.660919 0.000000 0.000000
0.711700 0.000000 0.000000
0.762970 0.000000 0.000000
0.814331 0.000000 0.000000
0.865265 0.000000 0.000000
0.915192 0.000000 0.000000
0.962891 0.000000 0.000000
0.998230 0.000000 0.000000
1.000000 0.000000 0.000000
1.000000 0.000000 0.000000
1.000000 0.000000 0.000000
1.000000 0.000000 0.000000
1.000000 0.000000 0.000000
1.000000 0.000000 0.000000
0.000000 0.019043 0.000000
0.013275 0.009644 0.000000
0.032257 0.008881 0.000000
0.057220 0.008118 0.000000
0.082947 0.006653 0.000000
0.109375 0.005096 0.000000
0.136353 0.002502 0.000000
0.164093 0.000427 0.000000
0.193481 0.000000 0.000000
0.225311 0.000000 0.000000
0.259552 0.000000 0.000000
0.295868 0.000000 0.000000
0.334503 0.000000 0.000000
0.375519 0.000000 0.000000
0.419098 0.000000 0.000000
0.465118 0.000000 0.000000
0.513031 0.000000 0.000000
0.561371 0.000000 0.000000
0.610138 0.000000 0.000000
0.660095 0.000000 0.000000
0.710724 0.000000 0.000000
0.761902 0.000000 0.000000
0.813202 0.000000 0.000000
0.864105 0.000000 0.000000
0.914032 0.000000 0.000000
0.961853 0.000000 0.000000
0.998108 0.000000 0.000000
1.000000 0.000000 0.000000
1.000000 0.000000 0.000000
1.000000 0.000000 0.000000
1.000000 0.000000 0.000000
1.000000 0.000000 0.000000
1.000000 0.000000 0.000000
0.000000 0.041199 0.000000
0.008209 0.029114 0.000000
0.028412 0.019073 0.000000
0.053833 0.018250 0.000000
0.080322 0.016785 0.000000
0.106842 0.014923 0.000000
0.134033 0.012573 0.000000
0.161926 0.008789 0.000000
0.191742 0.004028 0.000000
0.223694 0.000702 0.000000
0.257751 0.000000 0.000000
0.294128 0.000000 0.000000
0.332855 0.000000 0.000000
0.373871 0.000000 0.000000
0.417419 0.000000 0.000000
0.463440 0.000000 0.000000
0.511566 0.000000 0.000000
0.560394 0.000000 0.000000
0.609314 0.000000 0.000000
0.659119 0.000000 0.000000
0.709686 0.000000 0.000000
0.760803 0.000000 0.000000
0.812134 0.000000 0.000000
0.862885 0.000000 0.000000
0.912750 0.000000 0.000000
0.960907 0.000000 0.000000
0.997925 0.000000 0.000000
1.000000 0.000000 0.000000
1.000000 0.000000 0.000000
1.000000 0.000000 0.000000
1.000000 0.000000 0.000000
1.000000 0.000000 0.000000
1.000000 0.000000 0.000000
0.000000 0.067993 0.000000
0.001221 0.054291 0.000000
0.021912 0.042145 0.000000
0.049652 0.029205 0.000000
0.077057 0.027985 0.000000
0.104126 0.026398 0.000000
0.131256 0.023804 0.000000
0.159851 0.020386 0.000000
0.189575 0.015717 0.000000
0.221802 0.008331 0.000000
0.256073 0.001556 0.000000
0.292450 0.000000 0.000000
0.331177 0.000000 0.000000
0.372223 0.000000 0.000000
0.415802 0.000000 0.000000
0.461761 0.000000 0.000000
0.509888 0.000000 0.000000
0.559296 0.000000 0.000000
0.608551 0.000000 0.000000
0.658173 0.000000 0.000000
0.708740 0.000000 0.000000
0.759766 0.000000 0.000000
0.810852 0.000000 0.000000
0.861664 0.000000 0.000000
0.911499 0.000000 0.000000
0.959839 0.000000 0.000000
0.997803 0.000000 0.000000
1.000000 0.000000 0.000000
1.000000 0.000000 0.000000
1.000000 0.000000 0.000000
1.000000 0.000000 0.000000
1.000000 0.000000 0.000000
1.000000 0.000000 0.000000
0.000000 0.096191 0.000000
0.000061 0.082642 0.000000
0.012268 0.069214 0.000000
0.042450 0.056000 0.000000
0.072906 0.041901 0.000000
0.100586 0.040314 0.000000
0.128784 0.038055 0.000000
0.157135 0.034698 0.000000
0.187469 0.029694 0.000000
0.219727 0.023132 0.000000
0.254242 0.013092 0.000000
0.290710 0.002502 0.000000
0.329468 0.000000 0.000000
0.370636 0.000000 0.000000
0.414215 0.000000 0.000000
0.460175 0.000000 0.000000
0.508179 0.000000 0.000000
0.557983 0.000000 0.000000
0.607880 0.000000 0.000000
0.657532 0.000000 0.000000
0.707977 0.000000 0.000000
0.758911 0.000000 0.000000
0.809906 0.000000 0.000000
0.860565 0.000000 0.000000
0.910370 0.000000 0.000000
0.958893 0.000000 0.000000
0.997650 0.000000 0.000000
1.000000 0.000000 0.000000
1.000000 0.000000 0.000000
1.000000 0.000000 0.000000
1.000000 0.000000 0.000000
1.000000 0.000000 0.000000
1.000000 0.000000 0.000000
0.000000 0.126251 0.000000
0.000000 0.112000 0.000000
0.001251 0.097717 0.000000
0.030975 0.084076 0.000000
0.066132 0.070251 0.000000
0.096863 0.056122 0.000000
0.125366 0.053894 0.000000
0.154297 0.051331 0.000000
0.184937 0.047394 0.000000
0.217621 0.040955 0.000000
0.252228 0.031403 0.000000
0.288879 0.018646 0.000000
0.327698 0.003693 0.000000
0.368896 0.000000 0.000000
0.412598 0.000000 0.000000
0.458557 0.000000 0.000000
0.506561 0.000000 0.000000
0.556671 0.000000 0.000000
0.607239 0.000000 0.000000
0.657074 0.000000 0.000000
0.707336 0.000000 0.000000
0.758148 0.000000 0.000000
0.809174 0.000000 0.000000
0.859772 0.000000 0.000000
0.909454 0.000000 0.000000
0.958130 0.000000 0.000000
0.997498 0.000000 0.000000
1.000000 0.000000 0.000000
1.000000 0.000000 0.000000
1.000000 0.000000 0.000000
1.000000 0.000000 0.000000
1.000000 0.000000 0.000000
1.000000 0.000000 0.000000
0.000000 0.158997 0.000000
0.000000 0.143555 0.000000
0.000000 0.128448 0.000000
0.013397 0.113892 0.000000
0.054901 0.099548 0.000000
0.090240 0.085114 0.000000
0.121704 0.070496 0.000000
0.151154 0.067963 0.000000
0.182190 0.064911 0.000000
0.215240 0.059937 0.000000
0.250031 0.052551 0.000000
0.286835 0.041321 0.000000
0.325806 0.025177 0.000000
0.367096 0.005585 0.000000
0.410797 0.000244 0.000000
0.456787 0.000000 0.000000
0.504883 0.000000 0.000000
0.554901 0.000000 0.000000
0.606232 0.000000 0.000000
0.656708 0.000000 0.000000
0.706879 0.000000 0.000000
0.757629 0.000000 0.000000
0.808563 0.000000 0.000000
0.859100 0.000000 0.000000
0.908661 0.000000 0.000000
0.957245 0.000000 0.000000
0.996887 0.000000 0.000000
1.000000 0.000000 0.000000
1.000000 0.000000 0.000000
1.000000 0.000000 0.000000
1.000000 0.000000 0.000000
1.000000 0.000000 0.000000
1.000000 0.000000 0.000000
0.000000 0.194977 0.000000
0.000000 0.177826 0.000000
0.000000 0.161591 0.000000
0.001801 0.145691 0.000000
0.034943 0.130646 0.000000
0.079651 0.115540 0.000000
0.114868 0.100494 0.000000
0.147430 0.085114 0.000000
0.179016 0.082245 0.000000
0.212372 0.078430 0.000000
0.247620 0.072876 0.000000
0.284760 0.064362 0.000000
0.323853 0.051788 0.000000
0.365204 0.032440 0.000000
0.408966 0.008331 0.000000
0.454987 0.000702 0.000000
0.503113 0.000000 0.000000
0.553192 0.000000 0.000000
0.604858 0.000000 0.000000
0.656250 0.000000 0.000000
0.706604 0.000000 0.000000
0.757263 0.000000 0.000000
0.807983 0.000000 0.000000
0.858429 0.000000 0.000000
0.907990 0.000000 0.000000
0.956421 0.000000 0.000000
0.996063 0.000000 0.000000
1.000000 0.000000 0.000000
1.000000 0.000000 0.000000
1.000000 0.000000 0.000000
1.000000 0.000000 0.000000
1.000000 0.000000 0.000000
1.000000 0.000000 0.000000
0.000000 0.234344 0.000000
0.000000 0.215881 0.000000
0.000000 0.198090 0.000000
0.000031 0.181000 0.000000
0.005798 0.164429 0.000000
0.060944 0.148193 0.000000
0.104736 0.132385 0.000000
0.141174 0.116425 0.000000
0.175507 0.100067 0.000000
0.209412 0.096588 0.000000
0.244934 0.092255 0.000000
0.282379 0.085907 0.000000
0.321716 0.076630 0.000000
0.363220 0.063080 0.000000
0.407043 0.041748 0.000000
0.453186 0.012268 0.000000
0.501343 0.001343 0.000000
0.551422 0.000000 0.000000
0.603180 0.000000 0.000000
0.655457 0.000000 0.000000
0.706390 0.000000 0.000000
0.756989 0.000000 0.000000
0.807648 0.000000 0.000000
0.858002 0.000000 0.000000
0.907379 0.000000 0.000000
0.955719 0.000000 0.000000
0.995392 0.000000 0.000000
1.000000 0.000000 0.000000
1.000000 0.000000 0.000000
1.000000 0.000000 0.000000
1.000000 0.000000 0.000000
1.000000 0.000000 0.000000
1.000000 0.000000 0.000000
0.000000 0.277405 0.000000
0.000000 0.257172 0.000000
0.000000 0.237854 0.000000
0.000000 0.219452 0.000000
0.000275 0.201355 0.000000
0.023712 0.183990 0.000000
0.087433 0.167053 0.000000
0.131409 0.150146 0.000000
0.169525 0.133087 0.000000
0.205780 0.115692 0.000000
0.241821 0.111725 0.000000
0.279633 0.106781 0.000000
0.319244 0.099762 0.000000
0.360931 0.089966 0.000000
0.405029 0.075287 0.000000
0.451202 0.052460 0.000000
0.499481 0.017609 0.000000
0.549561 0.002502 0.000000
0.601318 0.000000 0.000000
0.654266 0.000000 0.000000
0.706146 0.000000 0.000000
0.756744 0.000000 0.000000
0.807312 0.000000 0.000000
0.857574 0.000000 0.000000
0.906860 0.000000 0.000000
0.954956 0.000000 0.000000
0.994720 0.000000 0.000000
1.000000 0.000000 0.000000
1.000000 0.000000 0.000000
1.000000 0.000000 0.000000
1.000000 0.000000 0.000000
1.000000 0.000000 0.000000
1.000000 0.000000 0.000000
0.000000 0.323822 0.000000
0.000000 0.302002 0.000000
0.000000 0.281036 0.000000
0.000000 0.261078 0.000000
0.000000 0.241669 0.000000
0.003387 0.222900 0.000000
0.053009 0.204803 0.000000
0.115143 0.186951 0.000000
0.160004 0.169067 0.000000
0.199982 0.150726 0.000000
0.238190 0.132294 0.000000
0.276459 0.127777 0.000000
0.316467 0.122284 0.000000
0.358521 0.114624 0.000000
0.402771 0.103882 0.000000
0.449158 0.088257 0.000000
0.497437 0.064545 0.000000
0.547668 0.024872 0.000000
0.599426 0.004181 0.000000
0.652557 0.000000 0.000000
0.705505 0.000000 0.000000
0.756531 0.000000 0.000000
0.806976 0.000000 0.000000
0.857086 0.000000 0.000000
0.906311 0.000000 0.000000
0.954346 0.000000 0.000000
0.994080 0.000000 0.000000
1.000000 0.000000 0.000000
1.000000 0.000000 0.000000
1.000000 0.000000 0.000000
1.000000 0.000000 0.000000
1.000000 0.000000 0.000000
1.000000 0.000000 0.000000
0.000000 0.373383 0.000000
0.000000 0.350220 0.000000
0.000000 0.327881 0.000000
0.000000 0.306274 0.000000
0.000000 0.285309 0.000000
0.000000 0.265015 0.000000
0.009949 0.245453 0.000000
0.086731 0.226532 0.000000
0.144745 0.207794 0.000000
0.190765 0.188782 0.000000
0.232513 0.169342 0.000000
0.272766 0.149597 0.000000
0.313324 0.144562 0.000000
0.355652 0.138519 0.000000
0.400269 0.130096 0.000000
0.446869 0.118378 0.000000
0.495300 0.102142 0.000000
0.545532 0.078125 0.000000
0.597443 0.035370 0.000000
0.650513 0.007141 0.000000
0.704254 0.000000 0.000000
0.756226 0.000000 0.000000
0.806641 0.000000 0.000000
0.856628 0.000000 0.000000
0.905701 0.000000 0.000000
0.953644 0.000000 0.000000
0.993408 0.000000 0.000000
1.000000 0.000000 0.000000
1.000000 0.000000 0.000000
1.000000 0.000000 0.000000
1.000000 0.000000 0.000000
1.000000 0.000000 0.000000
1.000000 0.000000 0.000000
0.000000 0.426178 0.000000
0.000000 0.401764 0.000000
0.000000 0.377838 0.000000
0.000000 0.355042 0.000000
0.000000 0.332336 0.000000
0.000000 0.310516 0.000000
0.000397 0.289368 0.000000
0.030212 0.269135 0.000000
0.119843 0.249237 0.000000
0.176300 0.229523 0.000000
0.223633 0.209412 0.000000
0.267181 0.188843 0.000000
0.309601 0.167847 0.000000
0.352570 0.162140 0.000000
0.397400 0.155457 0.000000
0.444275 0.146332 0.000000
0.492981 0.133911 0.000000
0.543304 0.117126 0.000000
0.595245 0.093201 0.000000
0.648376 0.051819 0.000000
0.702423 0.012878 0.000000
0.755524 0.000244 0.000000
0.806213 0.000000 0.000000
0.856110 0.000000 0.000000
0.905060 0.000000 0.000000
0.952850 0.000000 0.000000
0.992645 0.000000 0.000000
1.000000 0.000000 0.000000
1.000000 0.000000 0.000000
1.000000 0.000000 0.000000
1.000000 0.000000 0.000000
1.000000 0.000000 0.000000
1.000000 0.000000 0.000000
0.000000 0.481812 0.000000
0.000000 0.456024 0.000000
0.000000 0.430756 0.000000
0.000000 0.406616 0.000000
0.000000 0.382812 0.000000
0.000000 0.359497 0.000000
0.000000 0.336884 0.000000
0.004669 0.315033 0.000000
0.067261 0.293823 0.000000
0.153412 0.273010 0.000000
0.209900 0.252197 0.000000
0.258606 0.230957 0.000000
0.304169 0.209106 0.000000
0.348755 0.186859 0.000000
0.394226 0.180481 0.000000
0.441406 0.173126 0.000000
0.490295 0.163513 0.000000
0.540894 0.150604 0.000000
0.592896 0.133636 0.000000
0.646027 0.110413 0.000000
0.700043 0.074341 0.000000
0.754150 0.026459 0.000000
0.805603 0.005524 0.000000
0.855438 0.000000 0.000000
0.904327 0.000000 0.000000
0.951935 0.000000 0.000000
0.991791 0.000000 0.000000
1.000000 0.000000 0.000000
1.000000 0.000000 0.000000
1.000000 0.000000 0.000000
1.000000 0.000000 0.000000
1.000000 0.000000 0.000000
1.000000 0.000000 0.000000
0.000000 0.539124 0.000000
0.000000 0.512360 0.000000
0.000000 0.486481 0.000000
0.000000 0.461090 0.000000
0.000000 0.436096 0.000000
0.000000 0.411591 0.000000
0.000000 0.387695 0.000000
0.000031 0.364380 0.000000
0.014618 0.341766 0.000000
0.111877 0.319794 0.000000
0.188416 0.297943 0.000000
0.245453 0.275940 0.000000
0.295837 0.253448 0.000000
0.343567 0.230347 0.000000
0.390411 0.206635 0.000000
0.438110 0.199707 0.000000
0.487366 0.191864 0.000000
0.538086 0.181915 0.000000
0.590271 0.168823 0.000000
0.643494 0.152191 0.000000
0.697540 0.130249 0.000000
0.751984 0.099762 0.000000
0.804626 0.055695 0.000000
0.854584 0.024109 0.000000
0.903381 0.006042 0.000000
0.950897 0.000000 0.000000
0.990814 0.000000 0.000000
1.000000 0.000000 0.000000
1.000000 0.000000 0.000000
1.000000 0.000000 0.000000
1.000000 0.000000 0.000000
1.000000 0.000000 0.000000
1.000000 0.000000 0.000000
0.000000 0.597443 0.000000
0.000000 0.570404 0.000000
0.000000 0.543976 0.000000
0.000000 0.517761 0.000000
0.000000 0.491791 0.000000
0.000000 0.466370 0.000000
0.000000 0.441315 0.000000
0.000000 0.416809 0.000000
0.000610 0.392822 0.000000
0.036530 0.369568 0.000000
0.153748 0.346710 0.000000
0.225189 0.323853 0.000000
0.283142 0.300720 0.000000
0.335449 0.276978 0.000000
0.385315 0.252472 0.000000
0.434296 0.227356 0.000000
0.483917 0.219940 0.000000
0.534973 0.211761 0.000000
0.587341 0.201660 0.000000
0.640686 0.188751 0.000000
0.694763 0.172821 0.000000
0.749268 0.152618 0.000000
0.802979 0.127563 0.000000
0.853485 0.097656 0.000000
0.902252 0.062378 0.000000
0.949646 0.036194 0.000000
0.989716 0.019409 0.000000
1.000000 0.010132 0.000000
1.000000 0.004456 0.000000
1.000000 0.002228 0.000000
1.000000 0.004272 0.000000
1.000000 0.010315 0.000000
1.000000 0.018555 0.000000
0.000000 0.655914 0.000000
0.000000 0.628967 0.000000
0.000000 0.602295 0.000000
0.000000 0.575714 0.000000
0.000000 0.549164 0.000000
0.000000 0.523071 0.000000
0.000000 0.497253 0.000000
0.000000 0.471649 0.000000
0.000000 0.446655 0.000000
0.005493 0.422150 0.000000
0.078033 0.398193 0.000000
0.194214 0.374390 0.000000
0.264313 0.350555 0.000000
0.323273 0.326385 0.000000
0.377411 0.301361 0.000000
0.429169 0.275482 0.000000
0.480011 0.249146 0.000000
0.531433 0.241333 0.000000
0.584015 0.232971 0.000000
0.637573 0.222870 0.000000
0.691711 0.210541 0.000000
0.746216 0.195496 0.000000
0.800446 0.177704 0.000000
0.852020 0.158844 0.000000
0.900818 0.139282 0.000000
0.948120 0.117371 0.000000
0.988403 0.089844 0.000000
1.000000 0.073639 0.000000
1.000000 0.063599 0.000000
1.000000 0.059479 0.000000
1.000000 0.063202 0.000000
1.000000 0.074524 0.000000
1.000000 0.090759 0.000000
0.000000 0.713501 0.000000
0.000000 0.687134 0.000000
0.000000 0.660889 0.000000
0.000000 0.634338 0.000000
0.000000 0.607666 0.000000
0.000000 0.580963 0.000000
0.000000 0.554688 0.000000
0.000000 0.528442 0.000000
0.000000 0.502594 0.000000
0.000000 0.477142 0.000000
0.019012 0.452148 0.000000
0.137512 0.427521 0.000000
0.236389 0.402863 0.000000
0.305603 0.378021 0.000000
0.365692 0.352722 0.000000
0.421356 0.326630 0.000000
0.474823 0.299622 0.000000
0.527344 0.272003 0.000000
0.580261 0.264008 0.000000
0.634003 0.255676 0.000000
0.688324 0.245850 0.000000
0.742889 0.234253 0.000000
0.797302 0.220612 0.000000
0.850006 0.206055 0.000000
0.899048 0.192444 0.000000
0.946289 0.178986 0.000000
0.986847 0.166534 0.000000
1.000000 0.156219 0.000000
1.000000 0.149811 0.000000
1.000000 0.147919 0.000000
1.000000 0.151703 0.000000
1.000000 0.161560 0.000000
1.000000 0.176056 0.000000
0.000000 0.769226 0.000000
0.000000 0.744049 0.000000
0.000000 0.718445 0.000000
0.000000 0.692383 0.000000
0.000000 0.666107 0.000000
0.000000 0.639496 0.000000
0.000000 0.612976 0.000000
0.000000 0.586487 0.000000
0.000000 0.560089 0.000000
0.000000 0.533966 0.000000
0.000824 0.508087 0.000000
0.051300 0.482819 0.000000
0.193939 0.457520 0.000000
0.280212 0.432068 0.000000
0.349030 0.406250 0.000000
0.409973 0.380005 0.000000
0.467010 0.352875 0.000000
0.522003 0.324677 0.000000
0.575989 0.295929 0.000000
0.630035 0.287903 0.000000
0.684509 0.279877 0.000000
0.739197 0.270508 0.000000
0.793610 0.259888 0.000000
0.847107 0.248352 0.000000
0.896912 0.237457 0.000000
0.944122 0.227692 0.000000
0.985016 0.219208 0.000000
1.000000 0.212830 0.000000
1.000000 0.209106 0.000000
1.000000 0.209076 0.000000
1.000000 0.212677 0.000000
1.000000 0.220581 0.000000
1.000000 0.231903 0.000000
0.000000 0.821869 0.000000
0.000000 0.798157 0.000000
0.000000 0.773773 0.000000
0.000000 0.748810 0.000000
0.000000 0.723175 0.000000
0.000000 0.697327 0.000000
0.000000 0.671173 0.000000
0.000000 0.644775 0.000000
0.000000 0.618286 0.000000
0.000000 0.591888 0.000000
0.000000 0.565491 0.000000
0.009521 0.539459 0.000000
0.109344 0.513702 0.000000
0.243530 0.487946 0.000000
0.325836 0.461731 0.000000
0.394348 0.435089 0.000000
0.456024 0.407959 0.000000
0.514160 0.379944 0.000000
0.570435 0.350647 0.000000
0.625519 0.320953 0.000000
0.680328 0.313110 0.000000
0.735107 0.305420 0.000000
0.789612 0.296814 0.000000
0.843292 0.287628 0.000000
0.894318 0.278656 0.000000
0.941559 0.271027 0.000000
0.982910 0.264709 0.000000
1.000000 0.260254 0.000000
1.000000 0.258179 0.000000
1.000000 0.258759 0.000000
1.000000 0.262512 0.000000
1.000000 0.269379 0.000000
1.000000 0.279175 0.000000
0.000000 0.870514 0.000000
0.000000 0.848358 0.000000
0.000000 0.826019 0.000000
0.000000 0.802551 0.000000
0.000000 0.778290 0.000000
0.000000 0.753418 0.000000
0.000000 0.728058 0.000000
0.000000 0.702271 0.000000
0.000000 0.676208 0.000000
0.000000 0.649933 0.000000
0.000000 0.623474 0.000000
0.000031 0.597015 0.000000
0.034576 0.570862 0.000000
0.183899 0.544739 0.000000
0.293854 0.518524 0.000000
0.373138 0.491638 0.000000
0.441223 0.464417 0.000000
0.503540 0.436401 0.000000
0.562561 0.407684 0.000000
0.619659 0.377563 0.000000
0.675507 0.347137 0.000000
0.730591 0.339691 0.000000
0.785187 0.332458 0.000000
0.838898 0.324951 0.000000
0.890900 0.317566 0.000000
0.938599 0.311279 0.000000
0.980438 0.306458 0.000000
1.000000 0.303192 0.000000
1.000000 0.301910 0.000000
1.000000 0.302979 0.000000
1.000000 0.306671 0.000000
1.000000 0.313141 0.000000
1.000000 0.321869 0.000000
0.000000 0.914703 0.000000
0.000000 0.894623 0.000000
0.000000 0.874115 0.000000
0.000000 0.852570 0.000000
0.000000 0.830170 0.000000
0.000000 0.806824 0.000000
0.000000 0.782593 0.000000
0.000000 0.757965 0.000000
0.000000 0.732635 0.000000
0.000000 0.707031 0.000000
0.000000 0.681030 0.000000
0.000031 0.654694 0.000000
0.002838 0.628510 0.000000
0.084045 0.602295 0.000000
0.250519 0.575897 0.000000
0.345032 0.549164 0.000000
0.421753 0.521759 0.000000
0.489410 0.493927 0.000000
0.552063 0.465363 0.000000
0.611694 0.435974 0.000000
0.669342 0.405304 0.000000
0.725525 0.374420 0.000000
0.780304 0.367462 0.000000
0.834076 0.361115 0.000000
0.886353 0.354950 0.000000
0.935181 0.349457 0.000000
0.977631 0.345734 0.000000
0.999969 0.343353 0.000000
1.000000 0.342590 0.000000
1.000000 0.343964 0.000000
1.000000 0.347595 0.000000
1.000000 0.353638 0.000000
1.000000 0.361511 0.000000
0.000000 0.954254 0.000000
0.000000 0.936554 0.000000
0.000000 0.917694 0.000000
0.000000 0.898407 0.000000
0.000000 0.877838 0.000000
0.000000 0.856232 0.000000
0.000000 0.833679 0.000000
0.000000 0.810638 0.000000
0.000000 0.786652 0.000000
0.000000 0.761993 0.000000
0.000000 0.737030 0.000000
0.000000 0.711426 0.000000
0.000000 0.685577 0.000000
0.023499 0.659698 0.000000
0.168884 0.633423 0.000000
0.308624 0.606812 0.000000
0.396881 0.579773 0.000000
0.471436 0.551971 0.000000
0.538605 0.523651 0.000000
0.601257 0.494690 0.000000
0.661102 0.464844 0.000000
0.718933 0.433838 0.000000
0.774872 0.402802 0.000000
0.828827 0.396545 0.000000
0.881134 0.391388 0.000000
0.931091 0.386780 0.000000
0.974457 0.383270 0.000000
0.999725 0.381470 0.000000
1.000000 0.381287 0.000000
1.000000 0.382874 0.000000
1.000000 0.386444 0.000000
1.000000 0.391693 0.000000
1.000000 0.398987 0.000000
0.000000 0.985657 0.000000
0.000000 0.973389 0.000000
0.000000 0.957001 0.000000
0.000000 0.939453 0.000000
0.000000 0.921051 0.000000
0.000000 0.901428 0.000000
0.000000 0.880798 0.000000
0.000000 0.859497 0.000000
0.000000 0.837250 0.000000
0.000000 0.814056 0.000000
0.000000 0.790344 0.000000
0.000000 0.765961 0.000000
0.000000 0.740906 0.000000
0.000244 0.715607 0.000000
0.083191 0.690063 0.000000
0.261261 0.663971 0.000000
0.366302 0.637268 0.000000
0.449341 0.610046 0.000000
0.522003 0.582123 0.000000
0.588409 0.553558 0.000000
0.650696 0.524292 0.000000
0.710297 0.494232 0.000000
0.767700 0.463226 0.000000
0.822998 0.432068 0.000000
0.875397 0.426849 0.000000
0.925720 0.423065 0.000000
0.970947 0.420044 0.000000
0.999329 0.418579 0.000000
1.000000 0.418640 0.000000
1.000000 0.420227 0.000000
1.000000 0.423553 0.000000
1.000000 0.428436 0.000000
1.000000 0.435181 0.000000
0.000000 1.000000 0.000000
0.000000 0.998047 0.000000
0.000000 0.987976 0.000000
0.000000 0.975555 0.000000
0.000000 0.959625 0.000000
0.000000 0.942078 0.000000
0.000000 0.923462 0.000000
0.000000 0.904053 0.000000
0.000000 0.883575 0.000000
0.000000 0.862183 0.000000
0.000000 0.839996 0.000000
0.000000 0.817139 0.000000
0.000000 0.793488 0.000000
0.000000 0.769226 0.000000
0.026978 0.744507 0.000000
0.178741 0.719360 0.000000
0.329498 0.693542 0.000000
0.423553 0.666931 0.000000
0.502441 0.639740 0.000000
0.572937 0.611938 0.000000
0.638214 0.583252 0.000000
0.699829 0.553925 0.000000
0.758606 0.524048 0.000000
0.815063 0.493195 0.000000
0.869202 0.462372 0.000000
0.919556 0.458466 0.000000
0.966858 0.455872 0.000000
0.998871 0.454803 0.000000
1.000000 0.454803 0.000000
1.000000 0.456268 0.000000
1.000000 0.459473 0.000000
1.000000 0.463959 0.000000
1.000000 0.470215 0.000000
0.000000 1.000000 0.000000
0.000000 1.000000 0.000000
0.000000 1.000000 0.000000
0.000000 0.998627 0.000000
0.000000 0.989716 0.000000
0.000000 0.977295 0.000000
0.000000 0.961456 0.000000
0.000000 0.943970 0.000000
0.000000 0.925415 0.000000
0.000000 0.905914 0.000000
0.000000 0.885590 0.000000
0.000000 0.864349 0.000000
0.000000 0.842346 0.000000
0.000000 0.819489 0.000000
0.000793 0.796112 0.000000
0.108795 0.772217 0.000000
0.288055 0.747589 0.000000
0.394745 0.722046 0.000000
0.480621 0.695801 0.000000
0.555603 0.668793 0.000000
0.623871 0.641083 0.000000
0.687592 0.612762 0.000000
0.747986 0.583679 0.000000
0.805542 0.554016 0.000000
0.860443 0.523773 0.000000
0.912903 0.493744 0.000000
0.960876 0.491058 0.000000
0.998169 0.489807 0.000000
1.000000 0.490021 0.000000
1.000000 0.491364 0.000000
1.000000 0.494446 0.000000
1.000000 0.498505 0.000000
1.000000 0.504089 0.000000
0.000000 1.000000 0.000000
0.000000 1.000000 0.000000
0.000000 1.000000 0.000000
0.000000 1.000000 0.000000
0.000000 1.000000 0.000000
0.000000 0.999023 0.000000
0.000000 0.991028 0.000000
0.000000 0.978577 0.000000
0.000000 0.962769 0.000000
0.000000 0.945160 0.000000
0.000000 0.926697 0.000000
0.000000 0.907257 0.000000
0.000000 0.886871 0.000000
0.000000 0.865753 0.000000
0.000000 0.843994 0.000000
0.066742 0.821594 0.000000
0.232178 0.798340 0.000000
0.364777 0.774200 0.000000
0.457947 0.749207 0.000000
0.537201 0.723511 0.000000
0.608459 0.696930 0.000000
0.674255 0.669617 0.000000
0.736023 0.641785 0.000000
0.794617 0.613281 0.000000
0.850281 0.584229 0.000000
