滤镜资源/Professional Luts Collection/Lutify.me Professional/Vintage Films/Turquoise.cube
# Created by: Lutify.me
# Copyright: (c) Copyright Lutify.me 2015
# Website: https://lutify.me
#LUT size
LUT_3D_SIZE 5
#LUT data points
0.000000 0.000000 0.000000
0.195587 0.000000 0.000000
0.514191 0.000000 0.000000
0.915192 0.000000 0.000000
1.000000 0.000000 0.000000
0.000000 0.234344 0.000000
0.175507 0.100067 0.000000
0.501343 0.001343 0.000000
0.907379 0.000000 0.000000
1.000000 0.000000 0.000000
0.000000 0.655914 0.000000
0.000000 0.446655 0.000000
0.480011 0.249146 0.000000
0.900818 0.139282 0.000000
1.000000 0.090759 0.000000
0.000000 1.000000 0.000000
0.000000 0.883575 0.000000
0.329498 0.693542 0.000000
0.869202 0.462372 0.000000
1.000000 0.470215 0.000000
0.281738 1.000000 0.000000
0.000000 1.000000 0.000000
0.219238 1.000000 0.000000
0.789032 0.880859 0.000000
1.000000 0.714630 0.000000
0.000000 0.000000 0.240540
0.139801 0.000000 0.102631
0.440918 0.000000 0.065125
0.861786 0.000000 0.000000
1.000000 0.000000 0.000000
0.000000 0.115479 0.183319
0.119629 0.221619 0.211029
0.514771 0.187927 0.175323
0.940338 0.001404 0.085236
1.000000 0.000000 0.000000
0.000000 0.483276 0.044312
0.000000 0.648621 0.006287
0.468292 0.435272 0.100952
0.906555 0.404510 0.000000
1.000000 0.416962 0.000000
0.000000 0.914246 0.000000
0.000000 0.997833 0.000000
0.235962 0.864471 0.000000
0.847321 0.670746 0.000000
1.000000 0.675171 0.000000
0.000000 1.000000 0.000000
0.421448 1.000000 0.149933
0.476074 1.000000 0.000000
0.800415 0.978821 0.000000
1.000000 0.858398 0.000000
0.000000 0.000000 0.594269
0.000000 0.000000 0.422974
0.367157 0.000000 0.228119
0.779053 0.000000 0.179382
1.000000 0.000000 0.088531
0.000000 0.051514 0.551392
0.000000 0.166931 0.607666
0.426819 0.171417 0.384613
0.858582 0.004211 0.340027
1.000000 0.000000 0.285217
0.000000 0.305908 0.459076
0.000000 0.462097 0.503967
0.385590 0.618134 0.528107
0.865387 0.603180 0.492188
1.000000 0.617523 0.456055
0.000000 0.765137 0.367859
0.000000 0.893341 0.410309
0.267914 0.959961 0.467468
0.800629 0.819275 0.460327
1.000000 0.812195 0.433502
0.000000 1.000000 0.285309
0.000000 1.000000 0.424927
0.636871 1.000000 0.565826
0.809021 1.000000 0.463928
1.000000 0.933014 0.434235
0.000000 0.000000 0.944427
0.000000 0.000000 0.802765
0.253937 0.000000 0.623138
0.690002 0.000000 0.389069
1.000000 0.000000 0.341553
0.000000 0.000000 0.951355
0.000000 0.053040 0.982330
0.299347 0.031281 0.809692
0.764160 0.000000 0.577576
1.000000 0.000000 0.536346
0.000000 0.249298 0.874207
0.000000 0.415192 0.903076
0.306488 0.576660 0.908783
0.772034 0.584686 0.725006
1.000000 0.595673 0.693146
0.000000 0.570282 0.772797
0.000000 0.729614 0.799988
0.140442 0.844635 0.812500
0.757416 0.906250 0.824097
1.000000 0.891113 0.809692
0.000000 0.956940 0.702332
0.000000 1.000000 0.745270
0.438202 1.000000 0.782593
0.831940 1.000000 0.832733
1.000000 0.971161 0.807526
0.000000 0.000000 1.000000
0.000000 0.000000 1.000000
0.000000 0.000000 0.976196
0.634827 0.000000 0.810699
1.000000 0.000000 0.579987
0.000000 0.000000 1.000000
0.008972 0.158752 1.000000
0.303711 0.000000 1.000000
0.725433 0.000000 0.947388
1.000000 0.000000 0.761627
0.000000 0.247009 1.000000
0.000000 0.421631 1.000000
0.518799 0.588379 1.000000
0.760223 0.548645 0.998718
1.000000 0.572754 0.867401
0.000000 0.536621 1.000000
0.000000 0.698364 1.000000
0.345093 0.814545 1.000000
0.775879 0.886658 1.000000
0.964966 0.882202 0.929779
0.000000 0.821747 0.964813
0.000000 0.916626 0.970215
0.360992 0.963135 0.974792
0.775879 0.984985 0.984558
0.999908 1.000000 0.999878
