滤镜资源/Professional Luts Collection/Lutify.me Professional/Vintage Films/Turquoise.cube
# Created by: Lutify.me
# Copyright: (c) Copyright Lutify.me 2015
# Website: https://lutify.me
#LUT size
LUT_3D_SIZE 9
#LUT data points
0.000000 0.000000 0.000000
0.086426 0.000000 0.000061
0.195587 0.000000 0.000000
0.336090 0.000000 0.000000
0.514191 0.000000 0.000000
0.711700 0.000000 0.000000
0.915192 0.000000 0.000000
1.000000 0.000000 0.000000
1.000000 0.000000 0.000000
0.000000 0.096191 0.000000
0.072906 0.041901 0.000000
0.187469 0.029694 0.000000
0.329468 0.000000 0.000000
0.508179 0.000000 0.000000
0.707977 0.000000 0.000000
0.910370 0.000000 0.000000
1.000000 0.000000 0.000000
1.000000 0.000000 0.000000
0.000000 0.234344 0.000000
0.005798 0.164429 0.000000
0.175507 0.100067 0.000000
0.321716 0.076630 0.000000
0.501343 0.001343 0.000000
0.706390 0.000000 0.000000
0.907379 0.000000 0.000000
1.000000 0.000000 0.000000
1.000000 0.000000 0.000000
0.000000 0.426178 0.000000
0.000000 0.332336 0.000000
0.119843 0.249237 0.000000
0.309601 0.167847 0.000000
0.492981 0.133911 0.000000
0.702423 0.012878 0.000000
0.905060 0.000000 0.000000
1.000000 0.000000 0.000000
1.000000 0.000000 0.000000
0.000000 0.655914 0.000000
0.000000 0.549164 0.000000
0.000000 0.446655 0.000000
0.264313 0.350555 0.000000
0.480011 0.249146 0.000000
0.691711 0.210541 0.000000
0.900818 0.139282 0.000000
1.000000 0.063599 0.000000
1.000000 0.090759 0.000000
0.000000 0.870514 0.000000
0.000000 0.778290 0.000000
0.000000 0.676208 0.000000
0.034576 0.570862 0.000000
0.441223 0.464417 0.000000
0.675507 0.347137 0.000000
0.890900 0.317566 0.000000
1.000000 0.301910 0.000000
1.000000 0.321869 0.000000
0.000000 1.000000 0.000000
0.000000 0.959625 0.000000
0.000000 0.883575 0.000000
0.000000 0.793488 0.000000
0.329498 0.693542 0.000000
0.638214 0.583252 0.000000
0.869202 0.462372 0.000000
1.000000 0.454803 0.000000
1.000000 0.470215 0.000000
0.000000 1.000000 0.000000
0.000000 1.000000 0.000000
0.000000 1.000000 0.000000
0.000000 0.962830 0.000000
0.144714 0.888184 0.000000
0.578522 0.799164 0.000000
0.827393 0.697784 0.000000
1.000000 0.591064 0.000000
1.000000 0.600311 0.000000
0.281738 1.000000 0.000000
0.000000 1.000000 0.000000
0.000000 1.000000 0.000000
0.000000 1.000000 0.000000
0.219238 1.000000 0.000000
0.557892 0.954987 0.000000
0.789032 0.880859 0.000000
0.976654 0.797913 0.000000
1.000000 0.714630 0.000000
0.000000 0.000000 0.110718
0.058258 0.000000 0.046631
0.168732 0.000000 0.034729
0.304535 0.000000 0.018555
0.477325 0.000000 0.000214
0.683502 0.000000 0.000000
0.902863 0.000000 0.000000
1.000000 0.000000 0.000000
1.000000 0.000000 0.000000
0.000000 0.047546 0.082855
0.043793 0.086700 0.094055
0.181396 0.078705 0.083832
0.332458 0.043396 0.066101
0.516235 0.000000 0.030029
0.727570 0.000000 0.000000
0.944275 0.000000 0.000000
1.000000 0.000000 0.000000
1.000000 0.000000 0.000000
0.000000 0.175110 0.059326
0.000000 0.230774 0.060486
0.162964 0.157013 0.072327
0.322937 0.144745 0.050293
0.509125 0.098328 0.008423
0.720123 0.000000 0.000000
0.935486 0.000000 0.000000
1.000000 0.000000 0.000000
1.000000 0.000000 0.000000
0.000000 0.348663 0.000031
0.000000 0.423798 0.000000
0.018066 0.329773 0.002075
0.304199 0.241882 0.010406
0.498047 0.223145 0.000000
0.710388 0.175171 0.000000
0.924377 0.061890 0.000000
1.000000 0.000000 0.000000
1.000000 0.001923 0.000000
0.000000 0.570099 0.000000
0.000000 0.653564 0.000000
0.000000 0.547943 0.000000
0.217621 0.445221 0.000000
0.478119 0.341095 0.000000
0.695557 0.319580 0.000000
0.909210 0.286224 0.000000
1.000000 0.260406 0.000000
1.000000 0.278656 0.000000
0.000000 0.798309 0.000000
0.000000 0.867249 0.000000
0.000000 0.775452 0.000000
0.000092 0.673523 0.000000
0.415192 0.567139 0.000000
0.672791 0.452606 0.000000
0.888367 0.436035 0.000000
1.000000 0.428711 0.000000
1.000000 0.444733 0.000000
0.000000 0.973175 0.000000
0.000000 0.999847 0.000000
0.000000 0.954102 0.000000
0.000000 0.877045 0.000000
0.275879 0.787384 0.000000
0.622955 0.684784 0.000000
0.860535 0.572266 0.000000
1.000000 0.568481 0.000000
1.000000 0.580261 0.000000
0.000000 1.000000 0.000000
0.000000 1.000000 0.000000
0.000000 1.000000 0.000000
0.000000 0.999908 0.000000
0.161194 0.952423 0.000000
0.572876 0.876068 0.000000
0.815613 0.786621 0.000000
0.999084 0.691254 0.000000
1.000000 0.696686 0.000000
0.000000 1.000000 0.000000
0.332123 1.000000 0.000000
0.168091 1.000000 0.000000
0.144470 1.000000 0.000000
0.351624 1.000000 0.000000
0.589203 0.996552 0.000000
0.791412 0.938934 0.000000
0.966187 0.868774 0.000000
1.000000 0.795166 0.000000
0.000000 0.000000 0.240540
0.005127 0.000000 0.173920
0.139801 0.000000 0.102631
0.273560 0.000000 0.087860
0.440918 0.000000 0.065125
0.642670 0.000000 0.021912
0.861786 0.000000 0.000000
1.000000 0.000000 0.000000
1.000000 0.000000 0.000000
0.000000 0.028076 0.216919
0.000061 0.067566 0.235504
0.147278 0.071930 0.157196
0.299133 0.041748 0.143341
0.478729 0.000000 0.122345
0.687164 0.000000 0.086548
0.904541 0.000000 0.019958
1.000000 0.000000 0.000000
1.000000 0.000000 0.000000
0.000000 0.115479 0.183319
0.000000 0.165100 0.199219
0.119629 0.221619 0.211029
0.317017 0.213013 0.196777
0.514771 0.187927 0.175323
0.728333 0.113678 0.141663
0.940338 0.001404 0.085236
1.000000 0.000000 0.003784
1.000000 0.000000 0.000000
0.000000 0.275452 0.156189
0.000000 0.344635 0.163055
0.000031 0.419464 0.161163
0.285797 0.321899 0.177551
0.498413 0.310791 0.151886
0.715698 0.285034 0.108643
0.926605 0.243469 0.027527
1.000000 0.211731 0.000000
1.000000 0.237732 0.000000
0.000000 0.483276 0.044312
0.000000 0.566345 0.021912
0.000000 0.648621 0.006287
0.096771 0.541870 0.058380
0.468292 0.435272 0.100952
0.694885 0.421814 0.027618
0.906555 0.404510 0.000000
1.000000 0.397400 0.000000
1.000000 0.416962 0.000000
0.000000 0.715179 0.000000
0.000000 0.792389 0.000000
0.000000 0.858917 0.000000
0.000000 0.767700 0.000000
0.379303 0.665070 0.000000
0.664368 0.554291 0.000000
0.879639 0.543732 0.000000
1.000000 0.541870 0.000000
1.000000 0.556244 0.000000
0.000000 0.914246 0.000000
0.000000 0.966125 0.000000
0.000000 0.997833 0.000000
0.000000 0.942047 0.000000
0.235962 0.864471 0.000000
0.608734 0.773071 0.000000
0.847321 0.670746 0.000000
0.999939 0.667358 0.000000
1.000000 0.675171 0.000000
0.000000 1.000000 0.000000
0.000000 1.000000 0.000000
0.000000 1.000000 0.000000
0.000031 1.000000 0.000000
0.266510 0.994629 0.000000
0.581299 0.934357 0.000000
0.806183 0.858215 0.000000
0.989014 0.774475 0.000000
1.000000 0.775848 0.000000
0.000000 1.000000 0.000000
0.016876 1.000000 0.000000
0.421448 1.000000 0.149933
0.404205 1.000000 0.000702
0.476074 1.000000 0.000000
0.629303 1.000000 0.000000
0.800415 0.978821 0.000000
0.957184 0.920929 0.000000
1.000000 0.858398 0.000000
0.000000 0.000000 0.403534
0.000000 0.000000 0.327332
0.096283 0.000000 0.242615
0.240540 0.000000 0.161560
0.404999 0.000000 0.143616
0.602692 0.000000 0.117950
0.820587 0.000000 0.075378
1.000000 0.000000 0.005585
1.000000 0.000000 0.000000
0.000000 0.002899 0.386658
0.000000 0.032043 0.414001
0.076691 0.039673 0.318848
0.262024 0.031189 0.226654
0.440613 0.000000 0.209045
0.646454 0.000000 0.185028
0.864166 0.000000 0.150970
1.000000 0.000000 0.101166
1.000000 0.000000 0.026215
0.000000 0.092224 0.348877
0.000000 0.143829 0.373901
0.004547 0.199493 0.395996
0.271881 0.204956 0.294769
0.473450 0.183441 0.276489
0.686493 0.115967 0.253510
0.900452 0.005737 0.222656
1.000000 0.000000 0.184052
1.000000 0.000000 0.133820
0.000000 0.200287 0.308014
0.000000 0.263153 0.329498
0.000000 0.333313 0.346954
0.227142 0.407043 0.358185
0.484497 0.398529 0.340637
0.711212 0.383026 0.317566
0.918915 0.362793 0.288849
1.000000 0.356201 0.256134
1.000000 0.380402 0.219635
0.000000 0.396698 0.277344
0.000000 0.476501 0.291046
0.000000 0.559601 0.299622
0.001801 0.637146 0.304443
0.441772 0.529144 0.317627
0.683441 0.519775 0.292633
0.893341 0.510040 0.261017
1.000000 0.509644 0.224548
1.000000 0.527161 0.182800
0.000000 0.627716 0.202026
0.000000 0.709625 0.205444
0.000000 0.785126 0.208008
0.000000 0.846619 0.213928
0.333160 0.751282 0.244843
0.646301 0.648346 0.255157
0.861328 0.639832 0.220398
1.000000 0.638855 0.177826
1.000000 0.649139 0.118744
0.000000 0.845428 0.027008
0.000000 0.906799 0.043365
0.000000 0.955750 0.077301
0.000000 0.986603 0.123322
0.239960 0.921600 0.134827
0.596008 0.843384 0.145691
0.827881 0.753540 0.163361
0.994568 0.748779 0.112061
1.000000 0.752258 0.076263
0.000000 0.995270 0.000000
0.000000 1.000000 0.000000
0.000000 1.000000 0.036102
0.038696 1.000000 0.142822
0.363647 1.000000 0.114624
0.598724 0.972412 0.091522
0.796997 0.910614 0.075867
0.967712 0.839722 0.071533
1.000000 0.837097 0.031952
0.000000 1.000000 0.000000
0.000000 1.000000 0.120483
0.236694 1.000000 0.281738
0.529205 1.000000 0.383820
0.569214 1.000000 0.296967
0.666656 1.000000 0.135803
0.807861 0.999237 0.082886
0.946747 0.955750 0.042969
1.000000 0.903046 0.025818
0.000000 0.000000 0.594269
0.000000 0.000000 0.505646
0.000000 0.000000 0.422974
0.206207 0.000000 0.321136
0.367157 0.000000 0.228119
0.562347 0.000000 0.206970
0.779053 0.000000 0.179382
0.989532 0.000000 0.141937
1.000000 0.000000 0.088531
0.000000 0.000000 0.592285
0.000000 0.000031 0.624420
0.000000 0.000214 0.517273
0.213715 0.000183 0.408356
0.398590 0.000000 0.304535
0.604095 0.000000 0.283691
0.822418 0.000000 0.258484
0.999969 0.000000 0.228058
1.000000 0.000000 0.192780
0.000000 0.051514 0.551392
0.000000 0.108429 0.582031
0.000000 0.166931 0.607666
0.205170 0.172668 0.499298
0.426819 0.171417 0.384613
0.642426 0.106445 0.363617
0.858582 0.004211 0.340027
1.000000 0.000000 0.313263
1.000000 0.000000 0.285217
0.000000 0.174225 0.507294
0.000000 0.238739 0.535339
0.000000 0.309967 0.559174
0.110687 0.383820 0.577576
0.429230 0.389832 0.461731
0.663818 0.376343 0.440552
0.876221 0.355988 0.418610
1.000000 0.345886 0.395050
1.000000 0.365387 0.371490
0.000000 0.305908 0.459076
0.000000 0.381439 0.483673
0.000000 0.462097 0.503967
0.002655 0.543823 0.519012
0.385590 0.618134 0.528107
0.655792 0.609894 0.511414
0.865387 0.603180 0.492188
0.999969 0.604248 0.473358
1.000000 0.617523 0.456055
0.000000 0.533051 0.425079
0.000000 0.616486 0.444031
0.000000 0.697449 0.459930
0.000000 0.769287 0.473663
0.269836 0.821838 0.490204
0.616608 0.729614 0.493713
0.831299 0.721375 0.476013
0.992249 0.719177 0.458862
1.000000 0.724884 0.443787
0.000000 0.765137 0.367859
0.000000 0.834991 0.388245
0.000000 0.893341 0.410309
0.000000 0.937164 0.434662
0.267914 0.959961 0.467468
0.583069 0.895172 0.464752
0.800629 0.819275 0.460327
0.963196 0.812836 0.446014
1.000000 0.812195 0.433502
0.000000 0.945099 0.307281
0.000000 0.986725 0.344391
0.000000 1.000000 0.384460
0.000061 1.000000 0.429718
0.432739 1.000000 0.474762
0.615265 0.994476 0.461304
0.785339 0.944824 0.448212
0.939636 0.886627 0.439209
1.000000 0.880554 0.430023
0.000000 1.000000 0.285309
0.000000 1.000000 0.345215
0.000000 1.000000 0.424927
0.405243 1.000000 0.498169
0.636871 1.000000 0.565826
0.701019 1.000000 0.512329
0.809021 1.000000 0.463928
0.931396 0.977875 0.447052
1.000000 0.933014 0.434235
0.000000 0.000000 0.785828
0.000000 0.000000 0.700012
0.000000 0.000000 0.614197
0.045380 0.000000 0.521820
0.338257 0.000000 0.409698
0.519775 0.000000 0.303894
0.736084 0.000000 0.280518
0.952881 0.000000 0.253479
1.000000 0.000000 0.223022
0.000000 0.000000 0.788086
0.000000 0.000000 0.833466
0.000000 0.000000 0.732849
0.021240 0.000000 0.622223
0.360809 0.000000 0.504395
0.557526 0.000000 0.391113
0.777893 0.000000 0.368408
0.985535 0.000000 0.344086
1.000000 0.000000 0.318848
0.000000 0.001312 0.766205
0.000000 0.050781 0.795135
0.000000 0.119751 0.817535
0.009308 0.124146 0.716705
0.382629 0.120605 0.599243
0.593445 0.085938 0.479950
0.813660 0.000519 0.457611
0.999237 0.000000 0.435272
1.000000 0.000000 0.413330
0.000000 0.137390 0.723358
0.000000 0.206360 0.750885
0.000000 0.280365 0.772644
0.000000 0.355011 0.788727
0.379333 0.359741 0.684143
0.612274 0.363617 0.562714
0.830933 0.344299 0.541107
0.999542 0.331726 0.521088
1.000000 0.347198 0.501953
0.000000 0.278961 0.675507
0.000000 0.356689 0.700928
0.000000 0.438538 0.720764
0.000000 0.520844 0.734955
0.335541 0.597992 0.741821
0.599182 0.602203 0.633789
0.818726 0.595673 0.614960
0.986877 0.595612 0.598541
1.000000 0.607208 0.583344
0.000000 0.431976 0.622345
0.000000 0.515137 0.645416
0.000000 0.598969 0.663696
0.000000 0.677673 0.676971
0.258667 0.745056 0.686340
0.582092 0.795898 0.693573
0.795654 0.787689 0.681976
0.952667 0.783783 0.669830
1.000000 0.785248 0.659302
0.000000 0.671844 0.585388
0.000000 0.749298 0.605988
0.000000 0.817078 0.624237
0.000000 0.871368 0.640533
0.168060 0.908936 0.656982
0.576050 0.931427 0.676300
0.772247 0.869202 0.673615
0.927490 0.861298 0.663635
1.000000 0.856995 0.655121
0.000000 0.877441 0.543427
0.000000 0.929321 0.569183
0.000000 0.968323 0.594879
0.000000 0.991943 0.620667
0.340881 0.999176 0.647888
0.631348 1.000000 0.675415
0.775360 0.967377 0.668091
0.912384 0.919342 0.660706
1.000000 0.911499 0.654083
0.000000 1.000000 0.518890
0.000000 1.000000 0.554443
0.000000 1.000000 0.588837
0.083008 1.000000 0.624359
0.543671 1.000000 0.669098
0.737732 1.000000 0.716858
0.809967 1.000000 0.678070
0.915802 0.992859 0.665436
1.000000 0.954102 0.656799
0.000000 0.000000 0.944427
0.000000 0.000000 0.876648
0.000000 0.000000 0.802765
0.000000 0.000000 0.723145
0.253937 0.000000 0.623138
0.495239 0.000000 0.505341
0.690002 0.000000 0.389069
0.909821 0.000000 0.365479
1.000000 0.000000 0.341553
0.000000 0.000000 0.947815
0.000000 0.000000 0.991913
0.000000 0.000000 0.923676
0.000000 0.000000 0.832245
0.268250 0.000000 0.721832
0.526733 0.000000 0.603729
0.729034 0.000000 0.484283
0.944672 0.000000 0.461823
1.000000 0.000000 0.440369
0.000000 0.000000 0.951355
0.000000 0.000000 0.971313
0.000000 0.053040 0.982330
0.000000 0.048981 0.907227
0.299347 0.031281 0.809692
0.561096 0.006897 0.696289
0.764160 0.000000 0.577576
0.968445 0.000000 0.555969
1.000000 0.000000 0.536346
0.000000 0.088776 0.915710
0.000000 0.169403 0.934875
0.000000 0.248871 0.947479
0.000000 0.326050 0.955048
0.319427 0.327454 0.875244
0.582703 0.329681 0.772919
0.782379 0.329193 0.659973
0.971680 0.314850 0.639679
1.000000 0.326782 0.621857
0.000000 0.249298 0.874207
0.000000 0.330811 0.891876
0.000000 0.415192 0.903076
0.000000 0.498901 0.908844
0.306488 0.576660 0.908783
0.574188 0.578796 0.826965
0.772034 0.584686 0.725006
0.947418 0.584930 0.707672
1.000000 0.595673 0.693146
0.000000 0.407837 0.826324
0.000000 0.493225 0.842590
0.000000 0.578125 0.853027
0.000000 0.657410 0.858063
0.219910 0.725677 0.859375
0.566132 0.781158 0.857758
0.750793 0.782166 0.777069
0.914398 0.777588 0.764771
1.000000 0.778412 0.754181
0.000000 0.570282 0.772797
0.000000 0.653107 0.788635
0.000000 0.729614 0.799988
0.000000 0.794220 0.807465
0.140442 0.844635 0.812500
0.553436 0.881653 0.817474
0.757416 0.906250 0.824097
0.903137 0.897552 0.817139
1.000000 0.891113 0.809692
0.000000 0.796326 0.734222
0.000000 0.858398 0.750946
0.000000 0.907990 0.765259
0.000000 0.943115 0.777832
0.231384 0.964233 0.789978
0.591248 0.976868 0.802979
0.777130 0.984711 0.817841
0.895996 0.944244 0.813995
1.000000 0.935730 0.807770
0.000000 0.956940 0.702332
0.000000 0.990326 0.724640
0.000000 1.000000 0.745270
0.000000 1.000000 0.764404
0.438202 1.000000 0.782593
0.667511 1.000000 0.801178
0.831940 1.000000 0.832733
0.908966 1.000000 0.813049
1.000000 0.971161 0.807526
0.000000 0.000000 1.000000
0.000000 0.000000 0.999664
0.000000 0.000000 0.957275
0.000000 0.000000 0.895935
0.059235 0.000000 0.824921
0.442810 0.000000 0.721649
0.668121 0.000000 0.603790
0.863098 0.000000 0.481964
1.000000 0.000000 0.460449
0.000000 0.000000 1.000000
0.000000 0.000000 1.000000
0.000000 0.000000 1.000000
0.000000 0.000000 0.992645
0.093323 0.000000 0.912567
0.478088 0.000000 0.812073
0.703186 0.000000 0.700775
0.896515 0.000000 0.581360
1.000000 0.000000 0.560974
0.000000 0.000000 1.000000
0.000000 0.000000 1.000000
0.000000 0.039703 1.000000
0.000000 0.000000 1.000000
0.218109 0.000000 0.974579
0.526581 0.000000 0.886200
0.739258 0.000000 0.785065
0.921997 0.000000 0.673309
1.000000 0.000000 0.653931
0.000000 0.026245 1.000000
0.000000 0.130341 1.000000
0.000000 0.223511 1.000000
0.002228 0.307526 1.000000
0.312042 0.296753 0.999908
0.566132 0.294952 0.937531
0.761963 0.294250 0.848297
0.928314 0.296631 0.748535
1.000000 0.305450 0.730286
0.000000 0.220612 1.000000
0.000000 0.307404 1.000000
0.000000 0.394714 1.000000
0.000000 0.479095 1.000000
0.344116 0.558105 1.000000
0.574524 0.559235 0.965454
0.757202 0.564240 0.889191
0.908295 0.573486 0.803040
1.000000 0.583923 0.787506
0.000000 0.386597 0.982239
0.000000 0.474640 0.988312
0.000000 0.560974 0.989502
0.000000 0.640625 0.987091
0.271790 0.709351 0.982330
0.575897 0.766144 0.975586
0.739624 0.766388 0.916077
0.879211 0.770325 0.843903
0.999512 0.771454 0.832458
0.000000 0.551697 0.936890
0.000000 0.635559 0.942871
0.000000 0.712250 0.944611
0.000000 0.776978 0.943268
0.180695 0.828247 0.940613
0.560059 0.867065 0.938599
0.750885 0.895325 0.938812
0.872375 0.893555 0.881622
0.990601 0.886902 0.874084
0.000000 0.706268 0.887238
0.000000 0.777802 0.894867
0.000000 0.837860 0.899536
0.000000 0.884186 0.902008
0.187805 0.916382 0.904114
0.570404 0.937836 0.907440
0.758545 0.953186 0.912750
0.893158 0.964172 0.919861
0.998199 0.955566 0.914825
0.000000 0.893494 0.850189
0.000000 0.937378 0.861023
0.000000 0.968292 0.870483
0.000000 0.988037 0.878815
0.379303 0.998962 0.886902
0.631897 1.000000 0.895691
0.792877 1.000000 0.905640
0.918427 1.000000 0.922302
0.998077 0.986206 0.913300
0.000000 0.000000 1.000000
0.000000 0.000000 1.000000
0.000000 0.000000 1.000000
0.000000 0.000000 1.000000
0.000000 0.000000 0.976196
0.381104 0.000000 0.910828
0.634827 0.000000 0.810699
0.841309 0.000000 0.699738
1.000000 0.000000 0.579987
0.000000 0.000000 1.000000
0.000000 0.000000 1.000000
0.000000 0.000000 1.000000
0.000000 0.000000 1.000000
0.052124 0.000000 1.000000
0.446869 0.000000 0.975677
0.677643 0.000000 0.888397
0.872833 0.000000 0.789001
1.000000 0.000000 0.677673
0.000000 0.000000 1.000000
0.000000 0.055298 1.000000
0.008972 0.158752 1.000000
0.118988 0.071320 1.000000
0.303711 0.000000 1.000000
0.524750 0.000000 1.000000
0.725433 0.000000 0.947388
0.900635 0.000000 0.860931
1.000000 0.000000 0.761627
0.000000 0.107086 1.000000
0.000000 0.203278 1.000000
0.000000 0.289276 1.000000
0.348419 0.373688 1.000000
0.442413 0.330872 1.000000
0.584442 0.263733 1.000000
0.758606 0.261169 0.985046
0.911407 0.263855 0.910492
1.000000 0.284454 0.824921
0.000000 0.247009 1.000000
0.000000 0.335144 1.000000
0.000000 0.421631 1.000000
0.267944 0.506927 1.000000
0.518799 0.588379 1.000000
0.615997 0.558075 1.000000
0.760223 0.548645 0.998718
0.895996 0.558228 0.939545
1.000000 0.572754 0.867401
0.000000 0.385834 1.000000
0.000000 0.475189 1.000000
0.000000 0.560394 1.000000
0.045258 0.638947 1.000000
0.451935 0.708527 1.000000
0.653351 0.768616 1.000000
0.745117 0.753326 1.000000
0.871033 0.757202 0.960419
0.978912 0.764252 0.898590
0.000000 0.536621 1.000000
0.000000 0.621887 1.000000
0.000000 0.698364 1.000000
0.000000 0.762695 1.000000
0.345093 0.814545 1.000000
0.606384 0.855072 1.000000
0.775879 0.886658 1.000000
0.864807 0.881500 0.983826
0.964966 0.882202 0.929779
0.000000 0.691498 0.999756
0.000000 0.762665 0.999847
0.000000 0.822296 0.999756
0.000000 0.868652 0.999603
0.304688 0.901642 0.999573
0.588440 0.924591 0.999756
0.759369 0.941498 1.000000
0.891571 0.954834 1.000000
0.975006 0.952148 0.963867
0.000000 0.821747 0.964813
0.000000 0.875397 0.968018
0.000000 0.916626 0.970215
0.000000 0.944672 0.972198
0.360992 0.963135 0.974792
0.614685 0.975677 0.978851
0.775879 0.984985 0.984558
0.897125 0.992889 0.991760
0.999908 1.000000 0.999878
