滤镜资源/Professional Luts Collection/Lutify.me Professional/Vintage Films/Unakite.cube
# Created by: Lutify.me
# Copyright: (c) Copyright Lutify.me 2015
# Website: https://lutify.me
#LUT size
LUT_3D_SIZE 5
#LUT data points
0.000000 0.000000 0.000000
0.130249 0.000000 0.003876
0.428558 0.000000 0.023743
0.833160 0.000000 0.069855
1.000000 0.000000 0.101685
0.037842 0.114197 0.002563
0.177643 0.113556 0.010498
0.476654 0.075714 0.038177
0.857758 0.000000 0.076477
1.000000 0.037964 0.096222
0.000000 0.459930 0.000000
0.208679 0.463989 0.000000
0.577362 0.472778 0.000000
0.900696 0.498871 0.000000
1.000000 0.569366 0.000000
0.026520 0.856079 0.000000
0.336823 0.852570 0.000000
0.672852 0.841949 0.000000
0.912231 0.843536 0.000000
1.000000 0.857208 0.000000
0.669861 0.975739 0.161835
0.723602 0.972961 0.177216
0.843231 0.967407 0.210266
0.961731 0.963928 0.247009
1.000000 0.964935 0.287628
0.000000 0.000000 0.144043
0.159821 0.000000 0.138367
0.460663 0.000000 0.157715
0.852722 0.000000 0.197235
1.000000 0.000000 0.229767
0.044769 0.121246 0.149902
0.199951 0.121277 0.151794
0.506317 0.073792 0.173706
0.875305 0.000000 0.209778
1.000000 0.066467 0.237762
0.000000 0.467926 0.146332
0.240631 0.471100 0.154419
0.596527 0.479523 0.184174
0.909546 0.507294 0.214081
1.000000 0.578094 0.228180
0.045959 0.860260 0.113922
0.366241 0.856201 0.137360
0.683868 0.847321 0.201813
0.915771 0.849518 0.239685
1.000000 0.863403 0.275085
0.672913 0.982727 0.370026
0.725983 0.979584 0.378143
0.843658 0.973236 0.398071
0.959625 0.969452 0.421936
1.000000 0.970490 0.449036
0.000000 0.000000 0.557770
0.001434 0.000000 0.557220
0.520905 0.000000 0.537903
0.913544 0.000000 0.554413
1.000000 0.000000 0.579376
0.000000 0.113312 0.565552
0.102570 0.091949 0.567230
0.565887 0.009949 0.551636
0.930481 0.000000 0.567749
1.000000 0.016113 0.589813
0.000000 0.490570 0.577393
0.221680 0.493500 0.579346
0.634186 0.502319 0.580811
0.919250 0.539368 0.601654
1.000000 0.612823 0.623596
0.042084 0.883118 0.606140
0.375671 0.878174 0.610229
0.693298 0.868591 0.623993
0.912079 0.867432 0.645844
1.000000 0.881317 0.663910
0.666199 0.999237 0.696014
0.718353 0.996979 0.698669
0.834747 0.989563 0.708740
0.946289 0.983551 0.723907
1.000000 0.984253 0.737274
0.000000 0.000000 0.937531
0.000000 0.000000 0.935638
0.571136 0.000000 0.904541
0.949066 0.000000 0.898224
1.000000 0.000000 0.905609
0.000000 0.054749 0.936493
0.003510 0.002319 0.935516
0.618683 0.000000 0.904449
0.960358 0.000000 0.901337
1.000000 0.029755 0.907288
0.000000 0.498962 0.917664
0.261566 0.496460 0.922119
0.679718 0.499786 0.914307
0.949951 0.544525 0.903076
1.000000 0.619781 0.905029
0.261383 0.889099 0.898560
0.441467 0.887115 0.898987
0.704468 0.882874 0.900146
0.909760 0.883942 0.900879
1.000000 0.900177 0.907471
0.675995 1.000000 0.907379
0.723114 1.000000 0.907928
0.829803 1.000000 0.909882
0.935852 0.995758 0.914398
1.000000 0.994904 0.920715
0.149292 0.000000 1.000000
0.412201 0.000000 1.000000
0.747284 0.000000 1.000000
0.998993 0.000000 0.998932
1.000000 0.000000 1.000000
0.312683 0.000000 1.000000
0.485779 0.000000 1.000000
0.776428 0.000000 0.999908
0.999939 0.000000 0.998932
1.000000 0.142700 0.999969
0.441772 0.493286 1.000000
0.567108 0.493195 1.000000
0.802246 0.517731 0.999817
0.988159 0.566833 0.992371
1.000000 0.641052 0.991119
0.550507 0.887207 0.982330
0.626831 0.885895 0.982697
0.785522 0.883270 0.984192
0.937103 0.886902 0.980682
1.000000 0.903320 0.977844
0.755432 1.000000 0.971802
0.787506 1.000000 0.971893
0.863708 1.000000 0.972107
0.948822 0.999084 0.972687
1.000000 0.999207 0.984009
