滤镜资源/Professional Luts Collection/Lutify.me Professional/Vintage Films/Unakite.cube
# Created by: Lutify.me
# Copyright: (c) Copyright Lutify.me 2015
# Website: https://lutify.me
#LUT size
LUT_3D_SIZE 9
#LUT data points
0.000000 0.000000 0.000000
0.044098 0.000000 0.000763
0.130249 0.000000 0.003876
0.253998 0.000000 0.010376
0.428558 0.000000 0.023743
0.635437 0.000000 0.046204
0.833160 0.000000 0.069855
0.978485 0.000000 0.088593
1.000000 0.000000 0.101685
0.012451 0.033173 0.001862
0.061371 0.032349 0.003815
0.144531 0.030182 0.007629
0.268982 0.008575 0.015228
0.442963 0.000000 0.029114
0.647369 0.000000 0.051117
0.840790 0.000000 0.073151
0.982025 0.000000 0.090240
1.000000 0.000000 0.101654
0.037842 0.114197 0.002563
0.090057 0.113495 0.005707
0.177643 0.113556 0.010498
0.305298 0.107788 0.021332
0.476654 0.075714 0.038177
0.675018 0.001740 0.058075
0.857758 0.000000 0.076477
0.989380 0.000000 0.089417
1.000000 0.037964 0.096222
0.015656 0.249390 0.000000
0.099915 0.250122 0.000000
0.213745 0.250977 0.000000
0.357025 0.254059 0.002228
0.529297 0.254028 0.017792
0.716309 0.250122 0.040955
0.880219 0.255463 0.058685
0.997650 0.288727 0.064270
1.000000 0.349670 0.055573
0.000000 0.459930 0.000000
0.000000 0.462036 0.000000
0.208679 0.463989 0.000000
0.392792 0.465912 0.000000
0.577362 0.472778 0.000000
0.755798 0.481476 0.000000
0.900696 0.498871 0.000000
0.999634 0.528442 0.000000
1.000000 0.569366 0.000000
0.000000 0.691193 0.000000
0.000000 0.692322 0.000000
0.169006 0.694611 0.000000
0.419281 0.690857 0.000000
0.612549 0.691010 0.000000
0.777252 0.696594 0.000000
0.904968 0.706268 0.000000
0.996399 0.722137 0.000000
1.000000 0.743591 0.000000
0.026520 0.856079 0.000000
0.118561 0.856018 0.000000
0.336823 0.852570 0.000000
0.515472 0.846283 0.000000
0.672852 0.841949 0.000000
0.805908 0.841064 0.000000
0.912231 0.843536 0.000000
0.989807 0.848877 0.000000
1.000000 0.857208 0.000000
0.450134 0.937286 0.000000
0.485046 0.935638 0.000000
0.558502 0.932098 0.000000
0.656372 0.927521 0.000000
0.759369 0.923218 0.000000
0.854645 0.920319 0.006653
0.934174 0.919434 0.014008
0.994385 0.920380 0.072601
1.000000 0.923035 0.122803
0.669861 0.975739 0.161835
0.686188 0.974884 0.166443
0.723602 0.972961 0.177216
0.778992 0.970276 0.192505
0.843231 0.967407 0.210266
0.906281 0.965149 0.228668
0.961731 0.963928 0.247009
1.000000 0.963928 0.266449
1.000000 0.964935 0.287628
0.002686 0.000000 0.043335
0.056458 0.000000 0.040466
0.140594 0.000000 0.045410
0.263611 0.000000 0.056488
0.437134 0.000000 0.073120
0.642395 0.000000 0.093292
0.838013 0.000000 0.113739
0.981323 0.000000 0.130737
1.000000 0.000000 0.143555
0.016266 0.035583 0.044037
0.068573 0.035919 0.044495
0.152832 0.033234 0.050659
0.278137 0.009247 0.061340
0.451233 0.000000 0.077515
0.654083 0.000000 0.097198
0.845459 0.000000 0.116669
0.984772 0.000000 0.132507
1.000000 0.000000 0.144165
0.045807 0.116730 0.049042
0.097351 0.116058 0.052734
0.184204 0.115997 0.059875
0.312164 0.110504 0.071472
0.484131 0.077606 0.086517
0.681091 0.002045 0.104401
0.861969 0.000000 0.121368
0.991974 0.000000 0.134521
1.000000 0.050537 0.143127
0.029694 0.251373 0.038483
0.109985 0.251953 0.042328
0.221649 0.253052 0.053986
0.364166 0.256104 0.065308
0.535797 0.256104 0.082733
0.721558 0.252411 0.101318
0.883820 0.258423 0.116394
0.998749 0.292084 0.124329
1.000000 0.352905 0.124298
0.000000 0.461731 0.000000
0.002960 0.463745 0.000000
0.219971 0.465393 0.000000
0.400269 0.467743 0.001770
0.583282 0.474579 0.006775
0.760101 0.483459 0.025635
0.903473 0.501068 0.046478
0.999756 0.530762 0.047424
1.000000 0.571686 0.039001
0.000000 0.692627 0.000000
0.000000 0.693726 0.000000
0.188171 0.695679 0.000000
0.427094 0.692139 0.000000
0.617706 0.692566 0.000000
0.780609 0.698303 0.000000
0.907074 0.708099 0.000000
0.997559 0.724030 0.000000
1.000000 0.745453 0.000000
0.033936 0.857208 0.000000
0.147980 0.857117 0.000000
0.346680 0.853485 0.000000
0.521118 0.847473 0.000000
0.676453 0.843384 0.000000
0.808105 0.842651 0.000000
0.913513 0.845154 0.000244
0.990417 0.850555 0.014801
1.000000 0.858948 0.057770
0.455627 0.938324 0.004852
0.489929 0.936707 0.007141
0.562347 0.933319 0.011108
0.659119 0.928864 0.042694
0.761200 0.924683 0.091248
0.855652 0.921875 0.131256
0.934631 0.921021 0.160004
0.994415 0.922028 0.186615
1.000000 0.924683 0.213165
0.671417 0.977081 0.240173
0.687592 0.976257 0.243317
0.724762 0.974365 0.250885
0.779755 0.971710 0.262177
0.843597 0.968933 0.275818
0.906250 0.966705 0.290436
0.961365 0.965515 0.305695
1.000000 0.965485 0.322052
1.000000 0.966553 0.340240
0.000000 0.000000 0.144043
0.060638 0.000000 0.140808
0.159821 0.000000 0.138367
0.288055 0.000000 0.143829
0.460663 0.000000 0.157715
0.662415 0.000000 0.177002
0.852722 0.000000 0.197235
0.991302 0.000000 0.214752
1.000000 0.000000 0.229767
0.007751 0.033905 0.145874
0.075684 0.032166 0.144257
0.172791 0.027588 0.142487
0.302124 0.002655 0.148651
0.474365 0.000000 0.162598
0.673737 0.000000 0.181519
0.859833 0.000000 0.201172
0.994629 0.000000 0.218048
1.000000 0.000000 0.232391
0.044769 0.121246 0.149902
0.104309 0.120117 0.151428
0.199951 0.121277 0.151794
0.331451 0.114197 0.160797
0.506317 0.073792 0.173706
0.699707 0.001648 0.191681
0.875305 0.000000 0.209778
0.998657 0.000000 0.225067
1.000000 0.066467 0.237762
0.038177 0.258911 0.155884
0.123718 0.258575 0.157990
0.237885 0.258759 0.164734
0.378448 0.261566 0.175781
0.548187 0.262756 0.190186
0.731873 0.260223 0.206635
0.891571 0.266937 0.221558
0.999573 0.301849 0.233948
1.000000 0.362885 0.242554
0.000000 0.467926 0.146332
0.017609 0.469727 0.147034
0.240631 0.471100 0.154419
0.416748 0.472900 0.171082
0.596527 0.479523 0.184174
0.769348 0.489044 0.200531
0.909546 0.507294 0.214081
1.000000 0.537201 0.222260
1.000000 0.578094 0.228180
0.000000 0.696564 0.101562
0.000000 0.697571 0.102997
0.221649 0.698792 0.109802
0.443634 0.696014 0.145020
0.629028 0.697083 0.170624
0.787872 0.703003 0.186035
0.911407 0.713074 0.203369
0.998962 0.729156 0.216919
1.000000 0.750641 0.229340
0.045959 0.860260 0.113922
0.191162 0.859985 0.116180
0.366241 0.856201 0.137360
0.532837 0.850861 0.173859
0.683868 0.847321 0.201813
0.812531 0.846863 0.222778
0.915771 0.849518 0.239685
0.991119 0.855011 0.257355
1.000000 0.863403 0.275085
0.465698 0.941772 0.244873
0.498993 0.940277 0.249512
0.569489 0.937042 0.259979
0.664246 0.932770 0.275085
0.764435 0.928680 0.291901
0.857208 0.925934 0.308350
0.934753 0.925140 0.323364
0.993744 0.926147 0.338928
1.000000 0.928864 0.355927
0.672913 0.982727 0.370026
0.689087 0.981750 0.372375
0.725983 0.979584 0.378143
0.780609 0.976440 0.387085
0.843658 0.973236 0.398071
0.905334 0.970734 0.409882
0.959625 0.969452 0.421936
0.999939 0.969452 0.434692
1.000000 0.970490 0.449036
0.000000 0.000000 0.318054
0.000000 0.000000 0.317871
0.149139 0.000000 0.311157
0.312164 0.000000 0.307281
0.497620 0.000000 0.313660
0.698303 0.000000 0.327789
0.881348 0.000000 0.345917
0.999939 0.000000 0.362793
1.000000 0.000000 0.378052
0.000000 0.026947 0.321014
0.003876 0.020844 0.321259
0.166595 0.011230 0.314362
0.327087 0.000000 0.312164
0.510834 0.000000 0.318726
0.708954 0.000000 0.332825
0.887878 0.000000 0.350586
1.000000 0.000000 0.366882
1.000000 0.000000 0.381622
0.000000 0.120544 0.327423
0.044617 0.117859 0.328918
0.203766 0.113037 0.326202
0.361420 0.102020 0.323456
0.541534 0.045654 0.330780
0.733154 0.000000 0.344818
0.901855 0.000000 0.361481
1.000000 0.000000 0.376404
1.000000 0.055695 0.389709
0.000031 0.265991 0.336823
0.094543 0.266571 0.337769
0.242218 0.265564 0.341248
0.402985 0.270386 0.339539
0.574005 0.272369 0.350555
0.755798 0.269073 0.365295
0.910675 0.276184 0.379944
1.000000 0.313171 0.393951
1.000000 0.380554 0.409302
0.000000 0.481567 0.345856
0.006195 0.482941 0.346405
0.250732 0.483459 0.349304
0.436523 0.483826 0.358459
0.612396 0.489716 0.372498
0.778015 0.501251 0.387238
0.912140 0.521118 0.400696
0.999969 0.551697 0.412048
1.000000 0.592285 0.421844
0.000000 0.710266 0.353424
0.000000 0.710968 0.354248
0.238983 0.709961 0.359070
0.459839 0.707733 0.369598
0.643188 0.706177 0.386963
0.795746 0.711639 0.399872
0.913666 0.722046 0.414032
0.998322 0.738464 0.425507
1.000000 0.759949 0.436127
0.048401 0.871704 0.381866
0.204620 0.870728 0.383789
0.380341 0.865326 0.393250
0.542358 0.861572 0.402863
0.691559 0.856232 0.419373
0.816376 0.854645 0.434601
0.916229 0.857208 0.446533
0.989319 0.862701 0.459259
1.000000 0.871124 0.471619
0.469574 0.951111 0.450806
0.501892 0.950226 0.452332
0.571930 0.947418 0.457214
0.666687 0.942413 0.466919
0.766022 0.937012 0.479797
0.856812 0.933228 0.493073
0.932129 0.932159 0.504578
0.990295 0.933197 0.515900
1.000000 0.935913 0.528046
0.670715 0.991577 0.533020
0.686951 0.990540 0.534760
0.724060 0.988068 0.538971
0.778595 0.984375 0.546051
0.840973 0.980499 0.555145
0.901428 0.977478 0.564880
0.954498 0.975952 0.574463
0.998047 0.975922 0.583923
1.000000 0.976929 0.594360
0.000000 0.000000 0.557770
0.000000 0.000000 0.557526
0.001434 0.000000 0.557220
0.300476 0.000000 0.543152
0.520905 0.000000 0.537903
0.734711 0.000000 0.544250
0.913544 0.000000 0.554413
1.000000 0.000000 0.567078
1.000000 0.000000 0.579376
0.000000 0.008667 0.560211
0.000000 0.001770 0.560181
0.015167 0.000000 0.559937
0.319244 0.000000 0.545624
0.534607 0.000000 0.541901
0.744568 0.000000 0.548279
0.919067 0.000000 0.558350
1.000000 0.000000 0.570709
1.000000 0.000000 0.582520
0.000000 0.113312 0.565552
0.000000 0.109283 0.565765
0.102570 0.091949 0.567230
0.360657 0.078186 0.553009
0.565887 0.009949 0.551636
0.766357 0.000000 0.557922
0.930481 0.000000 0.567749
1.000000 0.000000 0.579132
1.000000 0.016113 0.589813
0.000000 0.268555 0.571686
0.000000 0.268311 0.571991
0.192749 0.263062 0.577057
0.410858 0.262390 0.570099
0.606750 0.263184 0.566101
0.789612 0.261169 0.571930
0.937103 0.273773 0.581726
1.000000 0.312408 0.592041
1.000000 0.384216 0.602753
0.000000 0.490570 0.577393
0.000000 0.491547 0.577820
0.221680 0.493500 0.579346
0.437134 0.494202 0.583374
0.634186 0.502319 0.580811
0.792969 0.517578 0.590118
0.919250 0.539368 0.601654
0.999939 0.571350 0.612793
1.000000 0.612823 0.623596
0.000000 0.722809 0.586304
0.000000 0.723206 0.586761
0.217560 0.723511 0.587982
0.463440 0.721741 0.591156
0.653534 0.719604 0.599396
0.799408 0.724121 0.611664
0.910767 0.735718 0.622803
0.991882 0.752625 0.632294
1.000000 0.773865 0.640839
0.042084 0.883118 0.606140
0.185364 0.882355 0.606842
0.375671 0.878174 0.610229
0.545227 0.872528 0.616394
0.693298 0.868591 0.623993
0.816254 0.865204 0.636383
0.912079 0.867432 0.645844
0.981934 0.872925 0.655548
1.000000 0.881317 0.663910
0.465271 0.961334 0.646362
0.499146 0.959808 0.647705
0.570496 0.956390 0.651031
0.663879 0.952423 0.655579
0.762604 0.947693 0.662476
0.852478 0.942749 0.672791
0.925323 0.940918 0.682037
0.981995 0.941833 0.689850
1.000000 0.944489 0.697693
0.666199 0.999237 0.696014
0.682068 0.998718 0.696808
0.718353 0.996979 0.698669
0.772461 0.993896 0.702393
0.834747 0.989563 0.708740
0.894440 0.985718 0.716431
0.946289 0.983551 0.723907
0.989532 0.983307 0.730530
1.000000 0.984253 0.737274
0.000000 0.000000 0.786896
0.000000 0.000000 0.786469
0.000000 0.000000 0.785492
0.249786 0.000000 0.775391
0.532867 0.000000 0.757874
0.755737 0.000000 0.755615
0.933258 0.000000 0.760345
1.000000 0.000000 0.767273
1.000000 0.000000 0.774414
0.000000 0.000000 0.787750
0.000000 0.000000 0.787415
0.000000 0.000000 0.786652
0.280273 0.000000 0.775177
0.547607 0.000000 0.759277
0.765137 0.000000 0.757935
0.937866 0.000000 0.762543
1.000000 0.000000 0.769318
1.000000 0.000000 0.776123
0.000000 0.095612 0.789398
0.000000 0.087677 0.789368
0.000000 0.056488 0.789307
0.340790 0.015564 0.775482
0.580444 0.000000 0.763000
0.785492 0.000000 0.763397
0.947021 0.000000 0.767670
1.000000 0.000000 0.773926
1.000000 0.012573 0.779907
0.000000 0.266266 0.788483
0.000000 0.265015 0.788513
0.100342 0.258331 0.790894
0.401367 0.249573 0.786896
0.622650 0.256378 0.771454
0.808655 0.251648 0.771057
0.952423 0.266388 0.774384
1.000000 0.308899 0.779449
1.000000 0.381012 0.784088
0.000000 0.496277 0.783142
0.000000 0.496796 0.783234
0.188934 0.496918 0.785492
0.435822 0.493286 0.791595
0.650543 0.499969 0.781921
0.816528 0.516174 0.777557
0.938446 0.541962 0.779480
1.000000 0.575348 0.784241
1.000000 0.618195 0.789154
0.000000 0.728790 0.779602
0.000000 0.728973 0.779816
0.232330 0.729218 0.780457
0.468750 0.729279 0.781708
0.655426 0.729340 0.783997
0.807648 0.735504 0.782684
0.910828 0.750275 0.788116
0.985748 0.767975 0.794800
1.000000 0.789429 0.801117
0.066376 0.888214 0.784729
0.216980 0.887573 0.784973
0.382294 0.885712 0.785645
0.543762 0.882751 0.786896
0.691956 0.878967 0.789215
0.815735 0.875916 0.794128
0.907135 0.877075 0.801819
0.972321 0.882965 0.808563
1.000000 0.891388 0.813843
0.467804 0.968719 0.800262
0.499878 0.967682 0.800659
0.568329 0.965149 0.801727
0.661072 0.960999 0.803802
0.759583 0.955750 0.807495
0.847778 0.951874 0.812103
0.918854 0.948883 0.819244
0.973114 0.949554 0.824738
1.000000 0.952057 0.829681
0.662292 1.000000 0.823639
0.678223 1.000000 0.824127
0.714691 1.000000 0.825409
0.768555 0.999878 0.827759
0.829163 0.996826 0.830902
0.887695 0.993530 0.834900
0.938812 0.990570 0.840576
0.980652 0.989716 0.845642
1.000000 0.990570 0.849670
0.000000 0.000000 0.937531
0.000000 0.000000 0.936951
0.000000 0.000000 0.935638
0.282562 0.000000 0.924042
0.571136 0.000000 0.904541
0.785309 0.000000 0.896179
0.949066 0.000000 0.898224
1.000000 0.000000 0.901978
1.000000 0.000000 0.905609
0.000000 0.000000 0.937286
0.000000 0.000000 0.936768
0.000000 0.000000 0.935608
0.315491 0.000000 0.922455
0.585999 0.000000 0.904449
0.793640 0.000000 0.897034
0.953003 0.000000 0.899200
1.000000 0.000000 0.902863
1.000000 0.000000 0.906219
0.000000 0.054749 0.936493
0.000000 0.038757 0.936249
0.003510 0.002319 0.935516
0.379822 0.000000 0.919312
0.618683 0.000000 0.904449
0.811371 0.000000 0.899048
0.960358 0.000000 0.901337
1.000000 0.000000 0.904541
1.000000 0.029755 0.907288
0.000000 0.260071 0.930450
0.000000 0.257721 0.930267
0.151825 0.246918 0.933014
0.443665 0.239746 0.924713
0.658234 0.246429 0.908173
0.830231 0.254578 0.901794
0.963409 0.270630 0.903473
1.000000 0.316956 0.905731
1.000000 0.388672 0.907349
0.000000 0.498962 0.917664
0.006927 0.499115 0.917572
0.261566 0.496460 0.922119
0.480652 0.491455 0.926086
0.679718 0.499786 0.914307
0.833710 0.521576 0.903503
0.949951 0.544525 0.903076
1.000000 0.577698 0.903992
1.000000 0.619781 0.905029
0.000275 0.732239 0.904236
0.072784 0.732239 0.904327
0.322723 0.732056 0.905609
0.509277 0.731323 0.907837
0.675354 0.729614 0.911194
0.820526 0.735992 0.905090
0.924438 0.751709 0.900848
0.994934 0.771301 0.901154
1.000000 0.792664 0.903046
0.261383 0.889099 0.898560
0.326630 0.888519 0.898682
0.441467 0.887115 0.898987
0.574799 0.884979 0.899506
0.704468 0.882874 0.900146
0.818512 0.881714 0.901001
0.909760 0.883942 0.900879
0.968933 0.891541 0.904022
1.000000 0.900177 0.907471
0.507050 0.970245 0.900452
0.533844 0.969452 0.900604
0.592163 0.967590 0.900909
0.673950 0.964661 0.901489
0.763641 0.961060 0.902313
0.848053 0.957458 0.903687
0.917542 0.954956 0.906311
0.968994 0.954987 0.910431
1.000000 0.957550 0.913635
0.675995 1.000000 0.907379
0.690186 1.000000 0.907532
0.723114 1.000000 0.907928
0.772430 1.000000 0.908630
0.829803 1.000000 0.909882
0.886536 0.997986 0.911957
0.935852 0.995758 0.914398
0.976685 0.994232 0.918152
1.000000 0.994904 0.920715
0.000000 0.000000 1.000000
0.000000 0.000000 1.000000
0.048706 0.000000 1.000000
0.424500 0.000000 0.991730
0.650604 0.000000 0.975952
0.833527 0.000000 0.968506
0.973938 0.000000 0.968567
1.000000 0.000000 0.970917
1.000000 0.000000 0.972656
0.000000 0.000000 1.000000
0.000000 0.000000 1.000000
0.131958 0.000000 1.000000
0.447083 0.000000 0.990021
0.663269 0.000000 0.975403
0.840332 0.000000 0.968658
0.976562 0.000000 0.968933
1.000000 0.000000 0.971130
1.000000 0.000000 0.972656
0.000000 0.001648 1.000000
0.007751 0.000000 1.000000
0.260376 0.000000 0.999481
0.494659 0.000000 0.986328
0.690430 0.000000 0.974243
0.854431 0.000000 0.969025
0.980988 0.000000 0.969513
1.000000 0.000000 0.971283
1.000000 0.093353 0.972290
0.024841 0.248291 0.999725
0.159332 0.241486 0.999878
0.355652 0.234375 0.999786
0.547211 0.236267 0.988495
0.721832 0.244812 0.975006
0.867645 0.258789 0.969086
0.981598 0.284546 0.969116
1.000000 0.334839 0.970093
1.000000 0.406494 0.970276
0.197510 0.498077 0.989319
0.275299 0.496490 0.991180
0.410614 0.493134 0.993774
0.575134 0.492401 0.991028
0.735229 0.505585 0.977875
0.865112 0.528412 0.968079
0.965637 0.554565 0.965576
1.000000 0.587128 0.965698
1.000000 0.628601 0.965332
0.282013 0.733612 0.969025
0.341217 0.733368 0.969696
0.451569 0.732666 0.971130
0.585907 0.731262 0.973541
0.722382 0.729980 0.975342
0.846375 0.739410 0.966614
0.937378 0.757080 0.959717
0.998901 0.774536 0.959106
1.000000 0.795258 0.959015
0.419006 0.888458 0.956360
0.455750 0.887970 0.956451
0.532196 0.886810 0.956696
0.633179 0.885132 0.957123
0.739105 0.883484 0.957855
0.836609 0.882233 0.959259
0.920013 0.884583 0.956757
0.977997 0.893097 0.954346
1.000000 0.901917 0.954926
0.576721 0.968872 0.951630
0.597412 0.968262 0.951721
0.643890 0.966675 0.951843
0.711029 0.964294 0.952057
0.786865 0.961548 0.952362
0.859558 0.959198 0.952606
0.922577 0.957855 0.952850
0.971497 0.958344 0.954224
1.000000 0.961426 0.956207
0.710785 1.000000 0.951111
0.722748 1.000000 0.951172
0.750519 1.000000 0.951324
0.792419 1.000000 0.951538
0.842255 1.000000 0.951874
0.893127 0.999969 0.952423
0.939789 0.997955 0.953613
0.978699 0.996826 0.955566
1.000000 0.997711 0.960327
0.149292 0.000000 1.000000
0.257599 0.000000 1.000000
0.412201 0.000000 1.000000
0.581573 0.000000 1.000000
0.747284 0.000000 1.000000
0.891785 0.000000 0.997986
0.998993 0.000000 0.998932
1.000000 0.000000 1.000000
1.000000 0.000000 1.000000
0.213776 0.000000 1.000000
0.297394 0.000000 1.000000
0.435883 0.000000 1.000000
0.596924 0.000000 1.000000
0.756622 0.000000 1.000000
0.896851 0.000000 0.998047
0.999359 0.000000 0.999023
1.000000 0.000000 1.000000
1.000000 0.000000 1.000000
0.312683 0.000000 1.000000
0.371735 0.000000 1.000000
0.485779 0.000000 1.000000
0.629944 0.000000 1.000000
0.776428 0.000000 0.999908
0.906891 0.000000 0.997986
0.999939 0.000000 0.998932
1.000000 0.001465 0.999878
1.000000 0.142700 0.999969
0.393463 0.233215 1.000000
0.440979 0.233612 1.000000
0.539642 0.236115 1.000000
0.667542 0.242737 1.000000
0.797791 0.253876 0.999817
0.913879 0.271057 0.997040
0.999603 0.302612 0.997345
1.000000 0.356995 0.997620
1.000000 0.428497 0.997101
0.441772 0.493286 1.000000
0.481018 0.492584 1.000000
0.567108 0.493195 1.000000
0.684174 0.501007 1.000000
0.802246 0.517731 0.999817
0.904968 0.540466 0.994080
0.988159 0.566833 0.992371
1.000000 0.600098 0.992035
1.000000 0.641052 0.991119
0.477264 0.733337 0.998474
0.509308 0.733002 0.998627
0.578888 0.732117 0.999115
0.675781 0.730927 0.999664
0.783966 0.733246 0.999329
0.882385 0.746002 0.990845
0.957153 0.763428 0.985199
1.000000 0.780701 0.984344
1.000000 0.800995 0.983765
0.550507 0.887207 0.982330
0.574219 0.886810 0.982422
0.626831 0.885895 0.982697
0.701843 0.884613 0.983246
0.785522 0.883270 0.984192
0.866394 0.882233 0.985413
0.937103 0.886902 0.980682
0.987976 0.895294 0.977936
1.000000 0.903320 0.977844
0.655426 0.966583 0.974762
0.670929 0.966064 0.974792
0.706573 0.964783 0.974884
0.759613 0.962891 0.974976
0.820984 0.960785 0.975128
0.881378 0.959106 0.975250
0.935242 0.958313 0.975494
0.980530 0.959686 0.974548
1.000000 0.963074 0.975342
0.755432 1.000000 0.971802
0.765045 1.000000 0.971802
0.787506 1.000000 0.971893
0.821930 1.000000 0.971985
0.863708 1.000000 0.972107
0.907410 1.000000 0.972290
0.948822 0.999084 0.972687
0.985077 0.998077 0.973877
1.000000 0.999207 0.984009
