滤镜资源/Professional Luts Collection/Lutify.me Professional/Vintage Films/Unakite.cube
# Created by: Lutify.me
# Copyright: (c) Copyright Lutify.me 2015
# Website: https://lutify.me
#LUT size
LUT_3D_SIZE 33
#LUT data points
0.000000 0.000000 0.000000
0.006561 0.000000 0.000366
0.015228 0.000000 0.000031
0.027100 0.000000 0.000397
0.044098 0.000000 0.000763
0.063080 0.000000 0.001465
0.083496 0.000000 0.002228
0.105865 0.000000 0.003082
0.130249 0.000000 0.003876
0.156891 0.000000 0.005188
0.185974 0.000000 0.006500
0.218292 0.000000 0.008209
0.253998 0.000000 0.010376
0.293182 0.000000 0.013062
0.335541 0.000000 0.016083
0.380798 0.000000 0.019592
0.428558 0.000000 0.023743
0.478424 0.000000 0.028564
0.529907 0.000000 0.034027
0.582428 0.000000 0.040009
0.635437 0.000000 0.046204
0.688110 0.000000 0.052368
0.739319 0.000000 0.058533
0.787872 0.000000 0.064392
0.833160 0.000000 0.069855
0.874939 0.000000 0.074982
0.913086 0.000000 0.079956
0.947784 0.000000 0.084564
0.978485 0.000000 0.088593
0.999634 0.000000 0.092560
1.000000 0.000000 0.096008
1.000000 0.000000 0.098969
1.000000 0.000000 0.101685
0.001923 0.005035 0.000000
0.010071 0.005005 0.000397
0.017944 0.005005 0.000793
0.030182 0.005035 0.001465
0.046936 0.004669 0.001587
0.066071 0.004608 0.002289
0.086578 0.003937 0.002747
0.108551 0.003082 0.003723
0.132782 0.001373 0.004578
0.159363 0.000244 0.005707
0.188568 0.000000 0.007385
0.220917 0.000000 0.009064
0.256653 0.000000 0.011353
0.295746 0.000000 0.014008
0.338135 0.000000 0.016998
0.383331 0.000000 0.020660
0.431000 0.000000 0.024902
0.480774 0.000000 0.029541
0.532196 0.000000 0.034973
0.584625 0.000000 0.041016
0.637451 0.000000 0.046997
0.689972 0.000000 0.053131
0.740997 0.000000 0.059235
0.789398 0.000000 0.065002
0.834564 0.000000 0.070648
0.876099 0.000000 0.075623
0.914062 0.000000 0.080444
0.948578 0.000000 0.084839
0.979095 0.000000 0.088989
0.999664 0.000000 0.092743
1.000000 0.000000 0.096191
1.000000 0.000000 0.099152
1.000000 0.000000 0.101868
0.004608 0.010895 0.000763
0.012146 0.010529 0.001129
0.020721 0.010895 0.001160
0.033783 0.010895 0.001923
0.050537 0.010864 0.002319
0.069244 0.010559 0.003021
0.089569 0.010040 0.003540
0.111542 0.009033 0.004181
0.135651 0.007416 0.005310
0.162140 0.004547 0.006500
0.191437 0.001007 0.008026
0.223724 0.000000 0.009918
0.259521 0.000000 0.012177
0.298706 0.000000 0.015137
0.341064 0.000000 0.018097
0.386200 0.000000 0.021729
0.433807 0.000000 0.025848
0.483521 0.000000 0.030701
0.534790 0.000000 0.036255
0.587097 0.000000 0.042053
0.639801 0.000000 0.048157
0.692139 0.000000 0.054230
0.742981 0.000000 0.060120
0.791077 0.000000 0.065826
0.836029 0.000000 0.071167
0.877411 0.000000 0.076202
0.915161 0.000000 0.080902
0.949554 0.000000 0.085266
0.979858 0.000000 0.089386
0.999695 0.000000 0.093140
1.000000 0.000000 0.096344
1.000000 0.000000 0.099152
1.000000 0.000000 0.101868
0.007690 0.019806 0.001160
0.016693 0.019775 0.001556
0.025238 0.019745 0.001923
0.039032 0.019440 0.002289
0.054993 0.019745 0.003052
0.073547 0.019409 0.003784
0.093506 0.019318 0.004608
0.115417 0.018585 0.005341
0.139465 0.016876 0.006409
0.165924 0.014313 0.007721
0.195282 0.010010 0.009094
0.227783 0.003876 0.011108
0.263641 0.000641 0.013367
0.302856 0.000000 0.016174
0.345215 0.000000 0.019470
0.390259 0.000000 0.023132
0.437744 0.000000 0.027405
0.487305 0.000000 0.032135
0.538452 0.000000 0.037537
0.590576 0.000000 0.043488
0.643036 0.000000 0.049622
0.695160 0.000000 0.055420
0.745667 0.000000 0.061096
0.793488 0.000000 0.066711
0.838074 0.000000 0.072113
0.879181 0.000000 0.077087
0.916656 0.000000 0.081726
0.950806 0.000000 0.085724
0.980774 0.000000 0.089783
0.999756 0.000000 0.093353
1.000000 0.000000 0.096375
1.000000 0.000000 0.099335
1.000000 0.000000 0.101715
0.012451 0.033173 0.001862
0.021301 0.032806 0.002258
0.031006 0.032776 0.002655
0.044891 0.032440 0.003082
0.061371 0.032349 0.003815
0.079041 0.032379 0.004578
0.098785 0.032043 0.005676
0.120483 0.031616 0.006500
0.144531 0.030182 0.007629
0.171143 0.027893 0.008881
0.200562 0.023956 0.010620
0.233063 0.017914 0.012817
0.268982 0.008575 0.015228
0.308258 0.001770 0.017883
0.350586 0.000000 0.021118
0.395630 0.000000 0.024902
0.442963 0.000000 0.029114
0.492371 0.000000 0.034119
0.543304 0.000000 0.039581
0.595215 0.000000 0.045258
0.647369 0.000000 0.051117
0.699127 0.000000 0.056793
0.749237 0.000000 0.062500
0.796631 0.000000 0.068024
0.840790 0.000000 0.073151
0.881500 0.000000 0.077850
0.918671 0.000000 0.082306
0.952515 0.000000 0.086334
0.982025 0.000000 0.090240
0.999817 0.000000 0.093567
1.000000 0.000000 0.096558
1.000000 0.000000 0.099365
1.000000 0.000000 0.101654
0.017487 0.050323 0.002350
0.027008 0.050018 0.002716
0.037628 0.049744 0.003143
0.051819 0.049683 0.003540
0.068146 0.049438 0.004547
0.085999 0.049347 0.005371
0.105438 0.049316 0.006470
0.127045 0.049011 0.007629
0.151154 0.048065 0.008728
0.177704 0.046173 0.010406
0.207153 0.043060 0.012329
0.239746 0.037689 0.014343
0.275757 0.028839 0.016968
0.315002 0.016205 0.019897
0.357330 0.003937 0.023041
0.402252 0.000031 0.026917
0.449493 0.000000 0.031250
0.498688 0.000000 0.036224
0.549347 0.000000 0.041870
0.600922 0.000000 0.047394
0.652771 0.000000 0.052948
0.704071 0.000000 0.058533
0.753662 0.000000 0.064087
0.800507 0.000000 0.069305
0.844177 0.000000 0.074188
0.884430 0.000000 0.078705
0.921112 0.000000 0.083008
0.954529 0.000000 0.086975
0.983521 0.000000 0.090607
0.999908 0.000000 0.093689
1.000000 0.000000 0.096375
1.000000 0.000000 0.098846
1.000000 0.000000 0.100952
0.023834 0.069580 0.002686
0.033875 0.069305 0.003143
0.045471 0.069000 0.003784
0.059296 0.068817 0.004486
0.074982 0.069000 0.005341
0.093292 0.068756 0.006165
0.113220 0.068726 0.006927
0.134857 0.068512 0.008118
0.159027 0.067963 0.009949
0.185822 0.066711 0.011566
0.215302 0.064392 0.013580
0.247986 0.060547 0.016052
0.283966 0.054626 0.018707
0.323212 0.044525 0.021820
0.365448 0.029022 0.025238
0.410248 0.009949 0.029022
0.457336 0.001373 0.033539
0.506287 0.000000 0.038635
0.556641 0.000000 0.044098
0.607819 0.000000 0.049500
0.659241 0.000000 0.054962
0.710022 0.000000 0.060425
0.758972 0.000000 0.065643
0.805176 0.000000 0.070587
0.848206 0.000000 0.075287
0.887848 0.000000 0.079681
0.923981 0.000000 0.083801
0.956940 0.000000 0.087463
0.985291 0.000000 0.090698
1.000000 0.000000 0.093719
1.000000 0.000000 0.096161
1.000000 0.000000 0.098358
1.000000 0.000000 0.100128
0.031067 0.090729 0.002747
0.041962 0.090515 0.003479
0.052582 0.090271 0.004242
0.066528 0.089935 0.004669
0.082428 0.089935 0.005676
0.100952 0.089996 0.006226
0.121124 0.090057 0.007629
0.143402 0.089874 0.009003
0.167969 0.089539 0.010437
0.195038 0.088654 0.012665
0.225006 0.087219 0.014893
0.257874 0.084564 0.017548
0.293884 0.080322 0.020325
0.332855 0.074066 0.023834
0.374878 0.063995 0.027588
0.419525 0.048401 0.031433
0.466370 0.025299 0.036041
0.515076 0.007172 0.040924
0.565033 0.000427 0.046173
0.615784 0.000000 0.051514
0.666718 0.000000 0.056763
0.716827 0.000000 0.062012
0.764984 0.000000 0.067017
0.810425 0.000000 0.071808
0.852722 0.000000 0.076233
0.891663 0.000000 0.080322
0.927185 0.000000 0.084015
0.959625 0.000000 0.087341
0.987274 0.000000 0.090454
1.000000 0.000000 0.093140
1.000000 0.000000 0.095398
1.000000 0.000000 0.097229
1.000000 0.000000 0.098541
0.037842 0.114197 0.002563
0.049164 0.114014 0.002838
0.060028 0.113861 0.003632
0.073975 0.113525 0.004669
0.090057 0.113495 0.005707
0.108795 0.113464 0.006836
0.129669 0.113770 0.007599
0.152618 0.113770 0.008972
0.177643 0.113556 0.010498
0.205322 0.113068 0.012939
0.235748 0.112061 0.015320
0.269135 0.110565 0.018036
0.305298 0.107788 0.021332
0.344269 0.103668 0.024902
0.385895 0.097687 0.029144
0.430145 0.088776 0.033600
0.476654 0.075714 0.038177
0.524963 0.056000 0.043091
0.574524 0.030914 0.047974
0.624725 0.011169 0.053009
0.675018 0.001740 0.058075
0.724426 0.000000 0.063049
0.771698 0.000000 0.067749
0.816284 0.000000 0.072388
0.857758 0.000000 0.076477
0.895844 0.000000 0.080200
0.930695 0.000000 0.083618
0.962433 0.000000 0.086670
0.989380 0.000000 0.089417
1.000000 0.000000 0.091797
1.000000 0.000671 0.093658
1.000000 0.009125 0.095032
1.000000 0.037964 0.096222
0.042725 0.140991 0.000854
0.054596 0.140961 0.001343
0.066010 0.140778 0.001923
0.080231 0.140656 0.002899
0.097382 0.140503 0.004181
0.116608 0.140533 0.005524
0.138000 0.140747 0.006927
0.161682 0.141144 0.007751
0.187836 0.141205 0.009308
0.216248 0.141022 0.011841
0.247375 0.140656 0.014404
0.281189 0.139740 0.017273
0.317749 0.138214 0.020599
0.356934 0.135651 0.024414
0.398590 0.131989 0.028595
0.442444 0.126831 0.033539
0.488281 0.119659 0.038635
0.535889 0.109894 0.044037
0.584839 0.096313 0.048981
0.634521 0.076965 0.053802
0.684113 0.057495 0.058624
0.732635 0.038452 0.063446
0.778931 0.020477 0.067810
0.822571 0.010803 0.072052
0.863068 0.009186 0.075775
0.900269 0.008911 0.079132
0.934265 0.010284 0.082306
0.965302 0.013275 0.085052
0.991455 0.022583 0.087341
1.000000 0.051361 0.089417
1.000000 0.079498 0.090729
1.000000 0.105377 0.091919
1.000000 0.138336 0.092834
0.043060 0.172272 0.000061
0.055695 0.172302 0.000244
0.068420 0.172211 0.000397
0.084015 0.172089 0.000641
0.102478 0.171997 0.001099
0.122864 0.171967 0.002319
0.145477 0.172150 0.003662
0.170227 0.172607 0.005127
0.197540 0.173126 0.006317
0.227264 0.173401 0.008240
0.259308 0.173401 0.011108
0.293915 0.173035 0.014221
0.330902 0.172394 0.017731
0.370300 0.171082 0.021454
0.412109 0.169037 0.026001
0.455963 0.166168 0.030701
0.501465 0.162201 0.036224
0.548462 0.156982 0.041656
0.596466 0.150360 0.047485
0.645142 0.142120 0.052795
0.693787 0.132385 0.057831
0.741241 0.120789 0.062347
0.786438 0.107452 0.066437
0.828979 0.098053 0.070343
0.868469 0.096558 0.073792
0.904694 0.098145 0.076874
0.937805 0.103302 0.079620
0.968079 0.111694 0.082031
0.993347 0.123627 0.083984
1.000000 0.148315 0.085632
1.000000 0.174561 0.086578
1.000000 0.199463 0.087341
1.000000 0.224609 0.087585
0.035431 0.208313 0.000000
0.050171 0.208527 0.000000
0.065033 0.208466 0.000000
0.083313 0.208496 0.000000
0.103882 0.208405 0.000031
0.126709 0.208374 0.000275
0.151245 0.208466 0.000671
0.177582 0.208862 0.001129
0.206268 0.209473 0.001587
0.237518 0.210266 0.002563
0.270966 0.210663 0.004608
0.306458 0.210907 0.007538
0.344208 0.210846 0.011261
0.384094 0.210541 0.015320
0.426086 0.209686 0.019592
0.469940 0.208405 0.024292
0.515350 0.206512 0.029510
0.561951 0.203979 0.035370
0.609467 0.200836 0.041229
0.657227 0.197205 0.047150
0.704620 0.193237 0.052673
0.750610 0.189514 0.057800
0.794373 0.186646 0.062286
0.835541 0.185425 0.066254
0.873810 0.186462 0.069519
0.909027 0.190277 0.072357
0.941193 0.197174 0.074738
0.970642 0.206940 0.076599
0.995087 0.219574 0.078033
1.000000 0.234650 0.078918
1.000000 0.251678 0.078918
1.000000 0.270325 0.078217
1.000000 0.290192 0.076385
0.015656 0.249390 0.000000
0.031677 0.249725 0.000000
0.051422 0.250000 0.000000
0.074524 0.250183 0.000000
0.099915 0.250122 0.000000
0.126190 0.250092 0.000000
0.154053 0.250122 0.000000
0.183044 0.250427 0.000000
0.213745 0.250977 0.000000
0.246399 0.251801 0.000061
0.281403 0.252899 0.000427
0.318298 0.253510 0.001190
0.357025 0.254059 0.002228
0.397583 0.254425 0.004852
0.439941 0.254608 0.008118
0.483978 0.254425 0.012878
0.529297 0.254028 0.017792
0.575684 0.253296 0.023376
0.622711 0.252289 0.029236
0.669891 0.251099 0.035217
0.716309 0.250122 0.040955
0.761047 0.249634 0.046295
0.803436 0.250153 0.051239
0.843262 0.251953 0.055389
0.880219 0.255463 0.058685
0.914337 0.260803 0.061157
0.945618 0.268158 0.062927
0.974274 0.277496 0.063873
0.997650 0.288727 0.064270
1.000000 0.301788 0.063812
1.000000 0.316498 0.062225
1.000000 0.332520 0.059448
1.000000 0.349670 0.055573
0.002472 0.295715 0.000000
0.008759 0.296051 0.000000
0.021362 0.296448 0.000000
0.051331 0.296936 0.000000
0.085938 0.297363 0.000000
0.119141 0.297333 0.000000
0.151978 0.297333 0.000000
0.184845 0.297485 0.000000
0.218658 0.297852 0.000000
0.253540 0.298615 0.000000
0.290070 0.299683 0.000000
0.328522 0.300964 0.000000
0.368561 0.301971 0.000000
0.410126 0.302917 0.000000
0.453217 0.303680 0.000763
0.497498 0.304352 0.001892
0.542908 0.304871 0.004059
0.589111 0.305267 0.006989
0.635803 0.305664 0.011017
0.682251 0.306122 0.015686
0.727692 0.306854 0.021027
0.771271 0.308167 0.026306
0.812500 0.310425 0.031036
0.851105 0.313751 0.035156
0.886871 0.318420 0.038177
0.919922 0.324493 0.040070
0.950348 0.332001 0.040619
0.977814 0.341125 0.040466
0.999237 0.351624 0.039337
1.000000 0.363556 0.036774
1.000000 0.376923 0.033386
1.000000 0.391388 0.028595
1.000000 0.406921 0.023682
0.000000 0.346954 0.000000
0.000000 0.347351 0.000000
0.002716 0.347717 0.000000
0.014923 0.348297 0.000000
0.053375 0.349060 0.000000
0.101776 0.349579 0.000000
0.143097 0.349518 0.000000
0.181915 0.349548 0.000000
0.219910 0.349731 0.000000
0.257935 0.350250 0.000000
0.296783 0.351196 0.000000
0.336761 0.352417 0.000000
0.378387 0.353943 0.000000
0.421234 0.355286 0.000000
0.465149 0.356476 0.000000
0.510101 0.357666 0.000000
0.555664 0.358765 0.000000
0.601807 0.359955 0.000000
0.648132 0.361145 0.000732
0.693909 0.362549 0.002197
0.738312 0.364441 0.003998
0.780701 0.366821 0.006439
0.820709 0.370056 0.008606
0.858093 0.374237 0.010529
0.892670 0.379547 0.012115
0.924713 0.385925 0.012970
0.954254 0.393463 0.012970
0.980621 0.402252 0.012726
0.999481 0.412201 0.012054
1.000000 0.423340 0.010406
1.000000 0.435669 0.008575
1.000000 0.448914 0.006012
1.000000 0.463074 0.003662
0.000000 0.402100 0.000000
0.000000 0.402496 0.000000
0.000000 0.402924 0.000000
0.000000 0.403473 0.000000
0.013794 0.404236 0.000000
0.065765 0.405121 0.000000
0.124634 0.405670 0.000000
0.172668 0.405518 0.000000
0.216736 0.405487 0.000000
0.259094 0.405792 0.000000
0.301056 0.406372 0.000000
0.343231 0.407410 0.000000
0.386261 0.408752 0.000000
0.430511 0.410492 0.000000
0.475647 0.412079 0.000000
0.521210 0.413513 0.000000
0.567261 0.415039 0.000000
0.613464 0.416565 0.000000
0.659393 0.418304 0.000000
0.704437 0.420288 0.000000
0.747772 0.422760 0.000000
0.788971 0.425781 0.000000
0.827759 0.429535 0.000000
0.863922 0.434143 0.000000
0.897339 0.439667 0.000000
0.928314 0.446136 0.000061
0.956940 0.453583 0.000000
0.982391 0.461975 0.000000
0.999603 0.471344 0.000000
1.000000 0.481659 0.000000
1.000000 0.492859 0.000000
1.000000 0.504852 0.000000
1.000000 0.517517 0.000000
0.000000 0.459930 0.000000
0.000000 0.460297 0.000000
0.000000 0.460724 0.000000
0.000000 0.461304 0.000000
0.000000 0.462036 0.000000
0.018646 0.462952 0.000000
0.092529 0.463928 0.000000
0.156006 0.464264 0.000000
0.208679 0.463989 0.000000
0.256744 0.463959 0.000000
0.302765 0.464264 0.000000
0.347839 0.464905 0.000000
0.392792 0.465912 0.000000
0.438171 0.467377 0.000000
0.484375 0.469238 0.000000
0.530884 0.471039 0.000000
0.577362 0.472778 0.000000
0.623688 0.474518 0.000000
0.669281 0.476440 0.000000
0.713531 0.478729 0.000000
0.755798 0.481476 0.000000
0.795837 0.484802 0.000000
0.833435 0.488739 0.000000
0.868378 0.493408 0.000000
0.900696 0.498871 0.000000
0.930603 0.505096 0.000000
0.958344 0.512085 0.000000
0.983093 0.519867 0.000000
0.999634 0.528442 0.000000
1.000000 0.537720 0.000000
1.000000 0.547699 0.000000
1.000000 0.558289 0.000000
1.000000 0.569366 0.000000
0.000000 0.519440 0.000000
0.000000 0.519745 0.000000
0.000000 0.520172 0.000000
0.000000 0.520691 0.000000
0.000000 0.521393 0.000000
0.000000 0.522247 0.000000
0.039490 0.523285 0.000000
0.131042 0.524170 0.000000
0.195984 0.523987 0.000000
0.251373 0.523682 0.000000
0.302155 0.523651 0.000000
0.350647 0.523926 0.000000
0.398041 0.524567 0.000000
0.444916 0.525604 0.000000
0.491882 0.527100 0.000000
0.539093 0.528992 0.000000
0.586151 0.530853 0.000000
0.632446 0.532776 0.000000
0.677643 0.534729 0.000000
0.721069 0.537048 0.000000
0.762329 0.539734 0.000000
0.801270 0.542969 0.000000
0.837677 0.546753 0.000000
0.871521 0.551147 0.000000
0.902771 0.556183 0.000000
0.931702 0.561859 0.000000
0.958588 0.568146 0.000000
0.982758 0.575073 0.000000
0.999573 0.582581 0.000000
1.000000 0.590729 0.000000
1.000000 0.599426 0.000000
1.000000 0.608582 0.000000
1.000000 0.618225 0.000000
0.000000 0.579224 0.000000
0.000000 0.579529 0.000000
0.000000 0.579865 0.000000
0.000000 0.580353 0.000000
0.000000 0.580963 0.000000
0.000000 0.581726 0.000000
0.007690 0.582642 0.000000
0.096344 0.583679 0.000000
0.180359 0.584015 0.000000
0.244690 0.583374 0.000000
0.300781 0.582947 0.000000
0.352753 0.582855 0.000000
0.402771 0.583038 0.000000
0.451385 0.583588 0.000000
0.499390 0.584564 0.000000
0.546906 0.585907 0.000000
0.594086 0.587646 0.000000
0.640350 0.589508 0.000000
0.684875 0.591461 0.000000
0.727448 0.593536 0.000000
0.767731 0.595978 0.000000
0.805573 0.598816 0.000000
0.840881 0.602142 0.000000
0.873627 0.605957 0.000000
0.903931 0.610321 0.000000
0.931915 0.615234 0.000000
0.957947 0.620697 0.000000
0.981720 0.626678 0.000000
0.999451 0.633179 0.000000
1.000000 0.640198 0.000000
1.000000 0.647614 0.000000
1.000000 0.655487 0.000000
1.000000 0.663727 0.000000
0.000000 0.637177 0.000000
0.000000 0.637421 0.000000
0.000000 0.637726 0.000000
0.000000 0.638123 0.000000
0.000000 0.638611 0.000000
0.000000 0.639252 0.000000
0.000214 0.639984 0.000000
0.076569 0.640869 0.000000
0.168488 0.641510 0.000000
0.240845 0.640778 0.000000
0.301910 0.639893 0.000000
0.356995 0.639343 0.000000
0.409027 0.639069 0.000000
0.459137 0.639099 0.000000
0.507965 0.639465 0.000000
0.555878 0.640198 0.000000
0.602539 0.641327 0.000000
0.648010 0.642883 0.000000
0.691772 0.644623 0.000000
0.733276 0.646454 0.000000
0.772552 0.648499 0.000000
0.809265 0.650879 0.000000
0.843445 0.653656 0.000000
0.875183 0.656860 0.000000
0.904541 0.660492 0.000000
0.931610 0.664612 0.000000
0.956757 0.669220 0.000000
0.979797 0.674286 0.000000
0.998688 0.679779 0.000000
1.000000 0.685699 0.000000
1.000000 0.691956 0.000000
1.000000 0.698608 0.000000
1.000000 0.705566 0.000000
0.000000 0.691193 0.000000
0.000000 0.691406 0.000000
0.000000 0.691650 0.000000
0.000000 0.691956 0.000000
0.000000 0.692322 0.000000
0.000000 0.692810 0.000000
0.000000 0.693390 0.000000
0.077942 0.694061 0.000000
0.169006 0.694611 0.000000
0.245941 0.693726 0.000000
0.309418 0.692505 0.000000
0.366150 0.691559 0.000000
0.419281 0.690857 0.000000
0.470032 0.690399 0.000000
0.519043 0.690277 0.000000
0.566589 0.690430 0.000000
0.612549 0.691010 0.000000
0.656677 0.691956 0.000000
0.699005 0.693359 0.000000
0.739319 0.694916 0.000000
0.777252 0.696594 0.000000
0.812836 0.698517 0.000000
0.845886 0.700745 0.000000
0.876587 0.703339 0.000000
0.904968 0.706268 0.000000
0.931183 0.709595 0.000000
0.955383 0.713379 0.000000
0.977570 0.717590 0.000000
0.996399 0.722137 0.000000
1.000000 0.727051 0.000000
1.000000 0.732269 0.000000
1.000000 0.737793 0.000000
1.000000 0.743591 0.000000
0.000000 0.740387 0.000000
0.000000 0.740540 0.000000
0.000000 0.740662 0.000000
0.000000 0.740906 0.000000
0.000000 0.741180 0.000000
0.000000 0.741516 0.000000
0.007874 0.741913 0.000000
0.101746 0.742340 0.000000
0.190277 0.742554 0.000000
0.263763 0.741425 0.000000
0.326080 0.739960 0.000000
0.382263 0.738708 0.000000
0.434937 0.737640 0.000000
0.485199 0.736847 0.000000
0.533447 0.736267 0.000000
0.579834 0.736023 0.000000
0.624298 0.736084 0.000000
0.666840 0.736542 0.000000
0.707489 0.737335 0.000000
0.746155 0.738525 0.000000
0.782623 0.739899 0.000000
0.816742 0.741425 0.000000
0.848663 0.743134 0.000000
0.878235 0.745148 0.000000
0.905640 0.747467 0.000000
0.930908 0.750092 0.000000
0.954193 0.753113 0.000000
0.975525 0.756500 0.000000
0.993896 0.760223 0.000000
1.000000 0.764221 0.000000
1.000000 0.768494 0.000000
1.000000 0.773010 0.000000
1.000000 0.777740 0.000000
0.000000 0.784302 0.000000
0.000000 0.784363 0.000000
0.000000 0.784485 0.000000
0.000000 0.784607 0.000000
0.000000 0.784790 0.000000
0.006927 0.784973 0.000000
0.055725 0.785217 0.000000
0.145508 0.785400 0.000000
0.229523 0.784851 0.000000
0.294678 0.783508 0.000000
0.352600 0.781891 0.000000
0.406128 0.780426 0.000000
0.456726 0.779144 0.000000
0.505066 0.778015 0.000000
0.551422 0.777191 0.000000
0.595825 0.776581 0.000000
0.638275 0.776306 0.000000
0.678833 0.776306 0.000000
0.717499 0.776672 0.000000
0.754211 0.777344 0.000000
0.788940 0.778320 0.000000
0.821594 0.779480 0.000000
0.852112 0.780792 0.000000
0.880585 0.782318 0.000000
0.906952 0.784027 0.000000
0.931152 0.786041 0.000000
0.953491 0.788361 0.000000
0.973969 0.791046 0.000000
0.991821 0.794006 0.000000
1.000000 0.797180 0.000000
1.000000 0.800568 0.000000
1.000000 0.804199 0.000000
1.000000 0.807983 0.000000
0.000000 0.822876 0.000000
0.000000 0.822876 0.000000
0.000000 0.822937 0.000000
0.005646 0.822998 0.000000
0.026306 0.823059 0.000000
0.060455 0.823120 0.000000
0.143463 0.823181 0.000000
0.218323 0.822845 0.000000
0.279907 0.821594 0.000000
0.335968 0.819946 0.000000
0.387817 0.818298 0.000000
0.436890 0.816742 0.000000
0.483978 0.815308 0.000000
0.529205 0.814056 0.000000
0.572693 0.813019 0.000000
0.614441 0.812164 0.000000
0.654480 0.811584 0.000000
0.692749 0.811279 0.000000
0.729248 0.811218 0.000000
0.763855 0.811462 0.000000
0.796600 0.812042 0.000000
0.827606 0.812836 0.000000
0.856689 0.813751 0.000000
0.883820 0.814789 0.000000
0.909058 0.816040 0.000000
0.932281 0.817505 0.000000
0.953552 0.819214 0.000000
0.973114 0.821228 0.000000
0.990417 0.823486 0.000000
0.999969 0.825928 0.000000
1.000000 0.828552 0.000000
1.000000 0.831360 0.000000
1.000000 0.834320 0.000000
0.026520 0.856079 0.000000
0.033905 0.856079 0.000000
0.041016 0.856049 0.000000
0.062164 0.856049 0.000000
0.118561 0.856018 0.000000
0.183197 0.855774 0.000000
0.237579 0.855377 0.000000
0.288147 0.854218 0.000000
0.336823 0.852570 0.000000
0.383698 0.850922 0.000000
0.429108 0.849274 0.000000
0.472900 0.847717 0.000000
0.515472 0.846283 0.000000
0.556824 0.844940 0.000000
0.596924 0.843750 0.000000
0.635651 0.842743 0.000000
0.672852 0.841949 0.000000
0.708557 0.841370 0.000000
0.742676 0.841034 0.000000
0.775085 0.840942 0.000000
0.805908 0.841064 0.000000
0.835052 0.841461 0.000000
0.862579 0.842041 0.000000
0.888336 0.842712 0.000000
0.912231 0.843536 0.000000
0.934326 0.844513 0.000000
0.954559 0.845703 0.000000
0.973236 0.847229 0.000000
0.989807 0.848877 0.000000
0.999908 0.850708 0.000000
1.000000 0.852722 0.000000
1.000000 0.854889 0.000000
1.000000 0.857208 0.000000
0.139221 0.884003 0.000000
0.164337 0.883881 0.000000
0.188751 0.883759 0.000000
0.216553 0.883545 0.000000
0.247375 0.883301 0.000000
0.281891 0.882477 0.000000
0.319061 0.881195 0.000000
0.357208 0.879761 0.000000
0.395905 0.878265 0.000000
0.434753 0.876740 0.000000
0.473541 0.875214 0.000000
0.511871 0.873688 0.000000
0.549774 0.872253 0.000000
0.587067 0.870880 0.000000
0.623535 0.869659 0.000000
0.659027 0.868561 0.000000
0.693207 0.867645 0.000000
0.726105 0.866882 0.000000
0.757721 0.866333 0.000000
0.787933 0.865967 0.000000
0.816650 0.865814 0.000000
0.843964 0.865845 0.000000
0.869781 0.866119 0.000000
0.894043 0.866516 0.000000
0.916534 0.867035 0.000000
0.937378 0.867645 0.000000
0.956543 0.868500 0.000000
0.974243 0.869537 0.000000
0.989990 0.870789 0.000000
0.999908 0.872131 0.000000
1.000000 0.873657 0.000000
1.000000 0.875336 0.000000
1.000000 0.877106 0.000000
0.276886 0.906555 0.000000
0.289154 0.906128 0.000000
0.301941 0.905701 0.000000
0.319000 0.905060 0.000000
0.340485 0.904236 0.000000
0.365082 0.903259 0.000000
0.392639 0.902100 0.000000
0.422089 0.900879 0.000000
0.453339 0.899536 0.000000
0.485687 0.898163 0.000000
0.518707 0.896759 0.000000
0.552094 0.895325 0.000000
0.585541 0.893951 0.000000
0.618774 0.892639 0.000000
0.651550 0.891388 0.000000
0.683624 0.890259 0.000000
0.714752 0.889282 0.000000
0.744904 0.888458 0.000000
0.774017 0.887756 0.000000
0.801941 0.887238 0.000000
0.828644 0.886871 0.000000
0.853973 0.886719 0.000000
0.878082 0.886688 0.000000
0.900696 0.886871 0.000000
0.921753 0.887146 0.000000
