滤镜资源/2018.1更新vsco/2018.1更新 vsco 3dl/VSCO U1.3dl
#Generated by Picture Instruments - Look Converter
3DMESH
Mesh 4 10
0 64 128 192 256 320 384 448 512 576 640 704 768 832 896 960 1023
4 0 0
20 4 20
32 4 52
20 4 116
36 8 192
8 8 280
16 12 364
40 16 448
24 20 532
40 24 612
32 28 672
36 32 744
48 36 796
32 36 852
44 40 888
24 36 916
24 36 968
0 20 4
20 20 24
32 16 60
24 20 128
32 24 208
8 24 308
24 28 416
36 28 488
24 32 572
40 36 652
16 40 708
28 40 784
40 40 828
20 44 880
40 44 912
20 48 936
20 48 984
4 44 4
20 52 36
32 48 60
20 52 128
36 52 216
4 68 316
24 60 412
36 64 488
24 68 580
36 68 644
20 76 716
28 72 784
40 72 836
28 76 884
40 76 920
20 88 936
24 80 980
4 88 4
20 92 32
32 108 64
24 120 132
28 124 212
16 124 312
28 124 404
36 124 488
28 128 580
40 124 652
16 148 708
20 132 780
36 132 824
24 136 880
40 136 912
28 144 944
28 140 976
8 156 20
24 164 36
32 172 76
20 192 144
36 208 224
12 220 324
28 212 412
32 220 488
28 212 572
32 212 652
24 228 720
28 220 788
40 212 836
24 216 876
36 216 916
28 236 940
28 224 976
8 244 24
20 252 40
28 268 84
24 284 152
28 300 232
12 320 340
28 312 416
36 308 496
28 320 588
40 316 656
20 328 712
24 324 776
36 316 828
20 320 876
36 320 916
24 340 948
24 320 980
12 352 36
24 344 52
32 360 96
24 380 168
36 396 240
12 432 340
24 424 412
36 420 492
24 424 580
36 424 648
24 436 724
28 428 780
36 424 828
24 424 880
36 420 912
24 440 936
24 432 980
12 460 36
16 456 64
32 468 112
16 480 172
32 492 252
20 512 356
24 516 432
36 524 504
32 524 588
36 520 660
20 536 716
20 524 776
40 520 832
20 524 876
36 512 908
32 520 952
32 512 984
20 540 60
24 548 80
28 556 120
24 564 192
32 580 268
20 592 368
20 592 436
32 600 512
20 612 592
32 604 664
28 608 736
24 604 784
36 604 832
24 600 880
36 600 916
28 612 944
24 588 980
20 636 64
20 640 88
28 636 128
16 648 200
32 652 276
24 660 384
20 664 452
36 664 520
24 676 600
36 680 660
24 688 732
20 684 784
36 680 828
24 676 880
36 672 908
32 676 952
28 664 984
24 700 80
20 704 100
32 704 144
20 716 216
32 716 280
24 724 392
20 732 456
32 736 532
20 740 608
32 744 672
28 744 740
24 740 792
36 736 832
24 744 880
40 736 920
28 744 948
24 732 980
20 764 92
16 772 116
32 772 168
20 776 236
36 776 312
28 780 420
24 780 476
36 784 540
24 788 620
36 788 680
28 800 748
24 796 796
36 792 832
24 796 880
36 796 912
32 792 952
32 792 984
28 820 116
24 828 144
36 828 192
20 824 256
36 828 324
28 832 436
20 836 484
36 836 548
20 836 620
36 836 684
32 836 756
20 844 804
40 844 844
24 848 888
40 836 924
32 840 952
28 840 984
24 872 140
20 872 160
36 872 212
20 876 284
36 876 344
28 872 448
24 876 488
40 880 556
24 884 636
40 880 692
28 888 760
24 884 804
40 884 844
24 888 888
40 884 916
36 884 964
24 884 988
32 908 168
24 916 192
40 908 236
24 916 308
40 916 368
28 916 472
24 920 516
40 916 572
24 916 636
40 920 692
32 920 764
24 924 808
40 920 852
24 924 888
40 920 924
32 924 960
24 924 984
28 948 208
20 956 232
36 952 280
24 956 348
36 952 404
32 952 496
24 956 540
40 952 592
24 956 652
44 952 696
32 952 772
24 960 808
40 956 852
24 964 896
40 956 932
36 948 960
28 952 988
28 972 260
20 976 292
40 972 340
24 972 400
36 972 460
44 968 544
36 972 592
52 964 640
32 972 688
48 964 720
32 976 780
24 976 824
40 976 856
24 980 892
40 976 924
48 972 956
32 972 980
28 0 0
24 0 16
28 0 56
20 4 124
20 4 208
20 8 284
16 16 368
20 20 468
16 24 548
20 24 624
32 32 688
32 32 756
32 32 808
32 36 860
36 36 900
24 32 940
24 32 968
20 20 0
20 16 24
24 20 64
24 20 140
20 24 228
16 28 328
20 28 420
24 28 508
20 36 588
24 36 668
24 40 736
28 40 788
28 40 844
24 48 884
32 48 924
32 48 960
28 48 984
24 44 8
24 56 28
20 60 64
24 56 144
24 60 236
20 60 328
24 68 432
24 72 512
24 68 592
24 76 664
28 76 736
32 80 792
28 80 848
32 80 892
32 84 924
28 88 960
28 88 988
12 88 4
16 100 32
16 116 76
12 132 144
16 128 236
24 128 336
24 132 424
20 132 516
24 140 596
24 140 676
20 144 740
24 144 792
28 148 844
24 148 888
32 148 924
36 148 964
32 148 988
12 160 8
12 176 36
16 184 80
12 208 152
16 224 240
20 224 332
20 220 416
16 228 508
24 232 592
24 232 664
24 232 736
32 232 788
28 228 844
28 232 888
32 232 924
32 232 960
28 232 984
16 248 16
12 272 44
16 292 92
12 300 164
12 320 244
20 332 336
20 336 432
24 332 516
24 336 596
20 336 672
24 332 728
32 336 792
24 340 836
24 336 888
28 336 920
32 332 956
32 332 992
16 356 32
20 372 60
16 392 108
16 404 184
24 416 268
16 432 344
20 440 436
16 444 520
16 444 592
20 448 668
24 444 740
24 440 792
24 444 848
28 440 892
32 436 928
28 444 960
28 444 984
16 472 36
12 484 64
12 488 112
16 504 184
16 512 268
20 520 364
16 536 444
20 540 520
24 536 596
24 536 668
24 544 732
24 540 792
24 536 844
24 536 884
28 532 920
36 528 964
36 524 988
20 560 52
24 568 84
20 576 132
24 584 204
20 592 284
20 604 372
24 612 452
20 620 528
20 624 608
24 624 676
28 616 740
28 620 796
28 620 844
32 612 888
36 616 928
28 612 960
28 596 984
16 644 60
20 644 92
16 656 144
20 660 212
20 664 300
24 672 384
28 672 460
24 684 540
28 688 616
24 692 684
24 696 748
24 692 800
24 688 848
24 688 888
32 684 928
32 688 968
32 672 988
24 712 76
24 716 108
24 720 164
24 724 228
24 732 312
24 736 392
20 740 468
20 744 548
20 744 620
24 752 684
24 752 744
28 752 804
28 752 848
28 752 892
32 744 928
32 748 964
32 740 992
24 776 88
20 780 124
20 784 180
24 784 248
20 792 328
24 788 408
24 788 484
24 796 560
28 800 628
28 800 696
24 804 752
28 804 800
24 804 848
28 804 892
28 804 928
32 800 964
32 796 996
24 832 104
24 832 148
24 836 196
24 836 268
24 840 344
28 840 428
24 844 496
28 840 564
28 848 636
28 848 700
24 848 760
28 856 808
32 852 852
28 852 896
32 848 936
32 848 964
32 848 996
24 880 128
24 880 172
20 880 232
20 880 296
20 884 368
24 880 440
28 884 516
28 892 580
28 888 644
28 888 708
28 892 760
28 888 816
28 892 856
28 892 900
32 892 932
32 888 968
28 888 996
24 920 156
24 920 200
24 924 252
24 924 320
24 924 388
28 924 468
24 924 528
24 924 592
24 928 648
24 928 712
28 928 768
28 928 820
24 928 860
32 928 900
32 928 932
32 928 964
32 928 992
24 964 196
24 960 244
24 964 304
24 956 360
24 964 428
28 960 492
28 960 556
28 960 608
24 960 656
24 964 712
28 964 772
28 964 820
28 964 864
28 964 904
28 964 936
28 960 968
28 960 992
24 980 256
24 980 300
24 980 364
28 980 420
28 980 480
36 976 552
36 976 608
36 976 660
40 976 696
36 976 740
28 980 784
32 984 836
28 984 864
28 984 900
32 980 932
36 980 964
36 976 984
64 8 4
72 4 20
60 0 56
64 0 128
60 8 220
52 8 292
52 16 384
40 20 476
36 20 548
32 24 628
36 32 696
44 32 760
40 36 812
40 32 856
40 36 904
36 36 944
36 36 964
64 24 4
68 24 20
68 20 60
72 24 132
60 20 224
60 24 324
60 28 416
44 36 508
44 36 592
40 40 664
32 40 732
36 40 792
40 44 844
40 44 884
40 48 928
40 48 960
40 48 988
68 48 8
68 48 28
64 56 64
72 60 136
68 60 232
60 72 332
52 64 420
44 72 508
36 72 588
40 76 664
40 80 736
40 84 792
40 80 848
44 84 888
40 84 928
40 88 960
40 88 984
60 88 8
56 100 28
56 120 76
64 128 144
56 132 236
60 132 332
56 132 428
44 136 516
44 140 600
36 136 668
32 144 736
36 144 792
36 148 844
40 152 888
40 144 924
40 144 964
40 148 988
44 148 12
52 168 36
56 188 84
52 212 160
60 224 248
52 220 332
48 224 420
36 228 508
44 228 592
40 228 672
40 232 748
40 228 796
40 228 844
40 232 892
40 232 928
44 236 964
44 232 984
40 232 16
44 264 44
40 284 88
48 296 160
40 320 248
44 332 340
44 332 432
36 328 516
36 332 596
36 336 672
36 336 736
36 344 792
44 340 844
40 336 880
40 336 924
44 336 964
44 336 988
28 348 28
36 368 60
32 392 108
40 404 180
40 416 268
36 436 348
32 448 432
32 444 520
44 444 596
36 448 672
36 444 740
36 440 796
40 444 848
40 444 888
44 440 932
40 444 964
36 444 984
24 464 36
28 472 64
20 488 120
28 504 188
28 516 272
36 520 368
32 528 448
36 536 528
36 536 600
36 536 672
36 544 736
36 540 800
40 532 840
36 536 888
36 532 924
44 528 968
44 528 988
24 560 48
20 572 76
32 580 132
28 580 196
28 596 284
28 604 368
36 612 452
28 620 528
36 620 600
32 620 672
44 612 744
40 620 796
44 620 844
40 616 884
40 616 928
40 608 960
40 600 984
20 644 60
24 648 92
28 656 148
28 664 216
28 668 300
32 668 380
36 680 468
36 684 544
36 688 620
40 692 684
32 696 744
40 688 796
36 692 848
40 692 888
36 684 924
40 684 968
44 672 988
28 712 76
24 712 108
28 716 164
28 724 236
32 732 312
28 736 396
28 744 476
28 744 548
36 744 624
36 752 688
36 752 752
40 752 804
40 752 848
40 748 896
40 748 924
40 744 964
40 744 988
24 776 84
24 784 120
24 784 180
24 788 252
28 792 320
32 792 404
32 792 484
36 796 560
40 800 632
36 800 692
36 804 752
36 804 804
36 804 848
40 804 888
40 804 924
44 796 964
44 792 988
24 828 100
28 832 148
28 836 196
28 836 268
32 840 340
32 840 424
32 840 492
32 840 564
36 844 636
36 848 704
36 848 760
36 852 808
40 848 856
40 848 896
40 848 932
44 848 964
44 848 992
24 880 128
28 880 176
28 880 232
28 884 292
28 884 364
32 884 440
32 884 516
32 888 576
32 884 644
36 888 708
36 888 764
36 892 816
40 892 860
40 892 896
36 888 928
44 888 968
44 888 992
28 920 156
28 920 204
28 920 252
28 924 328
32 924 396
28 924 464
28 924 536
32 924 592
32 928 648
32 932 712
36 928 768
36 924 820
40 928 860
36 928 900
40 928 936
40 928 964
40 924 992
24 960 192
24 960 236
28 960 296
24 960 360
32 960 424
32 960 492
32 964 560
32 960 608
32 960 660
32 964 712
36 964 772
32 968 820
40 964 864
40 964 896
40 968 936
40 960 968
40 960 992
24 980 252
32 980 296
32 980 360
36 980 420
36 980 480
44 980 548
44 980 608
40 976 664
36 980 700
40 980 740
36 984 788
36 984 832
40 984 864
40 984 896
44 988 936
52 980 968
52 980 984
144 20 12
132 12 20
144 4 48
136 4 124
136 4 216
124 12 284
108 16 376
104 20 468
100 20 548
80 24 628
84 28 696
60 32 764
64 32 812
52 36 856
56 36 900
56 32 944
48 32 972
140 36 12
144 36 28
148 24 64
144 20 136
140 24 228
136 28 324
132 32 428
120 32 512
108 36 596
100 40 668
80 40 736
60 44 800
60 40 848
60 48 888
56 48 928
56 48 960
