滤镜资源/2018.1更新vsco/2018.1更新 vsco 3dl/VSCO G7.3dl
#Generated by Picture Instruments - Look Converter
3DMESH
Mesh 4 10
0 64 128 192 256 320 384 448 512 576 640 704 768 832 896 960 1023
0 0 0
36 16 44
60 32 76
68 52 124
80 64 152
84 92 196
108 100 240
124 120 284
140 140 328
168 164 388
176 188 432
216 216 500
248 236 556
268 272 616
300 288 668
304 304 696
316 316 724
28 60 32
44 56 56
64 64 88
80 84 140
92 96 176
100 124 232
124 132 272
144 140 308
160 168 360
188 188 420
204 220 476
232 244 544
268 268 600
288 292 660
316 316 704
324 336 732
332 340 756
60 108 64
68 104 80
76 104 108
84 112 148
104 124 188
100 152 232
128 156 272
152 176 324
168 196 376
192 212 428
208 236 484
244 264 556
272 288 616
296 316 672
324 336 720
328 348 740
340 356 760
80 172 80
92 160 96
92 156 120
92 156 156
108 164 196
112 180 236
136 188 280
156 204 324
172 220 380
204 240 432
216 268 488
244 284 552
272 312 612
300 336 668
328 352 720
340 364 744
344 372 768
116 228 116
120 220 128
120 204 152
108 204 172
112 200 204
120 220 244
140 228 288
164 240 336
176 256 384
204 272 436
220 296 496
256 320 560
284 336 628
304 360 672
328 376 724
336 396 748
348 396 768
140 284 140
140 268 156
140 260 176
136 268 208
136 252 224
124 244 252
148 260 292
172 272 340
188 288 396
216 304 444
220 328 496
256 348 564
288 372 624
308 392 680
332 412 732
340 420 752
348 420 772
172 340 172
164 324 180
164 324 200
160 320 232
164 312 248
148 312 276
148 292 292
172 304 340
184 324 392
212 340 440
232 360 504
264 384 568
288 400 628
312 424 684
336 436 736
340 456 748
356 456 772
188 396 192
188 384 208
192 380 228
184 372 256
188 364 272
176 360 304
176 352 324
180 344 348
196 360 400
212 376 444
232 404 504
268 420 572
296 440 632
320 464 692
336 476 732
348 484 756
356 488 776
220 448 220
216 436 232
220 432 256
216 428 284
212 428 308
200 420 328
204 416 352
204 404 372
200 404 408
220 416 452
244 440 520
272 456 576
304 484 636
320 500 696
352 516 744
360 532 764
364 532 772
248 504 244
248 496 264
244 492 280
240 492 308
248 488 336
240 480 368
240 480 384
232 472 400
232 464 432
232 460 460
244 484 516
276 504 580
308 528 640
324 544 696
348 560 736
364 572 760
372 572 776
276 552 272
276 548 292
276 544 308
276 552 340
272 544 360
268 536 392
264 540 408
268 536 440
264 536 464
264 528 492
264 528 532
280 544 588
316 568 648
336 596 708
368 604 748
368 616 764
384 620 780
300 604 300
296 600 316
300 600 336
304 604 368
308 604 392
300 600 428
300 600 440
300 596 464
300 600 496
296 596 524
288 596 560
292 600 596
320 616 652
344 640 708
372 656 744
392 664 776
400 664 788
328 656 328
328 652 348
332 652 364
328 652 396
332 656 420
328 660 456
332 660 472
336 660 496
328 660 524
328 660 556
328 656 596
324 660 628
332 660 672
360 684 724
388 692 760
408 708 780
412 712 792
360 704 356
360 700 376
360 700 396
364 708 428
368 708 448
360 708 484
364 712 500
364 712 520
364 716 560
368 716 584
364 716 620
364 716 656
364 716 688
368 720 720
404 736 760
428 748 796
440 748 804
400 744 400
400 740 416
400 736 432
404 748 464
408 752 492
408 748 520
412 756 540
412 756 564
416 760 588
416 756 616
416 760 656
416 764 684
424 764 716
416 764 740
428 768 772
452 780 796
468 784 804
440 776 444
444 780 456
452 780 476
448 784 504
456 784 524
452 784 560
456 792 576
456 792 592
456 796 620
456 792 644
464 788 680
460 796 704
472 796 736
472 800 764
476 804 788
476 804 808
484 808 820
480 804 484
480 804 496
484 808 520
484 804 540
488 808 564
488 804 592
488 808 608
488 812 632
492 808 656
492 812 672
488 812 712
492 816 736
500 816 752
500 820 772
500 820 796
508 820 812
508 820 820
60 8 12
64 20 48
68 32 80
76 52 120
92 64 160
100 84 192
116 100 236
136 120 280
152 144 328
176 160 380
196 184 432
220 216 500
252 244 556
276 272 616
296 296 664
316 308 704
324 316 724
64 64 12
76 76 76
92 92 116
108 104 160
120 120 204
136 132 244
152 148 288
168 164 332
188 188 384
212 212 440
240 236 500
256 260 560
288 284 620
312 312 680
332 332 728
352 348 760
356 352 776
88 108 48
104 128 104
96 120 128
116 136 172
128 148 212
144 164 252
160 180 296
176 196 344
192 212 392
220 232 448
244 256 508
268 280 572
296 308 632
320 328 688
340 348 732
352 364 764
356 364 776
108 168 80
128 184 124
120 180 148
120 176 176
132 184 212
152 196 260
164 212 300
184 224 348
196 240 396
224 260 456
244 280 508
268 304 572
296 328 636
324 348 692
340 368 736
360 380 768
360 380 780
140 228 104
152 240 152
148 232 176
136 228 196
140 216 224
156 232 264
164 244 300
180 256 348
196 272 396
228 288 452
252 312 512
276 332 576
296 352 636
324 372 692
344 392 740
360 404 768
360 404 776
164 276 128
176 300 180
176 292 204
168 280 224
160 272 244
160 264 268
172 276 308
192 288 356
208 304 404
228 316 452
252 340 512
280 364 584
304 384 644
328 404 696
348 424 736
360 428 772
364 428 784
188 336 156
208 352 208
204 344 232
200 336 252
192 328 272
180 316 288
176 312 316
200 324 360
208 344 408
232 360 468
260 376 528
284 392 584
304 416 648
332 440 704
356 456 748
364 468 772
368 464 780
216 396 184
232 412 232
228 400 256
220 396 276
216 388 292
212 376 320
208 368 344
200 356 364
216 372 408
240 388 468
260 412 524
284 436 588
316 456 648
332 472 700
356 492 744
368 496 772
372 500 788
240 448 208
260 464 260
264 460 288
256 452 304
244 444 324
236 432 344
232 424 372
228 424 392
220 420 420
244 436 476
268 448 536
288 472 592
316 496 652
344 520 708
364 532 756
376 536 768
380 536 784
268 500 232
288 516 284
284 512 308
276 508 332
276 504 356
272 500 380
264 488 400
256 484 424
252 480 448
248 476 484
272 500 536
300 524 600
320 540 656
344 560 712
372 580 756
388 584 780
388 584 788
296 552 264
316 568 312
316 568 336
312 564 360
308 564 384
304 560 404
296 560 428
292 552 452
284 548 476
280 548 504
280 540 540
300 560 604
328 584 664
352 604 720
380 616 760
388 632 780
396 632 788
316 604 292
340 620 336
344 624 364
336 620 388
336 624 412
328 612 432
324 612 460
328 616 484
320 612 508
320 616 540
316 616 576
308 608 608
336 632 672
360 656 720
388 668 760
412 676 784
412 676 792
348 652 320
364 668 364
368 672 392
364 672 416
364 672 440
360 672 460
356 676 488
352 668 516
348 672 544
348 672 572
344 672 604
344 672 644
352 672 684
368 692 728
404 708 768
428 720 792
432 724 800
376 700 348
392 724 392
400 724 420
396 724 452
392 724 468
392 724 492
388 728 520
388 728 544
384 728 572
380 724 596
380 728 632
380 732 668
380 732 708
388 736 740
428 748 772
452 756 796
460 764 812
412 748 384
432 764 432
432 764 456
436 764 488
436 768 508
436 768 532
436 764 552
436 768 576
444 772 604
440 772 640
440 776 664
440 776 696
440 776 728
440 784 760
452 780 788
476 792 808
488 796 816
460 784 432
480 800 480
484 804 504
480 796 524
480 796 548
484 804 568
484 804 592
484 804 612
480 804 632
484 808 668
488 804 692
488 808 724
492 812 752
496 812 780
492 812 800
500 812 816
504 820 828
500 812 480
512 824 516
516 824 540
516 820 560
516 824 580
520 820 604
520 820 624
516 816 644
516 820 668
516 820 692
516 820 716
516 824 748
520 828 764
520 828 784
520 832 808
524 828 816
524 828 828
104 24 20
112 20 44
104 36 84
104 48 116
112 64 160
120 84 188
136 100 232
152 116 276
168 136 324
188 160 376
208 184 428
236 212 492
260 240 552
284 264 608
308 292 656
328 304 700
336 312 716
120 72 24
136 84 76
132 84 116
136 100 156
140 116 200
156 128 240
176 144 284
188 168 332
208 184 376
232 208 440
252 228 492
272 256 556
296 284 620
328 308 676
348 332 724
364 344 756
364 348 768
132 120 32
140 124 88
144 136 140
160 152 184
168 164 224
180 180 264
192 188 300
208 204 352
220 224 396
244 244 456
272 268 516
296 292 580
312 312 636
340 332 692
360 352 732
368 368 772
376 372 780
132 164 72
152 184 116
168 196 168
160 188 188
172 196 228
188 208 276
200 220 312
216 236 360
236 252 408
248 272 460
272 292 520
296 312 580
320 336 644
348 360 696
360 372 740
376 384 772
376 388 784
156 212 100
176 228 148
192 248 192
188 240 216
180 236 240
188 244 276
208 252 316
212 268 360
236 288 412
256 304 464
280 324 524
300 340 584
324 364 644
348 384 700
368 400 744
380 412 772
380 412 784
184 268 120
204 288 176
216 304 216
212 292 236
204 292 260
200 280 288
212 288 324
220 296 364
240 312 412
260 332 464
280 352 524
304 372 588
324 396 644
344 408 696
364 428 744
380 436 780
384 440 784
208 324 152
236 344 204
244 360 244
240 352 268
232 340 284
216 336 308
216 328 328
232 336 372
248 356 424
264 372 476
284 384 532
312 404 596
332 428 656
356 444 708
376 460 756
384 472 776
388 472 780
236 384 176
252 396 224
272 416 272
264 408 292
252 404 308
252 392 340
236 384 352
232 372 380
252 384 424
272 404 484
288 424 536
316 448 600
340 460 656
356 484 704
376 500 752
392 504 780
392 504 788
264 436 204
284 456 256
300 472 300
292 460 320
284 460 344
276 452 360
272 444 380
260 436 404
252 420 420
272 440 480
296 460 544
320 480 608
344 504 664
372 524 716
380 536 760
392 548 776
396 548 788
288 492 228
308 508 280
324 528 328
324 524 348
316 520 372
308 508 388
300 504 412
292 500 440
288 492 456
284 488 496
304 508 548
324 524 604
344 548 664
372 568 716
388 584 760
404 592 788
404 592 792
320 548 260
340 560 308
352 576 352
352 580 380
344 576 396
340 576 420
336 572 444
320 564 464
320 556 488
308 556 520
308 552 556
336 572 616
356 596 676
376 612 728
400 628 768
412 636 788
416 640 796
340 600 284
360 616 332
376 640 376
380 632 404
368 632 424
368 628 452
368 628 468
360 624 496
360 624 524
348 620 548
340 620 580
340 620 620
360 640 672
388 660 728
412 680 772
428 680 792
436 684 800
368 644 308
388 668 360
408 688 408
412 684 436
404 684 456
400 688 476
392 684 500
388 684 524
384 684 548
380 684 584
376 680 616
372 684 652
368 680 684
392 704 732
428 716 776
452 728 804
460 732 808
392 696 340
420 716 388
436 736 436
436 736 460
424 736 480
428 736 504
424 736 532
420 740 560
416 732 580
412 740 612
412 740 644
408 744 676
404 740 716
412 744 748
444 756 780
472 768 808
484 772 816
428 744 376
456 760 428
476 776 476
476 776 500
472 780 520
468 776 548
472 776 560
468 780 592
472 780 616
468 784 648
464 780 676
464 784 704
464 788 736
468 788 768
476 792 800
500 804 820
512 804 824
476 784 428
500 796 468
516 808 512
520 812 536
516 812 560
512 816 584
520 816 604
508 816 620
512 812 644
512 816 672
516 820 704
520 816 732
516 820 760
516 816 784
516 820 804
524 824 828
528 824 828
516 812 476
536 824 512
548 832 552
548 836 576
544 836 592
548 836 616
548 832 632
540 832 656
548 828 680
548 832 704
540 836 724
544 836 752
544 836 768
548 840 796
544 840 816
548 840 828
548 840 832
152 24 28
144 28 40
156 36 84
152 48 116
148 60 148
144 84 184
152 96 228
172 112 272
188 136 316
204 160 376
228 184 424
248 208 488
272 232 540
296 264 596
320 284 648
336 304 688
344 308 708
168 72 36
188 84 76
200 84 112
184 80 140
172 108 192
184 128 240
200 148 288
220 164 332
232 184 384
248 204 436
272 228 500
292 256 560
320 284 624
344 308 680
360 324 724
372 344 752
