滤镜资源/2018.1更新vsco/2018.1更新 vsco 3dl/VSCOX  AU5 Agfa Ultra 50.3dl
#Generated by Picture Instruments - Look Converter
3DMESH
Mesh 4 10
0 64 128 192 256 320 384 448 512 576 640 704 768 832 896 960 1023
40 4 32
60 12 52
76 16 108
84 24 216
104 32 328
84 52 416
108 68 496
120 84 564
120 96 624
128 108 660
112 128 684
120 148 716
124 168 732
116 200 764
120 248 788
104 316 812
104 388 840
32 24 20
64 24 40
72 28 100
88 36 224
108 44 352
96 60 484
116 76 552
128 84 608
128 100 656
132 112 684
116 128 708
128 152 736
128 172 748
120 212 772
120 268 800
104 336 824
100 428 856
36 64 32
64 68 48
72 72 104
76 72 212
100 72 356
80 96 488
108 100 564
120 112 620
120 124 664
128 128 688
120 136 716
128 156 736
128 176 748
124 216 780
120 268 800
104 344 828
100 428 856
20 192 60
44 176 68
52 180 104
52 164 196
72 156 340
68 160 484
92 164 568
104 168 632
112 176 684
112 184 704
96 204 724
112 200 748
116 220 760
116 244 788
112 288 804
104 352 832
100 428 856
12 404 152
32 360 132
36 336 148
32 316 220
48 288 344
36 292 488
68 276 584
72 280 648
80 272 700
88 280 720
76 296 760
96 292 776
104 304 792
92 332 816
100 372 836
80 444 856
84 496 872
4 568 212
20 528 192
32 496 200
20 472 252
28 436 352
20 424 512
40 404 596
56 392 672
52 396 732
68 392 764
52 412 784
64 404 804
72 416 824
68 440 844
72 480 860
68 544 892
72 576 900
12 664 260
20 628 240
36 608 236
20 584 284
32 552 364
8 552 504
20 520 588
36 508 672
36 508 740
40 508 776
36 520 820
48 512 836
52 516 848
48 536 872
60 564 888
48 620 912
64 652 920
16 708 280
16 700 260
36 676 264
12 664 296
32 640 372
12 620 508
20 608 596
32 600 688
20 600 752
36 592 796
20 612 828
28 604 852
40 608 868
36 624 896
44 636 908
48 672 932
56 700 936
16 728 292
20 724 280
36 712 272
12 700 304
36 684 376
12 676 504
8 672 592
32 664 676
12 668 756
32 668 800
20 672 840
24 668 868
36 668 884
32 680 912
44 696 920
40 724 936
48 740 944
16 744 292
12 744 284
36 732 280
12 728 308
36 712 372
16 704 496
12 704 584
32 700 672
12 708 748
32 708 792
20 720 840
16 716 868
36 720 892
24 728 916
40 736 928
40 760 948
56 772 956
20 756 300
16 756 288
40 744 284
12 740 320
32 736 368
16 728 492
8 732 568
32 732 656
12 744 740
28 744 788
20 748 844
16 756 876
36 760 896
20 768 924
44 772 932
48 792 952
60 796 952
16 760 300
16 760 292
36 752 288
12 752 324
32 748 376
16 744 492
12 744 560
28 752 648
12 760 732
32 768 780
20 776 832
12 780 864
36 780 896
24 792 920
48 800 940
56 808 952
72 816 960
20 764 304
12 768 296
36 760 292
16 760 328
32 760 372
20 756 488
16 764 560
32 768 636
12 776 712
32 780 768
24 792 828
20 800 864
40 804 892
32 816 924
52 820 936
68 832 952
80 836 956
20 764 296
16 772 292
36 768 300
16 768 336
36 760 376
24 764 480
20 772 532
36 776 616
20 788 692
36 792 748
32 804 808
28 816 840
40 820 876
44 832 912
64 836 936
76 848 952
88 852 960
24 772 304
24 776 300
36 772 308
24 776 340
40 768 388
32 772 484
28 780 536
40 780 600
28 792 676
44 800 724
40 812 796
40 824 828
52 832 868
52 844 904
72 852 932
96 860 944
116 868 952
32 772 308
36 780 316
48 776 320
36 776 356
44 776 396
40 780 488
40 784 536
48 792 596
48 800 664
56 804 712
60 816 776
56 824 812
72 836 852
84 852 888
104 860 920
116 872 940
136 876 948
44 772 320
48 780 328
56 776 352
48 776 388
60 776 436
64 780 524
68 784 568
76 792 628
68 800 684
84 808 728
76 824 776
84 832 812
96 836 840
104 852 880
124 864 908
148 872 928
172 880 936
60 8 20
68 12 44
76 16 120
84 24 224
96 32 356
104 56 432
108 68 516
116 88 588
124 100 636
124 112 672
120 132 700
116 148 720
116 172 744
116 208 772
112 264 792
104 328 828
100 412 852
56 20 12
60 28 40
72 32 112
80 40 244
96 52 384
108 60 484
120 76 572
124 88 624
128 100 664
128 116 692
128 132 716
124 152 736
124 176 756
120 216 780
112 276 808
100 364 840
92 444 864
56 68 24
48 80 48
60 76 108
68 80 232
88 84 380
100 96 504
104 112 580
116 120 636
116 128 668
120 136 696
124 140 720
128 160 736
124 180 760
120 216 784
116 276 812
100 364 836
96 444 864
36 188 56
32 192 72
36 192 120
48 180 232
64 164 372
84 164 508
88 172 592
100 180 656
108 188 696
112 196 716
108 204 736
112 212 752
112 232 772
112 256 796
108 308 816
104 380 848
96 444 864
20 408 144
16 372 136
20 356 164
28 336 248
36 308 376
52 296 508
60 284 600
68 288 668
76 288 712
84 296 740
88 304 768
88 312 780
88 320 796
84 352 824
88 396 840
84 460 868
84 520 884
8 568 200
8 548 200
8 520 216
8 480 268
16 456 384
28 432 524
40 420 624
48 412 696
52 420 744
56 408 772
60 412 796
56 428 816
64 440 832
68 460 860
64 496 868
76 552 900
76 604 912
8 664 248
8 636 240
8 620 248
4 592 300
8 564 400
8 544 516
16 536 620
24 524 700
28 524 756
36 524 792
40 524 824
44 524 840
44 540 860
48 556 884
52 588 896
60 636 920
60 672 928
8 716 268
4 700 260
4 680 264
0 668 304
8 644 392
8 628 516
8 620 624
12 612 700
16 616 768
24 608 812
20 616 832
24 620 856
28 624 880
36 636 900
40 656 916
52 688 932
60 716 944
8 736 276
8 728 276
4 716 284
8 704 316
4 688 396
4 680 508
8 672 616
8 672 704
8 676 772
16 676 812
20 676 844
20 680 876
28 684 892
36 692 916
40 712 936
48 736 940
60 752 952
8 752 280
8 744 284
8 736 288
4 728 324
4 716 392
4 708 504
12 704 604
8 708 700
8 712 764
12 716 812
16 724 852
16 724 880
24 728 900
28 736 924
40 748 940
52 768 952
64 780 956
8 760 284
8 756 284
8 748 292
8 748 324
12 736 392
8 732 492
8 736 588
8 740 684
8 748 748
8 752 800
16 756 848
16 760 880
24 764 904
20 776 928
40 780 940
56 792 952
68 808 960
12 764 288
12 760 292
12 756 296
12 756 328
12 748 392
8 748 480
12 748 584
8 756 664
12 768 744
20 772 796
16 780 836
20 784 872
28 788 900
32 796 928
44 804 948
64 816 956
76 824 960
20 768 292
16 764 296
16 764 300
12 764 332
16 760 392
16 760 484
16 764 568
20 772 648
20 784 724
20 792 780
24 800 832
24 804 872
32 812 900
36 820 928
52 828 944
72 840 952
88 840 960
20 772 296
16 768 292
20 772 308
24 772 344
28 764 396
24 768 476
24 776 560
24 780 640
28 792 712
28 800 764
32 812 812
36 820 852
40 832 888
52 836 916
68 844 940
84 852 956
96 856 964
20 772 296
24 772 300
28 776 316
28 776 344
36 772 400
32 776 472
32 780 544
36 792 620
40 800 688
40 804 744
44 816 788
52 832 840
52 836 876
64 848 908
84 856 936
104 864 948
128 872 952
36 780 300
36 776 312
44 776 332
40 780 364
44 776 412
44 780 476
48 792 548
52 792 616
48 800 672
56 808 724
60 824 776
68 828 816
80 840 852
92 852 896
100 868 916
128 876 948
156 880 952
56 776 308
52 776 328
56 776 356
56 780 396
64 780 448
72 780 516
76 792 576
76 796 636
80 804 692
88 812 736
84 824 776
96 836 816
100 844 848
112 852 880
132 868 908
164 876 928
188 880 944
116 24 16
128 24 40
120 24 112
132 28 220
136 40 360
128 60 428
140 72 512
140 88 580
144 100 632
140 112 672
136 132 692
136 152 712
140 176 744
132 208 760
128 260 788
128 332 828
124 404 848
120 28 8
124 40 28
128 36 104
132 40 224
136 48 360
144 60 480
152 76 556
148 88 616
152 104 648
148 120 692
148 132 712
144 156 728
144 180 752
148 216 776
136 276 804
128 356 836
124 436 860
120 76 8
108 80 32
112 80 96
124 80 220
132 84 372
132 100 488
140 108 572
144 116 628
144 128 664
144 136 692
148 144 716
148 160 732
144 180 752
148 216 776
136 272 800
124 360 832
124 436 856
92 180 40
92 184 56
88 184 116
92 168 216
100 168 368
116 164 504
124 172 592
132 180 648
136 188 692
132 192 712
132 204 732
136 208 752
136 228 772
136 260 788
128 296 804
132 364 836
128 436 856
64 372 120
64 352 112
64 344 152
64 320 244
72 300 384
76 284 504
96 276 600
96 284 668
100 288 708
104 292 736
104 300 760
112 300 780
112 320 796
108 348 816
112 396 840
112 460 864
112 516 876
52 552 184
48 532 180
44 500 200
44 476 256
44 452 384
56 424 520
64 416 616
72 404 688
80 404 736
80 408 772
80 408 792
84 420 812
84 432 828
92 448 848
88 492 868
96 544 888
96 596 900
44 652 228
40 628 216
36 608 232
32 588 288
28 556 392
32 540 516
44 528 624
48 524 700
60 516 752
60 520 792
60 516 816
64 516 836
64 532 856
76 552 876
76 584 896
76 628 908
88 664 920
40 712 252
40 692 244
36 672 256
28 660 304
24 640 400
32 620 528
36 612 632
36 608 712
40 604 768
44 604 808
40 608 836
48 612 860
56 616 880
60 632 892
60 656 908
80 688 928
92 712 936
44 732 268
40 724 264
36 712 272
32 696 308
24 688 396
20 680 508
28 672 616
32 676 708
32 672 768
32 672 812
40 672 848
44 676 872
44 680 896
60 688 908
60 708 924
72 732 940
88 752 940
36 752 276
36 740 268
28 732 280
32 724 312
28 712 396
24 708 504
28 704 612
28 708 700
32 712 764
32 716 812
32 720 848
40 720 876
44 724 896
52 732 916
60 748 932
80 764 952
92 780 952
36 760 280
40 752 276
32 748 284
32 744 320
28 736 396
32 736 496
28 736 600
28 740 688
32 748 752
28 752 808
36 756 852
40 760 880
44 764 904
52 772 924
68 780 940
80 792 952
100 804 952
40 764 284
36 760 276
40 760 288
40 756 324
32 752 388
36 752 484
36 752 588
36 760 672
36 768 748
40 772 800
40 780 836
44 784 868
48 792 904
60 796 924
72 808 944
88 816 956
108 824 956
36 772 288
36 768 284
40 764 292
40 764 324
36 764 392
40 764 480
40 768 568
40 776 652
40 784 724
44 792 780
44 800 832
52 808 868
52 816 900
68 820 928
80 828 944
100 836 956
124 840 956
44 772 284
44 772 284
44 772 300
48 772 336
44 772 392
48 772 476
48 776 564
48 784 644
48 792 712
48 804 764
52 812 812
60 820 852
64 832 888
80 840 916
92 848 936
112 856 960
136 860 960
48 780 288
48 780 292
48 776 308
52 776 348
52 780 408
56 776 472
60 784 556
60 792 628
68 800 696
64 812 744
68 820 796
72 828 836
76 844 876
88 852 908
108 864 936
140 872 952
160 872 956
60 780 300
64 780 308
56 784 328
68 780 360
68 780 412
72 788 476
76 792 552
72 800 612
80 808 672
80 816 728
88 824 772
96 832 816
104 848 856
112 860 888
136 868 920
156 880 944
192 880 944
84 780 312
80 780 320
84 784 352
88 780 392
88 788 448
96 788 516
104 792 576
100 800 636
112 808 692
116 820 740
116 832 776
128 840 816
128 848 844
148 860 876
168 872 912
200 880 928
232 880 932
256 44 4
240 40 20
252 36 76
224 44 204
232 48 320
212 60 400
196 76 488
196 88 560
196 100 616
188 116 656
188 132 680
180 148 708
180 172 724
172 204 752
168 256 780
168 328 812
164 404 836
260 48 4
256 52 16
256 56 88
232 52 204
228 60 344
228 68 452
224 80 536
216 92 596
212 108 640
204 120 664
200 136 696
196 152 720
196 176 744
192 212 772
180 272 788
180 352 824
