滤镜资源/2018.1更新vsco/2018.1更新 vsco 3dl/VSCO U3.3dl
#Generated by Picture Instruments - Look Converter
3DMESH
Mesh 4 10
0 64 128 192 256 320 384 448 512 576 640 704 768 832 896 960 1023
0 0 8
16 4 24
24 8 36
12 12 68
24 20 88
8 32 104
16 40 136
28 48 168
24 60 200
36 68 240
36 80 272
48 92 324
56 96 364
56 112 380
72 116 452
72 132 500
80 132 540
8 24 28
20 20 32
28 20 48
16 24 72
24 36 100
16 48 120
24 48 152
32 60 176
24 68 212
40 76 252
36 88 292
40 96 344
56 104 392
56 116 432
72 128 484
72 144 516
84 144 568
16 48 48
28 44 52
32 44 60
20 48 80
28 48 100
12 60 128
16 72 160
32 80 196
28 88 228
40 92 268
36 104 304
44 120 356
60 124 404
68 140 452
80 148 500
84 168 536
88 172 580
12 84 72
32 80 76
36 80 84
24 80 100
32 76 120
20 80 140
28 88 172
36 100 204
32 112 244
48 120 284
44 132 320
48 140 368
60 152 416
64 164 464
80 180 516
96 200 556
100 204 604
24 136 108
36 136 108
40 128 112
32 128 132
36 116 140
16 108 160
32 116 188
40 124 224
36 140 260
48 148 300
48 160 332
60 172 368
72 188 424
76 196 484
92 216 536
100 232 576
108 240 620
24 204 124
36 200 136
36 200 148
36 196 168
36 180 184
36 160 196
32 152 208
44 156 236
44 172 280
52 184 320
52 196 360
60 208 416
80 220 464
84 240 512
100 252 564
116 272 600
120 280 640
36 284 164
40 272 160
44 268 176
40 268 204
52 264 224
36 252 240
40 224 248
48 204 264
48 208 296
60 220 340
64 236 388
72 248 432
84 260 476
92 276 524
104 296 572
120 320 612
132 332 652
40 364 196
40 364 200
48 360 208
40 356 228
48 352 248
48 336 284
48 316 308
56 288 320
56 272 340
64 260 356
68 284 404
76 288 448
92 304 500
100 324 552
120 340 592
132 364 632
144 376 676
52 448 224
52 452 232
60 440 244
52 444 268
56 444 296
48 444 328
52 420 352
56 400 376
60 368 392
60 340 408
84 332 436
88 340 472
100 352 516
112 372 568
132 392 612
144 420 656
152 428 684
52 544 256
56 540 260
60 532 264
52 536 296
60 528 316
64 532 364
60 536 392
72 500 424
64 480 452
80 440 464
76 424 484
92 404 504
108 412 540
120 428 576
140 448 620
156 468 664
168 484 704
64 612 288
60 620 292
76 612 296
68 620 328
76 608 344
64 616 384
68 620 424
76 608 464
72 584 492
84 564 524
96 524 540
96 496 552
120 476 568
136 484 600
156 508 644
164 524 680
184 536 716
72 692 316
68 688 316
76 684 332
72 692 352
80 688 376
88 692 424
84 692 452
96 688 488
92 688 536
104 656 564
104 640 596
108 608 604
120 568 608
136 560 640
168 560 664
188 576 704
196 584 728
96 748 352
88 756 356
100 756 372
92 756 388
96 752 416
100 756 460
104 760 492
112 756 528
112 760 568
124 744 604
132 720 640
136 704 656
148 676 672
160 648 684
184 628 696
196 636 724
212 636 736
112 800 400
112 808 404
120 804 408
112 812 432
120 808 452
132 804 500
132 812 520
144 816 560
148 816 604
168 816 644
168 804 676
164 784 696
172 760 712
180 740 732
188 708 736
212 700 756
228 692 768
152 848 456
148 848 456
148 844 460
152 852 476
160 852 504
164 852 536
172 856 560
184 860 588
188 868 628
212 868 668
220 864 716
212 848 728
224 828 752
220 812 772
236 788 788
236 768 792
244 764 808
200 880 508
200 888 512
208 884 516
204 888 532
216 884 552
220 892 580
224 896 600
236 896 636
248 904 664
272 904 696
284 900 740
280 900 760
288 888 784
288 876 808
288 860 824
284 836 836
284 816 840
236 896 544
232 904 548
244 900 560
240 900 568
248 904 588
268 904 620
272 908 636
292 908 664
300 912 696
316 912 728
332 916 764
336 916 784
348 916 808
344 912 832
348 896 844
344 880 852
344 868 864
36 4 8
16 4 32
16 4 56
8 16 72
8 24 92
12 32 108
16 40 140
24 48 176
24 64 208
28 68 244
40 84 284
48 92 328
48 104 372
56 116 384
68 120 468
72 132 520
80 136 552
32 24 20
12 28 44
12 32 64
16 36 88
16 44 108
20 48 120
24 52 156
24 60 184
28 72 220
32 84 264
36 92 304
40 100 348
52 112 396
56 116 436
68 136 488
76 144 540
84 148 576
28 56 44
24 56 64
20 52 76
16 56 92
16 56 116
12 60 132
16 80 164
20 84 200
24 92 228
28 100 272
40 108 312
44 120 360
56 132 408
68 140 456
72 156 504
88 168 556
92 180 588
20 92 68
24 88 88
20 92 100
20 88 112
20 80 124
20 80 144
20 92 172
28 100 212
32 112 244
40 124 292
40 132 332
48 148 384
60 160 432
68 176 476
84 188 528
92 204 580
104 212 612
24 148 96
24 140 120
24 140 124
24 136 140
24 120 144
24 112 164
24 112 184
28 128 220
32 140 264
36 152 308
52 164 348
60 180 376
68 192 436
76 204 496
88 224 552
104 244 600
108 248 632
24 208 128
28 208 144
28 204 160
32 196 172
28 184 184
32 168 200
36 156 212
40 160 244
40 172 284
48 184 324
56 196 376
60 216 424
76 232 476
88 252 524
100 268 572
112 280 612
124 288 652
36 284 164
36 280 172
32 280 192
40 276 212
40 272 232
40 252 240
40 228 252
44 208 276
48 212 300
56 228 352
64 240 400
72 256 444
88 272 492
100 288 544
112 304 592
124 328 632
136 336 668
36 376 200
44 376 212
40 368 220
40 368 232
40 364 256
44 348 292
44 324 312
52 296 328
52 272 336
64 268 372
72 288 420
80 296 460
92 316 512
100 332 556
120 356 608
136 376 648
148 388 684
48 460 228
52 464 240
52 456 248
52 456 272
52 456 296
48 452 332
52 432 364
52 408 384
60 376 404
68 348 416
76 336 444
88 348 488
104 368 532
120 384 580
132 408 628
148 428 664
160 440 692
48 548 256
52 544 260
52 548 276
52 544 300
52 544 320
64 540 368
56 540 400
64 508 436
68 484 464
72 452 480
84 428 492
96 416 516
108 420 544
124 444 592
140 460 644
160 484 684
176 496 716
64 632 292
64 628 296
64 624 312
64 628 328
64 624 352
68 624 392
76 632 432
72 624 472
76 596 504
80 572 536
92 536 552
100 504 564
120 492 584
136 496 612
160 516 652
172 536 692
184 552 724
72 704 320
72 696 320
72 700 336
72 704 360
76 708 388
80 700 424
88 700 460
92 704 504
96 700 548
100 676 580
104 656 608
112 616 616
120 584 624
144 576 652
168 576 676
192 584 712
208 588 736
92 764 356
96 764 360
88 764 380
96 768 400
96 764 428
100 768 464
108 768 508
108 764 536
120 772 588
120 756 616
132 736 648
140 712 668
152 688 684
160 652 688
184 644 716
200 640 736
216 640 748
116 816 404
112 816 412
116 816 428
120 820 444
120 816 468
128 816 504
132 820 536
148 824 576
152 828 616
164 824 652
168 812 680
172 788 704
172 768 728
188 752 744
196 720 748
216 700 764
232 700 780
152 856 456
152 856 460
152 856 464
160 860 488
168 864 516
172 860 544
176 860 568
184 868 604
200 872 640
216 880 680
228 872 724
224 856 740
216 832 768
228 820 780
236 800 800
240 776 804
252 772 816
204 892 516
212 892 524
212 896 528
216 892 540
220 896 568
228 900 588
236 900 612
252 908 640
256 908 672
280 916 708
292 912 740
292 908 776
300 896 796
296 888 820
296 868 836
292 844 848
292 824 852
244 904 552
240 904 556
244 908 564
248 904 572
252 908 596
272 912 624
276 916 648
300 916 672
312 920 704
324 920 740
348 924 768
348 920 796
360 924 812
356 912 836
356 904 852
356 892 864
356 876 872
68 4 8
52 4 36
32 4 60
20 4 88
20 20 104
20 36 124
20 48 152
20 52 176
28 60 208
28 68 240
44 88 288
48 96 332
52 108 376
56 116 388
64 120 464
76 136 524
84 136 552
84 32 8
72 28 36
40 32 76
32 36 100
28 56 128
32 64 148
32 76 180
24 68 192
28 76 228
36 84 264
36 92 300
44 100 352
52 112 396
52 116 440
68 136 488
76 144 540
84 148 572
84 68 36
68 64 60
40 60 96
44 72 120
40 84 148
36 88 168
28 88 192
28 88 204
24 92 236
32 100 272
40 108 316
44 120 360
52 132 408
68 140 456
72 156 504
88 168 556
88 180 588
60 112 68
48 108 84
36 104 120
36 100 136
36 100 152
40 104 176
32 104 192
32 104 216
32 116 252
36 120 288
44 136 332
44 148 376
60 160 432
68 176 480
80 184 524
88 204 572
104 212 616
44 160 100
44 156 124
40 152 148
36 152 168
36 140 172
36 128 180
32 128 200
32 128 224
36 144 268
40 156 312
52 164 344
60 180 376
68 192 436
80 208 500
88 228 552
108 240 600
112 248 632
40 228 136
40 232 164
36 220 172
36 216 192
36 204 204
36 176 212
40 160 220
40 160 244
40 172 276
48 184 324
60 196 376
60 216 424
80 232 476
88 248 524
100 268 572
116 280 612
124 292 652
48 300 176
44 300 188
48 292 212
44 292 228
44 276 240
44 256 248
40 228 264
44 212 276
48 212 308
56 228 352
64 240 396
72 256 444
88 272 492
96 292 548
112 304 592
128 324 632
136 336 668
44 380 204
44 380 216
48 372 228
44 368 244
40 364 264
48 348 296
48 316 312
52 296 328
48 272 340
64 268 368
72 288 420
84 300 468
92 316 508
100 332 560
124 352 608
140 372 648
148 388 684
52 464 232
52 468 244
56 460 256
52 456 280
56 456 300
48 452 332
48 436 360
56 412 388
60 376 400
64 340 412
76 336 444
88 348 484
104 368 532
116 384 580
128 400 624
148 428 668
160 444 692
48 548 260
56 548 268
56 548 280
52 548 304
56 544 328
64 540 364
60 540 404
68 512 436
72 488 464
76 452 480
84 428 496
96 416 516
112 424 548
128 444 596
140 460 644
160 484 684
172 492 716
64 632 296
60 624 292
68 624 312
64 628 336
68 624 356
68 624 392
72 632 440
68 620 468
72 592 504
84 568 536
92 536 552
100 504 564
120 496 588
136 492 612
160 516 656
172 536 696
188 552 724
72 704 320
76 700 324
72 700 336
72 704 364
72 704 384
80 700 424
88 704 460
92 704 504
96 700 552
96 672 576
100 652 604
112 616 616
124 588 628
144 576 652
172 576 676
192 584 712
204 588 736
88 760 352
92 764 360
92 764 380
96 768 408
96 764 424
100 768 464
108 764 496
112 768 540
120 772 584
120 760 616
132 736 648
140 716 668
148 684 684
160 656 692
184 644 716
204 644 736
216 644 748
116 816 404
116 812 412
116 816 428
124 816 448
120 816 468
132 820 504
132 820 536
148 824 576
148 828 612
164 828 656
168 812 680
172 788 704
172 772 728
184 752 748
196 712 744
216 700 764
232 700 780
152 856 456
152 856 460
156 860 468
160 860 496
168 864 516
168 860 540
180 864 576
188 872 608
204 872 644
212 880 680
224 868 720
220 852 740
216 832 768
232 820 784
236 796 800
240 776 804
252 764 812
208 892 516
208 888 516
208 892 524
216 892 544
220 896 568
228 900 584
236 900 612
248 908 640
260 912 672
276 916 708
292 912 740
296 908 772
300 896 796
292 880 816
296 868 836
296 844 848
292 828 852
240 904 552
236 908 556
248 908 564
248 908 576
252 912 596
272 916 624
284 912 644
296 916 672
312 920 708
324 920 736
348 924 768
348 924 792
360 924 812
356 916 836
360 908 852
356 892 864
352 880 872
124 4 8
92 4 36
84 4 64
52 8 100
40 12 128
36 24 144
28 36 168
36 48 192
36 72 220
36 80 256
48 92 292
52 100 336
48 108 372
56 116 388
64 120 468
72 132 516
84 136 552
144 36 12
132 32 36
104 28 76
64 24 112
40 40 140
44 56 172
52 80 200
56 96 236
56 104 272
56 108 296
48 104 324
44 104 356
48 116 400
56 120 444
68 128 492
76 148 540
