滤镜资源/2018.1更新vsco/2018.1更新 vsco 3dl/VSCOX FS6 Fuji Superia 1600.3dl
#Generated by Picture Instruments - Look Converter
3DMESH
Mesh 4 10
0 64 128 192 256 320 384 448 512 576 640 704 768 832 896 960 1023
88 72 84
104 76 100
112 76 132
116 88 176
132 92 228
120 112 284
140 124 348
152 136 400
152 152 452
164 164 496
152 188 532
168 212 580
176 240 612
184 284 668
200 348 704
216 412 744
252 484 792
88 84 100
100 88 112
112 84 140
120 96 188
132 108 248
132 120 312
148 128 380
156 136 428
156 152 480
164 168 516
156 192 556
172 216 604
180 248 640
188 300 688
212 364 728
228 436 768
264 520 816
100 112 116
108 116 128
120 120 164
120 128 204
140 136 268
128 156 340
140 164 392
156 172 448
156 184 496
164 192 528
164 200 564
172 220 604
184 252 644
192 300 688
216 368 732
224 440 768
268 520 816
96 168 144
104 168 144
112 180 176
120 196 236
132 204 292
132 216 368
144 228 424
160 228 476
160 244 528
168 256 556
164 276 596
172 276 628
184 296 660
188 332 696
208 380 736
228 448 772
268 520 816
96 256 188
108 252 184
116 256 200
124 276 260
136 288 332
136 312 408
156 312 464
168 324 516
164 328 564
172 340 596
172 360 636
180 368 672
200 384 696
204 412 732
228 456 768
236 528 800
280 576 832
96 352 232
104 352 232
112 360 240
124 372 300
136 384 360
140 404 452
160 408 500
172 416 556
172 424 608
188 432 640
168 456 668
192 456 696
204 476 732
212 504 768
240 544 796
268 596 832
304 636 856
100 452 284
112 440 276
124 448 280
128 464 324
144 476 384
144 504 472
160 500 528
172 508 580
176 516 636
184 524 664
192 540 712
208 544 740
220 552 764
228 576 792
260 604 824
284 656 844
336 688 868
100 540 324
112 536 316
128 532 312
132 540 348
148 556 412
164 572 508
176 580 556
192 588 616
196 596 664
204 596 696
204 616 732
216 616 756
240 624 784
252 648 816
280 664 840
304 700 864
356 728 888
120 596 356
128 604 352
140 604 348
148 608 380
168 620 436
176 636 520
188 644 572
204 648 628
212 660 684
224 664 712
228 676 756
236 676 780
260 680 808
276 700 836
308 716 860
340 744 872
380 764 888
128 656 384
136 660 376
148 656 376
160 660 388
180 672 440
192 692 532
208 696 588
224 696 640
232 704 696
244 712 732
248 720 764
260 720 792
284 728 820
296 736 840
332 748 864
360 772 884
404 792 896
148 708 408
156 708 400
172 708 392
180 708 408
192 716 456
208 732 540
228 740 596
244 748 648
252 752 700
272 756 736
272 760 780
292 760 808
308 768 828
324 776 856
360 788 872
392 800 888
436 812 908
164 748 412
172 748 416
192 744 404
196 748 416
220 756 468
240 768 556
256 776 604
272 780 664
284 788 712
296 792 752
308 792 784
324 800 812
340 796 832
356 808 860
400 812 880
432 824 900
472 836 912
196 784 436
208 788 432
216 788 424
224 784 432
252 792 480
272 804 564
292 812 608
312 816 660
316 820 716
336 824 744
344 828 792
360 832 816
380 836 840
400 840 868
432 844 888
468 852 904
508 856 916
240 816 440
244 820 436
260 820 428
268 820 440
300 824 484
308 832 572
332 840 616
356 844 672
364 852 716
384 856 756
400 860 788
404 860 816
428 864 840
448 868 868
484 872 888
512 880 912
548 880 916
296 848 452
304 848 444
308 848 440
324 848 456
356 856 504
380 864 584
396 872 624
416 872 672
428 880 724
452 880 752
452 892 796
472 892 820
492 892 844
504 896 872
536 900 896
580 900 912
604 900 916
372 868 436
376 872 440
396 872 432
404 880 472
432 880 512
448 888 608
468 892 640
484 896 692
500 904 732
508 908 760
532 908 800
540 912 824
568 912 852
580 916 872
612 916 888
632 920 916
660 920 920
412 876 440
428 884 440
440 884 460
460 888 500
480 892 556
508 896 640
520 900 668
540 900 712
548 908 744
568 908 784
576 916 812
588 920 832
600 920 852
620 920 872
644 924 892
676 924 908
692 928 920
104 68 92
104 72 104
112 80 136
120 88 184
132 96 244
136 112 292
140 128 352
152 136 412
152 156 460
152 172 504
164 192 552
168 216 584
176 244 624
180 292 676
200 352 716
220 428 768
256 500 804
104 84 100
104 92 120
116 92 152
128 104 200
132 116 268
144 120 324
148 132 384
152 144 432
160 160 492
164 176 528
172 196 568
172 220 608
176 252 644
188 304 700
208 372 740
240 460 788
268 536 824
112 116 120
112 120 136
120 128 168
128 136 216
144 148 284
144 160 352
152 172 412
156 180 464
164 188 500
164 196 536
172 204 576
172 224 612
180 256 648
188 304 700
212 376 744
236 464 788
272 536 824
104 176 140
112 176 156
120 192 196
132 204 248
140 212 308
152 220 380
160 236 444
164 244 496
172 256 540
172 268 576
168 276 608
180 288 636
180 316 672
192 352 712
208 404 752
244 476 800
272 536 824
116 264 192
116 264 192
124 272 220
128 292 276
144 304 348
152 320 416
156 328 476
160 340 528
168 348 576
176 360 616
184 368 652
188 384 684
196 396 708
208 432 752
224 480 780
256 540 816
292 596 844
108 364 236
112 372 232
120 376 252
128 388 312
140 408 380
156 416 452
168 428 520
176 436 572
180 448 620
188 448 652
192 460 684
192 476 712
208 496 748
224 520 780
244 560 812
280 608 840
316 656 864
116 456 284
120 460 284
128 464 296
136 484 340
156 496 416
164 508 484
172 516 548
180 528 600
192 532 652
200 540 684
208 548 720
212 556 748
224 568 776
240 596 804
268 632 836
308 672 860
340 708 876
120 548 324
124 552 328
132 544 324
144 556 360
160 572 432
176 584 504
188 596 576
196 600 624
204 608 672
216 608 708
220 620 740
232 628 764
240 640 796
260 656 824
292 680 848
332 712 876
372 744 892
128 612 360
136 616 360
144 616 352
156 620 384
172 632 448
184 648 524
200 660 588
208 668 640
224 672 692
232 676 728
240 676 756
248 684 788
264 696 812
288 708 844
320 728 864
356 748 884
400 772 896
136 668 376
144 672 380
156 668 372
168 672 396
192 684 464
204 696 536
220 700 596
232 712 656
244 716 700
252 720 740
264 724 768
276 732 796
288 740 824
312 748 848
344 760 872
388 784 892
428 800 904
160 720 404
168 720 404
180 716 396
188 720 416
208 724 468
228 736 540
240 748 608
256 756 668
264 756 704
280 764 744
288 764 780
300 772 808
320 776 832
340 788 860
364 792 880
412 808 900
452 820 908
180 760 412
184 756 412
200 756 408
212 760 420
232 768 476
252 772 548
268 784 620
284 788 668
300 792 716
312 796 752
324 804 788
336 804 812
356 808 840
376 816 868
408 824 884
452 832 904
484 840 912
208 796 432
216 796 428
228 792 420
240 796 432
264 800 492
292 808 560
308 820 624
320 824 676
336 828 720
348 832 756
356 836 792
372 840 820
396 844 848
416 844 868
448 848 892
488 860 912
528 864 916
252 824 440
256 824 436
272 824 428
288 828 440
308 832 496
332 840 572
348 848 632
368 856 688
384 864 728
392 864 760
408 868 792
424 868 824
448 872 848
472 876 876
504 876 892
532 884 916
564 888 916
308 852 444
316 856 444
328 856 440
344 860 456
368 868 512
396 872 576
412 876 632
428 880 680
444 888 732
460 888 764
476 892 796
488 896 824
500 896 848
528 900 876
556 904 900
592 908 916
620 908 920
388 880 440
396 876 436
412 880 440
420 884 476
444 888 532
468 892 596
488 900 652
504 904 696
512 908 736
524 912 764
544 912 800
556 916 824
576 916 852
596 920 876
620 924 896
644 924 912
672 924 924
436 884 440
444 884 444
456 888 460
476 896 508
500 900 568
520 900 624
540 908 676
552 908 716
564 912 752
580 912 788
592 916 808
604 924 836
620 924 852
636 928 876
660 928 896
688 928 912
708 928 924
124 76 100
136 80 112
136 88 144
148 92 184
160 104 256
160 120 296
168 132 360
172 144 416
176 160 464
180 176 508
180 192 552
192 220 588
196 252 628
200 292 668
220 356 716
248 436 772
276 504 800
128 88 104
136 92 120
144 100 148
152 108 200
160 116 260
172 124 328
180 132 384
184 144 436
184 164 484
188 180 528
192 196 568
200 224 604
204 260 644
212 304 684
236 376 740
260 464 788
300 536 824
140 120 124
140 124 136
148 132 164
160 144 216
172 152 284
176 168 356
180 172 408
180 184 460
188 192 508
192 200 540
196 208 576
200 228 608
200 256 644
216 304 688
236 376 740
264 460 788
300 536 824
136 180 144
140 188 152
148 200 196
156 208 244
168 220 316
184 228 388
192 244 452
192 252 496
200 260 540
196 264 576
200 280 608
204 292 636
208 320 676
224 352 704
232 400 748
264 468 792
300 536 824
144 260 188
144 268 188
152 276 220
164 296 280
180 312 360
180 320 416
188 332 480
192 340 532
196 352 576
204 360 612
216 372 652
216 376 676
220 400 712
236 436 748
256 484 784
288 548 824
316 592 836
140 372 236
144 376 236
148 376 252
164 392 308
172 412 380
192 420 460
204 432 520
204 432 568
212 444 612
220 456 652
220 460 684
228 480 712
240 500 748
248 520 768
272 560 804
308 612 840
348 656 856
148 460 284
152 464 280
160 468 288
176 484 336
184 496 412
196 512 484
208 524 544
216 532 604
228 536 648
232 544 684
236 548 708
248 560 740
256 576 772
272 596 800
300 632 832
332 668 860
376 704 872
148 548 316
156 548 316
164 548 324
176 564 360
192 580 432
212 588 512
220 596 572
232 600 624
240 612 672
248 616 708
252 624 740
264 636 764
276 640 796
292 656 824
320 684 852
360 716 876
404 744 884
160 616 352
172 620 348
176 620 352
192 624 376
204 636 448
224 648 520
236 664 584
248 668 644
256 668 684
264 676 724
276 684 756
284 688 784
300 696 812
316 708 840
340 724 860
384 752 888
428 772 892
172 668 372
184 668 372
188 668 368
212 680 392
224 692 464
240 696 532
260 704 596
268 712 656
280 720 704
288 720 740
300 732 768
308 728 788
324 736 824
344 748 844
372 760 868
412 788 892
448 800 904
192 720 396
196 716 392
204 716 392
224 724 404
244 732 468
260 740 540
280 752 608
284 756 660
300 760 708
308 764 744
324 768 780
336 772 808
356 776 836
372 784 860
400 792 884
440 812 900
480 824 904
212 760 412
220 760 404
232 760 404
252 760 412
264 768 468
284 780 548
304 784 612
320 792 668
332 800 716
340 796 752
352 800 784
364 808 808
384 808 840
408 812 864
436 824 888
468 832 904
508 844 912
240 796 424
248 796 424
260 800 420
276 796 424
300 804 488
320 816 556
336 816 616
352 824 672
368 828 720
380 836 756
392 836 792
408 840 820
420 840 844
440 844 868
476 848 892
512 860 908
548 864 912
284 832 432
296 828 420
304 828 428
316 832 428
344 840 496
360 848 564
384 852 624
404 856 684
408 860 724
424 864 760
440 868 792
456 868 816
472 876 852
500 876 872
520 880 892
552 884 912
580 884 920
336 856 436
348 860 428
356 856 432
376 864 452
400 868 516
416 872 572
440 876 636
460 884 684
472 888 728
492 892 768
492 896 792
508 896 824
524 900 852
552 900 872
576 908 900
612 908 916
636 908 916
416 880 428
416 880 428
432 880 432
456 884 468
472 892 532
496 900 600
512 904 648
516 908 696
540 908 736
552 912 768
564 916 800
584 916 828
592 920 856
608 920 868
636 924 896
668 924 916
688 924 928
464 888 428
472 892 444
484 896 460
504 896 508
524 900 564
544 908 628
560 908 672
572 912 716
592 912 752
596 916 784
612 920 808
628 920 836
636 924 852
656 924 872
676 928 896
700 928 912
728 928 928
172 80 96
172 88 112
188 88 140
188 104 188
216 108 256
212 120 308
208 132 356
216 144 412
216 164 468
220 176 504
228 200 544
228 224 588
232 256 624
240 296 668
264 356 712
288 436 764
320 504 796
176 92 104
184 96 120
196 108 152
204 112 204
216 120 264
224 132 328
228 144 392
228 152 440
232 172 492
240 184 528
240 200 568
244 228 608
252 260 648
264 312 692
276 372 736
312 464 780
