滤镜资源/2018.1更新vsco/2018.1更新 vsco 3dl/VSCO G5.3dl
#Generated by Picture Instruments - Look Converter
3DMESH
Mesh 4 10
0 64 128 192 256 320 384 448 512 576 640 704 768 832 896 960 1023
4 0 68
16 16 100
24 28 124
24 40 164
32 60 188
24 72 216
40 88 256
44 100 280
52 120 312
60 132 344
60 148 372
76 172 420
96 192 456
108 208 496
124 224 536
140 236 556
164 252 604
0 36 80
20 40 112
24 48 140
24 68 172
36 80 212
32 96 236
44 112 276
52 120 300
52 136 328
64 152 360
68 172 392
88 192 444
104 204 480
120 220 516
140 236 556
156 248 584
176 264 620
12 64 96
20 76 124
24 80 152
32 84 184
36 104 212
36 116 244
40 132 284
56 144 308
56 156 340
72 168 380
80 184 400
92 204 448
112 220 492
132 236 528
148 252 564
164 264 588
180 276 624
12 104 108
28 112 132
32 116 160
28 124 192
44 128 216
40 140 248
52 152 288
60 164 316
64 176 344
84 188 384
80 204 420
100 216 456
120 228 496
136 248 532
160 264 564
172 276 596
188 284 628
24 152 128
36 156 148
36 160 172
36 160 204
44 164 236
40 168 260
60 180 292
72 188 324
72 196 352
92 212 396
96 224 424
116 236 468
132 252 504
148 260 536
164 272 572
184 284 596
200 296 636
24 196 136
32 200 160
40 204 188
44 212 224
48 208 248
44 200 272
64 200 308
80 212 332
88 224 368
104 232 408
104 240 432
124 252 472
140 264 512
160 280 548
176 292 584
200 300 612
212 312 644
36 240 160
44 244 176
48 248 200
52 252 236
56 256 264
44 260 296
60 248 316
76 244 344
92 252 372
108 260 412
116 268 444
140 280 484
152 284 516
172 296 556
188 308 588
204 320 616
224 328 652
36 288 172
48 292 192
52 296 216
52 300 252
56 300 280
52 304 312
64 312 348
80 304 368
96 300 396
112 296 420
120 308 456
144 320 492
156 328 528
176 340 560
192 344 596
204 356 624
220 364 656
44 324 184
48 332 204
60 336 232
60 348 272
64 348 300
52 352 324
68 356 360
76 360 388
84 360 424
108 356 444
124 356 476
144 360 504
168 368 536
180 380 572
192 388 604
196 404 632
212 404 664
44 376 196
52 376 220
60 380 244
56 388 280
64 396 304
60 400 340
72 408 376
76 404 404
80 416 448
100 408 468
108 412 496
132 408 520
152 416 544
172 420 576
184 432 608
196 440 640
212 448 668
52 416 212
56 416 228
68 424 260
68 436 292
68 436 320
64 440 356
72 448 384
84 452 420
84 460 456
92 468 492
108 464 516
124 460 544
152 464 568
168 468 596
188 472 624
196 480 652
212 488 672
52 448 216
56 456 244
64 460 268
68 472 308
72 480 332
72 484 372
76 484 396
80 496 436
88 508 472
104 512 504
104 520 536
120 516 572
140 512 588
156 512 616
180 516 644
204 524 668
208 528 692
60 488 244
68 496 260
68 500 284
72 508 316
76 516 352
72 520 380
80 532 412
96 536 444
92 544 484
100 552 512
112 560 552
124 568 596
140 560 620
156 560 644
176 560 660
188 572 688
208 572 708
60 524 244
68 528 268
72 536 292
72 548 324
84 556 356
80 552 392
80 564 420
96 572 452
96 588 496
112 592 532
112 600 564
120 616 600
136 620 636
148 612 660
172 612 684
196 612 712
200 612 728
68 552 256
72 564 280
80 568 308
80 580 332
88 588 368
88 592 404
96 604 436
100 612 464
104 620 504
112 632 540
128 636 580
132 652 620
144 660 652
152 664 684
168 664 708
180 660 728
196 660 752
72 584 272
76 596 288
84 604 316
84 616 348
92 620 376
96 624 416
100 640 444
108 644 480
112 656 516
120 664 548
128 676 592
132 688 624
144 696 660
156 712 696
172 712 728
188 704 752
192 704 772
80 608 292
88 616 308
92 624 340
96 636 368
100 644 396
104 648 440
108 660 468
120 668 496
124 680 536
140 692 568
144 700 616
152 712 648
160 724 668
168 736 708
180 740 740
192 744 768
196 740 780
28 12 76
24 24 120
28 36 152
28 56 176
36 68 220
32 84 240
40 96 264
48 112 296
52 124 324
56 140 360
68 160 392
88 180 432
104 196 472
116 216 504
136 232 540
156 248 584
168 256 612
24 40 92
24 56 132
24 72 172
40 84 204
40 100 236
48 112 264
52 124 292
60 132 316
60 148 348
76 164 384
88 184 424
96 196 460
116 216 496
136 228 532
156 248 568
180 264 608
188 280 636
36 80 108
24 92 148
28 92 172
44 104 208
52 120 240
52 136 272
56 148 300
64 160 324
72 168 356
80 180 392
96 196 432
112 216 468
128 232 508
148 244 544
168 260 576
184 276 616
192 288 640
36 116 120
40 128 156
32 136 184
40 140 216
52 140 240
60 156 280
68 168 308
76 180 340
88 192 368
92 204 404
100 212 440
120 232 476
136 244 512
152 260 552
172 276 584
192 288 628
200 296 648
44 160 140
44 168 172
48 172 196
52 180 228
52 180 256
64 180 284
76 192 308
80 200 344
92 212 372
100 224 412
116 236 452
132 252 484
144 260 520
160 272 552
184 288 588
204 304 628
212 308 652
52 204 148
48 224 184
52 228 220
56 220 244
60 228 272
68 220 296
80 220 320
96 224 352
104 236 388
112 240 424
124 256 456
144 264 492
160 276 528
176 288 564
188 296 592
212 312 632
224 320 656
56 248 168
60 260 212
64 268 236
60 272 268
68 272 292
68 268 320
76 264 336
96 260 360
112 264 392
124 276 432
140 280 472
152 284 500
172 296 536
192 308 572
208 320 608
224 332 636
232 336 660
60 300 184
60 312 220
64 312 248
64 316 276
68 320 308
80 320 336
80 324 364
92 316 388
112 308 408
132 316 444
144 324 476
156 332 508
176 340 544
188 348 576
200 360 608
220 372 644
232 376 668
60 344 200
64 356 236
68 360 264
72 364 292
72 368 320
72 364 348
76 372 376
80 376 412
100 372 440
120 368 464
144 368 488
160 372 520
176 380 548
192 392 588
200 400 620
216 408 648
224 420 676
60 384 208
64 392 244
68 400 272
64 408 308
76 412 332
76 412 364
76 416 388
84 424 432
92 424 464
112 424 488
132 424 508
152 424 540
164 424 560
188 432 592
200 448 624
216 452 656
224 460 680
68 424 224
68 436 256
80 444 292
76 444 312
76 448 344
80 456 372
84 460 404
92 468 440
96 468 472
100 480 508
124 476 536
140 472 560
160 476 580
180 480 612
196 480 636
216 492 660
220 500 688
68 464 236
68 476 268
76 484 296
80 492 328
80 496 360
84 492 380
88 496 416
96 508 452
100 516 488
108 524 520
116 536 556
128 528 584
148 524 608
168 524 632
192 528 656
212 536 684
224 536 700
76 500 252
76 508 280
80 512 308
84 524 336
88 532 368
88 536 400
96 540 428
96 544 464
108 556 500
112 564 536
124 568 576
132 580 608
152 576 632
164 568 660
188 568 672
200 576 704
220 580 720
76 532 256
80 544 292
80 556 320
88 564 348
92 564 376
96 568 408
100 580 440
104 588 476
116 596 512
124 600 544
124 612 580
132 620 616
144 628 652
160 628 680
180 624 700
204 620 720
216 620 744
80 564 268
80 576 296
88 584 332
92 592 352
96 600 388
100 608 416
104 608 448
108 624 484
116 636 516
128 640 552
136 652 596
148 660 628
152 668 660
160 672 696
180 672 724
192 672 740
208 672 764
88 604 280
88 608 308
96 616 340
92 624 364
100 632 392
104 640 424
112 648 460
120 656 496
124 668 528
132 676 568
140 688 600
148 696 636
160 708 676
168 720 712
180 720 744
196 716 764
208 716 784
92 624 304
100 632 328
104 640 360
108 648 392
112 656 420
116 660 448
124 672 484
132 680 516
140 692 552
144 700 592
156 712 628
164 720 664
168 732 684
176 740 720
188 752 756
204 756 780
212 752 792
56 24 96
56 32 120
52 48 172
52 60 204
52 84 236
48 96 256
56 108 284
64 124 312
68 132 344
76 152 376
84 168 412
100 184 452
112 200 480
136 216 516
144 236 544
168 252 588
180 260 616
56 56 108
56 64 144
56 80 192
64 92 220
60 108 248
68 124 280
72 136 312
76 148 336
88 160 368
92 176 404
104 188 436
124 208 476
136 224 508
152 240 544
172 256 580
192 272 616
204 284 640
64 92 116
60 100 156
56 112 196
64 124 232
72 144 268
80 160 300
84 160 324
88 172 348
96 180 376
104 200 412
116 212 452
136 228 488
148 240 520
168 256 556
188 272 592
204 288 624
212 296 652
64 128 128
64 140 164
64 156 208
68 148 236
76 164 268
88 172 304
96 188 336
100 196 360
104 208 392
116 220 424
128 232 460
144 240 496
164 256 528
180 276 564
196 288 600
208 300 636
224 308 656
76 172 148
76 184 188
80 192 220
84 192 248
88 200 276
96 196 304
104 212 336
112 220 364
124 228 396
132 240 436
148 252 476
160 256 500
172 272 536
192 288 572
208 300 604
220 320 640
232 320 660
100 212 164
96 228 204
88 236 240
96 236 268
96 240 292
100 236 320
116 240 344
124 244 372
136 252 408
144 260 448
160 272 480
172 280 512
184 296 548
196 304 572
216 316 608
228 328 640
240 340 668
100 252 180
100 272 228
96 288 268
100 288 300
100 288 312
104 288 336
116 284 360
132 280 384
152 280 416
156 292 452
172 292 492
184 300 520
196 312 556
212 320 584
228 332 620
232 344 648
240 352 668
104 300 192
96 316 244
96 332 280
100 332 308
104 336 336
108 336 364
108 332 384
124 328 412
144 328 428
164 332 464
176 336 496
192 344 528
200 352 560
212 360 588
224 372 624
244 380 660
248 388 676
104 348 212
92 368 260
100 380 296
100 376 324
100 384 348
104 384 372
112 384 408
108 392 432
132 380 456
144 380 476
172 380 508
192 388 540
204 392 568
216 404 600
220 412 632
236 424 660
240 432 676
96 396 224
96 408 268
96 420 304
100 424 336
104 432 364
104 428 384
112 428 420
116 436 452
124 440 484
140 436 504
160 436 528
180 432 548
196 436 576
212 448 600
220 456 636
232 464 668
240 468 692
100 440 244
96 448 284
100 456 316
104 464 344
104 468 372
108 472 400
112 472 432
116 480 460
124 480 492
128 488 524
148 484 548
168 484 572
188 488 596
208 488 620
220 492 652
240 500 676
244 504 700
100 476 252
100 488 296
104 500 324
116 504 356
108 508 384
112 508 408
120 516 440
124 516 472
128 528 508
136 532 540
140 540 572
156 532 596
172 532 620
200 532 644
212 536 668
232 544 684
252 544 708
108 508 264
104 520 300
108 532 332
116 540 368
120 544 396
112 552 420
120 548 452
128 560 488
132 564 516
140 572 548
152 580 592
160 592 624
172 580 644
192 580 668
212 580 688
224 588 712
244 588 732
108 544 276
112 560 316
112 572 348
112 576 372
120 580 404
124 584 432
124 588 464
132 600 496
140 600 528
148 608 560
152 620 596
164 628 628
172 640 668
184 632 684
196 624 708
224 628 732
236 628 744
120 580 292
112 592 324
120 600 356
120 608 388
124 616 412
128 620 440
136 624 476
136 632 508
148 640 536
152 652 572
160 656 608
168 668 648
176 676 672
184 680 708
200 676 732
220 676 752
228 676 768
116 616 300
116 620 328
120 632 360
128 636 392
128 644 420
132 652 444
144 656 484
144 664 512
152 676 552
160 684 584
164 692 620
176 708 652
180 716 688
192 720 716
200 724 748
216 720 768
228 720 788
124 636 324
132 644 356
132 656 384
144 660 420
140 672 448
148 672 472
156 680 500
160 692 536
168 700 572
176 712 608
176 720 632
192 728 672
192 740 696
200 748 724
212 756 760
220 760 788
232 756 800
100 40 108
92 40 132
100 56 172
96 72 224
88 88 268
76 100 284
76 116 308
84 132 336
92 144 364
96 160 392
112 176 428
120 192 460
136 212 496
148 228 528
164 244 564
188 260 596
192 272 628
108 68 120
100 80 152
108 88 192
108 96 236
92 116 276
92 136 316
100 148 340
112 164 364
112 172 392
116 184 420
128 200 460
140 220 492
160 232 520
176 252 560
188 264 592
208 288 624
