滤镜资源/2018.1更新vsco/2018.1更新 vsco 3dl/VSCO U4.3dl
#Generated by Picture Instruments - Look Converter
3DMESH
Mesh 4 10
0 64 128 192 256 320 384 448 512 576 640 704 768 832 896 960 1023
4 0 0
28 8 40
48 24 92
52 28 144
64 48 200
48 72 244
72 72 316
108 92 376
136 112 444
172 128 508
168 156 548
204 168 624
232 188 672
240 208 728
264 228 768
264 244 800
288 256 832
4 52 4
28 40 44
48 52 92
48 60 148
64 76 208
64 104 276
84 104 356
116 124 412
148 144 476
184 156 540
188 196 584
224 204 652
244 220 704
252 244 756
276 264 796
280 288 816
304 296 848
12 100 8
28 92 48
48 84 100
44 92 148
64 108 208
56 136 280
88 144 352
124 160 412
148 188 480
180 204 536
192 232 592
220 248 660
244 268 712
256 296 760
284 312 804
272 336 812
300 344 848
4 160 4
28 152 44
40 152 88
40 144 152
64 148 208
64 168 276
76 180 344
112 200 408
144 232 472
180 252 528
184 284 588
220 296 656
240 320 704
252 344 764
280 364 796
284 384 820
300 392 848
8 228 12
32 224 52
40 216 96
40 216 160
56 196 216
60 212 280
84 232 344
116 256 412
144 276 468
180 300 536
188 332 596
224 352 664
248 372 716
256 396 760
280 412 800
276 436 816
304 448 848
8 304 8
24 308 44
36 304 96
28 300 164
48 276 224
56 264 284
80 276 348
112 304 412
148 332 476
188 356 540
188 380 592
220 400 660
248 424 716
260 444 764
284 460 808
288 484 824
312 492 856
12 392 16
28 380 44
40 384 92
32 388 160
48 376 224
44 368 300
68 340 348
108 348 404
144 380 472
180 404 532
200 428 596
228 452 660
248 468 704
256 496 760
284 512 804
284 536 820
304 544 848
12 480 12
28 476 44
36 468 96
28 476 152
40 468 220
52 456 316
68 436 372
104 420 420
152 436 472
184 448 532
192 484 592
224 500 656
248 524 708
264 548 760
280 556 804
292 576 832
312 584 852
16 552 20
28 556 48
40 552 96
32 552 164
44 552 228
32 556 308
60 532 380
96 516 440
128 504 484
180 508 536
204 536 604
224 552 660
244 568 712
264 592 764
284 608 804
288 628 828
308 628 852
16 640 16
28 640 44
36 632 88
28 640 156
40 636 216
40 644 320
56 632 384
92 604 448
116 592 504
164 576 544
192 584 600
228 604 660
248 620 708
256 640 760
280 648 800
292 664 828
312 672 856
16 708 24
28 716 44
40 708 96
32 716 164
44 708 224
32 712 308
44 712 380
76 696 456
108 684 520
144 668 568
172 648 616
216 652 660
252 664 708
260 684 764
284 696 804
288 704 824
308 712 852
16 780 20
24 784 44
36 776 92
28 784 156
40 780 224
44 780 324
48 776 384
68 768 460
96 760 532
140 744 588
156 732 636
192 716 676
232 712 712
264 728 764
284 740 804
296 748 832
312 748 860
20 832 28
28 840 48
40 836 100
28 836 156
44 832 224
40 836 316
44 836 380
68 832 460
80 828 528
116 816 596
156 800 660
180 784 696
216 768 728
252 772 772
288 772 800
300 784 832
308 784 852
20 888 20
24 892 48
40 888 92
32 888 152
44 884 220
44 880 320
44 888 376
68 884 456
72 888 536
108 876 596
132 864 660
160 852 700
192 836 740
216 824 772
260 820 804
300 820 836
312 820 856
24 924 24
28 928 48
40 920 92
28 928 152
44 920 220
40 924 316
44 924 372
60 924 448
64 924 528
96 920 592
128 908 668
144 904 712
184 892 752
200 880 788
236 864 808
272 864 840
308 860 856
20 948 32
24 956 44
40 952 92
32 952 156
40 952 216
44 948 320
48 952 376
64 948 452
68 956 528
88 952 592
112 948 664
132 944 712
168 932 748
188 920 796
224 912 816
256 896 840
280 896 860
28 960 60
32 964 72
48 964 124
40 964 184
56 960 252
68 956 356
68 960 412
92 956 488
92 956 548
112 956 616
120 956 684
148 952 728
168 952 756
192 944 796
224 936 820
256 924 840
280 916 856
56 0 0
44 0 64
40 8 116
52 32 156
68 48 216
72 72 268
84 88 328
120 100 392
164 120 456
192 132 508
204 156 572
228 176 636
248 196 692
268 216 736
284 236 780
304 248 820
316 260 840
56 48 8
32 44 60
44 60 120
60 76 176
68 92 236
80 104 300
100 124 376
140 144 436
188 164 500
220 180 556
236 204 616
256 220 672
276 240 724
292 264 772
308 288 816
328 304 844
336 308 864
56 100 8
36 100 68
44 96 124
56 108 176
72 124 240
80 144 304
100 160 376
144 184 436
180 204 496
216 224 556
240 244 620
256 268 680
276 292 732
288 308 772
308 328 816
328 348 844
336 360 864
52 168 4
32 160 64
36 164 124
52 152 180
64 164 240
80 176 304
100 200 376
140 228 444
188 256 500
212 276 564
228 296 612
256 316 672
272 344 732
288 360 776
312 384 820
332 400 848
340 408 868
48 236 4
32 228 68
40 228 120
48 224 180
60 208 244
76 224 300
88 244 368
132 268 432
180 300 488
212 324 552
232 344 616
256 368 676
272 392 728
292 412 776
308 432 812
328 448 844
340 460 860
44 316 0
28 316 68
36 316 128
36 312 176
48 300 248
72 276 308
92 296 372
140 320 436
184 356 496
212 372 556
236 392 612
252 420 676
276 444 728
296 460 780
308 476 812
324 496 848
344 504 868
52 400 4
36 396 72
40 396 124
40 396 188
56 392 256
60 372 324
92 356 372
136 376 436
184 400 496
216 428 556
240 448 620
252 468 676
276 492 728
296 512 776
316 528 816
332 544 844
340 552 868
44 492 4
36 488 68
32 480 116
36 488 176
48 484 248
64 472 332
80 456 396
128 436 440
180 448 492
220 472 556
236 500 616
260 524 676
276 540 724
288 560 768
308 576 808
336 588 844
344 596 868
52 568 4
32 568 68
40 568 124
44 564 184
52 564 244
56 564 320
84 552 404
120 536 460
164 524 508
212 532 556
244 544 616
252 572 672
276 588 724
296 608 776
316 624 820
328 636 840
344 644 864
48 652 0
28 652 64
36 648 120
44 648 176
44 644 248
64 648 332
72 640 400
116 624 472
152 612 532
188 596 572
232 600 616
260 620 676
272 636 724
296 656 772
316 672 812
332 676 848
340 684 864
52 724 4
36 724 64
40 724 124
44 716 180
48 720 248
56 720 320
64 724 396
100 720 472
136 696 532
164 684 588
208 660 632
248 664 680
280 680 732
296 700 780
312 704 812
328 716 840
340 724 860
48 792 0
28 796 64
40 792 120
44 792 180
48 788 252
60 784 320
68 784 396
92 792 476
128 772 548
160 760 608
184 748 652
216 728 684
264 728 728
300 740 776
312 748 816
336 756 848
344 760 868
52 848 4
28 848 64
36 848 120
44 844 184
52 840 248
56 844 324
72 844 400
88 844 472
108 844 548
136 832 612
176 812 668
204 796 712
244 784 748
284 776 780
316 784 816
332 792 840
344 796 864
48 896 4
36 896 68
40 900 120
44 896 180
52 888 244
60 888 328
72 892 396
96 896 476
104 896 548
124 884 612
160 876 672
188 864 716
216 848 756
248 836 784
300 828 816
336 824 848
340 828 864
52 932 0
36 928 60
40 928 120
40 932 176
56 928 248
56 928 320
64 928 388
88 928 464
100 932 540
112 932 612
144 924 672
172 912 724
200 896 768
228 888 796
264 876 824
308 868 844
348 868 860
52 960 0
36 960 64
44 960 124
44 956 172
52 956 240
56 956 320
72 956 396
92 956 468
100 956 536
108 956 604
128 952 668
156 948 724
188 936 768
220 928 804
240 920 828
276 908 852
316 900 860
60 972 36
40 968 92
52 968 152
56 972 204
68 968 280
80 964 352
92 964 424
112 964 496
124 964 560
136 964 628
140 968 684
172 956 740
188 956 772
220 948 804
244 940 832
284 928 852
308 920 860
104 4 4
96 0 60
68 0 132
72 8 188
80 32 236
80 56 280
104 76 348
140 100 408
192 112 464
224 136 520
244 156 580
268 176 636
292 196 696
304 212 744
316 228 788
344 248 828
352 260 848
104 52 8
92 52 60
68 48 136
76 64 188
80 84 244
100 104 312
124 124 388
168 148 440
224 168 500
260 184 556
276 200 612
292 224 676
316 240 732
336 264 776
352 284 816
364 300 848
380 312 864
120 104 12
92 100 72
72 100 136
80 112 196
96 128 256
104 152 324
124 164 384
172 192 448
228 216 508
264 236 568
292 256 636
308 280 684
324 296 740
340 316 788
360 336 824
376 360 852
392 372 864
104 168 8
88 164 72
64 160 144
76 152 196
92 168 256
108 184 324
132 208 396
180 236 460
236 264 508
260 280 572
288 308 628
304 328 688
324 352 740
344 372 784
360 384 824
380 408 856
388 416 868
100 236 4
84 232 68
68 228 140
72 224 204
88 216 260
96 228 320
124 252 392
172 284 452
232 312 508
268 336 568
288 360 636
304 376 688
324 400 744
340 420 788
364 440 828
380 460 856
392 464 868
100 320 4
80 324 68
64 312 140
68 308 196
68 304 260
92 284 328
128 300 392
172 328 448
228 356 504
268 384 572
284 404 628
308 428 688
328 456 740
344 468 788
360 488 824
376 504 856
392 516 872
100 404 4
84 396 68
68 400 140
72 392 200
76 384 264
84 376 336
116 364 396
172 384 452
232 412 508
260 440 572
284 456 632
308 480 684
324 500 740
344 520 788
364 536 824
372 552 852
388 556 868
96 492 4
84 488 72
64 480 140
68 484 200
72 484 268
84 472 340
120 452 408
164 448 456
232 460 508
268 488 572
284 512 632
312 532 692
328 548 740
344 568 788
360 584 820
380 596 856
396 604 872
104 568 4
88 572 68
72 568 140
72 556 196
76 560 264
80 560 332
108 560 408
160 548 468
212 520 512
256 536 564
292 556 628
312 576 688
328 600 740
352 616 784
360 624 820
380 640 848
392 644 868
100 656 0
84 652 64
64 648 136
72 644 196
72 640 264
80 636 336
100 644 412
156 636 480
196 616 536
244 604 584
288 612 632
312 624 684
324 644 736
348 660 788
364 672 824
384 680 856
392 688 864
104 728 4
84 720 68
72 716 136
76 716 200
72 712 264
84 716 336
104 720 408
128 724 476
180 704 548
216 684 596
256 668 644
312 672 696
336 692 752
344 700 784
364 708 824
380 720 852
396 728 868
96 792 0
88 792 60
68 792 136
76 784 196
72 784 260
84 776 336
104 784 408
132 792 480
172 784 552
200 764 612
232 752 660
268 736 696
320 732 744
344 744 788
364 756 828
380 756 856
396 760 872
104 848 4
88 844 68
68 848 136
72 844 196
80 840 264
80 840 340
104 840 404
136 844 480
148 848 548
184 840 620
224 820 676
256 804 716
284 788 752
336 784 792
368 788 828
384 800 856
396 800 868
104 900 0
92 896 68
68 900 136
72 888 200
76 888 260
84 884 332
108 888 412
140 896 480
152 892 552
164 888 616
196 880 680
236 864 728
264 852 764
304 840 796
348 828 824
384 824 856
396 832 872
104 932 8
92 932 68
72 932 136
72 928 204
76 928 260
80 920 328
104 924 404
136 932 480
152 928 548
160 932 616
176 924 676
216 912 732
248 900 776
280 888 808
316 876 832
364 872 852
392 868 868
108 960 4
88 956 64
72 956 132
72 956 192
72 952 256
80 948 328
108 952 408
136 956 468
152 956 544
156 956 612
164 960 676
192 952 728
228 944 776
260 928 808
288 920 836
328 908 860
372 900 872
112 968 32
100 968 92
84 964 160
96 964 224
100 964 288
116 956 372
128 956 436
156 964 500
180 964 564
188 964 636
188 968 692
212 960 740
224 956 776
260 948 808
288 940 840
328 932 860
368 920 872
172 4 8
152 4 52
140 0 124
112 4 204
120 4 268
112 32 312
124 52 360
172 72 420
220 96 472
260 120 536
276 148 588
312 168 648
332 188 700
340 212 752
360 228 796
392 248 832
396 256 852
172 52 4
156 56 60
140 52 136
116 48 212
112 60 272
128 76 340
152 108 404
204 132 456
264 160 508
300 180 560
316 204 628
340 224 684
368 244 740
380 264 784
392 280 820
412 296 856
