滤镜资源/2018.1更新vsco/2018.1更新 vsco 3dl/VSCO U2.3dl
#Generated by Picture Instruments - Look Converter
3DMESH
Mesh 4 10
0 64 128 192 256 320 384 448 512 576 640 704 768 832 896 960 1023
4 0 0
28 12 52
44 24 100
36 36 160
52 48 212
36 72 268
56 76 344
72 84 408
68 92 480
84 96 544
72 112 592
80 112 660
96 112 728
88 120 772
100 116 816
96 124 848
96 124 888
8 56 24
24 52 60
44 64 120
48 80 184
56 92 248
56 108 316
72 108 396
76 112 456
76 120 528
92 124 588
84 140 644
92 136 708
104 132 756
104 144 804
112 152 844
108 172 872
108 168 904
24 96 60
36 112 92
48 116 132
52 128 200
64 144 268
56 168 336
72 164 416
88 168 480
84 176 544
96 172 608
100 192 664
108 192 728
116 196 780
116 208 828
124 216 868
116 240 880
116 240 916
28 148 88
40 160 116
44 188 164
48 188 208
68 216 288
64 232 364
84 232 428
92 236 492
100 240 568
104 248 624
100 276 684
108 268 744
124 276 796
116 284 836
132 292 872
132 320 896
128 312 928
44 196 124
56 208 148
52 240 188
44 272 252
68 272 288
64 320 380
88 320 456
100 324 520
100 324 580
112 332 648
112 348 708
124 356 764
136 364 812
132 368 848
144 376 880
120 400 896
132 400 924
44 248 152
56 260 180
60 300 224
52 344 292
60 364 348
72 368 388
92 392 468
100 396 532
108 408 604
124 412 672
108 432 720
120 440 776
132 444 816
132 456 856
144 464 888
128 484 912
140 484 936
64 320 188
68 328 208
76 356 240
60 412 316
68 448 376
56 472 432
84 444 456
96 472 532
100 484 608
112 492 676
120 508 736
128 512 788
136 520 820
132 532 860
148 536 892
124 560 904
140 560 932
72 396 216
76 404 240
84 428 288
68 480 336
68 524 404
60 548 468
68 544 504
96 528 532
108 560 620
120 560 680
108 584 732
124 588 788
136 592 832
132 600 872
140 604 892
136 620 920
144 624 936
80 464 248
76 480 268
92 500 308
84 548 372
80 600 428
56 624 500
60 632 544
76 616 580
96 604 608
116 640 684
124 652 740
128 656 792
140 652 828
140 656 872
156 664 900
148 684 912
148 684 936
76 556 272
84 568 300
96 580 340
84 616 392
80 656 444
60 696 520
64 704 568
80 700 612
80 692 644
108 668 660
120 712 732
132 724 788
148 720 824
148 716 864
160 720 888
160 732 916
168 740 936
88 636 312
92 644 332
108 656 368
96 684 424
84 708 472
64 748 536
68 764 584
76 768 628
76 768 676
100 752 700
112 732 732
140 768 784
156 772 824
160 772 864
176 772 896
164 784 908
172 788 924
88 708 340
88 716 360
96 720 400
100 736 452
96 760 492
84 788 560
80 804 600
84 816 640
84 824 692
104 808 724
104 800 752
132 792 776
168 812 824
172 816 864
192 820 892
188 832 920
204 836 936
92 764 376
96 768 396
104 772 436
108 780 484
104 804 520
92 828 572
92 844 612
100 860 656
96 864 708
108 864 744
116 856 780
132 848 804
156 836 812
188 860 868
196 860 888
204 876 916
208 876 928
96 812 408
96 816 424
108 820 452
112 824 504
120 836 540
104 852 592
112 872 624
120 888 672
112 896 716
124 900 756
124 904 796
136 896 824
152 884 836
172 872 852
216 892 888
228 900 924
228 904 936
104 856 440
104 856 452
116 856 480
124 864 532
132 872 564
124 884 612
128 900 648
136 908 684
128 916 736
140 920 772
140 928 816
152 928 844
172 920 860
180 912 876
200 904 880
240 916 912
256 924 932
116 884 476
120 892 488
128 892 512
136 896 568
144 900 588
144 908 636
144 920 668
152 928 708
148 940 752
156 940 792
160 944 828
160 948 856
180 944 876
188 940 892
216 932 904
228 924 908
260 936 932
136 904 512
136 908 524
148 908 556
152 908 592
164 912 624
172 920 676
172 928 704
176 932 732
180 940 780
188 944 808
192 948 848
200 952 868
204 956 884
212 956 904
228 944 908
252 944 912
264 940 924
48 4 4
44 8 68
44 12 124
44 32 172
52 44 228
52 60 280
60 68 348
60 76 424
68 84 484
76 84 544
72 92 612
80 96 668
80 96 728
92 104 776
84 112 820
92 104 864
92 108 892
40 52 20
48 64 84
52 80 144
60 96 208
72 112 268
84 116 344
92 120 412
96 132 488
100 132 556
104 136 616
112 144 676
112 144 724
120 148 784
120 156 828
124 168 864
132 172 908
128 176 920
48 100 52
56 124 116
60 132 160
68 152 228
84 164 300
92 180 372
100 184 444
108 188 512
112 184 572
116 192 640
128 200 700
128 216 756
140 224 804
136 228 844
140 236 876
136 252 908
140 264 924
52 148 80
60 176 152
64 204 200
72 220 252
84 236 316
100 244 396
112 252 468
116 256 536
124 260 600
136 276 668
132 280 720
136 292 772
140 304 820
144 312 860
152 320 884
156 332 920
148 336 932
60 200 112
76 228 176
76 256 224
76 296 280
96 304 324
108 332 408
116 336 476
116 340 540
124 344 612
136 356 676
148 364 736
148 376 788
148 380 824
152 392 864
152 404 900
152 416 924
152 428 932
72 256 140
84 292 208
92 316 260
84 364 316
84 400 376
108 396 412
120 416 496
132 420 564
132 428 636
140 432 696
144 448 748
148 464 792
152 468 832
152 476 868
152 484 896
156 492 928
152 504 940
76 324 168
96 360 240
100 384 292
96 432 344
96 476 412
92 484 452
112 476 488
128 496 568
128 508 636
136 516 704
152 524 756
152 536 800
152 544 840
152 552 876
160 556 904
156 576 924
152 580 936
80 408 200
104 448 276
100 460 316
100 500 368
88 548 428
88 572 492
92 572 536
112 544 556
128 576 636
140 592 700
140 604 752
152 608 800
156 612 840
156 616 876
160 628 900
164 640 928
168 644 944
92 480 224
100 524 304
112 548 352
112 568 396
96 616 452
84 648 512
88 656 568
96 644 604
124 624 632
144 668 700
148 668 752
156 676 804
164 676 840
164 676 880
172 684 904
172 692 924
172 696 944
88 564 252
108 604 332
112 628 380
116 640 424
108 680 480
92 712 536
88 724 588
92 724 636
108 708 664
136 696 696
160 732 748
164 736 800
168 736 840
172 736 876
184 740 904
188 748 928
192 752 940
96 644 284
116 684 364
120 696 412
124 696 452
112 724 496
96 756 548
92 780 596
92 784 648
100 780 684
112 768 712
148 756 744
172 784 796
180 784 836
192 784 876
196 792 904
204 800 924
208 804 936
92 720 316
108 744 392
116 752 436
128 756 480
120 776 520
112 792 564
100 816 608
104 832 660
108 840 704
120 832 744
136 816 764
156 800 784
196 832 836
208 832 876
212 836 900
224 844 924
228 844 936
104 776 348
112 788 424
120 792 464
132 800 508
132 812 540
120 832 584
116 852 628
112 872 672
120 872 716
124 872 756
140 868 788
160 860 812
184 848 828
216 868 872
236 876 900
244 876 924
252 880 936
104 824 380
120 836 456
128 840 496
136 840 532
144 844 568
136 860 600
132 880 648
132 896 692
140 904 736
140 908 772
152 908 808
160 904 832
184 896 852
212 884 864
252 904 904
264 908 924
264 908 940
112 864 412
124 872 484
140 872 524
144 876 560
152 876 592
152 888 624
148 900 660
144 912 704
148 924 748
160 928 792
164 932 824
176 936 852
188 928 868
212 916 880
236 908 896
280 924 920
292 928 936
124 892 452
132 904 516
152 904 552
156 904 580
164 904 616
168 912 640
168 924 684
168 932 724
168 940 760
176 944 808
180 952 832
188 952 864
204 948 888
224 948 900
240 932 904
264 932 916
300 944 940
140 912 492
160 916 552
168 920 588
176 920 608
180 920 640
192 920 680
188 932 716
200 936 752
200 944 792
216 948 828
216 956 848
228 956 880
228 964 896
244 960 904
256 956 916
292 944 924
308 944 932
100 12 12
100 8 80
84 8 148
80 20 212
76 36 260
76 56 308
84 68 376
84 80 436
92 84 504
92 92 560
88 96 620
92 100 684
100 104 732
96 104 780
96 104 824
100 100 872
100 100 892
104 68 12
104 68 92
92 80 164
92 84 228
88 100 280
100 104 348
108 108 420
104 116 488
112 116 552
116 120 616
108 116 668
112 120 724
116 120 772
120 120 824
120 128 860
116 128 888
116 128 916
92 108 32
92 124 100
96 144 180
108 160 248
120 172 316
128 188 388
132 188 456
136 188 528
136 192 588
148 200 656
156 208 712
164 220 772
168 224 812
176 228 860
180 244 892
188 260 920
192 264 944
80 148 68
96 176 136
104 212 212
112 228 264
132 244 340
140 260 416
148 260 488
156 268 556
160 272 628
164 280 684
164 292 736
180 304 788
184 312 836
196 324 872
192 328 900
204 340 932
212 352 932
84 196 96
100 228 168
124 268 244
128 300 308
144 328 356
148 344 428
156 348 508
156 352 572
172 356 640
172 368 704
180 384 760
188 384 804
196 392 844
200 404 868
204 412 904
212 428 928
212 436 936
88 256 124
108 296 200
128 328 276
132 364 328
128 412 392
156 412 436
168 424 516
164 424 580
176 432 648
176 444 708
184 456 760
188 472 804
196 480 840
200 480 876
200 496 904
212 504 932
216 516 944
96 328 156
120 368 232
140 412 320
148 436 364
132 480 420
128 500 472
156 488 512
164 512 588
172 520 656
180 528 716
188 532 764
196 544 808
196 556 848
204 560 884
212 572 912
208 584 928
216 592 940
100 408 188
120 456 264
140 492 344
144 512 388
136 556 444
132 584 516
136 584 552
156 568 584
176 596 656
188 608 716
192 616 768
200 624 812
196 624 848
200 632 880
208 640 908
220 648 936
228 656 948
108 488 212
132 536 300
144 576 380
152 580 416
140 624 472
124 660 528
128 668 580
140 668 624
168 640 640
184 676 704
200 680 764
208 688 808
212 688 852
220 688 884
216 696 908
224 708 928
232 712 940
108 572 240
132 620 324
148 652 404
156 668 452
152 688 500
132 712 544
132 728 604
136 736 652
156 724 676
184 712 704
208 744 760
216 744 800
220 744 848
232 744 876
236 748 912
248 760 932
252 760 944
116 656 276
136 692 352
148 712 428
156 724 480
160 732 520
144 764 568
136 784 612
128 792 656
144 796 700
164 780 732
200 768 756
228 792 804
240 796 852
244 792 876
252 800 912
260 808 932
268 816 940
108 724 300
136 760 384
148 772 460
160 776 508
164 776 540
152 796 576
148 820 620
140 836 668
156 840 716
160 836 756
184 828 776
208 816 792
248 840 840
268 840 876
272 844 908
276 848 928
292 852 936
116 776 332
136 796 408
148 812 484
160 816 524
172 816 560
164 832 592
160 852 636
156 872 680
160 876 728
168 884 772
192 880 804
212 868 820
236 852 836
280 872 884
292 880 908
304 888 928
316 888 936
124 832 364
140 840 444
156 852 516
168 856 548
176 852 584
184 864 616
176 880 652
176 896 696
172 904 740
180 912 784
196 912 816
212 912 840
232 900 860
268 892 872
308 908 908
324 916 928
336 912 940
124 864 392
152 876 472
164 884 540
176 884 576
192 892 604
192 888 636
196 900 672
188 916 712
196 924 760
200 932 800
208 936 828
224 936 856
240 932 880
272 920 892
296 916 904
344 932 932
356 936 936
144 896 432
156 904 500
172 912 564
188 912 596
196 912 628
208 912 652
212 920 692
208 932 728
208 936 772
212 948 812
224 952 844
236 956 868
252 956 896
272 948 900
300 940 916
328 936 928
372 944 944
156 912 476
180 920 540
200 924 600
212 924 632
212 928 652
224 920 692
236 928 724
232 940 764
244 944 796
248 952 832
256 956 856
276 956 880
272 964 896
296 960 912
312 960 924
344 952 928
380 948 928
172 12 20
152 16 88
156 16 164
132 20 244
128 28 316
124 48 352
108 64 400
116 76 464
116 84 520
120 88 584
124 100 640
128 100 696
128 108 740
128 104 788
132 112 824
136 108 876
136 108 896
172 72 24
176 80 96
168 80 180
148 80 256
136 88 328
144 100 388
140 108 456
136 120 516
140 120 576
144 120 628
140 120 684
148 124 736
156 124 788
152 124 828
148 124 860
156 120 896
