滤镜资源/2018.1更新vsco/2018.1更新 vsco 3dl/VSCO G9.3dl
#Generated by Picture Instruments - Look Converter
3DMESH
Mesh 4 10
0 64 128 192 256 320 384 448 512 576 640 704 768 832 896 960 1023
44 0 4
64 4 20
80 8 40
84 16 76
96 24 96
84 48 136
120 64 180
144 72 220
156 84 276
176 104 308
164 132 328
192 148 392
216 168 436
220 196 476
248 212 512
256 232 532
268 252 588
52 40 12
72 44 40
92 44 68
92 52 92
104 60 120
100 80 164
140 84 212
152 92 248
168 108 296
188 120 336
180 156 356
204 164 428
224 184 456
236 208 500
256 228 540
264 252 560
276 272 604
76 72 24
92 80 52
100 88 84
104 92 116
116 100 140
108 116 180
148 116 228
164 132 272
172 148 316
188 152 348
192 180 380
216 196 444
236 208 476
252 232 516
268 248 552
268 280 572
284 292 616
108 112 36
100 116 64
116 128 96
120 144 132
136 152 176
132 160 212
152 164 244
172 172 288
184 184 328
204 200 368
204 224 396
224 228 444
248 248 484
252 268 524
276 288 556
284 312 588
292 320 624
148 160 64
124 160 72
124 172 108
132 184 152
144 204 192
148 224 252
168 224 284
184 232 312
192 244 344
220 256 376
220 276 416
248 284 468
264 296 500
272 312 540
292 328 572
292 352 600
308 356 640
184 212 76
156 212 76
152 224 120
152 244 168
160 256 208
164 280 264
188 288 312
204 296 352
212 308 384
232 316 408
236 332 436
260 344 476
280 352 516
288 368 556
308 384 592
312 404 624
320 404 652
232 272 104
208 260 96
168 272 128
168 296 184
180 316 220
180 336 276
196 348 320
216 364 364
220 372 412
236 384 440
248 392 480
264 404 508
288 412 536
300 428 572
320 436 608
320 460 636
332 464 668
268 328 120
248 324 120
204 328 132
188 348 188
196 364 232
204 392 296
216 408 336
232 424 388
244 444 436
256 444 476
252 464 516
272 468 540
296 476 568
300 492 592
328 496 620
340 512 648
344 516 680
304 380 148
292 380 140
240 380 144
216 404 200
216 424 256
208 444 308
232 456 352
248 480 396
260 496 452
276 520 496
280 524 552
284 532 576
296 536 604
308 548 624
332 556 652
340 580 672
356 576 692
344 440 164
336 436 164
292 432 156
236 444 196
240 472 256
228 500 328
244 512 368
260 528 416
268 548 464
280 568 504
288 588 556
304 592 604
312 600 628
312 604 652
328 608 668
344 624 696
348 628 712
380 492 188
372 488 184
344 488 184
268 492 200
264 512 260
252 536 328
256 560 372
272 576 428
288 596 476
300 616 524
304 628 572
316 644 616
324 656 652
328 660 680
340 664 704
336 672 720
344 676 728
416 540 204
412 536 200
384 536 204
320 536 208
288 556 264
276 580 348
272 600 388
284 620 444
292 636 492
316 656 536
312 676 592
328 688 632
336 696 668
340 708 700
352 716 720
352 720 740
348 724 752
456 584 228
452 584 224
424 576 220
364 576 224
300 584 252
292 616 336
296 636 400
300 660 456
300 676 504
320 692 552
328 708 608
340 720 644
348 736 680
356 748 716
356 752 744
360 760 764
360 764 776
496 620 240
488 620 236
472 616 236
420 620 244
336 612 244
308 636 340
316 664 392
308 684 456
316 704 512
332 720 560
340 744 608
340 748 648
352 768 684
356 776 724
368 780 756
376 792 776
372 792 796
528 652 260
528 652 252
508 648 256
464 652 260
388 644 260
324 664 324
336 692 388
324 708 452
316 732 516
336 748 564
344 764 624
352 780 664
364 792 700
368 804 732
376 812 764
380 820 784
380 828 808
568 680 272
560 680 268
544 684 268
504 680 276
440 676 272
340 680 320
356 708 388
352 736 452
340 756 532
344 768 572
348 792 628
356 804 672
368 820 708
372 824 740
380 836 768
388 840 800
388 844 816
580 696 272
568 696 268
548 692 268
516 696 284
472 700 308
440 732 392
448 752 448
436 768 500
400 780 556
356 792 600
364 808 648
368 820 688
380 828 716
388 840 744
392 848 772
408 856 796
408 860 816
108 4 4
104 4 20
124 4 80
120 4 132
120 8 184
120 40 200
116 64 220
136 80 256
148 96 292
156 112 324
176 136 360
192 156 404
216 172 448
228 200 484
244 224 532
256 240 564
268 260 600
104 36 16
104 56 52
116 56 88
120 64 124
124 72 156
136 80 192
144 96 232
156 112 264
168 124 304
192 136 348
208 160 392
216 172 424
236 192 468
252 216 508
264 240 544
276 260 588
276 276 612
132 76 24
124 92 68
124 100 100
128 104 136
140 112 168
144 124 196
160 132 240
172 148 284
184 156 316
200 168 356
216 188 400
232 204 440
244 224 484
256 236 516
272 264 556
280 288 592
284 296 624
156 112 36
144 132 80
136 148 112
148 164 148
156 168 192
168 168 224
168 184 256
188 192 300
204 204 340
216 216 380
228 228 416
244 240 456
256 264 496
268 280 540
280 300 576
296 316 612
296 324 636
188 164 60
172 176 92
152 188 124
160 204 168
176 220 216
192 236 264
188 240 292
200 244 320
212 256 360
228 268 392
244 284 436
256 300 476
272 304 516
284 324 552
296 340 588
312 356 624
308 364 648
224 216 76
208 236 116
180 240 136
180 252 180
188 276 224
204 292 272
216 308 328
224 312 368
232 320 400
244 328 424
256 340 460
268 360 488
288 368 536
304 380 564
308 392 604
324 404 636
324 412 664
248 268 96
244 284 124
200 296 148
196 312 200
208 328 244
220 344 284
232 368 336
248 380 388
252 388 428
260 396 460
276 408 492
284 412 520
296 428 548
312 440 584
328 452 620
340 468 656
332 472 676
296 332 120
284 348 148
236 344 156
212 364 196
224 384 256
240 400 304
248 424 348
264 440 400
276 460 448
280 460 496
280 476 528
296 480 556
308 492 584
320 500 604
336 516 632
348 520 664
348 524 688
332 388 140
324 396 176
284 404 176
236 412 204
240 432 268
244 456 312
264 480 364
280 496 416
288 516 464
300 532 512
308 532 560
308 544 588
320 552 616
332 564 640
344 572 668
356 580 680
356 584 696
364 444 160
356 456 188
316 460 188
256 464 204
260 484 272
268 508 336
272 524 384
288 544 428
296 568 480
312 580 524
324 600 572
336 612 616
324 612 640
336 616 672
348 624 688
360 636 708
352 640 720
404 500 188
396 508 212
368 508 220
300 504 208
272 524 264
284 556 336
288 572 392
304 592 440
312 608 488
324 628 540
336 644 584
344 660 628
356 664 672
348 672 692
352 676 712
356 684 728
340 684 736
440 544 204
436 556 224
408 556 228
348 552 228
288 564 264
304 588 340
300 612 400
312 632 452
328 652 508
340 668 556
348 684 600
352 700 636
360 712 676
368 720 716
368 728 736
360 732 752
340 732 756
476 592 224
472 596 244
444 592 244
388 588 248
304 592 260
312 624 336
324 652 412
320 664 464
328 688 520
344 704 564
356 720 612
368 736 656
376 748 696
380 752 728
384 764 756
380 772 772
360 772 780
520 624 236
508 632 260
484 632 260
428 628 256
348 624 260
328 648 332
336 680 412
336 700 480
344 720 532
352 736 576
364 752 620
372 764 664
380 776 700
384 788 736
396 796 764
392 800 792
388 800 812
548 660 256
544 664 272
524 664 276
480 664 272
400 660 272
332 668 312
344 696 392
352 720 468
348 744 532
360 764 588
372 776 632
376 792 676
384 800 708
388 812 744
396 824 772
404 828 796
404 832 816
592 688 268
580 692 284
556 696 280
512 688 288
452 688 288
356 684 308
368 720 400
380 748 472
360 768 540
364 784 592
376 796 636
384 812 688
392 824 720
400 836 752
404 840 780
408 852 804
408 852 824
596 700 268
580 700 272
556 700 272
520 700 284
472 704 304
464 736 388
456 764 460
452 780 520
420 796 564
388 800 616
388 816 656
396 828 700
408 840 728
408 848 752
416 856 784
428 860 808
428 868 828
156 16 12
156 20 8
148 12 36
196 8 112
208 8 212
200 20 256
192 28 304
176 44 356
172 76 364
180 108 380
196 132 408
212 152 448
232 172 480
236 196 516
256 220 548
268 240 584
276 256 616
156 52 20
164 60 48
172 52 76
192 60 140
188 64 204
196 68 260
200 72 316
196 96 340
208 112 376
212 132 404
220 152 424
240 168 464
248 192 496
264 212 540
276 240 568
288 260 608
288 272 644
168 84 32
172 92 64
168 108 108
184 112 148
192 116 192
192 132 228
200 132 264
208 144 304
220 156 344
232 172 380
248 184 420
260 204 460
268 224 496
284 240 532
296 260 572
300 284 604
288 292 644
192 120 40
196 132 80
188 156 120
188 164 152
192 172 200
200 180 236
216 188 272
224 204 316
240 208 356
248 220 388
256 232 432
272 248 472
280 264 512
296 284 548
300 300 584
312 316 624
300 324 656
220 168 60
228 180 100
216 196 136
208 212 176
220 228 224
232 236 264
228 244 292
232 252 328
244 264 364
260 276 408
272 288 452
284 296 488
300 308 528
308 328 564
316 344 600
324 360 636
308 368 664
260 220 76
260 236 112
240 248 144
224 264 184
228 284 228
248 300 280
264 312 336
260 316 372
264 324 392
272 336 428
284 348 464
300 360 500
312 376 540
320 380 580
328 396 616
340 412 648
324 416 680
292 276 100
292 288 140
276 304 172
248 316 204
248 336 248
260 360 296
276 376 340
288 392 400
292 396 436
296 404 468
300 408 496
312 420 524
324 436 552
336 444 596
348 456 628
352 468 660
336 472 684
320 328 116
324 348 148
312 356 188
268 372 208
268 396 264
280 408 312
292 428 356
300 452 412
320 460 456
320 468 504
320 480 536
324 488 556
332 492 584
340 508 608
356 516 640
364 528 672
352 532 700
364 388 144
364 404 176
348 416 204
296 420 220
280 440 272
292 468 320
308 484 368
324 500 424
328 520 464
340 536 516
348 540 564
348 548 600
352 556 624
360 564 648
364 572 664
372 588 680
356 588 704
396 444 160
396 456 192
384 472 220
324 476 228
300 492 276
308 512 336
320 536 384
332 552 436
340 576 484
360 588 536
360 608 580
372 608 624
364 616 652
372 624 672
380 632 700
380 640 712
352 640 716
436 496 184
428 504 208
416 520 240
364 520 244
312 536 272
324 564 340
336 580 400
344 600 448
352 620 496
360 640 548
372 652 596
384 664 636
392 676 680
388 676 700
380 684 720
388 692 736
340 692 740
464 548 204
468 560 224
456 568 256
408 568 260
332 568 272
336 596 340
348 620 408
352 644 460
368 660 512
372 672 556
384 692 604
396 704 644
400 720 688
408 728 720
400 732 740
400 736 760
344 736 760
500 588 224
496 600 244
488 604 272
444 612 272
368 604 280
344 632 336
356 656 408
364 672 472
372 696 524
380 716 576
392 732 620
404 740 664
408 752 696
416 760 732
420 772 760
412 780 780
360 780 784
536 632 240
536 636 260
520 644 284
484 640 284
408 640 284
356 652 328
368 684 412
376 708 484
380 720 532
388 740 584
400 756 628
412 772 672
416 788 712
424 796 740
428 800 768
428 808 804
420 812 812
564 660 256
568 668 276
560 676 300
520 676 300
456 672 304
364 672 316
388 704 408
388 732 484
392 752 544
396 768 592
408 780 640
416 796 684
420 808 720
428 820 752
432 832 780
440 836 808
440 840 824
604 688 268
600 700 280
596 704 304
560 700 312
500 700 308
408 696 320
400 724 396
404 748 476
404 772 548
404 792 600
412 804 648
420 824 692
428 832 728
432 840 756
436 852 788
440 860 816
444 860 832
624 700 272
608 704 272
588 704 280
560 700 280
504 712 304
492 736 388
480 768 456
480 788 520
464 796 576
420 808 624
424 824 668
436 836 708
440 844 728
452 856 764
452 864 792
456 872 816
468 876 836
216 20 16
204 24 16
208 24 12
212 16 60
288 32 120
296 24 244
288 24 324
296 28 376
284 40 432
268 56 484
252 80 520
252 124 524
252 152 548
256 184 560
272 204 592
284 228 628
284 248 648
216 52 28
224 64 52
224 68 60
236 56 88
276 48 176
300 60 280
304 64 352
292 72 412
288 80 468
268 92 516
268 128 520
272 156 536
284 176 576
284 204 600
296 228 612
304 252 652
