滤镜资源/2018.1更新vsco/2018.1更新 vsco 3dl/VSCOX AV4 Agfa Vista 400.3dl
#Generated by Picture Instruments - Look Converter
3DMESH
Mesh 4 10
0 64 128 192 256 320 384 448 512 576 640 704 768 832 896 960 1023
72 56 64
84 64 84
92 64 120
92 76 188
104 80 264
96 92 340
112 104 412
124 116 472
128 128 540
132 140 580
120 160 600
136 176 648
148 204 676
148 240 724
160 300 752
164 372 784
192 448 820
72 72 60
80 72 84
92 72 120
92 80 196
104 88 280
100 100 376
116 108 456
128 120 512
132 132 572
136 144 604
132 164 632
144 184 672
152 208 700
152 256 740
160 320 772
168 400 804
196 484 840
72 88 72
80 92 84
92 96 124
92 104 192
104 108 280
96 124 376
108 132 452
124 140 512
128 152 576
136 156 600
132 168 636
140 188 672
156 212 704
156 256 740
168 324 776
168 400 800
196 484 836
64 140 80
72 132 88
80 140 116
84 152 180
88 160 268
96 164 376
112 172 456
120 180 520
120 192 580
132 208 620
124 228 656
136 232 684
148 252 712
148 288 744
164 336 776
172 408 808
196 484 836
60 220 136
72 208 124
76 204 140
80 216 200
88 224 280
80 244 384
100 252 468
112 260 544
112 264 600
124 276 636
120 296 680
136 308 712
148 324 740
152 360 776
164 408 804
168 484 824
204 540 852
52 320 184
64 308 172
64 300 180
72 308 224
76 316 300
76 328 412
88 332 484
100 344 560
108 356 628
120 364 672
112 384 704
128 392 736
144 416 764
148 444 800
168 492 824
188 556 860
216 600 872
48 432 240
52 412 224
60 404 216
68 400 256
72 404 320
68 428 428
80 424 496
92 432 576
96 440 640
112 456 680
116 472 732
132 476 764
144 492 788
156 520 820
176 556 844
196 616 868
236 660 884
40 524 284
44 512 272
56 492 256
52 484 284
64 492 340
68 500 452
88 508 524
96 516 604
104 524 664
116 524 708
108 548 748
124 552 784
144 568 804
156 596 836
184 620 860
208 664 884
256 700 888
48 588 316
48 580 304
64 564 296
60 556 316
76 564 372
68 576 468
84 576 536
96 584 612
104 596 676
120 600 724
124 612 768
132 616 800
156 628 828
172 648 856
204 676 872
232 712 892
276 736 896
52 652 336
56 644 328
68 628 316
64 620 336
76 620 380
84 628 480
92 636 548
104 640 620
112 648 684
128 656 732
128 668 776
148 672 804
168 684 828
184 696 860
220 716 876
252 740 900
308 764 904
64 696 356
68 692 348
76 676 332
76 672 356
88 672 396
88 680 492
100 688 556
124 692 628
124 704 696
144 708 732
148 712 784
168 716 816
192 724 844
208 740 868
248 756 888
284 772 900
336 792 904
80 732 368
76 732 360
88 720 352
92 712 368
104 712 408
112 724 512
124 724 564
140 732 636
152 744 704
168 744 748
176 756 792
196 760 824
212 764 840
236 772 868
276 784 888
320 800 904
372 812 916
96 764 380
96 764 372
108 756 364
112 748 380
128 752 424
136 764 520
152 768 576
172 780 648
176 784 704
200 784 752
204 796 800
228 800 824
252 804 852
280 812 876
312 816 892
368 828 908
412 836 912
124 788 372
132 792 368
144 784 368
148 784 388
164 788 428
168 796 524
184 808 580
208 816 648
220 820 708
240 824 752
260 832 792
272 832 824
304 836 848
328 844 876
376 844 892
416 856 912
460 860 912
168 816 372
176 816 368
184 812 364
192 816 400
212 824 448
240 828 540
252 836 588
272 840 652
288 852 708
308 856 748
316 864 800
340 864 828
364 872 852
388 876 876
432 876 896
484 884 904
524 884 916
236 832 356
240 836 360
260 840 368
268 840 416
292 848 464
308 856 564
328 864 612
348 876 668
360 880 720
380 880 760
404 884 796
420 888 820
456 888 848
480 896 872
524 900 892
548 904 912
584 904 920
276 844 360
292 848 372
308 852 408
320 856 448
344 860 508
372 860 600
388 876 640
408 880 688
420 884 736
444 888 772
460 896 812
480 900 828
504 904 848
532 904 872
560 908 892
608 908 908
636 908 912
84 56 64
84 60 84
92 68 128
92 80 200
104 84 288
104 96 356
116 108 428
120 120 488
128 128 540
132 144 584
128 164 620
140 180 656
144 212 692
148 252 724
152 316 760
172 388 796
192 468 828
84 72 68
84 72 88
88 80 132
96 84 208
104 92 304
108 96 392
116 112 468
128 120 536
132 132 576
140 148 612
140 164 644
144 188 676
152 220 704
156 264 744
164 332 784
176 424 820
196 504 848
84 92 72
88 100 96
88 104 132
92 108 204
104 116 300
108 128 392
116 140 472
124 148 532
128 156 580
132 164 616
140 172 652
144 188 680
152 220 708
156 264 744
164 332 784
176 424 816
200 504 844
80 140 88
76 148 100
76 156 136
88 160 204
92 168 296
104 172 396
108 184 476
120 196 544
128 204 596
132 220 636
132 228 668
136 240 696
140 268 728
148 304 756
160 364 792
184 436 828
200 504 844
72 228 132
68 216 128
76 220 156
76 232 212
88 240 304
96 252 400
96 260 480
104 272 552
116 280 608
120 292 652
132 304 692
136 320 724
144 340 752
152 376 784
168 432 812
188 500 840
212 560 856
60 332 180
56 328 184
68 320 192
68 324 236
72 332 320
84 344 416
96 352 508
108 360 580
112 376 640
120 376 676
120 392 712
132 412 752
140 432 776
152 468 808
168 512 832
200 568 860
228 628 880
56 436 236
56 424 236
56 416 228
68 416 272
76 424 352
76 432 440
84 444 524
96 452 600
104 460 660
112 472 704
128 480 740
128 488 768
144 508 800
160 544 832
184 580 856
216 636 880
248 676 888
56 532 284
52 524 276
56 500 264
64 500 296
68 508 364
80 512 456
88 524 548
100 528 620
108 536 676
120 544 720
128 556 756
136 572 792
152 584 820
168 604 840
188 636 864
232 676 888
276 716 896
60 600 312
60 596 312
64 576 300
68 568 324
72 576 384
76 584 468
92 592 560
96 604 632
112 604 692
128 612 736
136 616 768
148 628 800
164 644 832
184 660 864
220 688 884
252 716 892
296 748 904
64 656 332
60 648 328
64 632 320
72 624 344
80 632 404
92 640 488
100 644 568
112 652 644
124 656 700
140 664 748
148 672 780
160 684 812
172 692 844
204 704 864
236 728 888
284 756 900
324 780 904
76 704 352
76 700 352
80 688 340
84 676 360
96 680 412
104 688 488
116 700 572
128 704 648
136 708 704
148 716 748
168 720 792
180 728 828
200 736 852
224 748 872
256 760 892
308 784 904
356 804 908
88 740 360
88 736 360
92 728 352
100 716 376
116 724 428
124 728 500
136 736 584
152 744 656
164 752 712
184 756 756
192 764 796
204 768 824
228 772 852
256 780 880
296 796 892
344 808 912
388 820 912
112 772 376
108 768 372
116 760 360
124 760 376
140 764 436
152 772 512
168 780 592
180 784 656
196 788 716
212 796 756
224 804 800
240 808 828
268 812 856
292 820 884
336 824 900
388 836 908
432 844 912
140 796 368
144 796 368
148 792 364
160 796 388
172 800 440
188 808 524
204 816 596
228 820 668
240 828 724
256 836 764
272 840 800
292 840 828
320 848 856
352 852 880
396 856 900
436 860 908
480 868 916
180 824 364
184 820 364
192 816 368
208 820 404
232 832 464
256 836 528
272 844 596
288 852 664
308 856 720
328 864 756
340 868 800
360 872 832
380 876 856
416 880 880
456 884 896
508 888 912
548 888 920
252 840 344
260 840 360
276 844 380
284 848 420
304 852 480
328 864 552
348 872 620
368 880 676
380 880 732
400 888 760
420 892 796
444 892 828
468 896 852
500 904 880
532 904 900
568 908 912
608 908 924
300 848 352
312 852 372
324 852 404
344 860 456
364 864 520
392 868 592
408 880 652
428 884 704
440 888 744
464 888 784
480 900 808
504 904 836
524 904 852
548 908 880
584 912 896
624 916 908
656 916 920
104 64 68
108 68 92
112 72 136
120 76 204
124 88 296
128 100 364
132 112 432
140 124 496
144 132 544
144 148 584
152 164 628
160 184 656
164 212 688
168 256 720
176 316 756
196 396 804
216 472 824
100 76 68
104 76 88
112 80 132
120 88 204
124 96 300
132 104 388
140 112 468
144 124 528
152 136 572
152 152 612
160 164 644
164 192 676
168 220 708
180 264 744
184 336 784
208 428 824
232 504 844
104 100 72
104 100 88
112 104 132
120 116 204
128 120 300
128 132 396
136 140 464
148 148 532
148 156 580
152 168 616
156 176 648
164 192 676
168 220 708
180 260 744
184 336 784
208 424 820
232 508 844
96 148 88
100 152 100
100 160 140
108 160 204
116 172 296
128 176 400
136 192 480
144 200 548
156 208 600
152 220 636
156 232 668
160 244 692
164 268 724
172 308 756
180 360 784
208 428 824
232 508 840
92 224 128
92 220 128
100 228 164
108 236 220
116 244 316
120 252 404
132 264 492
136 276 560
140 288 616
148 292 656
156 308 696
160 320 716
172 344 752
184 384 780
196 436 816
220 508 840
244 564 856
88 332 180
88 328 176
88 316 184
100 324 240
100 336 324
112 348 428
124 356 516
132 360 584
136 372 636
148 380 680
152 396 716
156 416 740
168 440 776
176 460 796
200 516 832
228 572 860
268 624 876
80 436 232
88 424 224
84 416 228
96 424 272
100 420 352
104 436 444
116 448 528
128 456 604
136 460 660
144 476 708
152 480 740
168 492 764
176 516 800
192 544 824
216 588 856
244 636 876
288 676 888
76 528 268
84 516 264
84 500 256
92 500 296
96 512 368
116 516 472
120 524 544
128 532 624
144 540 680
152 548 724
160 560 760
168 576 788
180 584 820
200 612 836
232 644 868
268 684 892
316 716 892
88 600 308
88 592 300
92 576 292
100 568 320
100 580 388
112 588 468
128 592 556
132 608 636
144 608 688
156 612 736
168 620 772
184 632 800
192 644 832
220 664 852
244 692 876
288 720 892
336 748 896
88 656 324
96 644 316
96 636 316
104 628 336
108 640 404
120 640 484
136 648 564
148 652 644
164 664 700
172 668 752
184 676 784
196 680 812
212 692 840
240 708 860
272 728 880
320 756 900
360 776 900
104 704 344
104 696 340
108 684 336
112 680 356
128 688 416
136 696 496
152 704 580
160 704 644
180 712 708
184 724 756
200 724 796
220 732 824
240 740 848
260 748 872
296 764 884
348 784 904
392 800 908
112 744 348
124 736 348
120 728 340
132 724 364
144 728 416
156 736 496
176 744 576
184 748 656
200 756 716
212 756 756
220 764 792
248 768 820
272 776 852
300 784 872
332 796 892
372 808 904
424 820 908
136 772 364
140 772 356
148 764 352
160 764 372
172 772 436
192 776 508
204 780 584
216 788 652
236 796 716
252 796 760
268 804 800
284 812 828
300 812 852
336 816 876
372 824 900
420 840 908
468 844 908
172 800 360
180 800 352
184 796 352
192 800 384
212 804 440
228 812 524
248 816 592
264 828 664
276 828 716
292 836 760
312 840 800
336 844 820
356 848 856
388 852 880
420 856 900
464 864 908
512 868 912
216 824 356
220 820 344
228 824 360
248 828 396
268 836 460
284 840 528
308 848 600
324 852 664
348 860 720
364 864 760
368 872 800
392 876 824
416 876 856
452 884 880
484 888 904
540 888 916
564 888 916
288 848 344
288 844 348
296 848 368
320 852 412
340 860 476
360 872 552
384 876 620
392 880 672
412 888 720
432 888 764
452 892 800
472 900 824
492 904 852
524 904 876
556 904 896
592 912 916
628 912 920
332 852 344
348 852 368
356 856 400
380 864 452
396 868 516
420 876 588
440 880 648
456 888 700
480 892 748
492 896 780
512 904 812
532 904 832
548 912 852
576 912 876
608 912 896
644 916 916
676 916 916
148 68 60
140 76 88
156 76 128
156 84 204
168 92 284
172 104 352
168 112 428
176 124 488
176 140 540
188 148 584
184 168 612
196 188 652
200 212 684
200 256 720
220 316 756
240 404 796
264 476 824
148 80 64
152 84 84
164 88 132
164 92 204
172 96 300
180 104 388
184 120 468
188 128 524
196 140 572
192 156 604
200 168 636
204 192 672
212 224 700
220 272 736
228 336 776
256 428 812
