滤镜资源/2018.1更新vsco/2018.1更新 vsco 3dl/VSCOX KP9 Kodak Portra 100T.3dl
#Generated by Picture Instruments - Look Converter
3DMESH
Mesh 4 10
0 64 128 192 256 320 384 448 512 576 640 704 768 832 896 960 1023
108 56 88
120 60 116
132 68 156
140 88 216
160 108 300
168 144 384
188 180 460
208 216 528
224 252 600
240 288 648
244 320 684
264 364 728
292 408 764
312 468 804
352 536 832
380 592 860
432 656 884
116 68 104
124 68 124
140 80 164
148 104 236
164 128 320
176 164 416
200 200 508
220 224 568
232 264 632
248 300 672
248 336 708
276 384 756
300 424 788
320 488 824
360 560 856
396 624 872
456 688 900
128 96 124
136 104 144
152 116 180
152 136 248
172 160 328
180 208 428
200 232 512
224 264 576
236 296 640
248 320 676
256 348 720
276 384 756
304 428 792
324 492 828
364 564 860
396 620 876
456 688 900
128 168 160
144 168 172
148 184 196
160 204 264
176 236 336
188 268 436
208 292 516
228 320 580
244 352 644
264 376 692
264 416 724
284 428 760
304 464 792
328 512 828
364 572 856
404 628 880
452 688 900
132 284 232
140 276 224
156 272 240
156 296 284
180 320 364
188 360 456
208 380 520
236 404 592
248 428 648
272 444 696
288 480 744
304 500 776
332 528 808
348 568 832
384 620 868
424 672 876
472 712 896
116 400 292
136 392 296
152 388 288
152 400 320
176 416 376
200 444 472
220 456 536
248 480 604
264 504 660
292 520 708
292 548 740
320 564 780
348 588 812
372 624 844
416 668 868
456 712 896
500 744 912
112 508 360
124 496 356
144 492 340
156 488 352
188 496 396
192 528 476
216 532 540
252 548 600
268 564 660
296 584 704
312 604 752
336 620 788
368 640 812
396 664 848
436 700 876
476 744 888
528 772 904
100 600 408
116 584 400
136 576 392
152 564 384
180 568 412
208 584 488
232 596 548
264 608 608
288 624 668
312 632 708
328 656 756
352 668 788
392 684 820
420 712 852
456 732 876
500 768 896
552 792 912
108 648 440
116 644 432
140 636 420
160 628 412
192 624 424
212 636 492
240 644 548
276 656 604
300 668 668
332 676 712
352 692 760
376 708 792
408 720 820
444 740 856
488 764 884
528 792 896
572 812 912
108 692 456
120 688 460
136 680 440
156 672 428
196 664 432
228 676 496
260 680 552
292 688 604
316 700 660
348 708 708
368 724 744
400 732 784
432 752 820
460 764 852
512 784 876
548 808 896
596 828 912
116 720 476
124 716 472
148 716 460
164 708 452
204 700 440
240 708 500
268 716 544
308 724 604
336 732 660
372 744 692
392 752 756
420 760 784
456 772 820
488 788 852
532 808 880
572 820 900
620 836 912
116 748 488
124 748 484
148 740 468
176 736 464
224 732 452
260 740 508
288 744 548
328 752 600
360 764 656
392 768 696
420 780 744
452 788 784
484 792 820
520 808 852
564 824 876
600 840 908
640 848 916
132 768 504
136 768 496
164 768 476
192 764 468
236 756 448
288 768 500
320 776 548
364 780 592
388 792 648
432 796 692
456 808 748
484 812 780
516 824 816
556 832 856
592 844 880
636 856 900
672 864 916
152 784 496
160 792 492
192 788 488
224 792 472
272 784 448
316 796 500
352 804 532
396 812 588
432 816 636
464 828 688
504 832 732
524 836 768
560 844 808
592 852 848
632 864 872
664 876 904
700 876 916
184 808 496
200 812 492
224 812 480
260 808 468
312 816 448
380 820 492
412 828 532
448 832 572
488 844 632
520 844 672
548 860 732
572 864 764
608 868 812
636 876 844
672 880 876
708 892 896
736 892 916
252 824 484
260 828 476
296 828 460
336 836 456
392 836 444
436 848 500
472 852 532
516 860 580
548 868 632
572 868 672
608 876 724
632 884 760
664 888 800
692 892 840
728 900 868
748 908 904
768 908 916
300 832 476
320 832 468
356 836 456
396 844 452
448 848 464
500 852 524
532 860 556
568 868 604
600 872 644
624 880 692
648 888 740
672 892 776
688 892 800
720 896 840
744 904 868
776 908 900
792 908 912
120 48 92
120 60 120
132 72 168
140 92 232
160 120 320
176 148 388
196 188 480
212 224 548
232 260 612
240 296 660
252 332 700
276 376 736
288 424 772
312 476 812
352 544 840
392 616 868
440 672 888
124 68 108
128 76 132
140 88 172
152 108 248
168 140 344
180 168 432
204 200 520
224 236 588
240 272 644
252 308 688
268 344 724
280 388 760
300 440 792
324 496 832
364 572 864
416 648 892
460 704 900
140 100 132
144 112 152
144 124 192
160 148 264
176 176 352
192 216 444
208 248 524
224 276 596
236 300 648
252 328 688
268 356 728
284 392 764
300 440 800
324 496 832
368 568 864
416 648 884
464 704 900
140 172 164
148 176 180
152 204 216
172 224 284
180 248 368
200 276 456
220 312 536
236 340 604
252 368 660
268 396 704
276 416 736
296 448 772
312 484 804
340 528 840
376 592 868
424 656 888
464 704 900
140 296 232
144 288 232
152 300 252
168 316 308
184 340 380
200 368 464
216 392 536
240 416 608
260 444 660
272 464 704
296 488 748
316 516 788
332 540 812
356 584 844
396 636 868
444 692 892
488 732 900
132 416 300
132 416 296
148 412 300
160 416 332
184 436 400
208 452 476
232 472 556
256 496 616
276 516 672
288 536 716
308 552 752
328 580 788
356 604 820
384 640 852
420 680 880
468 724 896
508 756 908
124 516 364
128 512 356
144 512 352
168 508 364
192 516 424
208 532 488
236 544 556
264 564 616
288 584 676
308 600 720
328 616 760
348 628 792
376 652 824
412 684 860
452 720 880
504 756 904
540 780 904
116 600 412
120 600 404
136 588 392
156 584 388
188 588 428
220 592 492
248 608 560
276 616 616
300 632 676
328 644 720
344 660 760
372 676 796
400 696 828
428 716 856
472 744 880
520 776 900
564 804 916
112 652 440
116 656 436
144 644 428
168 636 412
192 636 436
224 640 492
256 652 560
288 664 616
312 676 676
336 688 720
364 700 764
388 712 800
424 732 832
456 748 860
500 776 892
544 800 904
588 816 912
112 696 460
120 692 456
140 684 444
168 676 428
204 672 444
240 680 500
272 688 560
304 700 620
328 712 668
360 724 716
388 732 760
416 740 792
444 752 832
480 772 860
524 792 888
572 816 912
608 836 916
116 732 476
128 724 476
148 720 468
172 712 448
212 704 452
248 716 496
288 724 552
324 732 612
352 740 664
380 748 704
404 756 752
436 768 792
468 780 828
500 796 860
544 812 888
596 828 904
636 844 916
124 752 488
132 752 488
156 744 472
192 740 460
232 740 452
268 744 496
304 752 552
344 756 604
376 768 660
408 776 708
444 784 748
464 792 788
500 804 824
532 820 860
576 828 884
620 848 908
656 852 916
136 772 496
144 772 492
168 772 484
208 768 464
256 768 456
296 772 492
340 780 548
376 788 604
408 796 656
440 804 696
472 812 748
500 820 788
532 832 820
564 836 856
608 848 888
652 860 908
684 864 916
156 796 496
168 796 500
200 796 480
240 792 464
280 788 448
332 800 492
376 812 544
420 816 600
452 824 648
480 832 692
512 840 736
540 844 776
576 852 816
612 860 860
648 872 880
684 876 908
708 880 920
192 812 496
208 812 492
236 816 476
280 816 464
336 820 452
388 824 484
428 832 536
468 844 588
504 852 636
532 856 684
560 864 732
588 872 772
616 872 812
652 880 852
688 884 884
724 892 904
748 896 916
260 832 480
280 832 472
320 832 460
352 836 444
404 840 444
456 852 488
500 856 540
532 868 588
564 872 636
588 880 680
624 880 724
648 888 768
676 892 804
704 896 848
736 904 876
760 908 908
776 908 916
320 840 464
340 840 464
376 840 456
420 844 444
464 852 456
516 860 508
548 864 560
584 868 608
612 876 656
636 884 700
664 888 740
688 892 780
708 896 804
728 900 840
760 908 876
784 912 900
800 916 916
132 56 104
144 60 128
144 80 176
160 96 240
180 128 332
192 160 404
212 192 484
228 232 556
248 264 612
252 300 660
272 340 700
296 380 736
308 428 776
332 480 804
372 548 840
416 620 872
460 672 884
148 76 116
148 80 136
160 92 184
172 112 256
180 140 344
204 172 432
224 204 520
236 240 588
260 276 644
268 312 688
284 348 728
300 392 760
320 436 800
348 500 824
384 576 860
436 648 888
484 704 896
160 108 136
164 116 152
172 132 196
184 152 268
196 184 356
212 216 448
228 244 520
248 276 592
264 304 644
272 336 692
288 360 728
304 396 764
320 436 800
348 500 828
384 572 860
436 644 884
484 704 892
164 180 164
172 188 180
176 204 220
188 224 284
204 252 372
224 284 464
244 312 540
264 344 604
280 372 660
284 396 700
300 420 740
320 448 768
336 488 804
360 532 832
388 584 860
440 648 892
484 704 892
168 292 228
168 292 228
176 304 256
192 320 312
212 352 392
224 368 472
248 396 548
268 420 616
284 444 664
300 468 708
316 496 752
336 512 780
356 544 812
388 588 844
420 640 872
468 696 896
508 728 900
152 416 304
160 416 300
164 408 292
188 420 336
212 444 404
232 460 484
260 480 556
280 496 620
300 520 672
312 536 716
336 556 756
352 584 784
380 608 820
408 640 848
444 680 876
488 728 896
536 760 908
140 520 352
152 512 352
168 512 348
188 512 360
212 516 420
232 536 488
260 552 556
292 572 624
316 584 672
332 604 716
348 612 760
376 636 788
404 660 824
436 684 856
476 720 880
516 752 900
560 784 904
136 600 400
148 596 392
160 584 384
188 584 384
220 588 432
248 596 500
280 608 560
308 624 624
328 636 680
352 652 720
376 664 760
400 684 792
420 700 828
456 724 852
496 756 884
544 780 904
588 800 916
132 656 432
148 652 428
160 648 416
192 632 404
224 636 440
252 648 496
288 656 556
316 668 620
340 676 668
368 688 716
392 700 756
416 716 792
444 732 832
480 752 860
516 776 884
560 800 904
612 816 912
132 700 456
140 688 444
160 688 436
196 676 420
228 676 444
264 684 500
296 692 552
332 700 620
360 712 672
388 724 712
416 732 756
440 744 792
468 756 824
508 776 856
548 792 884
592 812 908
628 828 912
132 732 472
144 724 468
164 720 456
204 712 440
240 712 452
284 720 496
320 728 548
348 732 612
384 744 664
408 756 708
436 760 752
464 772 792
496 784 824
524 796 860
568 816 888
612 832 908
652 844 912
136 752 484
156 748 476
176 748 468
216 744 444
252 740 448
292 752 496
336 752 552
372 764 608
408 772 660
428 780 708
460 784 744
484 796 780
520 804 824
556 816 856
596 832 880
628 844 904
668 856 912
152 776 492
164 772 492
188 776 476
232 772 456
276 772 452
324 780 488
364 784 544
404 792 600
436 796 648
468 804 700
492 816 744
524 820 780
548 828 816
588 840 856
624 848 884
664 860 908
696 868 912
176 796 496
192 796 488
228 796 476
264 792 456
312 796 448
360 804 488
404 812 540
444 820 596
472 824 644
496 836 692
532 840 736
564 848 772
592 852 816
628 864 852
660 872 884
696 876 908
720 884 916
212 812 492
232 816 480
264 820 476
312 820 452
364 824 444
412 828 484
460 836 532
496 844 588
532 848 640
560 860 688
576 864 732
608 868 772
636 876 812
672 880 852
700 892 888
736 896 904
760 896 916
284 832 472
296 832 464
328 836 456
380 840 436
432 844 440
480 852 480
520 864 532
548 868 580
584 872 632
612 876 680
640 880 724
668 888 760
688 892 804
716 896 844
744 904 876
772 908 904
788 908 920
340 836 456
368 840 456
396 844 456
444 848 436
492 860 456
532 864 508
572 868 556
604 872 608
640 876 652
656 884 696
676 892 740
704 892 776
716 896 804
744 904 844
768 908 876
788 912 900
808 912 912
172 60 104
168 72 128
180 88 172
188 104 244
212 132 336
228 164 400
240 192 480
256 228 544
272 268 616
292 300 664
308 340 700
320 380 736
340 424 768
364 484 808
400 552 832
444 620 868
488 676 888
180 76 112
184 88 136
192 100 184
204 116 256
220 148 344
244 180 444
256 212 528
280 244 588
292 288 648
304 316 688
320 356 724
336 396 760
360 444 792
388 512 832
420 576 860
468 652 884
