滤镜资源/2018.1更新vsco/2018.1更新 vsco 3dl/VSCO G4.3dl
#Generated by Picture Instruments - Look Converter
3DMESH
Mesh 4 10
0 64 128 192 256 320 384 448 512 576 640 704 768 832 896 960 1023
0 0 4
20 4 28
32 8 64
16 12 108
32 20 148
12 32 204
20 36 260
32 40 316
28 44 372
36 48 424
32 64 476
40 72 584
52 88 656
56 104 732
60 124 800
60 136 840
72 152 904
0 32 12
12 28 36
28 32 68
20 36 112
32 36 164
16 48 220
24 52 296
32 56 344
24 64 400
36 68 456
24 88 520
32 96 624
44 104 700
44 124 772
68 136 836
72 164 868
84 168 928
4 68 16
20 68 40
28 64 80
20 60 120
32 64 160
12 76 220
24 80 288
36 84 352
24 96 412
36 96 464
32 108 528
40 120 632
44 136 704
56 148 776
64 164 840
68 180 872
84 188 928
4 124 12
16 116 44
28 112 76
20 116 128
32 104 172
16 104 220
28 112 280
36 116 344
32 124 416
40 128 476
32 140 540
40 148 632
48 160 708
56 168 776
68 180 840
80 196 880
88 204 928
12 188 28
20 180 52
24 172 88
20 172 140
32 164 188
12 160 244
28 156 292
40 152 360
36 160 420
44 160 484
40 168 544
48 176 648
60 184 720
64 188 780
68 204 836
84 212 876
100 224 932
12 256 28
24 252 60
24 244 96
24 240 152
24 232 204
16 224 272
24 208 308
40 196 364
36 200 436
48 196 496
40 204 556
48 208 652
60 208 724
68 220 800
76 228 844
88 232 888
104 232 932
12 332 40
24 316 68
32 316 112
24 312 168
28 304 228
12 304 292
20 284 332
32 264 380
36 244 448
44 244 504
44 240 572
56 244 660
68 236 724
68 240 792
80 248 844
88 256 880
108 260 936
8 412 40
24 396 72
28 392 120
24 392 184
28 388 244
16 376 316
20 372 372
36 360 432
28 340 492
44 312 528
40 308 596
52 304 664
68 300 736
72 296 800
80 296 848
100 300 888
116 300 936
16 472 60
24 472 88
32 468 136
24 468 208
28 464 268
8 464 328
12 452 388
28 448 456
16 440 528
32 412 580
40 388 636
48 376 688
68 364 740
72 360 804
84 364 852
84 376 884
100 372 924
12 544 64
20 544 96
24 540 144
12 544 216
28 540 280
16 532 348
16 528 408
28 520 468
16 520 548
32 512 612
24 492 664
36 468 708
48 460 748
60 440 796
72 444 848
80 448 888
92 452 924
12 604 80
20 600 104
28 604 160
16 604 236
28 596 296
12 600 364
12 600 420
28 596 488
12 592 564
28 592 628
20 584 692
24 560 736
40 536 772
44 528 812
68 516 852
68 524 880
76 524 916
12 664 88
16 664 116
24 664 172
16 668 252
24 664 316
16 660 388
12 656 436
28 656 500
12 652 576
28 652 644
16 652 704
20 648 756
36 620 788
32 604 828
48 596 856
68 592 896
72 592 920
16 712 108
16 716 128
24 716 192
16 720 260
28 716 328
12 720 396
8 720 452
24 720 516
8 716 580
24 712 644
20 708 716
16 712 768
32 704 820
32 684 852
56 664 876
56 668 904
64 664 928
12 768 112
12 772 136
20 772 196
12 776 272
24 776 336
20 764 408
12 772 460
28 772 524
16 776 596
28 772 664
16 772 716
12 776 768
28 776 820
20 764 860
36 748 888
52 736 920
60 728 936
20 812 124
16 816 148
24 812 204
12 824 276
24 820 348
16 824 424
16 824 472
24 824 532
12 828 604
24 828 664
24 828 728
20 832 780
28 832 828
20 832 868
32 820 904
40 804 928
44 796 944
20 860 136
12 860 156
24 864 220
8 868 296
24 868 356
20 864 436
16 872 484
24 868 548
16 876 616
24 872 676
20 872 732
16 880 788
28 880 832
28 884 880
32 888 912
40 872 944
44 864 960
20 884 180
16 888 212
24 888 276
16 892 344
24 896 404
32 888 488
28 896 524
40 896 584
24 896 652
40 892 704
24 904 760
16 904 800
28 912 840
28 916 880
32 920 912
40 920 944
44 908 960
28 4 0
24 4 44
28 12 88
24 20 136
20 24 200
24 36 248
24 44 304
24 44 360
32 52 408
32 52 456
44 68 536
44 80 608
52 92 684
60 112 752
64 128 816
68 140 872
80 156 916
24 32 8
24 36 56
24 40 108
28 48 160
28 56 212
32 60 280
32 64 344
40 72 392
36 76 444
40 88 496
40 96 580
44 104 652
56 120 732
60 132 796
72 152 860
88 168 912
100 180 944
28 76 20
24 80 64
28 80 104
28 76 156
32 84 212
36 92 272
36 96 332
40 104 396
36 112 448
44 116 500
44 124 588
52 136 660
60 148 736
68 160 800
80 176 860
88 192 908
100 204 944
24 124 16
24 132 60
24 136 108
28 128 160
28 120 208
40 120 260
44 128 328
36 140 396
48 144 456
44 148 520
48 152 588
52 160 672
60 176 748
68 188 804
84 196 868
92 208 912
100 220 944
36 192 24
28 196 72
32 192 116
32 192 168
36 180 224
32 172 272
36 168 320
44 168 384
48 176 460
52 184 524
52 188 600
60 192 676
64 196 744
68 200 804
84 216 864
100 228 908
112 236 948
36 256 28
24 272 88
28 268 148
24 260 196
28 248 248
36 240 300
40 228 340
44 216 404
52 216 472
52 212 528
56 216 608
64 220 688
68 224 756
84 228 816
92 236 868
108 240 916
120 248 952
40 328 40
32 340 112
32 344 168
32 332 228
36 324 288
28 312 332
28 304 380
36 280 428
48 260 484
56 256 548
64 260 620
72 252 696
76 248 760
84 252 824
100 260 876
112 264 920
120 268 948
32 412 48
28 424 124
28 416 184
20 416 244
24 404 312
32 396 372
32 388 420
28 376 480
36 352 520
48 332 572
56 328 624
68 316 696
76 312 764
80 308 816
100 308 872
116 312 920
132 312 944
32 480 60
28 492 136
24 496 208
24 492 268
24 484 328
20 476 388
20 468 444
20 460 512
24 456 572
36 428 624
48 404 660
64 392 708
72 384 764
84 380 824
92 384 872
104 384 904
116 388 936
24 552 72
16 564 148
16 564 220
16 560 284
20 556 356
24 552 412
24 540 456
24 536 528
20 532 588
24 524 656
32 500 692
48 484 736
60 464 772
72 456 816
76 460 864
88 460 912
100 468 932
24 616 92
20 624 160
24 624 240
24 624 292
16 620 360
16 616 428
16 616 472
16 612 540
20 604 596
20 600 660
24 596 720
36 572 760
44 556 796
56 544 832
68 528 868
76 540 900
88 540 924
20 672 100
20 684 176
20 688 248
16 684 312
20 684 380
20 672 428
20 672 488
20 672 548
24 668 612
24 664 672
16 668 728
20 656 772
28 636 808
44 620 844
56 616 876
76 608 908
84 604 924
24 724 116
24 732 176
16 736 260
16 736 320
20 736 392
16 732 444
16 736 500
20 724 560
20 732 620
16 728 680
28 724 736
24 724 784
28 716 832
36 692 856
52 680 884
60 680 912
76 672 936
16 776 120
20 784 200
16 788 272
20 788 340
16 784 392
20 784 456
20 788 504
16 784 572
24 784 632
20 784 688
20 784 736
20 784 788
24 784 832
28 776 876
40 756 904
56 740 928
68 736 944
20 824 132
20 832 196
16 832 276
20 836 336
20 836 408
20 836 468
20 836 512
16 832 572
20 840 632
20 840 696
24 836 748
24 840 796
28 840 844
28 840 880
32 832 916
44 816 940
48 808 952
20 872 148
20 876 212
16 880 292
16 880 348
20 876 416
20 876 472
20 880 528
20 880 592
24 880 644
20 884 700
24 884 756
24 892 800
28 888 852
32 892 888
36 896 924
40 880 948
48 868 964
20 896 200
20 900 260
20 900 336
20 900 400
20 904 460
28 900 520
32 904 572
32 904 620
32 908 676
28 908 732
24 916 776
24 916 816
28 920 852
32 924 888
32 928 924
40 928 952
48 916 968
56 8 8
64 4 32
56 8 96
52 12 164
44 24 228
40 36 280
40 40 344
44 52 400
48 52 452
52 56 504
56 76 580
60 88 656
68 100 720
68 108 776
80 132 832
84 148 884
92 160 924
60 40 16
64 36 52
64 44 116
64 48 192
48 60 244
52 64 324
52 72 396
60 76 448
60 84 500
56 92 548
60 100 608
60 112 696
68 128 756
76 140 820
84 164 872
100 176 920
108 188 952
68 72 20
60 80 56
56 88 128
60 92 188
60 92 252
60 108 320
56 116 388
60 116 448
64 128 500
68 128 548
72 140 628
68 152 704
76 156 764
84 172 824
96 188 876
108 204 924
116 216 948
64 124 20
64 132 60
56 140 124
56 140 176
56 136 236
68 140 312
64 148 384
68 156 452
68 160 512
64 164 556
72 172 636
72 180 712
80 188 776
88 196 836
96 208 880
112 224 924
116 236 952
68 188 24
68 196 72
64 200 136
60 200 200
60 192 252
60 184 296
68 180 376
68 192 444
76 196 512
76 200 572
80 208 648
84 204 712
84 212 776
92 216 832
104 228 884
120 248 924
124 256 952
84 256 36
68 264 92
60 276 164
64 268 228
60 268 280
64 256 328
68 240 384
72 228 440
76 228 508
80 232 576
88 236 644
84 240 720
92 240 784
100 244 840
112 252 888
124 260 928
136 272 952
88 316 40
72 336 120
64 352 212
60 348 284
60 336 328
56 328 384
56 320 428
64 296 468
80 280 532
80 280 588
88 276 652
96 272 728
100 264 788
108 268 844
120 272 892
124 284 928
132 292 952
76 392 56
60 412 156
52 424 248
52 428 324
52 416 380
60 408 432
52 388 476
52 384 528
60 368 572
80 344 608
84 340 668
96 332 728
96 320 792
112 316 844
116 320 888
136 324 928
148 328 948
72 472 72
52 496 172
44 508 272
48 496 344
40 496 400
44 488 456
44 476 512
40 472 560
40 456 612
56 436 652
76 416 688
88 404 736
100 396 784
104 388 840
112 388 880
120 396 916
128 400 936
52 548 88
44 564 196
40 580 292
32 576 368
36 572 432
40 560 472
36 552 524
40 544 584
40 540 636
40 532 684
52 512 724
64 484 752
80 476 792
92 472 836
100 464 876
108 472 920
120 472 936
48 620 112
40 624 208
40 632 308
36 632 380
32 632 436
28 624 496
32 624 548
28 616 592
28 604 648
36 604 696
40 596 744
48 576 780
60 564 812
76 544 844
96 540 880
100 548 908
104 548 932
44 680 124
40 688 224
36 696 320
28 696 396
32 688 444
36 684 500
32 680 556
32 676 600
36 672 660
32 664 700
36 672 740
36 660 788
48 644 824
56 628 852
72 620 888
92 608 912
100 608 936
44 728 136
36 740 228
32 744 328
32 748 396
32 744 456
32 740 512
28 736 556
32 732 612
28 736 660
28 732 708
36 728 760
40 728 804
44 716 844
56 692 876
68 684 892
80 684 920
92 680 936
40 784 156
36 788 252
32 800 340
28 796 408
32 796 468
32 792 520
32 792 568
28 788 620
32 784 668
32 784 716
32 784 760
36 784 808
40 784 852
40 780 884
48 756 908
76 744 936
84 740 948
40 832 164
36 836 256
32 844 348
32 844 424
32 844 476
32 840 528
28 836 580
32 840 628
28 840 676
28 836 720
36 836 772
40 840 816
40 840 860
40 840 892
44 832 920
56 816 948
64 804 956
44 872 176
36 880 260
32 884 356
28 884 428
36 884 484
32 880 536
32 880 592
32 880 628
32 884 680
32 884 724
36 884 772
36 888 820
40 888 856
40 892 892
44 896 924
52 880 952
64 868 964
44 896 224
40 904 312
36 904 400
32 908 476
36 908 520
40 908 576
36 904 620
40 904 660
40 908 708
44 912 756
36 916 796
40 920 836
40 924 856
40 924 892
44 932 924
52 928 956
64 916 964
108 8 8
108 8 32
112 8 76
108 8 152
112 8 220
80 28 308
68 40 372
68 48 428
72 56 484
72 60 536
80 76 616
80 92 692
84 100 748
84 120 796
88 140 848
100 156 900
104 168 936
112 40 20
116 44 56
120 44 108
120 40 176
108 48 260
88 60 364
88 80 432
84 84 492
88 92 548
88 96 600
84 104 672
80 120 732
88 136 796
96 152 844
100 164 880
108 184 924
