滤镜资源/Professional Luts Collection/Triune-Digital-Cinematic-LUTs/3D LUTs (3DL)/ALEXA/BW/Casino Royale 1 - Alexa.3dl
# Created by Benjamin (IWLTBAP) : http://luts.iwltbap.com
# Copyright: (C) Copyright 2016 Triune Films and IWLTBAP
# Blockbuster LUTs Pack
0 256 512 768 1023
0 0 0
3 2 2
13 11 11
26 24 25
29 26 27
85 80 80
98 92 93
46 43 43
70 66 66
75 71 71
667 657 644
688 679 665
801 791 774
647 637 624
609 599 588
1381 1372 1339
1415 1405 1372
1643 1634 1595
1765 1756 1714
1780 1772 1729
1580 1571 1533
1617 1608 1569
1842 1833 1789
2038 2030 1982
2084 2076 2027
202 195 194
22 20 20
21 18 19
33 29 30
36 33 34
188 181 180
332 323 319
105 100 100
136 130 130
148 141 141
751 741 725
868 858 839
994 984 962
821 811 793
778 768 752
1486 1477 1442
1639 1630 1591
1873 1865 1820
1999 1991 1944
2013 2005 1958
1690 1681 1641
1842 1833 1789
2078 2071 2023
2251 2245 2202
2305 2300 2258
1487 1478 1442
938 928 907
134 128 127
102 97 97
110 104 104
1581 1572 1534
1706 1697 1656
303 295 291
262 254 251
272 264 261
1456 1447 1412
1601 1592 1554
2442 2438 2395
1958 1951 1908
1827 1819 1777
1931 1923 1877
2080 2073 2028
2622 2618 2575
2522 2517 2474
2474 2469 2426
2054 2047 2001
2202 2195 2150
2640 2636 2593
2619 2615 2572
2660 2656 2613
2442 2437 2394
1968 1960 1913
808 798 781
168 162 161
170 164 163
2753 2749 2706
2382 2377 2335
1160 1150 1124
364 356 350
366 357 352
2682 2678 2635
2827 2823 2780
3446 3445 3410
2104 2097 2054
1893 1886 1845
2693 2689 2646
2817 2814 2771
3485 3484 3450
3822 3822 3802
3813 3813 3792
2836 2833 2790
2963 2960 2918
3575 3574 3543
3930 3929 3916
3951 3951 3939
2697 2693 2649
2261 2256 2213
1066 1056 1032
304 295 292
184 177 176
3007 3004 2962
2644 2640 2597
1449 1439 1405
548 539 529
390 381 375
2931 2928 2886
3070 3067 3026
3617 3616 3587
2369 2363 2318
1903 1895 1855
2950 2947 2904
3066 3064 3022
3671 3670 3643
3998 3998 3989
3843 3842 3824
2959 2956 2913
3068 3066 3024
3663 3663 3635
4010 4010 4002
4095 4095 4095
