滤镜资源/Professional Luts Collection/Triune-Digital-Cinematic-LUTs/3D LUTs (3DL)/ALEXA/BW/Casino Royale 1 - Alexa.3dl
# Created by Benjamin (IWLTBAP) : http://luts.iwltbap.com
# Copyright: (C) Copyright 2016 Triune Films and IWLTBAP
# Blockbuster LUTs Pack
0 128 256 384 512 640 768 896 1023
0 0 0
1 1 1
3 2 2
7 5 6
13 11 11
20 18 19
26 24 25
28 26 27
29 26 27
19 17 18
22 19 20
15 13 14
18 16 17
27 25 25
37 34 35
45 41 42
47 44 45
49 46 47
85 80 80
90 84 85
98 92 93
49 45 46
46 43 43
60 55 56
70 66 66
73 68 69
75 71 71
290 283 279
298 290 286
320 311 307
347 339 334
265 257 254
99 94 94
98 93 93
104 98 98
105 100 100
667 657 644
677 667 654
688 679 665
770 760 744
801 791 774
732 722 707
647 637 624
610 601 589
609 599 588
1134 1124 1098
1148 1138 1112
1160 1151 1124
1228 1218 1190
1332 1322 1291
1357 1348 1316
1330 1320 1289
1323 1314 1283
1335 1325 1294
1381 1372 1339
1390 1380 1348
1415 1405 1372
1455 1445 1411
1643 1634 1595
1735 1726 1685
1765 1756 1714
1768 1759 1717
1780 1772 1729
1481 1472 1437
1492 1483 1448
1507 1497 1462
1548 1539 1502
1739 1731 1689
1861 1852 1808
1927 1918 1872
1965 1957 1910
1981 1973 1925
1580 1571 1533
1600 1591 1552
1617 1608 1569
1653 1644 1605
1842 1833 1789
1961 1953 1907
2038 2030 1982
2070 2063 2013
2084 2076 2027
45 41 42
7 6 6
6 5 5
9 7 8
15 13 14
24 21 22
29 26 27
31 28 29
33 30 31
39 35 36
66 61 62
39 36 36
36 32 33
48 44 45
62 57 58
71 66 67
75 70 71
78 73 74
101 95 96
127 121 121
137 131 130
75 71 71
73 68 69
90 85 85
101 96 96
104 99 99
107 102 102
318 310 305
360 351 346
385 376 370
414 405 398
323 314 310
138 132 131
136 130 130
139 133 133
143 137 137
707 698 683
765 755 739
778 768 752
864 854 835
895 884 865
825 815 797
730 720 705
701 691 677
689 679 665
1183 1173 1146
1254 1244 1215
1275 1265 1235
1341 1331 1300
1442 1433 1398
1465 1455 1421
1446 1437 1403
1439 1429 1395
1442 1432 1398
1433 1424 1390
1506 1496 1461
1527 1518 1482
1569 1560 1523
1755 1746 1704
1856 1848 1803
1879 1871 1826
1886 1877 1832
1897 1889 1844
1536 1526 1489
1608 1598 1560
1627 1618 1579
1668 1659 1619
1851 1842 1798
1977 1969 1922
2048 2040 1992
2084 2077 2029
2093 2085 2037
1639 1629 1590
1708 1699 1658
1725 1716 1675
1770 1761 1719
1957 1949 1902
2080 2073 2024
2147 2141 2094
2181 2176 2131
2203 2198 2154
202 195 194
102 97 97
22 20 20
17 15 16
21 18 19
26 24 24
33 29 30
35 31 32
36 33 34
195 188 187
251 244 241
66 61 62
52 48 49
57 53 54
68 63 64
76 71 72
80 76 76
84 79 80
188 181 180
241 233 231
332 323 319
142 136 136
105 100 100
125 119 119
136 130 130
143 136 136
148 141 141
353 345 340
394 385 379
459 450 442
484 475 467
385 376 370
180 173 172
178 171 170
183 176 175
188 181 180
751 741 725
815 805 787
868 858 839
961 951 929
994 984 962
919 909 888
821 811 793
786 776 760
778 768 752
1235 1225 1197
1312 1302 1272
1382 1373 1340
1449 1440 1406
1556 1547 1510
1581 1572 1534
1558 1549 1512
1552 1543 1506
1553 1544 1507
1486 1477 1442
1565 1555 1518
1639 1630 1591
1684 1675 1635
1873 1865 1820
1977 1969 1922
1999 1991 1944
2003 1996 1949
2013 2005 1958
1590 1581 1543
1660 1651 1612
1743 1734 1693
1779 1770 1728
1972 1964 1917
2090 2082 2035
2157 2151 2104
2193 2186 2141
2209 2203 2159
1690 1681 1641
1774 1766 1723
1842 1833 1789
1884 1876 1831
2078 2071 2023
2191 2185 2141
2251 2245 2202
2282 2277 2235
2305 2300 2258
689 679 665
505 495 486
290 282 278
66 61 62
47 43 44
55 51 52
60 56 57
62 58 59
64 59 60
717 707 692
707 697 682
402 393 386
122 117 116
97 92 92
109 104 104
117 111 111
119 113 113
121 116 116
697 688 673
812 802 785
940 930 909
229 222 220
164 157 157
181 174 173
188 181 180
191 184 183
194 187 185
659 649 636
719 709 694
907 897 877
1176 1166 1138
841 831 813
290 282 279
262 254 251
264 257 254
271 264 260
939 929 908
1003 993 970
1065 1055 1031
1345 1335 1304
1274 1265 1235
1063 1053 1029
924 914 894
872 862 843
864 854 835
1284 1274 1244
1363 1353 1321
1435 1426 1392
1563 1553 1516
1669 1660 1620
1699 1690 1650
1669 1660 1620
1666 1657 1617
1667 1658 1618
1541 1532 1495
1621 1612 1573
1695 1686 1646
1797 1788 1745
1986 1978 1931
2089 2082 2035
2113 2106 2059
2120 2113 2067
2124 2117 2070
1647 1638 1599
1720 1711 1670
1801 1792 1749
1894 1885 1840
2085 2078 2030
2203 2197 2152
2271 2265 2222
2302 2297 2254
2314 2308 2266
1751 1742 1700
1830 1822 1778
1905 1896 1851
2002 1994 1946
2188 2182 2137
2297 2291 2249
2361 2356 2313
2389 2384 2342
2407 2402 2359
1487 1478 1442
1243 1234 1204
938 928 907
483 474 465
134 128 127
93 88 88
102 97 97
105 100 100
110 104 104
1617 1608 1569
1446 1437 1402
1116 1106 1080
620 611 598
211 204 202
161 155 154
174 167 166
178 171 170
184 177 176
1581 1572 1534
1748 1739 1698
1706 1697 1656
778 768 752
303 295 291
246 238 236
262 254 251
266 258 255
272 264 261
1518 1509 1473
1595 1585 1548
1863 1855 1810
2142 2136 2091
1035 1026 1002
360 351 346
363 354 349
367 359 353
375 366 360
1456 1447 1412
1529 1519 1483
1601 1592 1554
2132 2126 2080
2442 2438 2395
2211 2205 2160
1958 1951 1908
1856 1848 1805
1827 1819 1777
1856 1847 1803
1937 1929 1883
2006 1998 1952
2342 2337 2294
2714 2710 2667
2663 2659 2616
2568 2563 2521
2538 2534 2491
2529 2525 2482
1931 1923 1877
2004 1996 1951
2080 2073 2028
2252 2246 2201
2622 2618 2575
2614 2610 2567
2522 2517 2474
2485 2480 2437
2474 2469 2426
1968 1960 1914
2048 2041 1995
2127 2120 2075
2260 2254 2210
2600 2596 2553
2529 2524 2481
2544 2540 2497
2563 2559 2516
2574 2569 2526
2054 2047 2001
2130 2123 2078
2202 2195 2150
2335 2329 2285
2640 2636 2593
2577 2573 2530
2619 2615 2572
2642 2638 2595
2660 2656 2613
2267 2261 2218
2055 2048 2001
1736 1727 1685
1177 1168 1140
603 594 582
216 209 207
144 138 138
150 144 143
154 148 147
2461 2456 2413
2260 2254 2210
1946 1938 1893
1369 1359 1327
752 742 727
313 305 301
227 220 218
233 225 223
238 231 228
2499 2494 2451
2576 2571 2528
2247 2242 2197
1570 1561 1523
918 908 888
425 416 409
328 320 316
336 327 323
340 332 327
2418 2413 2371
2508 2504 2461
2743 2739 2696
2888 2884 2842
1760 1752 1713
536 527 517
441 432 425
450 441 434
456 447 439
2345 2340 2297
2415 2410 2367
2488 2484 2441
2945 2942 2900
3188 3186 3146
2443 2438 2394
2051 2044 2001
1934 1926 1886
1899 1891 1851
2284 2278 2235
2359 2353 2311
2424 2419 2376
2750 2746 2703
3174 3172 3132
3386 3385 3349
3310 3308 3270
3293 3291 3253
3291 3290 3252
2472 2467 2424
2538 2533 2490
2607 2602 2559
2790 2786 2743
3320 3319 3281
3545 3545 3512
3544 3543 3511
3541 3540 3508
3544 3543 3511
2543 2538 2495
2607 2602 2559
2675 2671 2627
2804 2801 2757
3361 3360 3323
3593 3592 3562
3617 3616 3587
3624 3624 3595
3629 3628 3599
2626 2622 2579
2692 2689 2645
2756 2753 2709
2877 2874 2831
3417 3416 3380
3641 3640 3611
3665 3664 3636
3676 3675 3648
3685 3684 3657
2442 2437 2394
2259 2253 2210
1968 1960 1913
1411 1402 1369
808 798 781
361 353 347
168 162 161
167 161 160
170 164 163
2631 2627 2584
2454 2449 2406
2176 2170 2125
1617 1608 1569
975 965 944
489 480 471
256 249 246
253 246 243
260 252 250
2753 2749 2706
2695 2691 2648
2382 2377 2335
1824 1815 1772
1160 1150 1124
625 615 603
364 356 350
357 348 343
366 357 352
2676 2672 2629
2782 2779 2736
2990 2987 2945
3061 3059 3018
1930 1922 1881
791 781 764
487 478 470
481 472 464
490 481 473
2682 2678 2635
2747 2743 2700
2827 2823 2780
3241 3239 3199
3446 3445 3410
2783 2780 2737
2104 2097 2054
1933 1925 1884
1893 1886 1845
2695 2691 2648
2762 2758 2715
2822 2819 2776
3137 3135 3094
3520 3519 3486
3710 3709 3684
3415 3414 3378
3356 3354 3317
3354 3353 3316
2693 2689 2646
2757 2754 2710
2817 2814 2771
3007 3004 2962
3485 3484 3450
3720 3720 3694
3822 3822 3802
3811 3811 3791
3813 3813 3792
2761 2758 2714
2820 2817 2774
2884 2881 2838
3011 3008 2966
3525 3524 3491
3771 3771 3748
3890 3890 3874
3896 3896 3881
3900 3900 3884
2836 2833 2790
2900 2897 2854
2963 2960 2918
3081 3079 3037
3575 3574 3543
3816 3815 3795
3930 3929 3916
3942 3942 3930
3951 3951 3939
2566 2561 2518
2391 2386 2343
2121 2114 2068
1555 1546 1509
934 924 903
454 445 437
231 223 221
174 167 167
177 170 169
2745 2741 2698
2581 2576 2533
2313 2308 2265
1769 1760 1718
1112 1102 1076
592 583 571
331 322 318
267 259 256
270 262 259
2889 2886 2843
2790 2787 2743
2511 2507 2464
1980 1972 1926
1303 1294 1263
743 734 718
449 440 433
375 366 360
377 369 363
2810 2807 2763
2916 2913 2871
3107 3105 3064
3154 3152 3112
2046 2039 1997
919 909 889
589 580 569
498 489 480
505 496 487
2812 2808 2765
2874 2870 2827
2953 2950 2907
3345 3343 3306
3531 3530 3498
2897 2894 2851
2231 2225 2180
1936 1929 1888
1891 1883 1843
2826 2822 2779
2883 2880 2837
2946 2943 2901
3247 3245 3206
3608 3608 3578
3788 3787 3765
3514 3513 3480
3367 3365 3329
3365 3364 3327
2830 2827 2784
2890 2886 2844
2951 2948 2906
3137 3135 3095
3587 3587 3556
3825 3825 3805
3936 3936 3923
3841 3841 3822
3834 3834 3815
2836 2833 2789
2896 2893 2850
2957 2954 2911
3077 3075 3034
3582 3581 3550
3824 3824 3804
3944 3944 3932
3991 3991 3982
3991 3991 3982
2912 2909 2866
2973 2971 2928
3027 3025 2983
3145 3143 3103
3633 3632 3603
3866 3866 3848
3983 3983 3974
4033 4033 4027
4041 4041 4036
2697 2693 2649
2521 2516 2474
2261 2256 2213
1707 1698 1658
1066 1056 1032
555 545 535
304 295 292
242 234 232
184 177 176
2872 2869 2825
2704 2700 2657
2447 2443 2400
1925 1917 1871
1252 1243 1213
698 688 674
419 410 403
346 337 332
279 271 268
3007 3004 2962
2907 2904 2861
2644 2640 2597
2126 2119 2073
1449 1439 1405
862 851 833
548 539 529
464 455 447
390 381 375
2927 2924 2882
3034 3031 2990
3218 3216 3177
3257 3255 3217
2183 2177 2135
1048 1038 1015
704 694 679
600 590 579
515 506 497
2931 2928 2886
2993 2990 2948
3070 3067 3026
3442 3441 3406
3617 3616 3587
3012 3009 2968
2369 2363 2318
2075 2068 2025
1903 1895 1855
2943 2940 2897
3004 3001 2959
3061 3058 3017
3350 3348 3311
3691 3690 3664
3858 3858 3840
3600 3600 3570
3458 3457 3423
3376 3375 3338
2950 2947 2904
3010 3007 2965
3066 3064 3022
3246 3244 3205
3671 3670 3643
3894 3894 3878
3998 3998 3989
3907 3907 3892
3843 3842 3824
2953 2950 2907
3012 3009 2967
3070 3068 3026
3189 3187 3147
3664 3664 3636
3892 3892 3876
4010 4010 4002
4057 4057 4054
4001 4001 3993
2959 2956 2913
3009 3006 2964
3068 3066 3024
3187 3185 3145
3663 3663 3635
3892 3892 3876
4010 4010 4002
4061 4061 4058
4095 4095 4095
