滤镜资源/Professional Luts Collection/Triune-Digital-Cinematic-LUTs/3D LUTs (3DL)/ALEXA/BW/Casino Royale 1 - Alexa.3dl
# Created by Benjamin (IWLTBAP) : http://luts.iwltbap.com
# Copyright: (C) Copyright 2016 Triune Films and IWLTBAP
# Blockbuster LUTs Pack
0 64 128 192 256 320 384 448 512 576 640 704 768 832 896 960 1023
0 0 0
0 0 0
1 1 1
2 1 1
3 2 2
4 3 4
7 5 6
10 8 9
13 11 11
16 14 15
20 18 19
24 21 22
26 24 25
27 25 26
28 26 27
29 26 27
29 26 27
6 5 6
7 6 6
6 5 6
6 5 5
7 6 6
9 7 8
12 10 11
16 14 14
20 17 18
24 21 22
28 26 26
32 29 30
35 32 33
36 33 34
38 34 35
38 35 36
39 36 37
19 17 18
20 18 19
22 19 20
19 17 18
15 13 14
14 12 13
18 16 17
22 20 21
27 25 25
32 29 30
37 34 35
42 38 39
45 41 42
46 42 43
47 44 45
49 45 46
49 46 47
41 38 39
44 40 41
47 43 44
49 45 46
44 41 42
27 25 26
25 23 24
30 27 28
36 33 34
42 39 39
48 44 45
53 49 50
57 53 54
58 54 55
59 55 56
61 57 58
62 58 59
85 80 80
86 81 82
90 84 85
95 90 90
98 92 93
87 82 83
49 45 46
40 36 37
46 43 43
53 49 50
60 55 56
65 61 61
70 66 66
72 67 68
73 68 69
74 69 70
75 71 71
162 156 155
165 159 158
167 161 160
175 168 167
186 180 178
191 184 182
171 164 164
116 111 111
63 59 60
65 61 62
72 67 68
78 73 74
84 79 79
86 81 82
87 82 83
88 83 84
89 84 84
290 283 279
295 287 283
298 290 286
302 294 290
320 311 307
340 331 327
347 339 334
324 316 311
265 257 254
169 163 162
99 94 94
93 87 88
98 93 93
101 96 96
104 98 98
105 99 99
105 100 100
462 453 445
468 459 451
473 464 456
474 465 457
483 474 465
521 511 502
546 536 526
554 544 534
529 520 510
477 468 460
388 380 373
293 285 281
229 221 219
180 174 173
179 172 171
179 172 171
177 171 169
667 657 644
673 663 650
677 667 654
685 675 661
688 679 665
718 709 694
770 760 744
793 783 766
801 791 774
776 766 750
732 722 707
685 675 661
647 637 624
618 608 597
610 601 589
610 601 589
609 599 588
897 887 868
904 894 875
913 903 883
920 910 890
926 916 895
938 928 907
1002 992 970
1045 1035 1011
1071 1061 1037
1076 1066 1042
1055 1045 1021
1026 1016 992
1005 995 972
992 982 960
993 983 961
993 983 960
990 980 958
1134 1124 1098
1141 1131 1104
1148 1138 1112
1154 1144 1118
1160 1151 1124
1165 1155 1128
1228 1218 1190
1294 1285 1254
1332 1322 1291
1352 1342 1310
1357 1348 1316
1342 1333 1301
1330 1320 1289
1330 1320 1289
1323 1314 1283
1329 1319 1288
1335 1325 1294
1319 1310 1278
1321 1312 1281
1327 1317 1286
1336 1326 1295
1347 1338 1306
1359 1350 1318
1401 1392 1359
1490 1480 1445
1539 1530 1493
1570 1560 1523
1589 1579 1541
1595 1586 1548
1588 1578 1541
1591 1582 1544
1591 1582 1544
1594 1585 1547
1598 1589 1550
1381 1372 1339
1384 1374 1342
1390 1380 1348
1404 1395 1362
1415 1405 1372
1427 1418 1384
1455 1445 1411
1567 1557 1520
1643 1634 1595
1700 1691 1650
1735 1726 1685
1760 1751 1709
1765 1756 1714
1761 1752 1710
1768 1759 1717
1778 1769 1727
1780 1772 1729
1430 1421 1387
1434 1425 1391
1438 1428 1394
1451 1442 1407
1464 1454 1420
1475 1465 1430
1500 1490 1455
1612 1602 1564
1688 1679 1639
1753 1745 1703
1806 1798 1754
1853 1844 1800
1872 1864 1819
1879 1871 1826
1887 1879 1834
1898 1890 1844
1904 1896 1850
1481 1472 1437
1488 1478 1443
1492 1483 1448
1496 1487 1452
1507 1497 1462
1516 1507 1471
1548 1539 1502
1661 1652 1613
1739 1731 1689
1801 1792 1749
1861 1852 1808
1900 1892 1846
1927 1918 1872
1954 1946 1899
1965 1957 1910
1974 1966 1919
1981 1973 1925
1531 1522 1485
1540 1531 1494
1547 1538 1501
1554 1544 1508
1558 1549 1512
1567 1558 1520
1600 1591 1553
1708 1699 1658
1791 1782 1739
1851 1842 1798
1912 1904 1858
1952 1944 1897
1981 1973 1926
2005 1997 1950
2019 2011 1963
2026 2018 1970
2033 2025 1977
1580 1571 1533
1590 1581 1543
1600 1591 1552
1610 1601 1562
1617 1608 1569
1622 1613 1574
1653 1644 1605
1758 1750 1708
1842 1833 1789
1900 1892 1847
1961 1953 1907
2003 1995 1948
2038 2030 1982
2059 2051 2002
2070 2063 2013
2077 2069 2020
2084 2076 2027
14 12 13
3 2 3
2 1 2
3 2 3
4 3 3
5 4 5
7 6 7
11 9 10
14 12 13
18 15 16
22 20 20
25 22 23
27 25 25
29 26 27
30 27 28
31 27 28
31 28 29
12 10 11
18 16 17
15 13 14
13 11 12
13 12 12
16 14 15
20 18 18
25 22 23
29 26 27
35 32 33
40 36 37
44 41 41
47 44 45
49 45 46
50 47 48
51 48 48
52 48 49
25 23 23
33 30 31
34 30 31
30 28 28
24 21 22
22 20 20
27 24 25
32 29 30
38 34 35
44 41 41
49 45 46
55 51 51
58 54 55
59 55 56
61 57 58
62 58 59
63 59 60
49 45 46
57 53 54
60 56 57
62 58 58
57 53 54
37 34 35
35 32 33
42 38 39
48 44 45
56 52 52
62 57 58
67 63 64
71 66 67
72 68 68
74 69 70
75 71 71
76 72 72
92 87 87
103 98 98
107 102 102
113 107 108
117 111 111
105 100 100
62 58 59
53 49 50
60 56 56
68 63 64
75 70 71
81 76 76
86 81 81
87 82 82
88 83 84
90 85 85
91 86 86
172 166 165
189 182 181
192 185 184
199 192 191
212 204 203
215 207 206
196 189 187
135 129 128
79 74 74
81 76 76
88 83 84
94 89 90
100 95 95
102 97 97
103 98 98
105 99 100
106 100 101
305 297 293
326 317 313
329 321 316
332 324 319
352 344 339
372 364 358
380 371 365
355 347 342
294 286 283
193 186 185
119 113 113
112 106 106
118 113 113
121 115 115
121 116 116
123 118 117
124 118 118
478 469 460
502 493 484
509 500 491
513 504 495
522 513 504
561 551 541
586 576 565
594 584 573
570 561 550
516 506 497
424 415 408
323 314 310
256 248 245
205 198 196
203 196 194
203 196 194
201 194 193
687 678 664
716 706 692
721 711 697
729 720 705
733 723 708
764 754 738
818 808 790
842 832 814
848 837 819
823 813 795
779 769 753
730 720 705
689 679 665
665 655 642
657 647 634
652 643 630
648 639 626
920 910 889
951 941 920
961 950 929
970 960 938
974 964 942
986 976 954
1055 1045 1021
1099 1089 1064
1124 1114 1088
1127 1117 1091
1105 1095 1070
1078 1068 1044
1053 1043 1020
1046 1036 1012
1043 1033 1009
1042 1032 1009
1040 1030 1007
1159 1149 1122
1195 1185 1157
1202 1192 1164
1211 1201 1173
1217 1207 1179
1220 1210 1182
1284 1274 1244
1350 1340 1308
1387 1377 1345
1409 1400 1366
1411 1402 1368
1397 1387 1354
1389 1380 1347
1384 1374 1341
1382 1372 1340
1386 1376 1343
1390 1380 1347
1340 1331 1299
1383 1373 1340
1389 1379 1346
1395 1386 1353
1406 1396 1363
1417 1408 1374
1460 1450 1416
1546 1537 1500
1597 1588 1550
1627 1618 1579
1645 1636 1597
1652 1643 1603
1651 1642 1602
1650 1641 1601
1647 1637 1598
1650 1641 1601
1656 1647 1607
1411 1401 1368
1440 1431 1397
1447 1437 1403
1459 1450 1415
1469 1459 1425
1481 1471 1436
1511 1501 1465
1625 1616 1577
1697 1688 1647
1755 1746 1704
1795 1787 1744
1817 1809 1765
1821 1812 1769
1822 1813 1770
1825 1817 1773
1834 1825 1782
1836 1827 1783
1458 1449 1414
1491 1482 1447
1496 1487 1452
1509 1500 1464
1522 1513 1477
1533 1524 1487
1559 1549 1512
1671 1662 1622
1744 1735 1694
1811 1802 1759
1864 1856 1812
1913 1905 1859
1934 1925 1879
1946 1938 1891
1943 1935 1889
1953 1945 1898
1960 1952 1905
1508 1498 1462
1545 1535 1499
1551 1542 1505
1558 1549 1512
1570 1560 1523
1580 1571 1533
1609 1600 1561
1721 1712 1671
1795 1786 1743
1863 1854 1810
1918 1910 1864
1965 1957 1910
1987 1979 1931
2012 2004 1956
2023 2015 1967
2031 2023 1975
2037 2029 1981
1560 1551 1513
1595 1585 1547
1602 1593 1555
1608 1599 1561
1618 1609 1571
1629 1620 1581
1660 1651 1612
1770 1761 1719
1847 1839 1795
1912 1904 1858
1971 1963 1916
2013 2006 1959
2039 2032 1985
2061 2053 2007
2078 2071 2024
2085 2078 2032
2093 2086 2039
1610 1601 1563
1644 1635 1596
1653 1644 1605
1661 1652 1612
1674 1665 1625
1684 1675 1634
1712 1704 1662
1820 1812 1768
1899 1890 1845
1962 1954 1907
2021 2013 1965
2063 2056 2008
2093 2086 2039
2113 2106 2059
2128 2122 2075
2137 2130 2083
2145 2138 2092
45 41 42
23 20 21
7 6 6
5 4 4
6 5 5
7 6 6
9 7 8
12 10 11
15 13 14
19 17 17
24 21 22
27 24 25
29 26 27
30 27 28
31 28 29
32 29 30
33 30 31
40 37 38
53 49 50
24 21 22
16 14 15
17 15 16
19 17 17
21 19 20
26 24 24
31 28 29
36 33 34
42 38 39
46 42 43
49 45 46
51 47 48
52 48 49
54 50 50
55 51 51
39 35 36
51 47 48
66 61 62
56 52 53
39 36 36
31 28 29
36 32 33
42 39 40
48 44 45
56 52 52
62 57 58
67 62 63
71 66 67
73 69 69
75 70 71
77 72 72
78 73 74
64 59 60
75 70 71
92 86 87
93 88 88
81 76 77
49 46 47
45 42 43
53 49 50
60 56 57
68 64 65
75 71 71
81 76 76
85 80 81
87 82 83
89 84 85
91 86 86
92 87 87
101 95 96
113 107 107
127 121 121
132 126 126
137 131 130
121 116 116
75 71 71
65 61 62
73 68 69
82 77 78
90 85 85
96 91 91
101 96 96
102 97 97
104 99 99
106 100 101
107 102 102
182 175 174
199 192 191
215 208 206
225 217 215
236 228 226
240 233 230
220 213 211
154 148 147
94 89 89
96 91 91
104 99 99
112 106 107
117 111 111
120 114 114
121 115 115
122 116 116
124 118 118
318 310 305
340 331 326
360 351 346
364 355 350
385 376 370
405 396 390
414 405 398
386 377 371
323 314 310
216 209 207
138 132 131
130 124 124
136 130 130
139 133 132
139 133 133
141 135 135
143 137 137
495 486 477
521 511 502
544 535 525
551 541 531
561 552 541
601 592 580
626 616 604
635 626 613
612 602 591
554 544 534
457 449 441
352 344 338
283 275 271
230 222 220
227 220 218
228 221 218
227 219 217
707 698 683
738 728 713
765 755 739
775 765 748
778 768 752
810 800 783
864 854 835
890 880 861
895 884 865
869 859 840
825 815 797
772 762 746
730 720 705
710 700 685
701 691 677
698 688 674
689 679 665
945 935 914
977 967 945
1006 996 974
1019 1009 986
1026 1016 993
1038 1028 1004
1105 1095 1070
1151 1141 1115
1175 1165 1138
1178 1168 1141
1156 1146 1120
1131 1121 1095
1107 1097 1072
1101 1091 1065
1096 1086 1061
1095 1085 1060
1092 1082 1057
1183 1173 1146
1221 1211 1183
1254 1244 1215
1266 1256 1227
1275 1265 1235
1278 1268 1238
1341 1331 1300
1405 1395 1362
1442 1433 1398
1463 1454 1419
1465 1455 1421
1453 1444 1409
1446 1437 1403
1440 1430 1396
1439 1429 1395
1441 1431 1397
1442 1432 1398
1364 1354 1322
1406 1396 1363
1447 1438 1404
1455 1445 1411
1463 1454 1419
1473 1464 1429
1517 1508 1472
1605 1596 1558
1657 1648 1608
1685 1676 1636
1702 1693 1652
1709 1700 1659
1709 1700 1659
1708 1699 1658
1703 1694 1654
1704 1695 1655
1713 1704 1663
1433 1424 1390
1466 1457 1422
1506 1496 1461
1519 1510 1474
1527 1518 1482
1538 1529 1492
1569 1560 1523
1683 1674 1634
1755 1746 1704
1815 1806 1763
1856 1848 1803
1875 1866 1821
1879 1871 1826
1883 1874 1830
1886 1877 1832
1890 1882 1837
1897 1889 1844
1488 1478 1443
1520 1510 1474
1552 1543 1506
1566 1557 1520
1577 1568 1530
1587 1578 1540
1618 1609 1570
1729 1720 1679
1800 1791 1748
1865 1856 1812
1924 1915 1870
1964 1957 1910
1995 1987 1940
2006 1998 1951
2009 2001 1954
2009 2001 1954
2018 2010 1962
1536 1526 1489
1572 1563 1525
1608 1598 1560
1617 1608 1569
1627 1618 1579
1638 1629 1590
1668 1659 1619
1780 1772 1729
1851 1842 1798
1921 1912 1866
1977 1969 1922
2022 2014 1966
2048 2040 1992
2069 2062 2014
2084 2077 2029
2087 2080 2032
2093 2085 2037
1586 1576 1539
1624 1615 1576
1659 1650 1610
1667 1658 1618
1677 1668 1628
1689 1680 1640
1719 1710 1669
1830 1822 1778
1904 1895 1850
1973 1965 1918
2029 2021 1974
2073 2066 2019
2099 2092 2045
2116 2109 2062
2134 2127 2080
2141 2135 2088
2148 2141 2094
1639 1629 1590
1676 1667 1627
1708 1699 1658
1716 1707 1666
1725 1716 1675
1740 1731 1690
1770 1761 1719
1877 1868 1824
1957 1949 1902
2023 2015 1967
2080 2073 2024
2119 2113 2065
2147 2141 2094
2167 2161 2115
2181 2176 2131
2193 2187 2143
2203 2198 2154
99 94 94
66 62 62
36 32 33
13 11 12
9 7 8
10 8 9
12 10 11
13 11 12
16 14 15
20 18 19
25 22 23
29 26 27
31 28 29
32 29 30
33 30 31
34 30 31
34 31 32
98 93 93
115 109 109
66 62 62
27 25 25
21 18 19
23 21 22
26 23 24
28 25 26
33 30 30
38 34 35
44 40 41
48 44 45
51 47 48
53 49 50
54 50 51
56 52 53
