滤镜资源/Professional Luts Collection/Triune-Digital-Cinematic-LUTs/3D LUTs (3DL)/ALEXA/BW/Noir 3 - Alexa.3dl
# Created by Benjamin (IWLTBAP) : http://luts.iwltbap.com
# Copyright: (C) Copyright 2016 Triune Films and IWLTBAP
# Blockbuster LUTs Pack
0 128 256 384 512 640 768 896 1023
0 2 1
20 23 25
46 51 58
85 94 106
136 146 166
193 208 239
240 261 302
262 286 335
283 312 367
40 45 50
20 24 26
45 50 56
85 93 106
135 145 165
193 207 238
239 259 301
261 285 334
282 310 365
91 100 114
74 83 93
46 52 58
83 92 104
134 144 164
192 206 237
238 258 299
260 284 332
281 309 363
190 204 235
175 187 214
141 151 172
87 96 108
130 140 160
190 204 234
236 256 297
259 283 331
279 307 361
374 422 503
344 384 458
314 349 414
208 224 259
135 145 165
182 195 224
228 247 285
253 276 322
273 300 352
663 847 896
621 781 840
578 712 783
447 520 608
272 298 350
186 200 230
220 237 274
248 270 314
268 294 345
836 1075 1143
788 1021 1075
744 966 1011
671 860 907
416 475 565
287 317 374
224 242 279
243 263 306
265 290 340
949 1188 1296
891 1130 1217
836 1075 1143
761 988 1035
491 580 669
349 390 466
277 304 357
247 269 313
263 288 337
1069 1310 1468
1009 1248 1381
949 1187 1295
859 1098 1174
569 699 771
410 466 556
328 365 435
288 318 375
264 289 338
47 53 60
56 63 70
78 86 97
107 116 132
160 172 196
222 240 278
274 301 354
301 333 394
329 366 436
54 61 68
89 98 111
102 111 126
133 143 163
194 208 239
266 291 341
331 368 438
363 407 486
396 449 534
100 110 124
122 132 150
90 99 112
132 143 162
194 208 239
266 291 341
331 369 439
363 407 487
396 450 535
203 218 251
240 262 304
200 216 249
136 147 167
189 203 233
263 288 337
329 366 435
361 405 484
395 448 533
398 452 537
471 553 640
437 506 593
289 319 376
194 209 240
252 275 321
317 352 418
353 395 471
385 435 518
693 892 939
789 1015 1074
746 960 1014
598 744 812
380 430 511
258 282 330
305 338 400
345 386 460
376 423 506
878 1116 1199
1005 1244 1375
951 1191 1302
854 1089 1166
564 693 765
404 461 546
311 344 408
337 376 448
371 416 498
994 1233 1360
1132 1375 1545
1074 1315 1467
975 1215 1334
649 824 880
480 566 654
389 441 524
345 385 459
367 412 493
1118 1360 1532
1267 1516 1714
1204 1451 1638
1100 1341 1504
734 949 998
557 680 756
454 527 619
405 462 548
369 414 495
109 119 135
120 129 147
133 143 163
175 188 215
206 222 255
254 278 324
315 350 416
348 389 464
379 426 510
117 127 145
165 177 202
166 178 203
208 225 259
242 263 305
306 340 402
382 431 514
419 479 567
454 526 618
129 140 159
174 187 214
254 278 324
250 273 318
270 297 348
366 412 491
452 526 615
493 585 672
531 641 724
216 234 269
258 282 330
280 308 362
194 209 241
260 285 333
366 412 491
453 527 616
496 589 676
534 644 727
421 483 572
501 597 682
578 714 784
399 455 538
267 293 343
350 393 468
438 505 595
485 573 660
523 627 713
724 936 983
829 1062 1130
940 1179 1285
769 986 1045
516 620 702
359 403 480
421 481 571
475 558 646
513 612 699
920 1158 1255
1057 1297 1446
1193 1439 1625
1088 1329 1487
728 939 988
545 662 740
429 492 582
465 544 633
507 604 692
1040 1280 1424
1187 1433 1617
1335 1588 1790
1232 1479 1670
827 1060 1128
637 805 862
527 635 718
474 557 645
503 599 686
1168 1412 1596
1327 1580 1783
1482 1742 1946
1376 1632 1836
936 1175 1278
719 931 975
608 760 822
546 663 743
505 600 688
240 261 303
257 280 328
280 308 363
319 355 422
417 477 566
522 628 710
589 732 798
619 777 838
655 835 887
254 278 324
321 357 424
337 376 447
383 434 516
494 587 672
609 762 824
677 864 918
707 908 960
747 961 1016
274 301 353
367 415 492
529 640 719
467 548 636
572 704 776
690 885 935
760 977 1034
793 1015 1080
837 1066 1141
307 340 403
370 416 496
549 670 746
866 1098 1182
897 1131 1226
736 943 1001
773 985 1052
810 1032 1104
857 1085 1168
499 592 680
585 725 793
673 860 911
859 1055 1172
529 647 715
530 642 720
603 752 816
640 812 867
684 880 925
755 978 1026
866 1103 1183
991 1231 1355
975 1214 1332
674 861 914
490 580 667
570 702 773
629 794 852
673 863 910
965 1203 1318
1104 1347 1510
1256 1505 1701
1347 1601 1802
927 1165 1267
707 909 959
577 713 783
618 777 837
667 853 901
1087 1328 1489
1239 1488 1679
1401 1658 1861
1508 1771 1971
1055 1296 1443
811 1041 1105
689 884 933
628 792 851
662 846 895
1219 1465 1660
1382 1638 1842
1551 1815 2015
1662 1933 2120
1187 1432 1616
916 1155 1251
773 1002 1054
711 917 964
663 848 897
527 635 716
559 684 758
600 748 813
666 849 901
737 952 1001
885 1124 1210
1022 1262 1398
1084 1326 1484
1150 1394 1571
570 702 773
648 820 878
690 884 937
762 979 1036
843 1076 1150
1016 1257 1390
1166 1411 1586
1234 1482 1671
1305 1557 1755
594 739 806
757 976 1030
933 1170 1274
869 1104 1185
960 1199 1313
1153 1397 1572
1314 1566 1765
1388 1644 1845
1463 1723 1925
642 815 869
738 951 1002
1037 1278 1418
1580 1846 2039
1477 1737 1927
1284 1535 1730
1439 1697 1899
1517 1780 1979
1594 1861 2054
702 906 952
804 1032 1095
917 1155 1253
1651 1920 2105
2261 2522 2609
2372 2619 2690
2404 2646 2713
2432 2668 2732
2490 2717 2773
1033 1273 1413
1178 1424 1604
1331 1584 1785
1900 2174 2320
2448 2674 2738
1945 2211 2348
1970 2230 2360
2036 2288 2411
2100 2348 2463
1191 1437 1620
1350 1604 1804
1515 1777 1976
1844 2118 2274
2134 2366 2479
1623 1883 2024
1211 1463 1589
1217 1466 1594
1260 1515 1645
1295 1547 1744
1460 1720 1920
1629 1897 2086
1912 2187 2331
2085 2327 2446
1437 1694 1837
1161 1411 1546
1060 1302 1427
1107 1354 1485
1430 1689 1893
1600 1867 2060
1773 2047 2217
2051 2326 2446
2151 2388 2500
1505 1764 1926
1276 1529 1682
1165 1415 1557
1089 1335 1466
941 1180 1286
985 1224 1346
1045 1285 1430
1148 1392 1569
1272 1522 1720
1389 1646 1850
1535 1798 1999
1613 1881 2074
1693 1965 2148
1061 1302 1449
1125 1368 1535
1191 1437 1619
1304 1555 1753
1435 1694 1897
1558 1822 2019
1707 1978 2158
1789 2063 2229
1870 2145 2299
1075 1316 1471
1305 1556 1755
1389 1645 1848
1463 1724 1926
1601 1867 2061
1726 1998 2175
1879 2155 2306
1962 2238 2374
2043 2320 2441
1123 1365 1535
1303 1555 1753
1743 2016 2191
2282 2543 2626
2137 2404 2511
1873 2148 2301
2030 2307 2431
2115 2389 2498
2195 2467 2561
1207 1454 1642
1368 1622 1824
1540 1804 2002
2391 2635 2704
3028 3156 3142
3018 3148 3135
3006 3138 3128
3019 3149 3137
3059 3185 3167
1301 1553 1754
1467 1727 1929
1634 1903 2093
2250 2510 2599
3084 3204 3183
3392 3479 3434
3437 3518 3471
3468 3547 3499
3495 3570 3522
1565 1830 2028
1739 2012 2188
1917 2193 2337
2296 2552 2634
3247 3350 3312
3480 3557 3509
3374 3464 3419
3408 3494 3448
3443 3524 3478
1705 1977 2159
1883 2159 2309
2059 2336 2454
2348 2599 2673
3307 3404 3362
3521 3594 3546
3432 3515 3468
3374 3463 3419
3405 3491 3446
1860 2135 2291
2036 2314 2436
2210 2482 2574
2493 2721 2777
3375 3464 3419
3563 3634 3585
3482 3560 3512
3432 3515 3468
3393 3481 3436
1144 1387 1564
1191 1436 1625
1257 1506 1704
1375 1632 1837
1521 1783 1986
1661 1933 2121
1764 2037 2210
1847 2122 2280
1930 2206 2348
1298 1550 1749
1350 1605 1807
1421 1679 1882
1544 1808 2007
1694 1965 2147
1840 2115 2274
1941 2218 2358
2024 2301 2426
2106 2383 2492
1331 1585 1786
1537 1801 2000
1590 1857 2052
1716 1988 2168
1871 2147 2300
2017 2294 2420
2118 2394 2501
2199 2471 2565
2279 2544 2626
1366 1622 1826
1603 1871 2065
2043 2320 2441
2527 2748 2800
2355 2598 2674
2190 2461 2557
2290 2552 2633
2372 2622 2693
2452 2689 2749
1525 1788 1990
1698 1969 2151
1901 2177 2324
2750 2925 2950
3256 3359 3320
3257 3359 3321
3209 3316 3282
3209 3317 3283
3241 3344 3308
1677 1949 2135
1856 2131 2287
2032 2309 2432
2679 2868 2902
3337 3431 3388
3574 3644 3596
3587 3657 3609
3606 3675 3628
3624 3692 3646
1757 2031 2205
1936 2212 2353
2112 2388 2496
2521 2742 2795
3346 3439 3395
3596 3665 3617
3684 3755 3710
3699 3770 3726
3713 3785 3742
1902 2178 2326
2078 2354 2469
2252 2519 2605
2545 2763 2812
3399 3485 3440
3635 3703 3657
3715 3786 3743
3694 3765 3720
3708 3780 3736
2056 2334 2452
2230 2501 2589
2402 2649 2715
2694 2881 2913
3459 3538 3490
3666 3736 3690
3738 3811 3769
3721 3793 3749
3705 3776 3732
1302 1554 1756
1353 1608 1812
1423 1681 1886
1545 1809 2009
1693 1965 2149
1841 2116 2275
1940 2217 2357
1982 2259 2391
2063 2341 2458
1467 1727 1930
1520 1783 1983
1592 1858 2052
1719 1991 2169
1871 2147 2300
2018 2295 2421
2115 2390 2498
2157 2430 2531
2237 2506 2594
1511 1774 1975
1703 1975 2155
1763 2037 2210
1895 2171 2320
2048 2325 2445
2193 2464 2559
2289 2552 2633
2330 2587 2663
2410 2655 2720
1538 1801 2001
1795 2070 2236
2224 2492 2583
2691 2879 2911
2512 2732 2786
2363 2615 2686
2461 2696 2755
2504 2730 2785
2584 2794 2840
1696 1968 2151
1874 2150 2302
2083 2360 2473
2920 3064 3066
3340 3434 3390
3339 3433 3390
3295 3393 3352
3276 3375 3337
3301 3398 3357
1856 2131 2288
2033 2310 2432
2207 2478 2571
2853 3011 3021
3414 3498 3452
3620 3689 3642
3633 3702 3656
3639 3708 3662
3655 3725 3679
1942 2218 2358
2117 2392 2500
2291 2553 2634
2712 2896 2925
3428 3510 3464
3648 3717 3671
3729 3802 3759
3737 3810 3768
3750 3823 3782
1984 2261 2393
2159 2432 2533
2332 2589 2664
2632 2831 2871
3436 3518 3471
3656 3725 3679
3739 3812 3770
3776 3851 3812
3788 3863 3825
2138 2416 2518
2310 2571 2649
2483 2715 2771
2778 2948 2969
3492 3567 3519
3685 3755 3710
3763 3837 3797
3798 3875 3837
3786 3862 3824
1468 1728 1933
1522 1784 1987
1593 1859 2056
1717 1991 2172
1873 2149 2302
2018 2296 2421
2117 2395 2501
2157 2434 2534
2195 2470 2563
1637 1907 2098
1692 1964 2148
1767 2041 2214
1897 2173 2321
2049 2327 2446
2193 2466 2561
2289 2553 2634
2329 2587 2663
2368 2620 2691
1687 1959 2143
1878 2154 2306
1943 2219 2359
2072 2350 2465
2222 2494 2584
2365 2619 2689
2462 2698 2757
2502 2730 2784
2540 2760 2810
1710 1984 2166
1977 2255 2388
2398 2645 2712
2860 3015 3024
2683 2871 2904
2536 2757 2807
2635 2835 2874
2678 2868 2903
2717 2899 2929
1875 2151 2304
2051 2329 2448
2258 2526 2611
3069 3190 3170
3417 3501 3454
3416 3500 3454
3376 3466 3421
3358 3449 3405
3362 3453 3409
2032 2310 2433
2207 2480 2572
2379 2630 2699
3008 3140 3129
3483 3559 3511
3659 3728 3683
3670 3740 3694
3675 3745 3700
3681 3751 3706
2118 2396 2503
2291 2555 2635
2464 2699 2758
2884 3035 3041
3495 3570 3521
3683 3753 3708
3757 3831 3790
3765 3839 3799
3770 3845 3805
2157 2434 2534
2329 2587 2663
2502 2730 2784
2803 2968 2986
3501 3575 3527
3689 3760 3715
3768 3842 3802
3803 3880 3844
3809 3887 3851
2195 2470 2563
2368 2620 2691
2540 2760 2810
2836 2994 3008
3511 3585 3536
3696 3767 3722
3773 3848 3808
3810 3887 3851
3837 3917 3884
