滤镜资源/Professional Luts Collection/Triune-Digital-Cinematic-LUTs/3D LUTs (3DL)/ALEXA/BW/Noir 1 - Alexa.3dl
# Created by Benjamin (IWLTBAP) : http://luts.iwltbap.com
# Copyright: (C) Copyright 2016 Triune Films and IWLTBAP
# Blockbuster LUTs Pack
0 128 256 384 512 640 768 896 1023
16 16 80
48 48 110
103 103 161
199 199 251
325 325 367
456 456 489
551 551 577
574 574 599
599 599 622
59 59 120
109 109 167
139 139 194
235 235 284
367 367 407
497 497 527
590 590 614
619 619 641
655 655 674
116 116 173
167 167 220
275 275 321
301 301 345
407 407 444
544 544 571
643 643 664
675 675 693
710 710 726
226 226 276
268 268 314
377 377 416
605 605 628
669 669 688
607 607 630
692 692 709
723 723 738
753 753 765
383 383 422
429 429 464
467 467 499
772 772 783
1063 1063 1054
1182 1182 1165
1214 1214 1194
1225 1225 1205
1247 1247 1225
545 545 572
587 587 612
629 629 650
846 846 852
1264 1264 1241
1548 1548 1506
1649 1649 1599
1706 1706 1652
1730 1730 1675
618 618 640
659 659 678
708 708 724
824 824 832
1350 1350 1321
1687 1687 1634
1880 1880 1814
1943 1943 1873
1991 1991 1917
661 661 680
704 704 720
754 754 767
843 843 850
1381 1381 1350
1732 1732 1676
1951 1951 1880
2046 2046 1968
2105 2105 2023
684 684 701
737 737 751
793 793 803
878 878 882
1407 1407 1374
1773 1773 1714
1986 1986 1913
2098 2098 2016
2168 2168 2082
62 62 123
121 121 178
176 176 229
241 241 290
370 370 409
505 505 535
599 599 623
630 630 651
669 669 687
125 125 182
199 199 251
218 218 268
284 284 329
422 422 458
566 566 591
671 671 689
697 697 714
734 734 748
149 149 204
212 212 262
328 328 370
354 354 394
472 472 504
614 614 637
710 710 726
744 744 757
775 775 786
273 273 319
322 322 365
433 433 468
673 673 691
749 749 762
686 686 703
753 753 766
792 792 802
831 831 838
428 428 464
480 480 512
525 525 554
841 841 847
1146 1146 1131
1260 1260 1237
1287 1287 1262
1314 1314 1287
1331 1331 1304
587 587 612
657 657 677
696 696 713
927 927 927
1341 1341 1313
1639 1639 1589
1735 1735 1679
1788 1788 1728
1824 1824 1761
680 680 698
745 745 758
786 786 796
896 896 899
1432 1432 1398
1774 1774 1715
1976 1976 1903
2036 2036 1959
2078 2078 1998
717 717 732
770 770 781
814 814 822
917 917 918
1453 1453 1417
1815 1815 1753
2040 2040 1963
2137 2137 2053
2172 2172 2086
733 733 747
793 793 803
863 863 868
948 948 947
1483 1483 1444
1853 1853 1789
2077 2077 1997
2170 2170 2084
2242 2242 2151
133 133 190
197 197 249
304 304 348
406 406 443
463 463 496
552 552 579
647 647 667
688 688 705
714 714 730
207 207 258
287 287 332
361 361 401
459 459 492
509 509 539
622 622 644
712 712 728
747 747 760
784 784 794
305 305 349
388 388 426
559 559 585
521 521 550
543 543 570
674 674 692
773 773 784
816 816 824
837 837 844
320 320 363
362 362 402
497 497 528
738 738 752
817 817 825
747 747 760
834 834 841
877 877 881
913 913 915
478 478 510
528 528 557
594 594 618
918 918 919
1220 1220 1200
1338 1338 1310
1378 1378 1347
1389 1389 1358
1410 1410 1377
649 649 669
702 702 718
771 771 782
997 997 993
1415 1415 1382
1713 1713 1658
1816 1816 1754
1861 1861 1797
1900 1900 1833
726 726 740
786 786 797
853 853 858
965 965 963
1518 1518 1477
1867 1867 1802
2063 2063 1984
2110 2110 2028
2152 2152 2066
769 769 781
827 827 834
882 882 886
985 985 982
1539 1539 1497
1892 1892 1825
2110 2110 2028
2224 2224 2134
2268 2268 2175
801 801 810
863 863 868
932 932 932
1031 1031 1024
1571 1571 1527
1944 1944 1874
2148 2148 2063
2249 2249 2157
2326 2326 2229
264 264 311
352 352 393
463 463 496
681 681 699
838 838 845
954 954 953
1018 1018 1012
1038 1038 1030
1068 1068 1058
322 322 365
424 424 460
521 521 550
744 744 757
909 909 911
1024 1024 1018
1079 1079 1069
1103 1103 1091
1128 1128 1115
474 474 506
580 580 605
757 757 769
832 832 839
972 972 969
1091 1091 1080
1152 1152 1137
1153 1153 1138
1182 1182 1165
682 682 700
747 747 760
946 946 945
1311 1311 1285
1316 1316 1290
1097 1097 1086
1109 1109 1097
1123 1123 1110
1151 1151 1136
679 679 697
740 740 753
802 802 811
1196 1196 1178
1436 1436 1400
1454 1454 1417
1461 1461 1424
1463 1463 1426
1483 1483 1444
690 690 707
747 747 760
821 821 829
1073 1073 1063
1504 1504 1464
1796 1796 1736
1894 1894 1827
1945 1945 1874
1978 1978 1905
776 776 787
845 845 852
907 907 909
1045 1045 1037
1596 1596 1550
1942 1942 1871
2142 2142 2058
2191 2191 2103
2237 2237 2146
812 812 820
877 877 881
939 939 938
1068 1068 1059
1624 1624 1576
1977 1977 1904
2197 2197 2109
2297 2297 2201
2342 2342 2244
862 862 867
923 923 924
991 991 987
1103 1103 1091
1654 1654 1604
2023 2023 1947
2231 2231 2140
2343 2343 2244
2400 2400 2298
461 461 494
551 551 578
670 670 688
902 902 905
1195 1195 1177
1373 1373 1343
1478 1478 1440
1516 1516 1476
1549 1549 1507
507 507 537
599 599 623
735 735 749
977 977 974
1270 1270 1247
1461 1461 1424
1566 1566 1522
1592 1592 1546
1626 1626 1578
652 652 672
782 782 793
935 935 935
1050 1050 1042
1340 1340 1312
1533 1533 1491
1642 1642 1592
1671 1671 1619
1707 1707 1653
934 934 934
1002 1002 997
1231 1231 1211
1604 1604 1557
1727 1727 1672
1590 1590 1544
1685 1685 1633
1721 1721 1666
1758 1758 1700
1202 1202 1183
1279 1279 1254
1351 1351 1321
1878 1878 1812
2300 2300 2205
2372 2372 2272
2360 2360 2260
2346 2346 2248
2354 2354 2255
1277 1277 1253
1348 1348 1319
1426 1426 1392
1777 1777 1718
2308 2308 2212
2533 2533 2421
2579 2579 2464
2595 2595 2479
2618 2618 2500
1172 1172 1156
1241 1241 1219
1308 1308 1282
1484 1484 1445
2096 2096 2014
2360 2360 2260
2464 2464 2357
2489 2489 2380
2503 2503 2394
1137 1137 1123
1218 1218 1198
1291 1291 1267
1428 1428 1393
2032 2032 1955
2247 2247 2155
2423 2423 2319
2510 2510 2399
2557 2557 2443
1153 1153 1138
1241 1241 1220
1301 1301 1276
1438 1438 1403
2032 2032 1956
2253 2253 2161
2452 2452 2346
2536 2536 2424
2610 2610 2493
672 672 690
768 768 780
892 892 895
1134 1134 1120
1439 1439 1404
1720 1720 1665
1861 1861 1796
1912 1912 1844
1935 1935 1865
738 738 752
821 821 829
952 952 951
1205 1205 1186
1519 1519 1478
1810 1810 1749
1953 1953 1881
1994 1994 1920
2032 2032 1955
827 827 835
936 936 936
1055 1055 1047
1276 1276 1252
1583 1583 1537
1889 1889 1823
2033 2033 1957
2067 2067 1988
2106 2106 2024
1134 1134 1120
1227 1227 1206
1479 1479 1441
1826 1826 1764
1935 1935 1865
1955 1955 1884
2095 2095 2014
2130 2130 2046
2168 2168 2082
1481 1481 1443
1562 1562 1518
1636 1636 1587
2173 2173 2086
2580 2580 2465
2763 2763 2636
2763 2763 2636
2761 2761 2633
2770 2770 2642
1757 1757 1700
1823 1823 1761
1901 1901 1834
2287 2287 2193
2841 2841 2708
3179 3179 3022
3244 3244 3083
3268 3268 3105
3292 3292 3127
1796 1796 1736
1872 1872 1806
1945 1945 1874
2173 2173 2086
2863 2863 2728
3225 3225 3065
3363 3363 3194
3404 3404 3231
3427 3427 3253
1812 1812 1750
1893 1893 1826
1964 1964 1892
2123 2123 2040
2864 2864 2729
3237 3237 3076
3392 3392 3220
3456 3456 3279
3491 3491 3313
1846 1846 1782
1918 1918 1849
2000 2000 1926
2153 2153 2068
2890 2890 2753
3267 3267 3104
3417 3417 3243
3483 3483 3304
3532 3532 3350
750 750 763
832 832 839
955 955 954
1195 1195 1177
1505 1505 1466
1809 1809 1748
2010 2010 1935
2036 2036 1959
2078 2078 1998
821 821 829
893 893 896
1020 1020 1014
1272 1272 1248
1589 1589 1543
1899 1899 1831
2086 2086 2006
2133 2133 2050
2169 2169 2083
872 872 876
972 972 969
1091 1091 1080
1349 1349 1320
1662 1662 1611
1975 1975 1902
2158 2158 2072
2202 2202 2113
2245 2245 2154
1201 1201 1182
1312 1312 1285
1556 1556 1512
1883 1883 1817
1969 1969 1897
2041 2041 1964
2239 2239 2148
2277 2277 2184
2326 2326 2229
1575 1575 1530
1653 1653 1603
1742 1742 1685
2279 2279 2185
2680 2680 2557
2867 2867 2731
2922 2922 2783
2922 2922 2783
2931 2931 2791
1921 1921 1852
2007 2007 1932
2078 2078 1998
2482 2482 2374
3002 3002 2858
3335 3335 3167
3443 3443 3268
3479 3479 3301
3495 3495 3316
2086 2086 2006
2146 2146 2061
2237 2237 2146
2479 2479 2371
3124 3124 2971
3472 3472 3295
3639 3639 3449
3676 3676 3484
3696 3696 3503
2102 2102 2021
2190 2190 2103
2257 2257 2165
2413 2413 2310
3132 3132 2978
3493 3493 3314
3681 3681 3488
3728 3728 3533
3753 3753 3556
2143 2143 2059
2214 2214 2124
2295 2295 2200
2456 2456 2350
3155 3155 2999
3514 3514 3334
3691 3691 3498
3750 3750 3553
3787 3787 3588
786 786 796
874 874 878
987 987 983
1233 1233 1212
1548 1548 1505
1858 1858 1794
2050 2050 1972
2115 2115 2033
2130 2130 2046
863 863 868
938 938 938
1069 1069 1060
1318 1318 1291
1630 1630 1581
1941 1941 1870
2120 2120 2037
2194 2194 2106
2217 2217 2127
922 922 923
1012 1012 1007
1137 1137 1123
1390 1390 1358
1719 1719 1664
2022 2022 1946
2200 2200 2112
2258 2258 2166
2311 2311 2215
1238 1238 1217
1361 1361 1331
1599 1599 1553
1922 1922 1853
1994 1994 1920
2098 2098 2016
2281 2281 2187
2351 2351 2252
2395 2395 2293
1603 1603 1556
1688 1688 1635
1786 1786 1727
2316 2316 2220
2720 2720 2595
2900 2900 2763
2956 2956 2814
2965 2965 2823
2977 2977 2834
1971 1971 1899
2049 2049 1971
2120 2120 2037
2524 2524 2413
3047 3047 2900
3362 3362 3192
3474 3474 3296
3533 3533 3351
3556 3556 3372
2152 2152 2066
2221 2221 2131
2303 2303 2207
2536 2536 2424
3183 3183 3026
3525 3525 3344
3690 3690 3497
3741 3741 3545
3767 3767 3569
2195 2195 2107
2280 2280 2186
2356 2356 2256
2512 2512 2402
3224 3224 3064
3576 3576 3391
3754 3754 3557
3818 3818 3616
3838 3838 3635
2255 2255 2163
2331 2331 2234
2394 2394 2292
2553 2553 2440
3247 3247 3085
3609 3609 3422
3772 3772 3574
3839 3839 3636
3866 3866 3661
836 836 843
912 912 913
1037 1037 1029
1278 1278 1254
1588 1588 1543
1887 1887 1820
2093 2093 2012
2152 2152 2067
2192 2192 2104
901 901 903
985 985 981
1110 1110 1098
1351 1351 1322
1671 1671 1620
1967 1967 1895
2175 2175 2088
2245 2245 2153
2277 2277 2183
964 964 962
1045 1045 1038
1169 1169 1153
1427 1427 1392
1754 1754 1696
2050 2050 1972
2258 2258 2165
2326 2326 2228
2379 2379 2278
1271 1271 1248
1396 1396 1363
1641 1641 1592
1960 1960 1888
2037 2037 1960
2134 2134 2050
2337 2337 2239
2387 2387 2286
2456 2456 2350
1643 1643 1594
1725 1725 1669
1831 1831 1768
2361 2361 2261
2763 2763 2636
2935 2935 2795
2996 2996 2851
3002 3002 2857
3026 3026 2879
2013 2013 1937
2087 2087 2007
2167 2167 2080
2565 2565 2451
3071 3071 2921
3392 3392 3220
3502 3502 3323
3563 3563 3379
3598 3598 3412
2192 2192 2104
2269 2269 2175
2336 2336 2238
2585 2585 2469
3219 3219 3060
3557 3557 3373
3719 3719 3524
3770 3770 3572
3793 3793 3594
2234 2234 2143
2314 2314 2217
2402 2402 2299
2556 2556 2442
3257 3257 3094
3611 3611 3423
3780 3780 3581
3847 3847 3643
3880 3880 3674
2310 2310 2214
2387 2387 2285
2469 2469 2362
2619 2619 2502
3301 3301 3136
3651 3651 3461
3816 3816 3615
3879 3879 3673
3918 3918 3709
