滤镜资源/Professional Luts Collection/Triune-Digital-Cinematic-LUTs/3D LUTs (3DL)/ALEXA/BW/Noir 3 - Alexa.3dl
# Created by Benjamin (IWLTBAP) : http://luts.iwltbap.com
# Copyright: (C) Copyright 2016 Triune Films and IWLTBAP
# Blockbuster LUTs Pack
0 256 512 768 1023
0 2 1
46 51 58
136 146 166
240 261 302
283 312 367
91 100 114
46 52 58
134 144 164
238 258 299
281 309 363
374 422 503
314 349 414
135 145 165
228 247 285
273 300 352
836 1075 1143
744 966 1011
416 475 565
224 242 279
265 290 340
1069 1310 1468
949 1187 1295
569 699 771
328 365 435
264 289 338
109 119 135
133 143 163
206 222 255
315 350 416
379 426 510
129 140 159
254 278 324
270 297 348
452 526 615
531 641 724
421 483 572
578 714 784
267 293 343
438 505 595
523 627 713
920 1158 1255
1193 1439 1625
728 939 988
429 492 582
507 604 692
1168 1412 1596
1482 1742 1946
936 1175 1278
608 760 822
505 600 688
527 635 716
600 748 813
737 952 1001
1022 1262 1398
1150 1394 1571
594 739 806
933 1170 1274
960 1199 1313
1314 1566 1765
1463 1723 1925
702 906 952
917 1155 1253
2261 2522 2609
2404 2646 2713
2490 2717 2773
1191 1437 1620
1515 1777 1976
2134 2366 2479
1211 1463 1589
1260 1515 1645
1430 1689 1893
1773 2047 2217
2151 2388 2500
1276 1529 1682
1089 1335 1466
1144 1387 1564
1257 1506 1704
1521 1783 1986
1764 2037 2210
1930 2206 2348
1331 1585 1786
1590 1857 2052
1871 2147 2300
2118 2394 2501
2279 2544 2626
1525 1788 1990
1901 2177 2324
3256 3359 3320
3209 3316 3282
3241 3344 3308
1757 2031 2205
2112 2388 2496
3346 3439 3395
3684 3755 3710
3713 3785 3742
2056 2334 2452
2402 2649 2715
3459 3538 3490
3738 3811 3769
3705 3776 3732
1468 1728 1933
1593 1859 2056
1873 2149 2302
2117 2395 2501
2195 2470 2563
1687 1959 2143
1943 2219 2359
2222 2494 2584
2462 2698 2757
2540 2760 2810
1875 2151 2304
2258 2526 2611
3417 3501 3454
3376 3466 3421
3362 3453 3409
2118 2396 2503
2464 2699 2758
3495 3570 3521
3757 3831 3790
3770 3845 3805
2195 2470 2563
2540 2760 2810
3511 3585 3536
3773 3848 3808
3837 3917 3884
