滤镜资源/Professional Luts Collection/Triune-Digital-Cinematic-LUTs/3D LUTs (3DL)/ALEXA/BW/Noir 1 - Alexa.3dl
# Created by Benjamin (IWLTBAP) : http://luts.iwltbap.com
# Copyright: (C) Copyright 2016 Triune Films and IWLTBAP
# Blockbuster LUTs Pack
0 64 128 192 256 320 384 448 512 576 640 704 768 832 896 960 1023
16 16 80
28 28 91
48 48 110
71 71 131
103 103 161
146 146 201
199 199 251
262 262 309
325 325 367
394 394 432
456 456 489
502 502 532
551 551 577
569 569 594
574 574 599
585 585 609
599 599 622
35 35 98
60 60 121
68 68 128
91 91 150
117 117 174
160 160 214
219 219 269
278 278 324
346 346 387
413 413 450
476 476 509
534 534 562
568 568 594
588 588 612
595 595 619
611 611 633
626 626 648
59 59 120
79 79 139
109 109 167
128 128 185
139 139 194
175 175 228
235 235 284
293 293 338
367 367 407
431 431 466
497 497 527
564 564 590
590 590 614
609 609 632
619 619 641
635 635 656
655 655 674
78 78 138
105 105 163
137 137 192
173 173 227
203 203 254
205 205 256
257 257 305
312 312 356
388 388 426
455 455 488
522 522 551
588 588 613
615 615 638
634 634 655
650 650 670
666 666 685
685 685 703
116 116 173
129 129 185
167 167 220
214 214 264
275 275 321
306 306 350
301 301 345
332 332 374
407 407 444
479 479 510
544 544 571
614 614 636
643 643 664
658 658 677
675 675 693
691 691 708
710 710 726
172 172 226
180 180 233
199 199 251
258 258 305
330 330 372
411 411 448
450 450 484
447 447 481
436 436 471
502 502 533
561 561 587
635 635 656
670 670 688
686 686 703
700 700 716
714 714 729
729 729 743
226 226 276
248 248 296
268 268 314
290 290 335
377 377 416
490 490 521
605 605 628
662 662 681
669 669 688
632 632 653
607 607 630
653 653 673
692 692 709
708 708 724
723 723 738
738 738 752
753 753 765
308 308 352
327 327 369
344 344 386
360 360 401
397 397 435
551 551 578
704 704 720
831 831 838
895 895 898
920 920 921
925 925 925
877 877 881
851 851 857
817 817 825
830 830 837
846 846 852
859 859 865
383 383 422
407 407 444
429 429 464
446 446 480
467 467 499
581 581 605
772 772 783
933 933 933
1063 1063 1054
1142 1142 1127
1182 1182 1165
1200 1200 1181
1214 1214 1194
1218 1218 1198
1225 1225 1205
1235 1235 1214
1247 1247 1225
468 468 500
486 486 517
507 507 536
528 528 556
549 549 576
601 601 625
827 827 834
1018 1018 1012
1174 1174 1158
1308 1308 1282
1387 1387 1355
1423 1423 1388
1453 1453 1417
1482 1482 1444
1489 1489 1450
1499 1499 1460
1505 1505 1465
545 545 572
567 567 593
587 587 612
608 608 631
629 629 650
649 649 669
846 846 852
1087 1087 1076
1264 1264 1241
1413 1413 1379
1548 1548 1506
1612 1612 1564
1649 1649 1599
1687 1687 1634
1706 1706 1652
1719 1719 1665
1730 1730 1675
607 607 630
619 619 641
638 638 658
663 663 682
685 685 703
708 708 724
862 862 867
1129 1129 1115
1319 1319 1292
1493 1493 1454
1644 1644 1594
1749 1749 1692
1802 1802 1741
1823 1823 1761
1840 1840 1777
1859 1859 1795
1879 1879 1813
618 618 640
641 641 662
659 659 678
685 685 702
708 708 724
730 730 744
824 824 832
1137 1137 1122
1350 1350 1321
1535 1535 1493
1687 1687 1634
1804 1804 1743
1880 1880 1814
1915 1915 1847
1943 1943 1873
1969 1969 1897
1991 1991 1917
633 633 654
655 655 675
680 680 698
707 707 723
729 729 744
750 750 763
826 826 834
1139 1139 1125
1365 1365 1335
1553 1553 1510
1710 1710 1655
1843 1843 1780
1916 1916 1847
1968 1968 1896
2003 2003 1929
2026 2026 1950
2053 2053 1975
661 661 680
681 681 699
704 704 720
733 733 747
754 754 767
772 772 783
843 843 850
1152 1152 1137
1381 1381 1350
1565 1565 1521
1732 1732 1676
1866 1866 1801
1951 1951 1880
1999 1999 1924
2046 2046 1968
2080 2080 1999
2105 2105 2023
675 675 693
699 699 716
722 722 737
751 751 764
777 777 788
795 795 805
864 864 869
1173 1173 1156
1395 1395 1362
1581 1581 1536
1757 1757 1699
1883 1883 1817
1971 1971 1898
2032 2032 1955
2068 2068 1988
2110 2110 2028
2139 2139 2054
684 684 701
710 710 726
737 737 751
767 767 778
793 793 803
817 817 825
878 878 882
1182 1182 1165
1407 1407 1374
1598 1598 1552
1773 1773 1714
1900 1900 1832
1986 1986 1913
2054 2054 1975
2098 2098 2016
2132 2132 2048
2168 2168 2082
37 37 99
64 64 125
86 86 145
108 108 166
129 129 186
159 159 213
220 220 270
277 277 323
345 345 386
423 423 459
479 479 511
526 526 555
575 575 600
595 595 618
602 602 626
620 620 642
637 637 658
64 64 124
93 93 152
106 106 164
120 120 177
142 142 197
185 185 238
240 240 289
311 311 354
370 370 410
446 446 480
511 511 540
570 570 595
610 610 632
629 629 650
638 638 658
654 654 674
670 670 689
76 76 136
113 113 170
140 140 195
155 155 209
164 164 217
201 201 252
259 259 306
328 328 370
393 393 431
464 464 497
531 531 559
597 597 620
633 633 654
646 646 666
657 657 676
674 674 692
694 694 711
96 96 155
125 125 181
157 157 211
199 199 251
225 225 275
231 231 280
285 285 330
348 348 389
417 417 453
488 488 519
557 557 583
611 611 634
658 658 677
671 671 689
678 678 696
693 693 710
712 712 728
131 131 187
151 151 206
191 191 243
238 238 287
303 303 347
335 335 377
328 328 371
367 367 407
438 438 473
506 506 536
584 584 609
640 640 661
676 676 694
695 695 711
706 706 722
726 726 741
745 745 758
188 188 240
210 210 260
227 227 276
280 280 325
360 360 400
438 438 472
483 483 515
479 479 511
470 470 503
526 526 555
606 606 629
665 665 684
698 698 714
717 717 732
734 734 748
754 754 766
771 771 782
248 248 296
275 275 321
294 294 339
316 316 359
406 406 443
522 522 551
638 638 659
697 697 713
709 709 725
665 665 684
649 649 669
681 681 698
725 725 740
745 745 758
760 760 772
774 774 785
789 789 799
326 326 369
352 352 393
372 372 411
393 393 431
434 434 469
583 583 608
737 737 751
862 862 867
931 931 931
963 963 961
961 961 959
916 916 917
888 888 891
853 853 859
865 865 870
874 874 879
885 885 889
409 409 446
433 433 468
455 455 489
477 477 509
497 497 527
610 610 633
804 804 813
969 969 966
1106 1106 1094
1181 1181 1164
1224 1224 1204
1238 1238 1217
1251 1251 1228
1263 1263 1240
1270 1270 1247
1281 1281 1257
1290 1290 1265
488 488 519
518 518 547
539 539 567
563 563 589
581 581 606
633 633 654
867 867 872
1052 1052 1044
1214 1214 1194
1351 1351 1322
1430 1430 1396
1464 1464 1427
1494 1494 1455
1520 1520 1479
1537 1537 1495
1549 1549 1506
1555 1555 1512
566 566 592
603 603 626
623 623 645
641 641 661
664 664 683
688 688 706
888 888 891
1117 1117 1104
1303 1303 1277
1449 1449 1413
1592 1592 1546
1648 1648 1598
1693 1693 1640
1724 1724 1668
1747 1747 1690
1768 1768 1709
1781 1781 1722
633 633 655
663 663 682
680 680 698
703 703 719
728 728 742
752 752 765
891 891 894
1162 1162 1146
1361 1361 1331
1534 1534 1492
1687 1687 1634
1779 1779 1720
1837 1837 1774
1872 1872 1807
1885 1885 1819
1902 1902 1835
1922 1922 1853
651 651 671
690 690 707
703 703 720
720 720 735
748 748 761
774 774 785
861 861 867
1178 1178 1161
1393 1393 1361
1575 1575 1530
1727 1727 1671
1854 1854 1789
1929 1929 1860
1955 1955 1883
1988 1988 1914
2012 2012 1936
2033 2033 1956
664 664 683
695 695 712
719 719 734
738 738 752
763 763 775
788 788 798
863 863 868
1185 1185 1167
1400 1400 1368
1584 1584 1539
1751 1751 1694
1885 1885 1819
1965 1965 1893
2014 2014 1939
2047 2047 1969
2065 2065 1986
2085 2085 2005
688 688 705
712 712 728
734 734 748
759 759 771
783 783 793
802 802 811
879 879 883
1199 1199 1181
1416 1416 1382
1597 1597 1550
1776 1776 1717
1902 1902 1834
1996 1996 1922
2048 2048 1970
2090 2090 2009
2118 2118 2035
2134 2134 2050
699 699 715
726 726 741
753 753 765
785 785 795
804 804 813
821 821 829
901 901 903
1212 1212 1193
1431 1431 1396
1626 1626 1578
1797 1797 1737
1919 1919 1851
2016 2016 1941
2071 2071 1991
2105 2105 2023
2147 2147 2062
2172 2172 2086
706 706 722
735 735 749
765 765 777
803 803 812
823 823 831
841 841 848
913 913 915
1219 1219 1199
1443 1443 1408
1649 1649 1599
1811 1811 1750
1938 1938 1867
2033 2033 1956
2088 2088 2008
2132 2132 2048
2167 2167 2081
2204 2204 2115
62 62 123
93 93 152
121 121 178
147 147 202
176 176 229
205 205 256
241 241 290
294 294 339
370 370 409
446 446 480
505 505 535
552 552 579
599 599 623
621 621 643
630 630 651
646 646 666
669 669 687
96 96 154
125 125 182
155 155 210
169 169 223
192 192 244
221 221 271
262 262 309
327 327 369
396 396 434
470 470 503
537 537 565
590 590 614
633 633 654
653 653 673
664 664 683
681 681 699
704 704 720
125 125 182
152 152 207
199 199 251
213 213 263
218 218 268
239 239 288
284 284 329
359 359 399
422 422 458
497 497 528
566 566 591
627 627 649
671 671 689
686 686 703
697 697 714
713 713 728
734 734 748
135 135 191
167 167 221
208 208 259
255 255 302
268 268 315
262 262 309
308 308 352
380 380 419
448 448 482
520 520 549
590 590 615
642 642 663
693 693 710
712 712 728
714 714 730
729 729 743
748 748 761
149 149 204
169 169 223
212 212 262
266 266 312
328 328 370
361 361 401
354 354 394
399 399 436
472 472 504
538 538 566
614 614 637
671 671 689
710 710 726
740 740 754
744 744 757
757 757 769
775 775 786
202 202 253
225 225 275
249 249 297
303 303 347
385 385 423
468 468 500
513 513 542
510 510 540
504 504 535
559 559 586
641 641 662
702 702 718
729 729 744
754 754 766
771 771 783
789 789 799
810 810 818
273 273 319
297 297 341
322 322 365
344 344 385
433 433 468
552 552 579
673 673 691
732 732 746
749 749 762
704 704 720
686 686 703
720 720 735
753 753 766
774 774 785
792 792 802
810 810 819
831 831 838
348 348 389
374 374 413
398 398 436
420 420 456
463 463 496
614 614 636
768 768 780
897 897 900
966 966 963
1003 1003 998
994 994 990
952 952 950
920 920 921
886 886 889
897 897 900
911 911 912
919 919 920
428 428 464
452 452 486
480 480 512
504 504 534
525 525 554
640 640 660
841 841 847
1006 1006 1001
1146 1146 1131
1217 1217 1197
1260 1260 1237
1273 1273 1249
1287 1287 1262
1308 1308 1282
1314 1314 1287
1322 1322 1295
1331 1331 1304
511 511 541
538 538 566
566 566 591
592 592 616
613 613 635
666 666 685
904 904 906
1086 1086 1075
1255 1255 1232
1391 1391 1359
1472 1472 1434
1505 1505 1465
1537 1537 1495
1551 1551 1508
1579 1579 1534
1598 1598 1551
1604 1604 1557
587 587 612
624 624 646
657 657 677
674 674 692
696 696 713
722 722 737
927 927 927
1156 1156 1140
1341 1341 1313
1489 1489 1450
1639 1639 1589
1688 1688 1635
1735 1735 1679
1765 1765 1706
1788 1788 1728
1805 1805 1744
1824 1824 1761
657 657 676
687 687 704
719 719 734
742 742 755
766 766 777
792 792 802
928 928 929
1200 1200 1182
1401 1401 1369
1574 1574 1529
1726 1726 1670
1821 1821 1759
1872 1872 1806
1911 1911 1842
1929 1929 1859
1945 1945 1874
1961 1961 1890
680 680 698
713 713 729
745 745 758
761 761 773
786 786 796
814 814 823
896 896 899
1215 1215 1195
1432 1432 1398
1614 1614 1567
1774 1774 1715
1896 1896 1829
1976 1976 1903
1997 1997 1923
2036 2036 1959
2051 2051 1973
2078 2078 1998
695 695 712
730 730 744
762 762 774
778 778 789
798 798 808
828 828 835
900 900 902
1221 1221 1201
1439 1439 1403
1622 1622 1574
1793 1793 1733
1924 1924 1855
2009 2009 1934
2067 2067 1988
2094 2094 2013
2111 2111 2029
2126 2126 2042
717 717 732
743 743 757
770 770 781
793 793 803
814 814 822
837 837 843
917 917 918
1232 1232 1211
1453 1453 1417
1633 1633 1584
1815 1815 1753
1938 1938 1867
2040 2040 1963
2094 2094 2013
2137 2137 2053
2164 2164 2078
2172 2172 2086
728 728 743
756 756 768
785 785 795
816 816 824
837 837 844
857 857 862
938 938 938
1244 1244 1222
1469 1469 1431
1659 1659 1608
1832 1832 1769
1956 1956 1884
2059 2059 1981
2113 2113 2031
2154 2154 2068
2191 2191 2104
2209 2209 2120
733 733 747
761 761 773
793 793 803
834 834 841
863 863 868
876 876 880
948 948 947
1255 1255 1232
1483 1483 1444
1695 1695 1641
1853 1853 1789
1977 1977 1904
2077 2077 1997
2129 2129 2046
2170 2170 2084
2205 2205 2116
2242 2242 2151
98 98 157
116 116 174
154 154 208
191 191 243
235 235 284
273 273 320
304 304 349
328 328 370
390 390 428
463 463 496
531 531 559
585 585 609
623 623 645
649 649 669
661 661 680
671 671 689
687 687 704
121 121 178
155 155 209
184 184 237
221 221 271
255 255 302
295 295 339
325 325 368
351 351 391
416 416 452
491 491 522
564 564 590
608 608 631
652 652 672
676 676 694
690 690 707
706 706 722
