滤镜资源/Professional Luts Collection/Triune-Digital-Cinematic-LUTs/3D LUTs (3DL)/ALEXA/BW/Noir 3 - Alexa.3dl
# Created by Benjamin (IWLTBAP) : http://luts.iwltbap.com
# Copyright: (C) Copyright 2016 Triune Films and IWLTBAP
# Blockbuster LUTs Pack
0 64 128 192 256 320 384 448 512 576 640 704 768 832 896 960 1023
0 2 1
9 12 13
20 23 25
31 36 40
46 51 58
64 71 80
85 94 106
110 120 136
136 146 166
165 177 202
193 208 239
219 237 273
240 261 302
252 274 320
262 286 335
272 299 351
283 312 367
19 22 24
9 12 13
19 23 24
31 36 39
45 51 57
63 71 79
85 94 106
110 119 135
135 146 166
165 176 202
193 208 238
219 236 273
240 260 301
251 274 319
261 286 334
272 298 350
282 311 366
40 45 50
30 35 39
20 24 26
30 35 38
45 50 56
63 70 79
85 93 106
109 119 135
135 145 165
164 176 201
193 207 238
218 236 272
239 259 301
251 273 318
261 285 334
271 297 349
282 310 365
63 70 79
55 62 69
44 50 55
32 37 40
44 49 55
62 70 78
84 93 105
109 119 135
135 145 165
164 175 200
192 207 237
218 235 271
239 259 300
250 273 317
260 285 333
271 297 348
281 310 364
91 100 114
85 93 106
74 83 93
60 68 76
46 52 58
61 68 76
83 92 104
109 118 134
134 144 164
163 175 200
192 206 237
217 235 270
238 258 299
250 272 317
260 284 332
270 296 348
281 309 363
132 142 162
125 135 154
118 128 145
103 112 127
83 92 104
65 72 82
81 90 102
107 116 132
133 144 163
163 174 199
191 205 236
217 234 269
237 257 298
249 271 316
260 284 331
270 296 347
280 308 362
190 204 235
182 196 225
175 187 214
165 177 203
141 151 172
111 121 137
87 96 108
104 113 128
130 140 160
160 172 196
190 204 234
215 233 268
236 256 297
249 271 315
259 283 331
269 295 346
279 307 361
266 291 341
255 279 325
245 267 310
235 255 296
220 238 275
176 190 217
138 148 169
110 120 136
127 137 156
156 167 191
186 200 229
212 228 263
234 253 293
247 269 313
258 281 329
268 293 344
278 306 359
374 422 503
358 402 480
344 384 458
329 366 436
314 349 414
267 293 343
208 224 259
165 177 203
135 145 165
152 163 186
182 195 224
207 223 257
228 247 285
243 264 306
253 276 322
263 288 337
273 300 352
511 611 696
492 582 670
474 555 645
455 529 620
437 503 594
404 460 546
304 336 398
240 261 303
194 208 239
161 173 197
178 191 219
203 219 252
224 242 279
240 260 301
250 273 317
260 285 333
271 297 348
663 847 896
642 814 867
621 781 840
600 747 812
578 712 783
555 677 755
447 520 608
340 380 453
272 298 350
221 239 276
186 200 230
199 214 246
220 237 274
236 255 296
248 270 314
258 282 329
268 294 345
780 1011 1064
758 984 1031
736 956 999
715 927 969
694 897 940
674 864 911
587 728 796
448 518 609
359 402 481
289 319 376
238 259 300
207 223 257
216 233 269
232 251 291
245 266 309
256 280 326
266 292 342
836 1075 1143
810 1048 1107
788 1021 1075
765 994 1042
744 966 1011
722 938 979
671 860 907
510 608 695
416 475 565
346 387 462
287 317 374
248 270 314
224 242 279
230 249 287
243 263 306
254 277 323
265 290 340
891 1130 1216
863 1103 1179
836 1075 1143
811 1048 1108
787 1021 1074
765 994 1042
717 929 972
556 678 755
454 527 618
378 425 509
320 355 422
279 307 361
255 278 324
237 258 298
241 262 303
252 275 320
264 289 338
949 1188 1296
920 1159 1256
891 1130 1217
863 1103 1179
836 1075 1143
812 1048 1109
761 988 1035
600 748 812
491 580 669
411 467 557
349 390 466
304 337 399
277 304 357
259 283 331
247 269 313
251 274 319
263 288 337
1009 1248 1381
979 1218 1338
949 1187 1296
919 1158 1255
891 1130 1217
863 1103 1179
807 1043 1102
643 815 868
528 636 719
445 514 606
379 426 510
332 370 441
300 332 393
280 308 362
267 292 342
256 279 326
262 287 336
1069 1310 1468
1039 1279 1425
1009 1248 1381
979 1218 1338
949 1187 1295
919 1158 1254
859 1098 1174
685 881 927
569 699 771
481 566 657
410 466 556
362 405 485
328 365 435
304 337 399
288 318 375
275 302 355
264 289 338
23 27 29
27 31 34
36 41 45
46 53 59
58 65 73
73 81 92
95 104 118
120 130 148
148 159 181
178 191 218
207 224 257
235 255 296
257 280 327
268 294 344
280 308 362
292 323 381
305 338 400
26 30 33
42 47 53
49 56 62
57 64 71
68 75 85
85 93 105
108 118 134
135 145 165
164 176 201
195 209 241
228 247 285
256 280 327
280 309 363
295 326 385
309 343 406
323 359 427
337 376 448
45 51 57
57 64 72
46 52 58
54 61 68
66 74 83
85 93 105
108 118 134
135 145 165
164 176 201
195 209 241
228 247 285
256 280 328
281 309 363
295 326 386
309 343 406
323 359 427
337 376 448
67 75 84
76 84 95
65 72 82
53 59 67
65 72 81
84 92 104
108 118 133
134 145 164
164 176 201
194 209 240
227 246 285
256 280 327
280 308 363
295 326 385
309 342 405
322 359 426
336 375 447
96 105 119
108 117 133
97 106 120
82 90 102
67 75 85
82 91 103
107 117 132
134 144 164
163 175 200
194 208 239
227 245 284
255 279 326
279 307 361
294 325 384
308 341 404
322 358 425
336 375 446
137 148 168
152 164 187
145 156 177
128 138 157
107 116 132
87 95 108
105 114 130
132 142 162
162 174 199
193 207 238
226 244 283
254 278 325
278 306 360
293 324 383
307 340 403
321 357 424
335 374 445
196 211 243
215 232 267
207 223 257
196 211 243
169 182 208
137 148 168
111 120 136
129 139 158
159 170 195
190 205 235
224 243 281
253 277 323
277 305 358
293 323 382
307 340 402
320 356 423
334 373 444
274 301 354
301 333 394
289 319 377
277 305 358
258 283 331
209 226 260
166 179 204
136 146 167
155 167 190
186 200 230
220 237 274
249 272 317
274 301 353
291 321 379
305 338 400
318 354 420
332 371 441
386 437 520
421 482 570
406 463 549
390 443 525
373 421 501
316 352 417
245 267 311
196 212 244
163 175 200
182 196 225
215 232 268
244 266 310
267 293 344
285 314 370
299 330 390
312 346 411
326 363 432
526 633 715
568 698 770
550 671 747
530 641 720
510 610 693
472 555 642
360 405 482
283 312 368
228 248 287
192 206 237
211 227 262
240 261 303
262 287 336
281 309 364
295 326 385
308 341 405
322 358 425
678 869 917
723 932 981
703 905 954
682 873 924
660 841 894
637 806 862
520 627 707
402 458 543
322 359 426
260 285 334
220 238 275
235 255 296
258 282 329
276 303 357
291 322 380
305 338 400
319 354 421
797 1032 1088
855 1091 1167
832 1065 1135
806 1037 1100
782 1009 1066
759 979 1033
670 855 908
521 627 709
423 486 574
343 384 457
281 309 364
244 266 309
254 277 324
272 299 351
288 318 374
302 334 396
316 351 417
857 1096 1171
920 1157 1255
895 1131 1221
868 1103 1184
841 1075 1148
815 1047 1113
756 976 1029
591 734 800
487 576 663
409 466 553
342 383 456
292 322 380
262 287 336
269 295 346
285 314 370
299 331 391
315 349 415
913 1152 1246
977 1217 1338
951 1190 1300
923 1160 1260
895 1131 1221
867 1103 1183
809 1040 1103
638 807 863
528 637 717
445 516 606
379 427 510
333 371 442
301 332 393
279 307 361
283 311 367
297 328 388
313 347 412
972 1210 1328
1038 1278 1421
1010 1250 1384
981 1220 1342
951 1190 1301
923 1161 1261
862 1097 1176
682 874 924
570 701 772
481 567 655
412 471 558
362 405 485
329 367 437
308 341 404
292 322 380
296 327 386
312 346 410
1032 1272 1414
1101 1343 1506
1072 1313 1468
1040 1281 1425
1010 1250 1384
980 1220 1342
917 1155 1252
725 936 985
610 764 826
518 621 705
445 516 606
392 444 530
357 400 478
334 372 443
317 352 417
303 335 397
311 345 409
1094 1335 1500
1165 1409 1592
1136 1379 1554
1104 1346 1511
1072 1313 1468
1040 1280 1425
975 1215 1334
771 996 1050
651 829 881
558 681 757
480 564 655
425 487 577
387 436 522
362 406 486
344 384 458
328 366 435
312 347 411
47 53 60
51 58 65
56 63 70
66 73 82
78 86 97
91 100 113
107 116 132
131 141 161
160 172 196
190 205 235
222 240 278
251 274 319
274 301 354
288 318 375
301 333 394
315 349 415
329 366 436
50 56 63
67 75 84
70 78 88
76 85 96
88 97 110
102 111 126
119 129 147
147 158 180
177 190 217
209 226 260
244 265 309
275 302 355
302 335 396
318 354 420
332 370 441
347 388 463
362 406 485
54 61 68
71 79 89
89 98 111
97 106 121
102 111 126
112 121 138
133 143 163
162 174 199
194 208 239
228 248 287
266 291 341
302 334 395
331 368 438
347 388 463
363 407 486
379 428 510
396 449 534
74 83 93
90 99 112
105 114 129
90 99 112
98 107 121
109 119 135
133 144 163
162 174 199
194 209 240
229 248 288
266 292 342
303 335 397
332 370 440
349 390 465
364 408 488
380 429 512
397 451 536
100 110 124
114 124 140
122 132 150
106 116 131
90 99 112
106 115 130
132 143 162
162 174 198
194 208 239
228 248 287
266 291 341
302 334 396
331 369 439
348 389 464
363 407 487
379 428 511
396 450 535
143 153 174
158 170 194
172 184 211
155 166 190
132 143 162
110 120 136
130 140 159
160 171 196
193 207 238
227 247 286
265 290 340
301 333 394
330 368 437
347 388 463
362 406 486
379 427 509
395 449 534
203 218 251
222 240 278
240 262 304
231 251 291
200 216 249
165 178 203
136 147 167
156 168 192
189 203 233
225 243 282
263 288 337
300 332 392
329 366 435
347 387 462
361 405 484
378 426 508
395 448 533
283 311 366
311 345 409
340 380 452
328 365 434
305 338 400
246 268 312
198 213 245
164 176 201
185 199 228
220 238 275
257 281 329
295 326 385
325 361 429
345 385 459
359 403 481
376 423 505
392 445 529
398 452 537
435 501 590
471 553 640
456 532 619
437 506 593
373 422 500
289 319 376
231 252 292
194 209 240
216 233 269
252 275 321
288 318 375
317 352 418
338 377 449
353 395 471
368 414 494
385 435 518
540 654 734
584 723 792
626 788 847
609 762 825
587 729 796
547 666 743
423 487 572
335 374 444
269 295 346
226 245 284
247 269 314
282 310 365
311 345 408
333 371 442
348 390 465
364 408 487
380 428 511
693 892 939
741 957 1007
789 1015 1074
770 990 1047
746 960 1014
721 927 979
598 744 812
470 553 639
380 430 511
307 341 404
258 282 330
276 304 357
305 338 400
327 365 433
345 386 460
360 404 482
376 423 506
815 1052 1114
878 1114 1198
935 1175 1279
913 1151 1248
885 1122 1208
858 1092 1170
757 972 1030
600 748 813
493 585 671
404 461 546
332 370 440
288 317 374
300 332 393
323 359 426
341 381 454
357 400 478
373 419 501
878 1116 1199
944 1182 1290
1005 1244 1375
980 1220 1342
951 1191 1302
923 1162 1262
854 1089 1166
671 857 909
564 693 765
477 561 649
404 461 546
345 386 460
311 344 408
319 355 421
337 376 448
353 396 473
371 416 498
935 1174 1277
1002 1242 1373
1068 1309 1459
1042 1283 1425
1011 1252 1384
981 1221 1344
916 1154 1252
721 927 980
607 760 823
518 623 704
445 517 605
393 447 530
355 398 475
330 368 438
335 374 445
351 393 469
369 414 495
994 1233 1360
1065 1305 1457
1132 1375 1545
1106 1348 1510
1074 1315 1467
1042 1283 1425
975 1215 1334
770 990 1048
649 824 880
558 683 757
480 566 654
426 491 578
389 441 524
363 408 486
345 385 459
350 391 467
367 412 493
1056 1296 1446
1128 1371 1543
1198 1444 1630
1171 1416 1595
1138 1381 1553
1106 1348 1510
1036 1276 1417
819 1050 1116
692 887 938
597 743 809
518 622 704
459 536 625
421 483 571
394 448 532
373 421 502
358 401 478
367 411 492
1118 1360 1532
1194 1439 1628
1267 1516 1714
1239 1487 1680
1204 1451 1638
1170 1414 1596
1100 1341 1504
872 1108 1190
734 949 998
638 809 863
557 680 756
495 586 674
454 527 619
426 490 578
405 462 548
387 438 522
369 414 495
74 83 93
78 87 98
83 92 104
89 98 110
101 111 125
118 128 145
134 144 164
146 156 178
173 185 212
204 220 253
238 259 300
268 294 345
293 324 383
309 343 406
324 360 428
338 378 450
354 396 473
77 86 97
96 105 119
99 108 122
101 110 125
113 123 140
131 141 160
147 158 180
161 173 198
190 204 234
224 243 281
260 285 333
295 326 385
324 361 429
341 381 454
356 399 477
372 418 500
