滤镜资源/Professional Luts Collection/Triune-Digital-Cinematic-LUTs/3D LUTs (3DL)/ALEXA/BW/Noir 1 - Alexa.3dl
# Created by Benjamin (IWLTBAP) : http://luts.iwltbap.com
# Copyright: (C) Copyright 2016 Triune Films and IWLTBAP
# Blockbuster LUTs Pack
0 256 512 768 1023
16 16 80
103 103 161
325 325 367
551 551 577
599 599 622
116 116 173
275 275 321
407 407 444
643 643 664
710 710 726
383 383 422
467 467 499
1063 1063 1054
1214 1214 1194
1247 1247 1225
618 618 640
708 708 724
1350 1350 1321
1880 1880 1814
1991 1991 1917
684 684 701
793 793 803
1407 1407 1374
1986 1986 1913
2168 2168 2082
133 133 190
304 304 348
463 463 496
647 647 667
714 714 730
305 305 349
559 559 585
543 543 570
773 773 784
837 837 844
478 478 510
594 594 618
1220 1220 1200
1378 1378 1347
1410 1410 1377
726 726 740
853 853 858
1518 1518 1477
2063 2063 1984
2152 2152 2066
801 801 810
932 932 932
1571 1571 1527
2148 2148 2063
2326 2326 2229
461 461 494
670 670 688
1195 1195 1177
1478 1478 1440
1549 1549 1507
652 652 672
935 935 935
1340 1340 1312
1642 1642 1592
1707 1707 1653
1202 1202 1183
1351 1351 1321
2300 2300 2205
2360 2360 2260
2354 2354 2255
1172 1172 1156
1308 1308 1282
2096 2096 2014
2464 2464 2357
2503 2503 2394
1153 1153 1138
1301 1301 1276
2032 2032 1956
2452 2452 2346
2610 2610 2493
750 750 763
955 955 954
1505 1505 1466
2010 2010 1935
2078 2078 1998
872 872 876
1091 1091 1080
1662 1662 1611
2158 2158 2072
2245 2245 2154
1575 1575 1530
1742 1742 1685
2680 2680 2557
2922 2922 2783
2931 2931 2791
2086 2086 2006
2237 2237 2146
3124 3124 2971
3639 3639 3449
3696 3696 3503
2143 2143 2059
2295 2295 2200
3155 3155 2999
3691 3691 3498
3787 3787 3588
836 836 843
1037 1037 1029
1588 1588 1543
2093 2093 2012
2192 2192 2104
964 964 962
1169 1169 1153
1754 1754 1696
2258 2258 2165
2379 2379 2278
1643 1643 1594
1831 1831 1768
2763 2763 2636
2996 2996 2851
3026 3026 2879
2192 2192 2104
2336 2336 2238
3219 3219 3060
3719 3719 3524
3793 3793 3594
2310 2310 2214
2469 2469 2362
3301 3301 3136
3816 3816 3615
3918 3918 3709
