滤镜资源/Professional Luts Collection/Triune-Digital-Cinematic-LUTs/3D LUTs (CUBE)/REDLOGFILM/Batman vs Superman - REDlogFilm.cube
#Created by Benjamin (IWLTBAP) : http://luts.iwltbap.com
#Copyright: (C) Copyright 2016 Triune Films and IWLTBAP
TITLE "Blockbuster LUTs Pack (REDlogFilm)"
#LUT size
LUT_3D_SIZE 32
#LUT data points
0.005524 0.009979 0.012573
0.012177 0.010468 0.012665
0.021210 0.011292 0.012787
0.031982 0.012024 0.012421
0.046082 0.013763 0.012756
0.061798 0.015839 0.012756
0.081360 0.018341 0.013031
0.102997 0.021606 0.013031
0.125671 0.024841 0.014557
0.152069 0.028961 0.014709
0.182800 0.033173 0.012451
0.216003 0.037201 0.009186
0.253723 0.041962 0.007172
0.296326 0.049103 0.008820
0.340729 0.056213 0.010193
0.385345 0.062927 0.010590
0.432007 0.070099 0.015411
0.477783 0.077454 0.020660
0.520142 0.085083 0.027740
0.559448 0.090942 0.032074
0.595825 0.095947 0.033386
0.628998 0.100433 0.034210
0.659485 0.105286 0.037628
0.686188 0.109344 0.039642
0.707611 0.112061 0.039154
0.727051 0.114197 0.038086
0.744568 0.116394 0.037445
0.760864 0.119110 0.038696
0.771698 0.121033 0.039795
0.784393 0.122833 0.040833
0.795441 0.124512 0.041443
0.804199 0.125885 0.041931
0.006500 0.017517 0.014343
0.011200 0.017548 0.014404
0.019745 0.018219 0.014465
0.029694 0.020264 0.014252
0.043182 0.021729 0.014130
0.059875 0.024261 0.014008
0.080109 0.026306 0.013367
0.102875 0.029480 0.012787
0.126038 0.032440 0.014069
0.152740 0.036469 0.014038
0.183990 0.040680 0.011353
0.216431 0.044922 0.008453
0.254364 0.049683 0.006775
0.297424 0.056671 0.007629
0.341827 0.063385 0.009430
0.386780 0.070343 0.010132
0.433228 0.077637 0.015228
0.478760 0.085022 0.020691
0.520569 0.092804 0.028381
0.560272 0.098938 0.032196
0.596741 0.103943 0.033386
0.630280 0.108521 0.033966
0.660858 0.113098 0.036865
0.687592 0.117340 0.038818
0.708893 0.119995 0.038635
0.728302 0.122345 0.037903
0.745850 0.124664 0.037292
0.762085 0.127289 0.038605
0.773041 0.129242 0.039734
0.785706 0.131073 0.040955
0.796692 0.132751 0.041840
0.805511 0.134247 0.042267
0.007965 0.026855 0.016541
0.012604 0.027039 0.016602
0.018494 0.027100 0.016663
0.027222 0.029205 0.016937
0.039978 0.032013 0.016937
0.056274 0.034973 0.016083
0.078125 0.037231 0.014465
0.101776 0.040253 0.012848
0.126404 0.042877 0.013214
0.153442 0.046326 0.012787
0.184296 0.050354 0.011017
0.216949 0.054779 0.008118
0.255554 0.059540 0.006287
0.298981 0.066040 0.006653
0.343384 0.072601 0.008759
0.388977 0.079834 0.009674
0.435333 0.087097 0.014893
0.480957 0.094513 0.020538
0.523285 0.102325 0.027649
0.562408 0.108643 0.031403
0.598511 0.114044 0.032990
0.631989 0.118591 0.033661
0.662781 0.122955 0.035736
0.689362 0.127319 0.037689
0.710632 0.129974 0.037567
0.729919 0.132660 0.037659
0.747467 0.135040 0.037079
0.763702 0.137390 0.038574
0.774689 0.139313 0.039673
0.787384 0.141174 0.040863
0.798401 0.143066 0.041962
0.806885 0.144531 0.042633
0.009369 0.036591 0.018616
0.013916 0.036743 0.018677
0.019775 0.036835 0.018707
0.025909 0.036957 0.018768
0.037842 0.039886 0.019165
0.051605 0.043121 0.019409
0.073578 0.047180 0.017578
0.097198 0.050507 0.015869
0.123169 0.053925 0.014832
0.150940 0.056915 0.013611
0.182617 0.060547 0.011658
0.216156 0.064636 0.008392
0.256226 0.069336 0.006531
0.299866 0.076050 0.006531
0.344940 0.082367 0.008301
0.391113 0.089264 0.009125
0.437439 0.096466 0.014465
0.483582 0.104187 0.020447
0.526154 0.112000 0.026672
0.565125 0.118073 0.029999
0.601013 0.123779 0.032043
0.634186 0.128479 0.032898
0.664795 0.132538 0.034332
0.691406 0.136932 0.036377
0.712585 0.139862 0.036530
0.731781 0.142670 0.036865
0.749146 0.145111 0.036896
0.765289 0.147430 0.038422
0.776367 0.149292 0.039520
0.789124 0.151276 0.040741
0.799988 0.153229 0.041748
0.808197 0.154663 0.042358
0.010803 0.048126 0.020905
0.015411 0.048309 0.020966
0.021332 0.048370 0.021118
0.027374 0.048645 0.021179
0.035400 0.048889 0.021301
0.047760 0.052002 0.022552
0.067047 0.056793 0.021881
0.090942 0.061218 0.020447
0.116821 0.065826 0.019104
0.146759 0.069733 0.015808
0.179565 0.073151 0.012695
0.214661 0.076843 0.008667
0.255585 0.081329 0.007111
0.300873 0.088562 0.006836
0.347076 0.094391 0.007568
0.393860 0.100708 0.008209
0.440643 0.108276 0.013947
0.486969 0.115967 0.020203
0.529999 0.123444 0.024933
0.568817 0.129608 0.027985
0.604492 0.135345 0.030457
0.637421 0.140289 0.031616
0.667633 0.144104 0.032990
0.694031 0.148163 0.034485
0.715302 0.151550 0.035126
0.734314 0.154602 0.036224
0.751526 0.157043 0.036377
0.767578 0.159027 0.037903
0.778687 0.160889 0.038849
0.791321 0.163239 0.039856
0.802002 0.165100 0.040771
0.809784 0.166382 0.041138
0.012451 0.060638 0.023346
0.017090 0.060791 0.023407
0.023071 0.061035 0.023499
0.029480 0.061127 0.023651
0.037415 0.061371 0.023712
0.046082 0.061676 0.023804
0.061859 0.065552 0.025330
0.084900 0.070435 0.024475
0.109985 0.075531 0.023499
0.140686 0.081085 0.020355
0.174744 0.085541 0.015167
0.209778 0.090027 0.011017
0.250580 0.095734 0.009583
0.297150 0.102448 0.009064
0.346222 0.108765 0.008881
0.394531 0.114410 0.006775
0.444397 0.121857 0.012573
0.491577 0.129120 0.019257
0.534851 0.136230 0.022034
0.573395 0.142273 0.025238
0.609009 0.147797 0.028229
0.641815 0.152679 0.029846
0.671570 0.156281 0.031494
0.697815 0.160583 0.032623
0.718689 0.163940 0.033630
0.737671 0.166748 0.034546
0.754486 0.169434 0.035095
0.770721 0.171844 0.036102
0.781708 0.173462 0.037048
0.794312 0.175781 0.038086
0.804657 0.177704 0.039001
0.811768 0.179169 0.039215
0.013977 0.077118 0.026489
0.018585 0.077576 0.026642
0.024567 0.077698 0.026733
0.031128 0.077911 0.026764
0.039032 0.078033 0.026794
0.047791 0.078217 0.026794
0.059601 0.078583 0.026794
0.078094 0.082184 0.028046
0.101959 0.087067 0.028381
0.132599 0.093384 0.026001
0.168640 0.099335 0.020050
0.204437 0.104797 0.013885
0.243805 0.112579 0.012482
0.291595 0.120514 0.012146
0.342163 0.127625 0.010986
0.391907 0.133728 0.007629
0.444733 0.140167 0.009064
0.495880 0.146423 0.015320
0.539856 0.152985 0.018463
0.579468 0.158813 0.022034
0.615234 0.164062 0.025726
0.647552 0.169098 0.028046
0.677429 0.172546 0.029816
0.703186 0.177185 0.030609
0.723907 0.180176 0.031525
0.742401 0.182495 0.032440
0.758789 0.185394 0.033173
0.774933 0.188202 0.033752
0.785950 0.189606 0.034485
0.797943 0.191833 0.035553
0.807678 0.193817 0.036224
0.814514 0.195190 0.036346
0.015625 0.095184 0.029663
0.020264 0.095642 0.029694
0.026367 0.095795 0.029785
0.032623 0.096039 0.029846
0.040619 0.096069 0.029907
0.049225 0.096283 0.029907
0.060944 0.096405 0.029877
0.074921 0.096863 0.029480
0.097290 0.099945 0.030640
0.123718 0.104523 0.031219
0.159882 0.112701 0.026184
0.198517 0.119354 0.017365
0.238007 0.127777 0.015808
0.286591 0.137787 0.015656
0.337128 0.145813 0.014282
0.386444 0.152771 0.010803
0.440033 0.159058 0.008575
0.493622 0.165771 0.013580
0.541779 0.172180 0.015839
0.583252 0.177948 0.019714
0.619690 0.183105 0.023590
0.652679 0.188019 0.026245
0.683350 0.192047 0.028137
0.708649 0.195923 0.028564
0.730072 0.198761 0.029022
0.748444 0.201172 0.029877
0.764099 0.203827 0.030731
0.779999 0.206818 0.031281
0.791077 0.208435 0.031769
0.802368 0.209930 0.032440
0.810944 0.211578 0.032745
0.817688 0.213196 0.032928
0.018646 0.114044 0.031494
0.023376 0.114288 0.031525
0.029510 0.114624 0.031525
0.035980 0.114685 0.031616
0.043701 0.114838 0.031708
0.052094 0.114990 0.031830
0.063629 0.115082 0.031982
0.077332 0.115204 0.032257
0.093262 0.115479 0.031860
0.120331 0.119202 0.032440
0.151672 0.125153 0.031921
0.190521 0.133057 0.024170
0.231842 0.142792 0.019836
0.281250 0.153656 0.018768
0.331940 0.163086 0.017487
0.381989 0.170624 0.014191
0.436829 0.177551 0.010651
0.489044 0.185059 0.014069
0.538696 0.192322 0.016418
0.581512 0.197968 0.018158
0.620026 0.203796 0.020996
0.654480 0.209473 0.024506
0.686279 0.214325 0.026245
0.712433 0.217010 0.026184
0.733765 0.219940 0.026764
0.753204 0.222992 0.027435
0.769104 0.225281 0.028046
0.784515 0.228210 0.028656
0.795410 0.230072 0.029053
0.805176 0.231842 0.029510
0.813751 0.233459 0.029755
0.820435 0.234802 0.030029
0.021240 0.136536 0.034515
0.025940 0.137024 0.034485
0.031921 0.137207 0.034515
0.038147 0.137268 0.034607
0.045685 0.137390 0.034668
0.053955 0.137451 0.034760
0.065674 0.137512 0.034912
0.079559 0.137604 0.035126
0.095306 0.138000 0.035675
0.116455 0.138367 0.034698
0.148254 0.142578 0.033356
0.181915 0.148590 0.030884
0.223541 0.158508 0.025543
0.273193 0.171021 0.023468
0.325134 0.181335 0.021149
0.378143 0.190521 0.017822
0.433197 0.198212 0.013763
0.487152 0.206726 0.016724
0.536530 0.214233 0.019226
0.580261 0.220612 0.020660
0.619415 0.226501 0.020752
0.654602 0.233002 0.024048
0.685638 0.238373 0.026093
0.712677 0.242828 0.027191
0.733887 0.246368 0.027374
0.752808 0.249939 0.028046
0.770294 0.253204 0.027405
0.786438 0.256195 0.026611
0.795959 0.257996 0.026550
0.806488 0.260284 0.026855
0.815460 0.262177 0.027100
0.822449 0.263336 0.027344
0.023560 0.161469 0.037781
0.028351 0.161926 0.037659
0.034363 0.162323 0.037567
0.040710 0.162384 0.037537
0.048157 0.162354 0.037537
0.056244 0.162262 0.037506
0.067993 0.162415 0.037659
0.081726 0.162689 0.037964
0.097565 0.163055 0.038666
0.117950 0.163361 0.039734
0.144684 0.163879 0.034424
0.178253 0.168365 0.032928
0.215515 0.174713 0.030945
0.262939 0.186951 0.029144
0.315491 0.199707 0.026337
0.371094 0.210388 0.022430
0.427673 0.218842 0.017548
0.484741 0.228821 0.020508
0.534607 0.238098 0.022186
0.578949 0.245178 0.023407
0.618591 0.251678 0.023407
0.654205 0.257721 0.026947
0.685333 0.263184 0.028503
0.712189 0.268433 0.029480
0.733185 0.272461 0.030579
0.752350 0.276367 0.031708
0.769165 0.280304 0.031006
0.785797 0.284119 0.029877
0.795044 0.286133 0.029144
0.805328 0.288788 0.028503
0.814758 0.291687 0.028198
0.821991 0.293823 0.028046
0.025574 0.187897 0.041016
0.030365 0.188324 0.040833
0.036316 0.188995 0.040527
0.042694 0.189117 0.040466
0.050323 0.189117 0.040344
0.058685 0.189117 0.040192
0.069427 0.189362 0.040009
0.083313 0.189880 0.040466
0.098846 0.190216 0.041290
0.118927 0.190063 0.042816
0.144043 0.191101 0.041779
0.176544 0.191315 0.031158
0.213470 0.196442 0.032928
0.253937 0.204407 0.033325
0.304382 0.217377 0.032379
0.361542 0.229218 0.027039
0.421173 0.240021 0.021790
0.481720 0.251740 0.023682
0.532013 0.261261 0.024353
0.577301 0.269775 0.025208
0.617432 0.276703 0.026581
0.652649 0.283386 0.029602
0.683777 0.289429 0.032898
0.711273 0.294617 0.032440
0.732544 0.299316 0.032013
0.752228 0.303406 0.031891
0.769562 0.307953 0.033081
0.784943 0.313141 0.034027
0.794281 0.316132 0.033783
0.804504 0.319427 0.032776
0.813538 0.321838 0.031860
0.820923 0.324158 0.031433
0.027252 0.215942 0.044434
0.031982 0.216492 0.044098
0.037933 0.217133 0.043640
0.044159 0.217529 0.043304
0.051819 0.217316 0.043060
0.060089 0.217560 0.042847
0.071289 0.218048 0.043091
0.084351 0.218781 0.043518
0.099182 0.218994 0.044281
0.118378 0.218750 0.045959
0.146332 0.219574 0.045288
0.177246 0.221405 0.039978
0.212250 0.221527 0.033569
0.252045 0.227631 0.035278
0.297852 0.237244 0.035583
0.349121 0.248657 0.032379
0.411285 0.260895 0.027283
0.474670 0.273743 0.025940
0.527496 0.284882 0.027527
0.574219 0.294342 0.027527
0.614410 0.301819 0.028809
0.649933 0.309479 0.030762
0.681305 0.315979 0.033264
0.708893 0.321960 0.033325
0.730560 0.327240 0.032318
0.750916 0.332275 0.031311
0.768555 0.337036 0.031403
0.783325 0.341400 0.032227
0.792786 0.344482 0.032898
0.803223 0.348145 0.033691
0.812225 0.351440 0.033875
0.819427 0.354156 0.033875
0.029266 0.245728 0.048340
0.034058 0.246399 0.047852
0.040039 0.247406 0.047180
0.046417 0.248077 0.046448
0.054260 0.248352 0.046082
0.062592 0.248657 0.045990
0.074097 0.249329 0.046448
0.087311 0.250061 0.046967
0.101532 0.249786 0.047607
0.119568 0.249756 0.048828
0.145294 0.250366 0.049835
0.183167 0.253143 0.041077
0.215973 0.255341 0.036896
0.250519 0.254608 0.036591
0.296448 0.262909 0.037140
0.344727 0.272614 0.033691
0.395782 0.281860 0.032471
0.459839 0.294434 0.030579
0.517426 0.308350 0.032745
0.566895 0.319763 0.033173
0.610413 0.329132 0.032227
0.646240 0.337067 0.032288
0.678040 0.344757 0.033844
0.706421 0.351593 0.034698
0.728119 0.356628 0.032990
0.747314 0.361633 0.032135
0.765320 0.366608 0.031708
0.781403 0.372467 0.031830
0.790802 0.375916 0.031769
0.801666 0.380554 0.031799
0.811035 0.384003 0.031982
0.818024 0.386688 0.032135
0.032196 0.277710 0.052734
0.037201 0.278473 0.051788
0.043579 0.279663 0.050079
0.050232 0.280792 0.048187
0.057861 0.281281 0.047546
0.066498 0.281647 0.048126
0.078217 0.282257 0.049133
0.092255 0.282898 0.050232
0.107483 0.283081 0.051636
0.125671 0.283600 0.052734
0.144745 0.284180 0.053558
0.180176 0.286499 0.047852
0.221375 0.289948 0.039856
0.256683 0.293365 0.039764
0.295258 0.292542 0.038330
0.343567 0.301147 0.034790
0.396179 0.309418 0.031464
0.450653 0.318695 0.033264
0.502258 0.330444 0.036652
0.555603 0.343414 0.039734
0.600403 0.353607 0.038025
0.640137 0.363068 0.034027
0.672974 0.371552 0.035004
0.701721 0.379761 0.035095
0.724670 0.386047 0.034851
0.745026 0.391998 0.034241
0.763275 0.397583 0.033813
0.779541 0.404022 0.033447
0.788940 0.407623 0.033325
0.799194 0.411255 0.033173
0.808197 0.414795 0.032928
0.815857 0.417969 0.032837
0.035034 0.308624 0.056641
0.040161 0.309448 0.054932
0.046844 0.310547 0.053009
0.053131 0.311707 0.050659
0.060974 0.312622 0.049438
0.070007 0.313110 0.049591
0.082611 0.313995 0.050415
0.097260 0.314789 0.052734
0.113586 0.315247 0.055450
0.132202 0.316193 0.056793
0.151428 0.317017 0.057922
0.176544 0.319550 0.055939
0.224609 0.324310 0.043152
0.263824 0.327972 0.041718
0.301788 0.331055 0.040192
0.343384 0.330536 0.036194
0.397278 0.339172 0.031464
0.451416 0.347626 0.032867
0.498932 0.357513 0.038757
0.542786 0.366333 0.044067
0.586304 0.375824 0.043976
0.628662 0.386780 0.040161
0.666779 0.397308 0.036865
0.696625 0.405518 0.036102
0.720184 0.412781 0.035919
0.740936 0.419525 0.035675
0.759430 0.425934 0.035553
0.775787 0.431885 0.035156
0.786377 0.436707 0.035950
0.797272 0.441406 0.035858
0.806763 0.445190 0.036194
0.814087 0.447876 0.036224
0.037598 0.340759 0.059204
0.043030 0.341675 0.057098
0.049164 0.343292 0.053772
0.055603 0.344299 0.052673
0.063599 0.345398 0.052307
0.072418 0.346375 0.052643
0.084869 0.347260 0.053406
0.100189 0.347656 0.055878
0.116943 0.348419 0.058868
0.136688 0.349518 0.061493
0.156158 0.350586 0.062653
0.178680 0.353149 0.062164
0.222748 0.359253 0.050110
0.272400 0.364563 0.042328
0.312134 0.369171 0.040070
0.350281 0.371124 0.037964
0.396942 0.370270 0.033356
0.451233 0.379822 0.034973
0.499664 0.388489 0.040649
0.543640 0.396851 0.044556
0.582001 0.404663 0.046661
0.616913 0.412262 0.046997
0.654724 0.422699 0.043945
0.687958 0.431763 0.040527
0.713226 0.439026 0.039307
0.735870 0.445648 0.038605
0.754791 0.453033 0.039154
0.773010 0.460632 0.040009
0.783875 0.465515 0.040863
0.795685 0.471161 0.041962
0.805206 0.475555 0.042938
0.812531 0.478607 0.042969
0.040833 0.374725 0.058533
0.046082 0.375671 0.057709
0.052612 0.376434 0.056763
0.059631 0.377106 0.056580
0.067993 0.377808 0.056305
0.076843 0.378632 0.056580
0.089111 0.379547 0.058258
0.103790 0.380493 0.061127
0.120483 0.381622 0.063873
0.140381 0.383026 0.066345
0.161316 0.384491 0.067444
0.184875 0.387909 0.067047
0.221008 0.394653 0.060516
0.278320 0.401825 0.043549
0.322845 0.406616 0.041779
0.364716 0.412903 0.040833
0.402954 0.412903 0.040283
0.450470 0.412537 0.039520
0.499084 0.421295 0.043823
0.544403 0.428986 0.045898
0.583099 0.436432 0.047699
0.617920 0.443695 0.048157
0.650330 0.451508 0.048187
0.679291 0.458466 0.047485
0.703705 0.465332 0.046143
0.727081 0.472534 0.044678
0.747650 0.479126 0.043976
0.767914 0.487213 0.045654
0.779327 0.491638 0.046509
0.790985 0.496765 0.047394
0.801178 0.501892 0.047791
0.809082 0.505859 0.048401
0.045349 0.406067 0.061890
0.051056 0.406433 0.061768
0.058044 0.406830 0.061584
0.065247 0.407379 0.061371
0.073547 0.408295 0.061218
0.082458 0.409119 0.061096
0.094360 0.409698 0.063293
0.109894 0.410828 0.066071
0.126648 0.412231 0.068878
0.146790 0.413818 0.071533
0.167755 0.416199 0.072235
0.189117 0.419983 0.071594
0.219513 0.426514 0.066986
0.282288 0.435394 0.049896
0.333191 0.441956 0.045258
0.372681 0.447083 0.046112
0.415894 0.453430 0.047394
0.454468 0.452423 0.046600
0.498688 0.451965 0.045898
0.542999 0.458801 0.047638
0.583221 0.466583 0.048615
0.618927 0.474548 0.049438
0.651642 0.482361 0.049561
0.679718 0.488434 0.049561
0.702911 0.494049 0.048920
0.723053 0.498810 0.048676
0.742065 0.503815 0.047821
0.760712 0.509644 0.048462
0.774689 0.514618 0.049042
0.787415 0.519836 0.050323
0.797424 0.524658 0.050873
0.805634 0.528931 0.051361
0.049927 0.434143 0.065948
0.055573 0.434387 0.065765
0.062714 0.434998 0.065552
0.070099 0.435730 0.065308
0.078888 0.436523 0.065002
0.088165 0.437164 0.065796
0.100769 0.437958 0.067902
0.116241 0.439148 0.070557
0.132599 0.440704 0.073364
0.151489 0.442657 0.076172
0.171967 0.445953 0.076324
0.193268 0.450256 0.075348
0.219543 0.456299 0.071442
0.279999 0.466980 0.057648
0.338226 0.475281 0.050629
0.381378 0.481232 0.051086
0.424103 0.488708 0.050964
0.465393 0.493805 0.050232
0.500702 0.491913 0.049652
0.542480 0.490845 0.050079
0.581757 0.497345 0.050690
0.618652 0.504974 0.050690
0.652863 0.513123 0.050720
0.681305 0.518982 0.050446
0.704437 0.524414 0.050293
0.724854 0.528778 0.049896
0.743286 0.532990 0.049255
0.760315 0.537628 0.049805
0.772430 0.540314 0.050201
0.785065 0.543518 0.051208
0.795105 0.548065 0.052002
0.803345 0.552399 0.052094
0.053314 0.460388 0.069214
0.058960 0.460815 0.069031
0.066040 0.461487 0.068817
0.073303 0.462280 0.068604
0.082367 0.463135 0.068726
0.092224 0.463715 0.070099
0.106506 0.465027 0.072723
0.121826 0.466339 0.075378
0.137054 0.468109 0.077820
0.155823 0.470459 0.080261
0.176971 0.474304 0.080231
0.198303 0.478729 0.079498
0.226440 0.485687 0.075653
0.276672 0.496490 0.062469
0.340546 0.506073 0.053772
0.389191 0.513794 0.054047
0.429077 0.519379 0.053345
0.474091 0.529022 0.052002
0.509552 0.531189 0.051086
0.544220 0.528870 0.050476
0.580933 0.527313 0.051361
0.617371 0.533600 0.052368
0.651398 0.540833 0.052368
0.681366 0.547485 0.052185
0.705658 0.552917 0.050659
0.726685 0.557404 0.049561
0.745209 0.561310 0.048737
0.762299 0.565857 0.049042
0.774353 0.568695 0.049347
0.786133 0.571594 0.049957
0.795166 0.574005 0.051331
0.802338 0.576019 0.052399
0.055786 0.485840 0.072540
0.061584 0.486298 0.072388
0.068848 0.486938 0.072235
0.076416 0.487610 0.072052
0.085693 0.488403 0.072906
0.096252 0.489441 0.074432
0.110168 0.490936 0.077057
0.125763 0.492920 0.079803
0.140533 0.494690 0.082001
0.159698 0.497559 0.084198
0.181091 0.501526 0.084351
0.203217 0.505646 0.083862
0.232483 0.513428 0.079285
0.271973 0.523041 0.068512
0.340546 0.534760 0.055878
0.393097 0.543732 0.056915
0.437683 0.551331 0.056152
0.478149 0.557861 0.055237
0.518738 0.566040 0.054932
0.553711 0.567902 0.053589
0.584656 0.564941 0.053040
0.617798 0.563507 0.053772
0.651642 0.569519 0.053711
0.680450 0.574463 0.054413
0.704895 0.580139 0.052612
0.726746 0.584473 0.051880
0.745758 0.588226 0.051361
0.763611 0.592773 0.051636
0.775543 0.595398 0.052032
0.786896 0.597839 0.052673
0.796173 0.600311 0.053680
0.803528 0.602264 0.054535
0.057709 0.509979 0.076538
0.063995 0.510468 0.076355
0.072052 0.511230 0.076050
0.079803 0.511871 0.076202
0.089355 0.512817 0.076996
0.100006 0.513977 0.078827
0.113892 0.515594 0.081543
0.129730 0.517670 0.084259
0.144440 0.520081 0.086151
0.164124 0.523529 0.087952
0.185394 0.527771 0.088165
0.207306 0.532288 0.087616
0.237823 0.540466 0.081818
0.274445 0.550079 0.072571
0.341003 0.562317 0.059814
0.396698 0.572754 0.059357
0.446472 0.581879 0.058960
0.486542 0.587555 0.058807
0.524170 0.594482 0.057617
0.562286 0.601105 0.056274
0.592529 0.602112 0.055511
0.621338 0.599792 0.055878
0.651703 0.597961 0.053772
0.681366 0.601410 0.055725
0.704407 0.605988 0.055054
0.726013 0.610291 0.053345
0.745422 0.614166 0.054321
0.764038 0.618347 0.055542
0.776398 0.620789 0.055878
0.787689 0.623077 0.056396
0.796814 0.625092 0.057037
0.804047 0.626648 0.057709
0.059967 0.531677 0.080170
0.066498 0.532257 0.079865
0.074646 0.533051 0.079468
0.082886 0.533539 0.079620
0.091797 0.534637 0.080719
0.102203 0.535828 0.082581
0.116486 0.537659 0.085175
0.131775 0.539886 0.087555
0.146545 0.542603 0.089417
0.167419 0.546814 0.090912
0.188507 0.551117 0.091278
0.210541 0.555817 0.090546
0.242004 0.564270 0.083618
0.277893 0.574066 0.074738
0.337158 0.586029 0.064545
0.398407 0.596680 0.059448
0.450714 0.606903 0.060822
0.495422 0.614655 0.061737
0.529022 0.618896 0.060547
0.567047 0.626923 0.058960
0.600189 0.631927 0.059174
0.627136 0.631805 0.059113
0.654266 0.629791 0.057129
0.681793 0.628235 0.056854
0.707001 0.631531 0.057892
0.727081 0.634827 0.057159
0.745087 0.637543 0.059021
0.763977 0.641602 0.060791
0.776520 0.643921 0.060913
0.788452 0.646088 0.061066
0.797668 0.648041 0.061462
0.805023 0.649567 0.062012
0.063873 0.550446 0.083954
0.070343 0.551025 0.083527
0.078461 0.551697 0.083099
0.086151 0.552399 0.083160
0.095154 0.553528 0.084381
0.104553 0.554749 0.086212
0.118622 0.556641 0.088562
0.133575 0.558929 0.090820
0.149323 0.561981 0.092499
0.170044 0.566254 0.093903
0.191895 0.570801 0.094360
0.215454 0.576111 0.092224
0.246735 0.584930 0.085358
0.282593 0.594696 0.075470
0.332916 0.605652 0.069092
0.400452 0.617371 0.061951
0.454590 0.628296 0.063568
0.502441 0.637268 0.064270
0.536682 0.641693 0.063538
0.570770 0.647064 0.062134
0.605682 0.655182 0.062164
0.634674 0.657959 0.062469
0.659363 0.657379 0.061554
0.684113 0.655029 0.061768
0.706512 0.653870 0.060913
0.728699 0.656128 0.060913
0.747101 0.658600 0.062500
0.764984 0.661591 0.064301
0.777191 0.663574 0.064301
0.788818 0.665405 0.064545
0.798065 0.667206 0.064636
0.805389 0.668701 0.064697
0.067505 0.567230 0.087158
0.073700 0.567932 0.086792
0.081055 0.568787 0.086212
0.088470 0.569672 0.086334
0.097778 0.570740 0.087524
0.107666 0.572052 0.089355
0.120453 0.573883 0.091278
0.134674 0.576355 0.093140
0.151184 0.579590 0.094666
0.171997 0.583923 0.095978
0.194672 0.588501 0.096680
0.219604 0.594299 0.093842
0.250732 0.603424 0.086578
0.286285 0.613342 0.076080
0.331848 0.623688 0.072968
0.400970 0.636139 0.066223
0.457489 0.647583 0.065979
0.505890 0.656708 0.066559
0.543640 0.662628 0.065765
0.576050 0.666962 0.064087
0.608795 0.673676 0.063141
0.639771 0.680145 0.063293
0.664948 0.681274 0.062836
0.687683 0.680481 0.061981
0.708527 0.678253 0.061493
0.728424 0.677307 0.059967
0.748413 0.678711 0.059967
0.766754 0.681580 0.061615
0.778381 0.682892 0.062225
0.789246 0.684692 0.062958
0.798523 0.686096 0.063477
0.805847 0.687347 0.063812
0.069092 0.582458 0.090240
0.075195 0.583130 0.089783
0.082153 0.584290 0.089172
0.089752 0.585205 0.089386
0.098724 0.586334 0.090210
0.108795 0.587616 0.091980
0.121765 0.589508 0.093719
0.136292 0.591888 0.095367
0.153473 0.595520 0.096588
0.174316 0.599884 0.097839
0.197052 0.604462 0.098633
0.223206 0.610901 0.094757
0.254242 0.620026 0.087250
0.290497 0.630280 0.078430
0.335632 0.640472 0.076324
0.400604 0.652771 0.071198
0.459839 0.664734 0.068054
0.509460 0.674408 0.068817
0.549774 0.681641 0.067200
0.582092 0.685791 0.065613
0.611115 0.689636 0.064911
0.642853 0.696899 0.064819
0.669891 0.700714 0.064697
0.693085 0.701508 0.063812
0.711151 0.700378 0.063446
0.730164 0.698517 0.061707
0.748047 0.697540 0.060333
0.767334 0.699371 0.061096
0.779541 0.700623 0.062103
0.790039 0.702179 0.063354
0.799042 0.703064 0.064545
0.806274 0.703857 0.065369
0.071442 0.597717 0.093628
0.076904 0.598633 0.093048
0.084106 0.599854 0.092499
0.091827 0.600677 0.092712
0.101074 0.601807 0.093506
0.111176 0.603180 0.094788
0.124573 0.605042 0.096436
0.139923 0.607483 0.097870
0.157166 0.611267 0.099030
0.178131 0.615601 0.100067
0.200714 0.620361 0.100647
0.227173 0.627289 0.095856
0.258270 0.636597 0.088074
0.295135 0.647156 0.080994
0.340607 0.657471 0.079437
0.400879 0.669281 0.076111
0.463196 0.681671 0.070282
