滤镜资源/Professional Luts Collection/Triune-Digital-Cinematic-LUTs/3D LUTs (CUBE)/REDLOGFILM/Batman vs Superman - REDlogFilm.cube
#Created by Benjamin (IWLTBAP) : http://luts.iwltbap.com
#Copyright: (C) Copyright 2016 Triune Films and IWLTBAP
TITLE "Blockbuster LUTs Pack (REDlogFilm)"
#LUT size
LUT_3D_SIZE 8
#LUT data points
DOMAIN_MIN 0.000000 0.000000 0.000000
DOMAIN_MAX 0.903226 0.903226 0.903226
0.005524 0.009979 0.012573
0.046082 0.013763 0.012756
0.125671 0.024841 0.014557
0.253723 0.041962 0.007172
0.432007 0.070099 0.015411
0.595825 0.095947 0.033386
0.707611 0.112061 0.039154
0.771698 0.121033 0.039795
0.010803 0.048126 0.020905
0.035400 0.048889 0.021301
0.116821 0.065826 0.019104
0.255585 0.081329 0.007111
0.440643 0.108276 0.013947
0.604492 0.135345 0.030457
0.715302 0.151550 0.035126
0.778687 0.160889 0.038849
0.018646 0.114044 0.031494
0.043701 0.114838 0.031708
0.093262 0.115479 0.031860
0.231842 0.142792 0.019836
0.436829 0.177551 0.010651
0.620026 0.203796 0.020996
0.733765 0.219940 0.026764
0.795410 0.230072 0.029053
0.027252 0.215942 0.044434
0.051819 0.217316 0.043060
0.099182 0.218994 0.044281
0.212250 0.221527 0.033569
0.411285 0.260895 0.027283
0.614410 0.301819 0.028809
0.730560 0.327240 0.032318
0.792786 0.344482 0.032898
0.037598 0.340759 0.059204
0.063599 0.345398 0.052307
0.116943 0.348419 0.058868
0.222748 0.359253 0.050110
0.396942 0.370270 0.033356
0.582001 0.404663 0.046661
0.713226 0.439026 0.039307
0.783875 0.465515 0.040863
0.053314 0.460388 0.069214
0.082367 0.463135 0.068726
0.137054 0.468109 0.077820
0.226440 0.485687 0.075653
0.429077 0.519379 0.053345
0.580933 0.527313 0.051361
0.705658 0.552917 0.050659
0.774353 0.568695 0.049347
0.063873 0.550446 0.083954
0.095154 0.553528 0.084381
0.149323 0.561981 0.092499
0.246735 0.584930 0.085358
0.454590 0.628296 0.063568
0.605682 0.655182 0.062164
0.706512 0.653870 0.060913
0.777191 0.663574 0.064301
0.072144 0.608459 0.095642
0.104462 0.612762 0.095825
0.159607 0.622406 0.100616
0.260498 0.648468 0.089020
0.464050 0.693207 0.072784
0.621399 0.720215 0.067505
0.718628 0.734589 0.068146
0.779602 0.730774 0.066711
0.010345 0.020966 0.048737
0.036041 0.021912 0.049194
0.119141 0.027924 0.055084
0.253326 0.041168 0.045746
0.434570 0.068451 0.051605
0.597809 0.094086 0.066071
0.710052 0.110168 0.070679
0.773682 0.118500 0.070374
0.010132 0.049194 0.049377
0.040253 0.059631 0.057404
0.123169 0.068756 0.056244
0.265656 0.084778 0.040619
0.445618 0.111572 0.047058
0.610840 0.136658 0.066711
0.720703 0.150696 0.067657
0.782410 0.161255 0.070526
0.016418 0.114258 0.060120
0.045898 0.126465 0.068970
0.099091 0.127258 0.067993
0.257660 0.153656 0.047241
0.464874 0.180939 0.039185
0.633789 0.205139 0.055603
0.738831 0.220306 0.064026
0.798035 0.230194 0.064026
0.026733 0.215240 0.072327
0.054199 0.231689 0.079987
0.101776 0.232361 0.078613
0.223267 0.234406 0.069214
0.442657 0.276550 0.053497
0.641449 0.313507 0.054657
0.750275 0.336914 0.058105
0.805420 0.352570 0.058350
0.033875 0.340485 0.092133
0.068298 0.359833 0.088501
0.123413 0.363953 0.095001
0.236664 0.377167 0.086731
0.417450 0.389496 0.069275
0.602875 0.425049 0.079590
0.736572 0.460358 0.066895
0.799835 0.485687 0.070129
0.048981 0.463165 0.100281
0.085236 0.479065 0.105774
0.145813 0.485504 0.114746
0.240112 0.505463 0.114655
0.450958 0.542328 0.088531
0.601837 0.551636 0.085602
0.723663 0.574585 0.080536
0.789215 0.589294 0.079254
0.058380 0.552826 0.116394
0.099426 0.570953 0.122314
0.161621 0.579529 0.130585
0.259216 0.604584 0.126129
0.474152 0.650146 0.105896
0.625397 0.676758 0.098969
0.725006 0.675171 0.095215
0.790680 0.683807 0.097046
0.069763 0.609741 0.127625
0.113861 0.629242 0.134064
0.174530 0.639557 0.139832
0.273499 0.666931 0.133026
0.478027 0.713623 0.123840
0.640656 0.740356 0.105713
0.735748 0.752899 0.107025
0.793396 0.748016 0.105499
0.015778 0.036621 0.107025
0.041809 0.036987 0.106201
0.100983 0.039856 0.106995
0.234741 0.055878 0.113190
0.431183 0.075378 0.102325
0.593781 0.097382 0.115936
0.707458 0.108459 0.118225
0.774628 0.116089 0.121979
0.015594 0.065460 0.107269
0.045441 0.077148 0.117340
0.103699 0.078766 0.115967
0.255920 0.090454 0.112640
0.456726 0.112030 0.104187
0.618042 0.135040 0.118225
0.724548 0.147736 0.120636
0.785034 0.155884 0.122559
0.014740 0.115540 0.110657
0.041962 0.127899 0.120819
0.100708 0.143890 0.131531
0.268860 0.162140 0.117676
0.473816 0.180267 0.106354
0.634949 0.203247 0.120636
0.740173 0.217957 0.121979
0.800903 0.229340 0.124878
0.020966 0.221802 0.125061
0.047852 0.233612 0.133026
0.101685 0.253082 0.143433
0.234711 0.256744 0.131073
0.482147 0.297729 0.107056
0.667267 0.322693 0.097900
0.768616 0.343079 0.102081
0.820404 0.356323 0.100159
0.030212 0.345886 0.143707
0.058807 0.357971 0.151123
0.124146 0.384583 0.154449
0.247559 0.399628 0.160736
0.439301 0.418640 0.139557
0.641266 0.459259 0.147675
0.765839 0.490112 0.115448
0.819427 0.510193 0.117004
0.041870 0.457703 0.162323
0.077972 0.483551 0.165466
0.152863 0.510498 0.174713
0.261688 0.530853 0.184753
0.476044 0.576782 0.168121
0.627075 0.586456 0.157349
0.747925 0.607910 0.163300
0.810211 0.621552 0.157349
0.050385 0.551880 0.178680
0.088684 0.572876 0.180695
0.172607 0.603638 0.191376
0.277618 0.629211 0.197388
0.490784 0.679688 0.191437
0.647217 0.705170 0.182587
0.748169 0.703217 0.157074
0.806244 0.710205 0.161835
0.058411 0.610809 0.189148
0.098328 0.629791 0.190826
0.182220 0.665802 0.199799
0.285187 0.695618 0.200653
0.489929 0.741577 0.197906
0.663818 0.769196 0.191833
0.756378 0.777588 0.188965
0.807343 0.769806 0.166687
0.026764 0.060028 0.196655
0.050354 0.060760 0.197876
0.098083 0.062469 0.199493
0.216125 0.069855 0.199066
0.403931 0.096649 0.192047
0.584320 0.116669 0.205566
0.700684 0.126465 0.208893
0.769806 0.129486 0.209076
0.025696 0.088806 0.196960
0.053192 0.101196 0.209137
0.098694 0.103333 0.211517
0.225739 0.110657 0.209534
0.429779 0.134247 0.200134
0.610321 0.153564 0.211975
0.725586 0.160797 0.211517
0.791595 0.161652 0.208740
0.022980 0.138977 0.199799
0.050262 0.151917 0.211273
0.095978 0.171631 0.231781
0.233704 0.177856 0.226501
0.461823 0.195770 0.212402
0.645142 0.212402 0.217834
0.754425 0.214355 0.210449
0.811279 0.218262 0.209198
0.020355 0.223785 0.208435
0.046509 0.238190 0.220123
0.090302 0.258301 0.238373
0.214783 0.286713 0.257721
0.486450 0.316681 0.235535
0.669128 0.333679 0.234833
0.780396 0.344360 0.227936
0.835815 0.355011 0.226013
0.026093 0.364441 0.237946
0.053558 0.378937 0.247650
0.099426 0.397156 0.259521
0.226715 0.429443 0.269135
0.457428 0.461212 0.256073
0.678772 0.506042 0.256073
0.801758 0.530518 0.241119
0.851746 0.542664 0.233521
0.031067 0.479889 0.258331
0.059692 0.494232 0.268799
0.107300 0.520538 0.281433
0.261108 0.565399 0.292725
0.488464 0.614502 0.283539
0.649139 0.631561 0.285522
0.773773 0.656525 0.294464
0.843842 0.673492 0.276276
0.037201 0.565643 0.277039
0.063995 0.579926 0.286896
0.126129 0.605774 0.292358
0.279510 0.661621 0.307434
0.490021 0.714752 0.301514
0.669373 0.744293 0.310120
0.770386 0.744080 0.297974
0.831238 0.753143 0.302002
0.043030 0.619568 0.288147
0.071198 0.634796 0.297821
0.138550 0.663055 0.297272
0.277954 0.733398 0.299835
0.487122 0.777252 0.302124
0.679596 0.805359 0.305145
0.780640 0.813568 0.306305
0.828491 0.805237 0.291290
0.035797 0.089203 0.310760
0.060120 0.090027 0.312042
0.100983 0.092163 0.316925
0.220093 0.097229 0.321167
0.401642 0.110016 0.305328
0.558136 0.138245 0.309265
0.673706 0.151276 0.314117
0.749390 0.152069 0.313721
0.034454 0.119843 0.312408
0.063232 0.133087 0.326080
0.104004 0.135620 0.330414
0.221893 0.138763 0.336273
0.420715 0.152374 0.316345
0.575439 0.179962 0.320557
0.697876 0.186768 0.323975
0.770996 0.187103 0.321655
0.031586 0.169983 0.315277
0.060822 0.183685 0.328339
0.109650 0.205078 0.351837
0.211426 0.206512 0.356964
0.437927 0.222992 0.339172
0.605408 0.245789 0.337250
0.731567 0.247162 0.336395
0.796997 0.250916 0.341614
0.024597 0.253448 0.324677
0.052338 0.269012 0.339600
0.102112 0.290039 0.361023
0.199951 0.324707 0.400818
0.443024 0.341583 0.387115
0.647430 0.357697 0.370392
0.768677 0.358704 0.365723
0.830383 0.363861 0.370544
0.023987 0.363739 0.339050
0.051453 0.381165 0.355103
0.098663 0.405518 0.377411
0.172455 0.444672 0.415192
0.436859 0.509399 0.441864
0.689880 0.545990 0.422241
0.817719 0.556519 0.401520
0.869202 0.569244 0.411102
0.031403 0.502441 0.373505
0.060730 0.523438 0.390228
0.109039 0.551605 0.414673
0.199951 0.581848 0.436432
0.450836 0.657898 0.450867
0.669708 0.684998 0.437469
0.811707 0.711517 0.429779
0.870331 0.723053 0.423523
0.037994 0.604340 0.401154
0.067657 0.618317 0.411285
0.117065 0.635620 0.424561
0.207672 0.665283 0.444641
0.457031 0.755188 0.456909
0.682587 0.784149 0.450958
0.792938 0.787567 0.441589
0.848969 0.795715 0.456451
0.042755 0.656982 0.410004
0.072357 0.668945 0.419495
0.120300 0.686615 0.432343
0.213593 0.728455 0.446350
0.451477 0.813263 0.456421
0.679474 0.838928 0.475861
0.796936 0.849182 0.459412
0.845642 0.845459 0.452820
0.047211 0.119781 0.417633
0.071228 0.119995 0.418243
0.111328 0.121918 0.423096
0.203278 0.124512 0.432648
0.400238 0.139984 0.429993
0.567688 0.147614 0.411133
0.674835 0.166687 0.419861
0.736328 0.173004 0.422668
0.046539 0.150085 0.420410
0.077454 0.162628 0.433472
0.118622 0.165131 0.437683
0.208618 0.169556 0.445740
0.414490 0.184479 0.447815
0.585236 0.190125 0.425751
0.691284 0.208191 0.439240
0.752625 0.215149 0.444550
0.044403 0.199310 0.423370
0.075592 0.212830 0.437317
0.126923 0.234253 0.460327
0.203491 0.240082 0.472748
0.429016 0.256622 0.475800
0.606781 0.261719 0.457245
0.714294 0.280823 0.474854
0.774200 0.293213 0.483002
0.037933 0.284363 0.435577
0.069244 0.299286 0.450684
0.120819 0.319855 0.471802
0.204254 0.356354 0.517792
0.436432 0.371613 0.531586
0.620575 0.386078 0.525391
0.736053 0.411133 0.538788
0.808441 0.417938 0.548096
0.029938 0.391907 0.452118
0.059509 0.409851 0.468689
0.108490 0.433380 0.490753
0.186249 0.472443 0.532471
0.417175 0.538544 0.584839
0.638763 0.568359 0.586182
0.779541 0.584961 0.592194
0.849243 0.583527 0.581085
0.029938 0.500427 0.469727
0.059509 0.519806 0.487305
0.106659 0.547333 0.512482
0.182587 0.585297 0.549469
0.368011 0.651764 0.600891
0.645813 0.725006 0.608917
0.805328 0.738678 0.603424
0.873352 0.745941 0.600342
0.035034 0.604980 0.501770
0.067535 0.624603 0.519318
0.119598 0.651245 0.542358
0.191772 0.685303 0.572174
0.331146 0.740540 0.604614
0.662750 0.812653 0.614471
0.796234 0.822632 0.597656
0.862061 0.832825 0.611145
0.039368 0.671783 0.519073
0.071747 0.689972 0.535034
0.124786 0.712830 0.556000
0.189362 0.741089 0.580597
0.320435 0.795105 0.598358
0.673889 0.867767 0.623108
0.796814 0.876678 0.616089
0.854126 0.877258 0.604553
0.058380 0.140991 0.496216
0.082916 0.141022 0.496277
0.124908 0.143433 0.499603
0.203339 0.149200 0.509949
0.407379 0.160583 0.518463
0.569580 0.168335 0.502167
0.674774 0.173248 0.506073
0.741669 0.183044 0.523407
0.057983 0.171021 0.499084
0.089630 0.183258 0.511200
0.131714 0.186462 0.515015
0.203552 0.191681 0.526642
0.420013 0.204620 0.537292
0.581482 0.215210 0.528839
0.690735 0.216492 0.531250
0.755829 0.226379 0.549103
0.055969 0.220795 0.502289
0.088501 0.233978 0.515869
0.141083 0.254791 0.538330
0.208923 0.262909 0.553711
0.435425 0.275635 0.573792
0.595184 0.290070 0.574402
0.706146 0.290558 0.577240
0.772919 0.303009 0.592804
0.051483 0.307220 0.517181
0.084595 0.321686 0.531647
0.136932 0.341095 0.551819
0.216125 0.378967 0.598480
0.396759 0.386383 0.633301
0.622070 0.409058 0.635345
0.729614 0.416748 0.635040
0.797119 0.433960 0.646637
0.034882 0.414673 0.534546
0.066040 0.432404 0.551178
0.117035 0.457001 0.575104
0.202118 0.494263 0.615295
0.404144 0.557190 0.677521
0.636383 0.587738 0.689697
0.758636 0.598633 0.687347
0.824371 0.616119 0.692810
0.034882 0.523254 0.556488
0.063934 0.543335 0.574341
0.111816 0.567505 0.597015
0.191162 0.600616 0.629883
0.374847 0.665466 0.689728
0.655762 0.743530 0.714447
0.775177 0.751892 0.713379
0.846161 0.757233 0.718933
0.034668 0.604095 0.569824
0.066406 0.622894 0.586792
0.118164 0.648193 0.608582
0.191864 0.679871 0.638000
0.315186 0.734985 0.690247
0.638489 0.816650 0.716644
0.789093 0.842987 0.717590
0.863495 0.847443 0.716187
0.039368 0.668793 0.590027
0.068848 0.686371 0.604584
0.112457 0.709351 0.625061
0.186066 0.739319 0.651367
0.292267 0.790527 0.699127
0.635345 0.870941 0.716553
0.801544 0.894531 0.723053
0.861359 0.896637 0.714050
0.066040 0.154968 0.546936
0.091095 0.155060 0.546875
0.132812 0.157440 0.550446
0.200592 0.162750 0.560608
0.410767 0.173767 0.575348
0.568329 0.185699 0.570862
0.673706 0.190002 0.576385
0.737152 0.188385 0.580200
0.065918 0.185547 0.549866
0.098022 0.198059 0.562012
0.140411 0.200317 0.565369
0.207214 0.205444 0.577637
0.424133 0.216797 0.597870
0.578491 0.230804 0.600708
0.686890 0.232758 0.606812
0.750031 0.232269 0.609680
0.064972 0.235077 0.553589
0.097656 0.247925 0.566956
0.148010 0.268555 0.589355
0.215057 0.277191 0.605957
0.427979 0.281921 0.644806
0.598328 0.302765 0.641144
0.706390 0.304413 0.647461
0.768311 0.306152 0.649994
0.063019 0.322540 0.570312
0.093964 0.336060 0.584045
0.144226 0.354950 0.604095
0.222168 0.391144 0.648071
0.365631 0.398499 0.680725
0.618927 0.420380 0.703583
0.732758 0.428986 0.702332
0.793579 0.433990 0.703705
0.045197 0.431000 0.589294
0.074371 0.448822 0.606140
0.125366 0.472168 0.628693
0.213928 0.506897 0.665039
0.391724 0.566467 0.729523
0.628021 0.597565 0.749237
0.760498 0.608978 0.749237
0.821259 0.613647 0.749054
0.038757 0.537994 0.610168
0.068512 0.556427 0.626770
0.115112 0.579132 0.647583
0.197113 0.610291 0.678070
0.366455 0.670807 0.738312
0.658600 0.750824 0.772278
0.779999 0.758759 0.771973
0.839813 0.762299 0.772400
0.041412 0.620056 0.627502
0.073334 0.637421 0.642242
0.124329 0.659973 0.660950
0.197327 0.687897 0.687164
0.311584 0.737396 0.738647
0.644165 0.821289 0.775513
0.794281 0.850586 0.779480
0.848999 0.853058 0.779785
0.039368 0.668549 0.632416
0.069946 0.686005 0.647034
0.114136 0.707153 0.665710
0.189880 0.736023 0.691132
0.278412 0.778687 0.737183
0.626465 0.865448 0.780731
0.790222 0.893646 0.774963
0.857880 0.906006 0.778687
