滤镜资源/Professional Luts Collection/Triune-Digital-Cinematic-LUTs/3D LUTs (CUBE)/REDLOGFILM/Batman vs Superman - REDlogFilm.cube
#Created by Benjamin (IWLTBAP) : http://luts.iwltbap.com
#Copyright: (C) Copyright 2016 Triune Films and IWLTBAP
TITLE "Blockbuster LUTs Pack (REDlogFilm)"
#LUT size
LUT_3D_SIZE 5
#LUT data points
DOMAIN_MIN 0.000000 0.000000 0.000000
DOMAIN_MAX 0.903226 0.903226 0.903226
0.005524 0.009979 0.012573
0.102997 0.021606 0.013031
0.340729 0.056213 0.010193
0.628998 0.100433 0.034210
0.771698 0.121033 0.039795
0.015625 0.095184 0.029663
0.074921 0.096863 0.029480
0.337128 0.145813 0.014282
0.652679 0.188019 0.026245
0.791077 0.208435 0.031769
0.032196 0.277710 0.052734
0.092255 0.282898 0.050232
0.295258 0.292542 0.038330
0.640137 0.363068 0.034027
0.788940 0.407623 0.033325
0.055786 0.485840 0.072540
0.125763 0.492920 0.079803
0.340546 0.534760 0.055878
0.617798 0.563507 0.053772
0.775543 0.595398 0.052032
0.072144 0.608459 0.095642
0.143280 0.618713 0.099640
0.343414 0.669403 0.081451
0.647278 0.723114 0.068054
0.779602 0.730774 0.066711
0.014008 0.032318 0.089874
0.080261 0.034668 0.090332
0.336700 0.060669 0.086334
0.630859 0.098480 0.101288
0.775543 0.116364 0.106964
0.012878 0.096405 0.092926
0.083527 0.118774 0.109528
0.374481 0.148468 0.082275
0.661469 0.188110 0.102051
0.795502 0.208771 0.109253
0.027924 0.281891 0.117645
0.096069 0.312775 0.130585
0.327179 0.326660 0.113342
0.685760 0.396088 0.089600
0.816345 0.433838 0.091553
0.046692 0.486115 0.150208
0.136932 0.528259 0.159576
0.366180 0.578217 0.158356
0.657318 0.611328 0.128815
0.802429 0.636261 0.128815
0.061371 0.611725 0.170837
0.162933 0.653809 0.181274
0.365967 0.710022 0.173615
0.683990 0.763794 0.167786
0.803497 0.764130 0.149048
0.031921 0.073792 0.253021
0.084808 0.075836 0.257233
0.299805 0.091248 0.255951
0.602936 0.132935 0.258240
0.760284 0.139282 0.260620
0.028442 0.139191 0.255402
0.090149 0.167328 0.284088
0.327393 0.181793 0.281891
0.654053 0.209991 0.273773
0.801453 0.218140 0.274902
0.022064 0.292847 0.272430
0.080261 0.324493 0.299652
0.322662 0.389618 0.343903
0.726196 0.437317 0.311798
0.855652 0.457703 0.315063
0.035461 0.523590 0.325256
0.094330 0.552094 0.345612
0.339264 0.633179 0.377075
0.698669 0.692383 0.362183
0.853149 0.721710 0.356781
0.042633 0.635651 0.346497
0.103760 0.664642 0.367737
0.337433 0.776062 0.369812
0.716370 0.827393 0.390564
0.839325 0.825836 0.366974
0.050385 0.125610 0.439941
0.103333 0.127136 0.442688
0.311646 0.137329 0.457397
0.599609 0.155945 0.434814
0.738312 0.175354 0.450928
0.048431 0.190948 0.445007
0.116577 0.218872 0.474365
0.327911 0.229340 0.498169
0.633057 0.248199 0.478119
0.769501 0.272827 0.501251
0.033844 0.343628 0.466553
0.102478 0.375702 0.498413
0.288635 0.449646 0.582245
0.665131 0.484528 0.589203
0.823944 0.512329 0.605621
0.031219 0.529724 0.498016
0.093323 0.570099 0.534393
0.236359 0.639465 0.602081
0.689087 0.761414 0.642670
0.870331 0.775848 0.636871
0.039368 0.670471 0.540497
0.108459 0.706085 0.570709
0.225800 0.764343 0.623352
0.716309 0.877014 0.654755
0.855988 0.883789 0.638641
0.066040 0.154968 0.546936
0.120728 0.156555 0.549103
0.306396 0.160461 0.577728
0.598877 0.187500 0.571838
0.737152 0.188385 0.580200
0.065155 0.220642 0.552460
0.133636 0.247284 0.580475
0.284332 0.251923 0.621521
0.623413 0.283905 0.631531
0.762787 0.284576 0.639679
0.057007 0.376038 0.579315
0.123596 0.407654 0.611237
0.273682 0.471954 0.687225
0.663116 0.510681 0.730927
0.807800 0.522766 0.730133
0.040192 0.561035 0.614777
0.103516 0.596100 0.646179
0.246124 0.655670 0.706360
0.705109 0.782074 0.774475
0.842804 0.789520 0.775543
0.039368 0.668549 0.632416
0.101379 0.701538 0.660675
0.237091 0.756622 0.712799
0.686920 0.875000 0.778992
0.857880 0.906006 0.778687
