滤镜资源/Professional Luts Collection/Triune-Digital-Cinematic-LUTs/3D LUTs (CUBE)/REDLOGFILM/Breaking Bad - REDlogFilm.cube
#Created by Benjamin (IWLTBAP) : http://luts.iwltbap.com
#Copyright: (C) Copyright 2016 Triune Films and IWLTBAP
TITLE "Blockbuster LUTs Pack (REDlogFilm)"
#LUT size
LUT_3D_SIZE 8
#LUT data points
DOMAIN_MIN 0.000000 0.000000 0.000000
DOMAIN_MAX 0.903226 0.903226 0.903226
0.007263 0.011139 0.010956
0.034088 0.015594 0.013977
0.101227 0.028534 0.021973
0.288788 0.062469 0.058868
0.516876 0.115204 0.105286
0.688812 0.154663 0.144440
0.782257 0.175354 0.164703
0.833466 0.185059 0.176239
0.010712 0.037506 0.016083
0.033264 0.042572 0.016296
0.095184 0.056763 0.022858
0.262177 0.085876 0.056000
0.493805 0.142395 0.105438
0.669434 0.185333 0.143005
0.779694 0.205231 0.168762
0.835144 0.216553 0.181122
0.017853 0.084351 0.026459
0.040070 0.088745 0.026703
0.086884 0.107605 0.027252
0.256165 0.141754 0.060028
0.465424 0.188751 0.106750
0.637421 0.246399 0.146729
0.740082 0.274292 0.172241
0.800140 0.289215 0.184418
0.035645 0.173645 0.051819
0.058014 0.178986 0.053467
0.098389 0.199097 0.056671
0.241089 0.240692 0.071014
0.454620 0.290070 0.117706
0.613220 0.331207 0.151825
0.707703 0.356476 0.174744
0.763092 0.372192 0.186768
0.062286 0.299286 0.087646
0.084656 0.308777 0.089172
0.119293 0.324127 0.089142
0.242920 0.376404 0.098145
0.448242 0.426331 0.142548
0.593048 0.452820 0.169312
0.678802 0.476379 0.186462
0.732300 0.485718 0.197418
0.095581 0.418579 0.121857
0.114716 0.428955 0.123322
0.155457 0.447693 0.123688
0.276367 0.502014 0.129547
0.427429 0.547302 0.162842
0.563293 0.567139 0.184570
0.648560 0.590179 0.201141
0.699799 0.599060 0.209808
0.119171 0.506744 0.146851
0.137054 0.517059 0.147400
0.186768 0.535004 0.147125
0.296051 0.581451 0.151459
0.420959 0.641815 0.182770
0.548218 0.664032 0.203339
0.628021 0.671661 0.214752
0.679901 0.683502 0.223480
0.135803 0.567444 0.165619
0.151825 0.574493 0.163696
0.206818 0.594177 0.163239
0.313110 0.638000 0.170380
0.407043 0.695404 0.191681
0.534302 0.722046 0.213593
0.615112 0.730499 0.225525
0.664581 0.738495 0.232727
0.010101 0.013885 0.036011
0.033051 0.015106 0.037323
0.097473 0.026520 0.045471
0.296936 0.063019 0.081207
0.519073 0.112030 0.124207
0.683929 0.148224 0.161987
0.771759 0.167847 0.184143
0.820770 0.178162 0.196014
0.010986 0.037170 0.037598
0.036102 0.042542 0.042053
0.108551 0.058685 0.050201
0.333954 0.105591 0.095581
0.556915 0.157410 0.140839
0.708038 0.193390 0.174622
0.800873 0.212341 0.193298
0.849365 0.224518 0.205841
0.018463 0.084167 0.048981
0.042419 0.091949 0.052826
0.094788 0.110229 0.051025
0.291931 0.148926 0.088074
0.498352 0.206482 0.137543
0.672882 0.260895 0.177582
0.764771 0.283600 0.197113
0.820648 0.292572 0.208038
0.035217 0.173096 0.072662
0.061768 0.189178 0.078613
0.103119 0.202667 0.078705
0.263702 0.246033 0.094299
0.479584 0.298157 0.142426
0.632355 0.341888 0.174896
0.722656 0.362274 0.194794
0.781067 0.379669 0.208832
0.062012 0.300201 0.108032
0.088867 0.320953 0.111847
0.125641 0.329102 0.110107
0.258698 0.384674 0.119659
0.466278 0.432098 0.163086
0.607544 0.462463 0.189362
0.693390 0.482849 0.207092
0.747375 0.493134 0.218201
0.095428 0.419800 0.141205
0.117676 0.439423 0.143768
0.167358 0.453522 0.141632
0.287720 0.504333 0.148041
0.448730 0.558197 0.185974
0.575226 0.577148 0.205505
0.656616 0.593140 0.218903
0.708191 0.600677 0.227295
0.118591 0.504517 0.164581
0.140320 0.526581 0.165985
0.202759 0.545776 0.166565
0.312469 0.590240 0.173737
0.432220 0.645264 0.201721
0.559082 0.666718 0.221832
0.636200 0.676697 0.233429
0.687714 0.688324 0.241730
0.135834 0.567352 0.182831
0.167145 0.588715 0.181793
0.234253 0.611938 0.184021
0.328278 0.648834 0.192230
0.415009 0.699585 0.210541
0.545135 0.724579 0.232147
0.622864 0.736847 0.244354
0.671570 0.746552 0.251862
0.017609 0.023590 0.087006
0.039948 0.022034 0.087860
0.083008 0.024933 0.090820
0.258270 0.055908 0.118500
0.497345 0.106079 0.167450
0.663666 0.142731 0.199799
0.750336 0.160980 0.223022
0.798004 0.169708 0.233429
0.018372 0.047241 0.087189
0.045929 0.053528 0.098267
0.097290 0.054382 0.104218
0.326202 0.102386 0.144348
0.557922 0.147980 0.189819
0.708038 0.181427 0.220367
0.793182 0.197906 0.237396
0.838928 0.206726 0.243439
0.020630 0.087830 0.091797
0.044922 0.096710 0.100647
0.107758 0.118439 0.121063
0.333160 0.177856 0.164825
0.571259 0.246887 0.222290
0.716309 0.277832 0.245361
0.803619 0.297729 0.256744
0.855225 0.317749 0.273346
0.037140 0.177185 0.117401
0.061554 0.189697 0.127716
0.113007 0.226013 0.144012
0.283630 0.262512 0.141968
0.504120 0.326538 0.197784
0.658112 0.378174 0.233429
0.750549 0.395508 0.248016
0.809113 0.409729 0.259186
0.061554 0.300354 0.148499
0.088898 0.326599 0.157227
0.136505 0.356323 0.157593
0.278015 0.394257 0.155518
0.489685 0.436981 0.196991
0.618073 0.473877 0.223206
0.705627 0.503601 0.244263
0.764679 0.513153 0.255707
0.094604 0.420410 0.180328
0.118896 0.440765 0.184357
0.179138 0.467865 0.182373
0.304077 0.517120 0.184875
0.465820 0.563477 0.219421
0.589081 0.583527 0.238190
0.673157 0.602631 0.251801
0.729858 0.612518 0.262970
0.116425 0.502930 0.198639
0.140686 0.525208 0.200989
0.225647 0.561432 0.200867
0.333252 0.602295 0.210968
0.448547 0.646667 0.232758
0.572357 0.667236 0.251953
0.647980 0.680634 0.263702
0.703461 0.696838 0.273224
0.133972 0.565735 0.216858
0.156067 0.587097 0.217072
0.253510 0.626312 0.217468
0.347443 0.659149 0.226135
0.432892 0.705536 0.242493
0.559357 0.731293 0.264374
0.637512 0.748077 0.277161
0.684692 0.756958 0.284027
0.025818 0.043213 0.182220
0.046844 0.040222 0.182404
0.086487 0.041595 0.184601
0.199921 0.043640 0.176666
0.438812 0.087402 0.222229
0.619202 0.127960 0.257904
0.699371 0.143616 0.271210
0.734436 0.148895 0.275177
0.029877 0.070557 0.183868
0.052704 0.078247 0.216187
0.097565 0.071106 0.224091
0.255951 0.073730 0.211395
0.501129 0.126617 0.256042
0.670959 0.164795 0.286560
0.758636 0.183258 0.307678
0.805420 0.192078 0.315674
0.035950 0.114136 0.191193
0.059296 0.130890 0.218536
0.109528 0.156799 0.269684
0.325623 0.158478 0.273193
0.569763 0.228394 0.321533
0.731171 0.262177 0.343781
0.817627 0.272095 0.354309
0.868439 0.291779 0.366852
0.045868 0.191315 0.209534
0.068970 0.208252 0.230225
0.118042 0.252014 0.274170
0.319214 0.327942 0.341095
0.570862 0.396667 0.379486
0.725037 0.438202 0.413025
0.809845 0.458344 0.412201
0.863373 0.473419 0.417633
0.075531 0.327728 0.266663
0.099579 0.351013 0.288544
0.142487 0.387573 0.313873
0.320404 0.455841 0.345337
0.505219 0.492004 0.323151
0.652649 0.540833 0.370087
0.749084 0.563568 0.381836
0.805145 0.567596 0.378601
0.101166 0.436584 0.283203
0.121307 0.453156 0.293915
0.162750 0.491333 0.310791
0.320251 0.559021 0.327972
0.449036 0.601746 0.308044
0.611053 0.634796 0.335510
0.706177 0.658966 0.365540
0.765106 0.664062 0.366425
0.120270 0.517426 0.303131
0.141571 0.536407 0.311829
0.183594 0.581604 0.314484
0.344147 0.641541 0.340302
0.447388 0.683807 0.314453
0.580688 0.709991 0.330414
0.673920 0.731476 0.349609
0.735168 0.741272 0.362701
0.130402 0.557617 0.299042
0.155090 0.588257 0.307556
0.197632 0.636230 0.315491
0.343079 0.691376 0.338959
0.455231 0.730347 0.315796
0.560577 0.758514 0.327454
0.653900 0.778320 0.343201
0.712189 0.792511 0.361267
0.030212 0.052887 0.286255
0.051697 0.050446 0.282043
0.088531 0.047852 0.290680
0.181152 0.052124 0.305786
0.400543 0.076294 0.307556
0.594086 0.120605 0.344666
0.671265 0.136017 0.357880
0.707550 0.141876 0.362793
0.035706 0.082611 0.296417
0.064728 0.094238 0.331696
0.100098 0.087677 0.341400
0.196167 0.078400 0.326843
0.427002 0.101654 0.322021
0.614716 0.145538 0.359589
0.704895 0.165649 0.380920
0.754333 0.175507 0.392242
0.046082 0.137177 0.317719
0.073029 0.159088 0.349335
0.128021 0.192902 0.437317
0.286652 0.157471 0.412018
0.534912 0.173859 0.394318
0.695343 0.211395 0.422424
0.778381 0.230896 0.439270
0.829712 0.248871 0.452545
0.060486 0.222290 0.341705
0.085938 0.244385 0.371765
0.135223 0.298401 0.427399
0.318604 0.376770 0.503815
0.575623 0.382812 0.502411
0.731415 0.432526 0.529327
0.827820 0.458954 0.538239
0.881714 0.473846 0.540405
0.083740 0.343597 0.384644
0.106018 0.361603 0.403137
0.149445 0.403412 0.441071
0.290771 0.481628 0.502686
0.566864 0.562286 0.563690
0.723541 0.607819 0.589081
0.822693 0.629089 0.593170
0.877808 0.640564 0.600800
0.113831 0.471161 0.441101
0.135193 0.488861 0.457336
0.178558 0.532410 0.490601
0.291718 0.606598 0.536072
0.547821 0.668518 0.576324
0.675293 0.695618 0.564819
0.780090 0.722809 0.578583
0.836792 0.729919 0.575867
0.137939 0.562866 0.474487
0.159576 0.582855 0.489075
0.199799 0.627655 0.518250
0.290649 0.691376 0.549591
0.537262 0.753815 0.594879
0.641724 0.779083 0.553436
0.744507 0.795990 0.565125
0.807343 0.804504 0.572357
0.152954 0.620270 0.494965
0.174683 0.643219 0.510071
0.212646 0.684570 0.529297
0.295349 0.752777 0.564240
0.534882 0.812653 0.621826
0.654358 0.828125 0.570374
0.719696 0.840668 0.561493
0.787689 0.848907 0.578857
0.041748 0.062469 0.364441
0.059113 0.059052 0.355072
0.092041 0.057617 0.357422
0.165771 0.071960 0.415527
0.426575 0.089508 0.435730
0.596130 0.124847 0.438782
0.667664 0.137665 0.448975
0.703583 0.142944 0.454468
0.048004 0.094269 0.382935
0.071716 0.102356 0.409576
0.103882 0.096252 0.408508
0.177734 0.097595 0.430206
0.438110 0.110962 0.443573
0.600067 0.143250 0.444580
0.677734 0.157013 0.459259
0.716766 0.163025 0.464600
0.058746 0.156433 0.418060
0.084747 0.175598 0.449188
0.134796 0.198151 0.536499
0.228882 0.158081 0.496094
0.482056 0.156342 0.481415
0.642731 0.187134 0.476105
0.731293 0.205292 0.496979
0.786072 0.219788 0.516144
0.073914 0.244263 0.446442
0.101196 0.274475 0.481812
0.150696 0.329895 0.545319
0.311401 0.407379 0.634216
0.554138 0.354767 0.610626
0.721130 0.381592 0.602600
0.813354 0.414673 0.614777
0.863525 0.441376 0.625122
0.097778 0.366913 0.488312
0.121216 0.388855 0.511902
0.162903 0.429108 0.553680
0.294708 0.518646 0.626068
0.554321 0.593353 0.679260
0.727966 0.600769 0.682007
0.834198 0.630890 0.697266
0.889343 0.642761 0.703278
0.123169 0.485535 0.534668
0.143707 0.500397 0.550110
0.180664 0.529358 0.575256
0.287079 0.603088 0.627350
0.537598 0.683350 0.682617
0.735657 0.743927 0.731628
0.839996 0.764771 0.749268
0.893463 0.778839 0.754822
0.146210 0.581543 0.576416
0.165405 0.594330 0.589386
0.201782 0.629547 0.620422
0.293396 0.702148 0.667084
0.520721 0.770996 0.710327
0.741058 0.817963 0.749847
0.808594 0.829773 0.738251
0.867645 0.835968 0.740570
0.161987 0.644531 0.605743
0.180939 0.657867 0.619904
0.219879 0.700073 0.650085
0.293610 0.767120 0.693817
0.522705 0.830261 0.731232
0.745178 0.874451 0.773743
0.805023 0.879822 0.756134
0.853516 0.880829 0.751740
0.046997 0.066223 0.414734
0.062408 0.061951 0.402252
0.094727 0.062103 0.404236
0.160126 0.076599 0.467407
0.409393 0.093719 0.507050
0.604675 0.127319 0.517609
0.669373 0.138306 0.517395
0.703552 0.143250 0.518158
0.052643 0.097076 0.434052
0.074371 0.103638 0.451233
0.105499 0.096893 0.447693
0.167328 0.101471 0.481812
0.418701 0.112976 0.509766
0.612122 0.146271 0.519073
0.670837 0.155029 0.520142
0.706573 0.160217 0.523438
0.067596 0.167023 0.486389
0.090759 0.182068 0.509216
0.139069 0.206421 0.593140
0.210052 0.165802 0.561584
0.454773 0.156006 0.544861
0.642242 0.185730 0.545685
0.704651 0.195435 0.546356
0.760406 0.209198 0.564667
0.084686 0.264648 0.523376
0.109283 0.290924 0.552368
0.157471 0.341125 0.614655
0.283295 0.414093 0.713043
0.533722 0.326172 0.678192
0.709503 0.318726 0.650177
0.785309 0.346069 0.654572
0.841034 0.383423 0.672302
0.107269 0.383911 0.563232
0.129761 0.405060 0.585175
0.174866 0.452301 0.635223
0.285217 0.537689 0.712555
0.553864 0.612457 0.762238
0.716827 0.599335 0.763458
0.831512 0.624268 0.760681
0.882141 0.648499 0.774475
0.130707 0.496582 0.604431
0.149780 0.509552 0.617157
0.190887 0.548706 0.654358
0.286621 0.626190 0.714722
0.535309 0.703796 0.769684
0.751434 0.769226 0.815735
0.837494 0.770905 0.816010
0.897461 0.785614 0.830017
0.151276 0.587402 0.638672
0.169922 0.599396 0.651794
0.206573 0.629242 0.680603
0.292542 0.696411 0.726135
0.508728 0.772736 0.777557
0.730438 0.823700 0.820099
0.857208 0.864319 0.853149
0.909027 0.872223 0.861328
0.166595 0.652069 0.670319
0.185272 0.663361 0.681793
0.222321 0.699829 0.711029
0.294006 0.763031 0.755402
0.499725 0.835266 0.803680
0.742004 0.881683 0.841187
0.866943 0.909576 0.867920
0.892487 0.908142 0.853424
0.048889 0.067902 0.442963
0.063904 0.063202 0.430420
0.096191 0.064728 0.433960
0.159882 0.077881 0.494324
0.395325 0.095795 0.539032
0.605621 0.128113 0.552094
0.669342 0.138641 0.554718
0.704041 0.143646 0.556549
0.055573 0.099030 0.464752
0.080292 0.110840 0.498505
0.110107 0.104675 0.491547
0.167999 0.104584 0.516632
0.396790 0.114471 0.541840
0.608856 0.145752 0.553284
0.670135 0.155304 0.555969
0.706848 0.160583 0.559052
0.069244 0.165192 0.513458
0.092743 0.180725 0.538513
0.141785 0.210510 0.626038
0.208374 0.170593 0.599945
0.441132 0.159668 0.584778
0.638000 0.185455 0.582794
0.709595 0.198486 0.587280
0.753387 0.207336 0.598267
0.090424 0.275482 0.567413
0.114868 0.300842 0.597137
0.162964 0.351715 0.660828
0.276672 0.430450 0.765289
0.521545 0.334534 0.727020
0.700012 0.305756 0.690216
0.783081 0.335846 0.693329
0.828522 0.360352 0.706573
0.116699 0.404663 0.620758
0.140015 0.426331 0.643555
0.182251 0.467682 0.687805
0.283813 0.553009 0.770416
0.553284 0.634216 0.816589
0.720215 0.619110 0.814697
0.830505 0.633270 0.810486
0.878113 0.644592 0.813599
0.136749 0.507202 0.652344
0.156525 0.522491 0.668030
0.198547 0.563049 0.708374
0.284973 0.640289 0.774719
0.529846 0.720581 0.823914
0.757385 0.784210 0.867340
0.842163 0.789124 0.867157
0.893311 0.794342 0.871124
0.155853 0.594818 0.684113
0.174805 0.606537 0.696350
0.212921 0.640717 0.729736
0.292328 0.710724 0.784058
0.517609 0.788147 0.833313
0.749878 0.842102 0.874176
0.870819 0.877960 0.901703
0.910797 0.878632 0.903229
0.170502 0.655334 0.709167
0.189087 0.667053 0.721283
0.224365 0.698547 0.748138
0.299255 0.762573 0.796143
0.501556 0.836975 0.845551
0.738983 0.884857 0.881195
0.868073 0.913483 0.903717
0.919098 0.927704 0.916565
