滤镜资源/Professional Luts Collection/Triune-Digital-Cinematic-LUTs/3D LUTs (CUBE)/REDLOGFILM/Breaking Bad - REDlogFilm.cube
#Created by Benjamin (IWLTBAP) : http://luts.iwltbap.com
#Copyright: (C) Copyright 2016 Triune Films and IWLTBAP
TITLE "Blockbuster LUTs Pack (REDlogFilm)"
#LUT size
LUT_3D_SIZE 5
#LUT data points
DOMAIN_MIN 0.000000 0.000000 0.000000
DOMAIN_MAX 0.903226 0.903226 0.903226
0.007263 0.011139 0.010956
0.078491 0.024109 0.019897
0.414581 0.091492 0.083221
0.717896 0.161285 0.150055
0.833466 0.185059 0.176239
0.015442 0.070282 0.022888
0.069580 0.086975 0.024231
0.361267 0.146851 0.079865
0.679749 0.240601 0.156128
0.811218 0.269440 0.184021
0.048981 0.234680 0.068268
0.096313 0.256927 0.071808
0.364258 0.344421 0.113373
0.631531 0.398193 0.167267
0.746185 0.426422 0.190857
0.102264 0.442932 0.128937
0.149200 0.465820 0.131256
0.333038 0.550171 0.147614
0.581940 0.597229 0.193054
0.693634 0.623138 0.213440
0.135803 0.567444 0.165619
0.189026 0.586304 0.163177
0.355957 0.663452 0.179810
0.557709 0.724945 0.217224
0.664581 0.738495 0.232727
0.015076 0.020355 0.071320
0.067474 0.021820 0.074921
0.398407 0.085114 0.132446
0.696442 0.149750 0.194580
0.804016 0.171844 0.220673
0.017395 0.072021 0.074310
0.082062 0.092041 0.093414
0.465576 0.187164 0.170685
0.742767 0.256042 0.225037
0.855804 0.289795 0.251892
0.048828 0.233582 0.117493
0.104889 0.281006 0.130432
0.396179 0.345459 0.157593
0.656769 0.421173 0.215454
0.782928 0.453339 0.242035
0.101532 0.444550 0.172272
0.170563 0.483429 0.175079
0.365570 0.564331 0.196228
0.601715 0.606445 0.234436
0.715057 0.629303 0.253296
0.134857 0.567108 0.205780
0.232117 0.615662 0.207092
0.380554 0.679474 0.224701
0.578644 0.735138 0.259277
0.680908 0.754578 0.274780
0.025482 0.048553 0.238495
0.074249 0.042847 0.237854
0.289062 0.051788 0.234070
0.635193 0.130524 0.306335
0.719696 0.144592 0.316986
0.035736 0.112396 0.255585
0.101898 0.148804 0.347198
0.420563 0.137390 0.323273
0.723419 0.210419 0.370605
0.834106 0.236603 0.395996
0.062866 0.266266 0.296814
0.118073 0.315735 0.349884
0.460602 0.455292 0.459961
0.754211 0.539459 0.507111
0.868134 0.562073 0.512817
0.115845 0.485901 0.377899
0.165680 0.530121 0.410950
0.424835 0.645721 0.472992
0.661774 0.696869 0.454773
0.787811 0.723145 0.470703
0.143463 0.594147 0.399628
0.192108 0.643799 0.423431
0.420166 0.757507 0.485992
0.603577 0.802948 0.432678
0.746185 0.831207 0.466431
0.043823 0.064056 0.380463
0.083038 0.059540 0.369080
0.273560 0.079285 0.448761
0.620056 0.129761 0.463470
0.703583 0.143036 0.474182
0.058990 0.144836 0.432892
0.119537 0.171783 0.525421
0.322571 0.136536 0.490082
0.647949 0.175659 0.483398
0.753937 0.196411 0.511108
0.088562 0.309906 0.489899
0.146118 0.372101 0.557343
0.438446 0.513611 0.684143
0.754944 0.508362 0.668945
0.875427 0.552429 0.686981
0.131348 0.514648 0.564697
0.176605 0.546844 0.595093
0.404602 0.675293 0.686981
0.772614 0.782654 0.767273
0.897064 0.804535 0.784943
0.162872 0.647400 0.625549
0.208496 0.686249 0.659515
0.383728 0.801453 0.730316
0.783844 0.884857 0.800995
0.864624 0.887970 0.781372
0.048889 0.067902 0.442963
0.086670 0.064484 0.432556
0.231506 0.087158 0.518829
0.630768 0.133087 0.553223
0.704041 0.143646 0.556549
0.065247 0.147064 0.501068
0.123322 0.174622 0.584534
0.279663 0.144318 0.559479
0.652466 0.177551 0.571228
0.736664 0.191345 0.583557
0.103821 0.342285 0.597382
0.159546 0.398926 0.659912
0.398621 0.538971 0.792358
0.742737 0.473114 0.760681
0.859955 0.518311 0.767090
0.141541 0.530975 0.660614
0.188904 0.569092 0.699005
0.389648 0.700378 0.803375
0.793610 0.813538 0.878143
0.898438 0.820129 0.880615
0.170502 0.655334 0.709167
0.213501 0.687347 0.739166
0.391510 0.803833 0.824432
0.782623 0.893890 0.886078
0.919098 0.927704 0.916565
