滤镜资源/Professional Luts Collection/Triune-Digital-Cinematic-LUTs/3D LUTs (CUBE)/REDLOGFILM/Breaking Bad - REDlogFilm.cube
#Created by Benjamin (IWLTBAP) : http://luts.iwltbap.com
#Copyright: (C) Copyright 2016 Triune Films and IWLTBAP
TITLE "Blockbuster LUTs Pack (REDlogFilm)"
#LUT size
LUT_3D_SIZE 32
#LUT data points
0.007263 0.011139 0.010956
0.011932 0.011627 0.011230
0.018250 0.012695 0.011841
0.025421 0.014008 0.012787
0.034088 0.015594 0.013977
0.044708 0.017517 0.015564
0.059753 0.020477 0.017822
0.078491 0.024109 0.019897
0.101227 0.028534 0.021973
0.134064 0.035889 0.029053
0.178894 0.044678 0.040436
0.230957 0.053101 0.050079
0.288788 0.062469 0.058868
0.350891 0.076965 0.070068
0.414581 0.091492 0.083221
0.466766 0.104034 0.093872
0.516876 0.115204 0.105286
0.569580 0.127655 0.118439
0.615112 0.137512 0.129242
0.656006 0.146820 0.138153
0.688812 0.154663 0.144440
0.717896 0.161285 0.150055
0.743378 0.167145 0.155762
0.765106 0.171936 0.160828
0.782257 0.175354 0.164703
0.797638 0.178375 0.168243
0.811249 0.180939 0.171387
0.824463 0.183441 0.174530
0.833466 0.185059 0.176239
0.843567 0.186951 0.178162
0.852539 0.188843 0.179962
0.859711 0.190338 0.181427
0.007996 0.016449 0.011963
0.012543 0.016907 0.012146
0.018188 0.018219 0.012482
0.024994 0.019592 0.013062
0.033600 0.021240 0.014221
0.044189 0.023102 0.015808
0.058929 0.025940 0.018097
0.077271 0.029724 0.020203
0.099579 0.034332 0.021790
0.131958 0.041199 0.028931
0.176300 0.049622 0.040192
0.225739 0.057556 0.049377
0.281342 0.066406 0.057983
0.341553 0.080444 0.069000
0.405365 0.094971 0.082153
0.459076 0.107941 0.092926
0.510590 0.119659 0.104675
0.562561 0.131531 0.117493
0.608429 0.141724 0.128387
0.651550 0.151611 0.137421
0.685425 0.159698 0.144012
0.715576 0.166443 0.149750
0.742004 0.172058 0.155609
0.764465 0.177002 0.160919
0.782623 0.180939 0.165283
0.798248 0.184113 0.168945
0.811890 0.186859 0.172180
0.825134 0.189392 0.175323
0.834961 0.191376 0.177551
0.845032 0.193268 0.179504
0.853760 0.195068 0.181305
0.860931 0.196503 0.182709
0.008850 0.023010 0.013153
0.013397 0.023438 0.013367
0.018921 0.024689 0.013611
0.024963 0.026520 0.013885
0.032990 0.028168 0.014557
0.043518 0.030029 0.016083
0.058136 0.032867 0.018341
0.076111 0.036682 0.020477
0.097961 0.041382 0.022186
0.129669 0.047821 0.028625
0.173370 0.055603 0.040009
0.219269 0.063171 0.048462
0.273468 0.071899 0.056976
0.329956 0.085052 0.067749
0.393219 0.099274 0.080444
0.449097 0.112732 0.091766
0.502533 0.125244 0.103882
0.553680 0.136597 0.116180
0.600098 0.146942 0.127319
0.644836 0.157349 0.136383
0.680786 0.165924 0.143311
0.712097 0.172974 0.149261
0.740112 0.178375 0.155365
0.763580 0.183441 0.161011
0.782684 0.187714 0.165833
0.798798 0.191162 0.169769
0.812592 0.194061 0.173065
0.825958 0.196991 0.176331
0.835968 0.199097 0.178680
0.846893 0.201233 0.181183
0.855530 0.202972 0.182922
0.862427 0.204346 0.184326
0.009705 0.029694 0.014496
0.014221 0.030182 0.014587
0.019806 0.031372 0.014832
0.025574 0.032928 0.014893
0.032684 0.035095 0.015167
0.042542 0.037292 0.016357
0.057068 0.040314 0.018677
0.074921 0.043945 0.020813
0.096710 0.048401 0.022430
0.127594 0.054688 0.028412
0.170166 0.062103 0.039703
0.214691 0.069672 0.047760
0.268066 0.078217 0.056488
0.323059 0.090881 0.067078
0.384705 0.105164 0.079865
0.443207 0.119354 0.091766
0.498169 0.132904 0.104523
0.548767 0.144897 0.116638
0.594330 0.155731 0.126953
0.639038 0.166199 0.135895
0.675934 0.174133 0.143219
0.707916 0.180939 0.149872
0.737549 0.186310 0.156403
0.761841 0.191345 0.162140
0.781555 0.195435 0.167053
0.798615 0.199066 0.171143
0.812561 0.201935 0.174408
0.826019 0.204803 0.177582
0.835510 0.207123 0.179626
0.846588 0.209442 0.182190
0.855194 0.211334 0.183929
0.862030 0.212708 0.185303
0.010712 0.037506 0.016083
0.015167 0.037994 0.016144
0.020782 0.039062 0.016266
0.026520 0.040710 0.016266
0.033264 0.042572 0.016296
0.041840 0.045502 0.016907
0.055725 0.048645 0.018951
0.073547 0.052399 0.021179
0.095184 0.056763 0.022858
0.126007 0.062988 0.028534
0.166901 0.070343 0.039429
0.209991 0.077667 0.047028
0.262177 0.085876 0.056000
0.316437 0.098206 0.066437
0.375916 0.112640 0.079315
0.436584 0.127380 0.091949
0.493805 0.142395 0.105438
0.545807 0.155487 0.118500
0.588715 0.167114 0.127106
0.632507 0.177795 0.135529
0.669434 0.185333 0.143005
0.702637 0.191162 0.150574
0.734039 0.196320 0.157898
0.759491 0.201355 0.163849
0.779694 0.205231 0.168762
0.797241 0.208679 0.172852
0.812042 0.211548 0.176178
0.825745 0.214264 0.179169
0.835144 0.216553 0.181122
0.845520 0.219116 0.183228
0.854095 0.221191 0.184906
0.860962 0.222809 0.186249
0.011749 0.046112 0.017700
0.016235 0.046600 0.017670
0.021851 0.047516 0.017731
0.027649 0.049164 0.017792
0.034454 0.051086 0.017792
0.042511 0.053772 0.018097
0.054565 0.057831 0.019226
0.071960 0.061462 0.021484
0.093353 0.065887 0.023102
0.123932 0.072021 0.028534
0.165192 0.079498 0.039551
0.207153 0.086975 0.046783
0.258331 0.095215 0.056091
0.312317 0.107361 0.066498
0.368713 0.121185 0.078857
0.429199 0.135284 0.091705
0.485962 0.151093 0.104462
0.539734 0.166229 0.118256
0.584229 0.179321 0.127869
0.626801 0.190979 0.136841
0.663055 0.198029 0.144440
0.696503 0.203613 0.152435
0.727661 0.208740 0.159790
0.753143 0.213623 0.165771
0.772827 0.217590 0.170074
0.791809 0.220642 0.173737
0.806763 0.223419 0.176849
0.820282 0.226105 0.179626
0.830292 0.228058 0.181458
0.840881 0.230469 0.183563
0.849609 0.232574 0.185242
0.856415 0.234192 0.186584
0.013336 0.057434 0.020020
0.017670 0.057892 0.020050
0.023315 0.058563 0.020020
0.029175 0.060303 0.020020
0.036072 0.062317 0.020081
0.043976 0.064911 0.020355
0.054871 0.068939 0.020905
0.070190 0.073975 0.021973
0.090881 0.078339 0.023560
0.120453 0.084442 0.028625
0.163330 0.092194 0.039734
0.204285 0.099731 0.046997
0.254395 0.108368 0.056671
0.308014 0.120087 0.066864
0.364075 0.133148 0.079315
0.421753 0.146210 0.092010
0.478455 0.161804 0.104614
0.531036 0.179932 0.118011
0.578461 0.194366 0.128784
0.621216 0.208038 0.138855
0.655975 0.216370 0.146820
0.689209 0.221954 0.154907
0.719849 0.227448 0.162384
0.744019 0.233002 0.167877
0.763153 0.237305 0.171814
0.781830 0.240082 0.175171
0.798218 0.242279 0.178040
0.811981 0.244690 0.180664
0.821625 0.246582 0.182587
0.832794 0.248810 0.184631
0.842133 0.250824 0.186462
0.849060 0.252533 0.187775
0.015442 0.070282 0.022888
0.019806 0.070526 0.022888
0.025330 0.071045 0.022919
0.030975 0.072845 0.023041
0.037994 0.074982 0.023071
0.045471 0.077789 0.023376
0.056183 0.081879 0.023987
0.069580 0.086975 0.024231
0.088989 0.092896 0.024445
0.118042 0.098846 0.029449
0.160492 0.106812 0.040283
0.204102 0.114990 0.048584
0.253540 0.123840 0.057892
0.306763 0.134796 0.068054
0.361267 0.146851 0.079865
0.416901 0.159271 0.093170
0.471588 0.174072 0.105560
0.521851 0.192596 0.117950
0.570557 0.208801 0.129333
0.614380 0.223083 0.139679
0.647980 0.233215 0.147919
0.679749 0.240601 0.156128
0.709991 0.246979 0.163818
0.733215 0.253387 0.168945
0.751648 0.258362 0.172791
0.769531 0.262085 0.176086
0.785950 0.264465 0.178864
0.800781 0.266541 0.181671
0.811218 0.269440 0.184021
0.822021 0.271515 0.186188
0.831329 0.273712 0.188080
0.838928 0.275360 0.189545
0.017853 0.084351 0.026459
0.022156 0.084839 0.026520
0.027740 0.085052 0.026520
0.033356 0.086365 0.026581
0.040070 0.088745 0.026703
0.047119 0.091858 0.027100
0.057434 0.096344 0.027924
0.071045 0.101746 0.028107
0.086884 0.107605 0.027252
0.116577 0.114807 0.030884
0.157959 0.122803 0.041412
0.205292 0.132202 0.051056
0.256165 0.141754 0.060028
0.309021 0.151367 0.069946
0.360474 0.161835 0.081055
0.412781 0.174164 0.093689
0.465424 0.188751 0.106750
0.514526 0.205841 0.118744
0.561554 0.221313 0.129547
0.603668 0.235535 0.138733
0.637421 0.246399 0.146729
0.667877 0.255096 0.154541
0.697906 0.262695 0.162476
0.721771 0.269104 0.168121
0.740082 0.274292 0.172241
0.757690 0.278870 0.175873
0.773773 0.282562 0.178864
0.788940 0.285614 0.181732
0.800140 0.289215 0.184418
0.812195 0.292938 0.187225
0.822052 0.295715 0.189453
0.829346 0.297424 0.191010
0.020355 0.101715 0.031128
0.024750 0.102509 0.031311
0.030243 0.103210 0.031464
0.036041 0.104004 0.031555
0.042389 0.106049 0.031616
0.049225 0.109406 0.032013
0.059692 0.114288 0.032715
0.073212 0.120056 0.033203
0.089752 0.126526 0.032410
0.110901 0.134491 0.033173
0.153839 0.143555 0.043121
0.201172 0.152527 0.052307
0.255341 0.162415 0.061615
0.308777 0.171967 0.072113
0.360718 0.182709 0.083099
0.410675 0.195129 0.095245
0.459320 0.208710 0.107330
0.506775 0.221893 0.119995
0.552887 0.236389 0.130493
0.593323 0.251007 0.138519
0.626892 0.262665 0.145538
0.657166 0.271759 0.153015
0.686829 0.280243 0.160736
0.712036 0.287170 0.167236
0.729980 0.291992 0.171448
0.746857 0.296265 0.175323
0.762512 0.300232 0.178436
0.778015 0.303894 0.181427
0.789673 0.307831 0.184052
0.802460 0.312073 0.187225
0.813385 0.315765 0.189850
0.821899 0.318420 0.191864
0.022675 0.121857 0.036346
0.027222 0.122589 0.036469
0.032837 0.123535 0.036682
0.038788 0.124695 0.036987
0.045349 0.126465 0.037231
0.052216 0.129852 0.037781
0.062073 0.135162 0.038696
0.075409 0.141541 0.039734
0.092041 0.148865 0.040558
0.114685 0.157959 0.041748
0.145660 0.166901 0.044586
0.195740 0.176178 0.054260
0.251312 0.185394 0.063263
0.304443 0.196198 0.074249
0.356812 0.208679 0.085480
0.408264 0.221680 0.096893
0.455627 0.232819 0.108612
0.500702 0.243530 0.120605
0.544678 0.255463 0.130981
0.586273 0.271057 0.139435
0.619720 0.282562 0.146179
0.649963 0.290985 0.153290
0.678040 0.298523 0.160553
0.703918 0.305725 0.167419
0.723022 0.311493 0.172211
0.739563 0.316040 0.176025
0.754395 0.319916 0.179230
0.768890 0.323608 0.182098
0.780029 0.327484 0.184601
0.792938 0.331970 0.187653
0.803955 0.336029 0.190399
0.812653 0.339111 0.192566
0.027924 0.145752 0.043274
0.032532 0.146484 0.043457
0.038239 0.147278 0.043732
0.044128 0.148529 0.044159
0.050781 0.150208 0.044678
0.057556 0.153625 0.045105
0.067047 0.159027 0.046143
0.078827 0.165405 0.047455
0.093933 0.172119 0.048859
0.117462 0.181488 0.050446
0.146667 0.192535 0.050110
0.187988 0.201080 0.056580
0.245941 0.211517 0.066620
0.302612 0.225159 0.077728
0.355835 0.238281 0.089417
0.405853 0.249664 0.100067
0.454437 0.259857 0.111816
0.500824 0.270172 0.124298
0.543060 0.282104 0.133881
0.582886 0.294983 0.141937
0.615906 0.304993 0.148438
0.645386 0.312500 0.154938
0.672668 0.319305 0.161865
0.696838 0.326263 0.168304
0.715485 0.331604 0.172974
0.732208 0.336853 0.176971
0.746918 0.341522 0.180359
0.760742 0.345642 0.183197
0.771545 0.349060 0.185516
0.783844 0.352936 0.188232
0.795380 0.356812 0.191223
0.804504 0.359924 0.193604
0.035645 0.173645 0.051819
0.040253 0.174713 0.052094
0.045929 0.176056 0.052490
0.051605 0.177399 0.052917
0.058014 0.178986 0.053467
0.064789 0.182159 0.053711
0.074066 0.187134 0.054352
0.085144 0.192596 0.055420
0.098389 0.199097 0.056671
0.119507 0.207550 0.057678
0.149902 0.219177 0.058746
0.188629 0.230133 0.062714
0.241089 0.240692 0.071014
0.301636 0.256470 0.083282
0.361267 0.271210 0.097015
0.409698 0.281250 0.107697
0.454620 0.290070 0.117706
0.500549 0.299866 0.128540
0.542877 0.311920 0.137848
0.581543 0.322815 0.145538
0.613220 0.331207 0.151825
0.640961 0.338196 0.157837
0.666565 0.344543 0.164246
0.689545 0.351135 0.170258
0.707703 0.356476 0.174744
0.724213 0.360931 0.178406
0.738800 0.364838 0.181610
0.752808 0.369263 0.184631
0.763092 0.372192 0.186768
0.774872 0.375916 0.189301
0.785828 0.379028 0.191864
0.794739 0.381622 0.194000
0.043518 0.204315 0.060822
0.048035 0.205475 0.061157
0.053436 0.206879 0.061523
0.058899 0.208435 0.061829
0.065002 0.210205 0.062134
0.072144 0.212738 0.062225
0.081055 0.217590 0.062469
0.091034 0.223328 0.063232
0.103516 0.230011 0.064362
0.123688 0.237793 0.065521
0.153259 0.248352 0.067352
0.191040 0.262604 0.070465
0.243256 0.275635 0.078491
0.301178 0.291595 0.091309
0.368896 0.307678 0.106964
0.415283 0.316132 0.116821
0.456146 0.322449 0.125244
0.500763 0.330933 0.134064
0.541168 0.341278 0.142273
0.579926 0.351868 0.150208
0.611176 0.360199 0.156708
0.637390 0.367737 0.162415
0.661194 0.374420 0.167786
0.682739 0.379974 0.173065
0.699615 0.384430 0.176849
0.715424 0.388336 0.180206
0.729523 0.391815 0.183105
0.743439 0.395264 0.185974
0.754028 0.398010 0.188354
0.765991 0.401093 0.191040
0.776428 0.403900 0.193359
0.784790 0.406067 0.195251
0.048981 0.234680 0.068268
0.053589 0.236572 0.068787
0.059052 0.238678 0.069336
0.064850 0.240814 0.070068
0.071320 0.243286 0.070648
0.077759 0.246216 0.071045
0.085968 0.251282 0.071411
0.096313 0.256927 0.071808
0.109222 0.263184 0.072571
0.129150 0.270782 0.073273
0.158936 0.282135 0.073914
0.196747 0.298767 0.076447
0.242828 0.314972 0.086487
0.302704 0.328156 0.099335
0.364258 0.344421 0.113373
0.417480 0.353973 0.124573
0.457184 0.358337 0.131927
0.500153 0.364990 0.139832
0.539032 0.372650 0.147675
0.576477 0.382690 0.155487
0.605621 0.390839 0.161682
0.631531 0.398193 0.167267
0.654785 0.404877 0.171997
0.675232 0.410156 0.175903
0.691437 0.413391 0.179230
0.707001 0.416931 0.182434
0.721436 0.420471 0.185516
0.735626 0.424011 0.188599
0.746185 0.426422 0.190857
0.758148 0.429291 0.193542
0.767975 0.431976 0.195709
0.775848 0.434082 0.197479
0.054596 0.266205 0.076569
0.059204 0.267792 0.077240
0.064789 0.269867 0.078217
0.070557 0.272156 0.078857
0.077179 0.274841 0.079559
0.083557 0.277649 0.079712
0.091888 0.281738 0.079926
0.101349 0.287598 0.080109
0.114319 0.293549 0.080566
0.133301 0.301239 0.080566
0.163422 0.313232 0.080353
0.200500 0.328339 0.082336
0.240448 0.347443 0.092010
0.297455 0.359650 0.103729
0.354675 0.373291 0.116669
0.408020 0.385284 0.129028
0.457550 0.393585 0.138245
0.498230 0.399292 0.145538
0.536194 0.405640 0.152924
0.571899 0.412109 0.159943
0.599213 0.420654 0.165588
0.624756 0.428314 0.170807
0.648346 0.435822 0.175568
0.668884 0.441254 0.179504
0.685089 0.444458 0.182770
0.700836 0.447540 0.186066
0.715302 0.450562 0.189148
0.729340 0.453613 0.192078
0.739716 0.455658 0.194183
0.751312 0.458008 0.196625
0.760864 0.460602 0.198700
0.768524 0.462708 0.200409
0.062286 0.299286 0.087646
0.066956 0.300995 0.088074
0.072571 0.303070 0.088715
0.078094 0.305725 0.088898
0.084656 0.308777 0.089172
0.090790 0.310760 0.089172
0.099548 0.313721 0.089172
0.108521 0.318878 0.088989
0.119293 0.324127 0.089142
0.137695 0.331635 0.088989
0.167847 0.343933 0.088531
0.205017 0.359039 0.089813
0.242920 0.376404 0.098145
0.288361 0.391602 0.107117
0.344879 0.400879 0.119873
0.396332 0.412354 0.131805
0.448242 0.426331 0.142548
0.494049 0.434143 0.150879
0.531219 0.439972 0.157959
0.565369 0.446014 0.164276
0.593048 0.452820 0.169312
0.618805 0.460236 0.174316
0.642487 0.467987 0.179230
0.662598 0.473022 0.183167
0.678802 0.476379 0.186462
0.694153 0.478973 0.189606
0.708221 0.481415 0.192444
0.722015 0.483948 0.195282
0.732300 0.485718 0.197418
0.743774 0.487885 0.199768
0.753265 0.489899 0.201752
0.760742 0.491730 0.203369
0.071869 0.334045 0.098511
0.076385 0.335754 0.098785
0.081970 0.338257 0.099274
0.086945 0.339905 0.098999
0.093018 0.342377 0.098663
0.099304 0.343933 0.098450
0.108032 0.346069 0.098389
0.116974 0.350311 0.098267
0.126984 0.355804 0.098145
0.145050 0.363678 0.098083
0.175476 0.376404 0.097900
0.214111 0.392700 0.099304
0.250305 0.409668 0.105530
0.284546 0.426453 0.112457
0.340271 0.432861 0.125061
0.389648 0.444946 0.136566
0.437103 0.456970 0.146118
0.485962 0.467377 0.155273
0.525604 0.474579 0.162964
0.558929 0.480042 0.168701
0.586243 0.486359 0.173523
0.611786 0.492615 0.178253
0.636017 0.498962 0.182861
0.655701 0.503845 0.186798
0.671082 0.507294 0.189911
0.686096 0.510162 0.192993
0.699677 0.512482 0.195740
0.712891 0.514709 0.198334
0.723297 0.516602 0.200562
0.734924 0.518646 0.202911
0.744843 0.520416 0.204987
0.752655 0.521820 0.206573
0.080750 0.365387 0.107330
0.084991 0.366669 0.107361
0.090057 0.368347 0.107513
0.094910 0.369934 0.107147
0.100647 0.371643 0.106659
0.107178 0.374146 0.106995
0.115662 0.376984 0.107330
0.124603 0.381165 0.107605
0.135071 0.386993 0.107361
0.154541 0.396057 0.106812
0.186707 0.408325 0.106628
0.225952 0.425629 0.109131
0.260559 0.443512 0.113953
0.291229 0.459137 0.121094
0.337463 0.465363 0.130951
0.385406 0.476196 0.141754
0.431427 0.487091 0.150818
0.478058 0.496368 0.159271
0.516846 0.502563 0.166138
0.552216 0.509674 0.172516
0.579376 0.515686 0.177399
0.604675 0.521576 0.182190
0.627869 0.527100 0.186493
0.647369 0.531769 0.190155
0.663330 0.535553 0.193176
0.677917 0.538330 0.196075
0.691315 0.540710 0.198730
0.704529 0.542999 0.201416
0.714966 0.545013 0.203583
0.726685 0.547272 0.206055
0.736786 0.549225 0.208160
0.744720 0.550690 0.209808
0.088562 0.392975 0.114502
0.092621 0.394684 0.114807
0.097473 0.396667 0.115143
0.102417 0.399170 0.115387
0.108185 0.401917 0.115570
0.114319 0.405029 0.116058
0.123047 0.408875 0.116669
0.133636 0.413239 0.116913
0.146057 0.419647 0.116211
0.166504 0.428650 0.115479
0.199310 0.441071 0.115662
0.236633 0.458374 0.118896
0.269867 0.475983 0.122650
0.298584 0.490021 0.129425
0.335175 0.498444 0.137115
0.380585 0.506104 0.146881
0.426361 0.516663 0.155823
0.472137 0.525574 0.164093
0.510284 0.531433 0.170532
0.542145 0.535706 0.175507
0.571899 0.543579 0.181427
0.597687 0.549774 0.186523
0.620300 0.555237 0.190491
0.639618 0.560028 0.194153
0.655273 0.563812 0.197113
0.670166 0.566803 0.199738
0.683777 0.569305 0.202118
0.696472 0.571442 0.204620
0.706696 0.573090 0.206665
0.718414 0.575378 0.209106
0.728577 0.577301 0.211243
0.736572 0.578796 0.212921
0.095581 0.418579 0.121857
0.099426 0.420471 0.122101
0.104279 0.422760 0.122528
0.109100 0.425629 0.122925
0.114716 0.428955 0.123322
0.120697 0.432373 0.124023
0.131073 0.436249 0.124512
0.142273 0.441162 0.124603
0.155457 0.447693 0.123688
0.177032 0.457031 0.123199
0.209625 0.469879 0.124359
0.244598 0.485779 0.126190
0.276367 0.502014 0.129547
0.304138 0.514740 0.135345
0.333374 0.525208 0.142212
0.377716 0.534210 0.152588
0.427429 0.547302 0.162842
0.471527 0.555481 0.170563
0.506927 0.560272 0.176086
0.538269 0.563782 0.180664
0.563293 0.567139 0.184570
0.590454 0.575134 0.190216
0.613403 0.581543 0.194458
0.632568 0.586395 0.198059
0.648560 0.590179 0.201141
0.663391 0.593109 0.203766
0.676697 0.595551 0.206024
0.689819 0.597809 0.208282
0.699799 0.599060 0.209808
0.711060 0.600464 0.211914
0.720886 0.601746 0.213806
0.728943 0.603333 0.215454
0.102264 0.442932 0.128937
0.105835 0.444977 0.129059
0.110413 0.447449 0.129333
0.115265 0.450745 0.129822
0.120941 0.454529 0.130310
0.126801 0.457245 0.131012
0.136993 0.461090 0.131470
0.149200 0.465820 0.131256
0.162811 0.472443 0.130493
0.186005 0.482452 0.130157
0.218262 0.495697 0.131531
0.250977 0.510406 0.132690
0.281891 0.525208 0.135162
0.309418 0.537323 0.140930
0.333038 0.550171 0.147614
0.375061 0.561462 0.158417
0.427734 0.575989 0.169464
0.470825 0.584534 0.177063
0.504089 0.588318 0.181824
0.534332 0.591461 0.186096
0.560211 0.594360 0.189941
0.581940 0.597229 0.193054
0.606445 0.605194 0.198151
0.627350 0.611328 0.202454
0.643280 0.615204 0.205536
0.658325 0.618134 0.208160
0.671417 0.620361 0.210327
0.683960 0.622467 0.212280
0.693634 0.623138 0.213440
0.704651 0.624115 0.214935
0.714294 0.625153 0.216583
0.722076 0.625977 0.217987
0.108337 0.465942 0.135162
0.111969 0.468536 0.135437
0.116577 0.471710 0.135803
0.121277 0.474670 0.136383
0.126953 0.478363 0.137085
0.132935 0.480957 0.137238
0.142822 0.484070 0.137482
0.155487 0.488556 0.137268
0.170380 0.495453 0.136749
0.194794 0.506104 0.136932
0.225830 0.519043 0.137695
0.256287 0.532166 0.138245
0.286926 0.546326 0.141022
0.314758 0.558502 0.146973
0.337799 0.572815 0.154083
0.373169 0.587891 0.164093
0.426056 0.601990 0.175140
0.468353 0.610748 0.182587
0.501678 0.615082 0.187378
0.530884 0.618286 0.191467
0.556641 0.620911 0.195221
0.579285 0.623291 0.198547
0.599396 0.625977 0.201385
0.620880 0.632507 0.205780
0.638458 0.638092 0.209625
0.653687 0.641327 0.212433
0.666687 0.643616 0.214539
0.678772 0.645508 0.216217
0.688324 0.645935 0.217194
0.699066 0.646393 0.218323
0.708313 0.646851 0.219391
0.715790 0.647400 0.220398
0.114105 0.488220 0.141418
0.117706 0.490417 0.141632
0.122223 0.493073 0.141907
0.126923 0.496124 0.142365
0.132507 0.499664 0.142914
0.138367 0.501923 0.142883
0.148132 0.504883 0.142883
0.162048 0.509491 0.142792
0.179077 0.516998 0.142426
0.201599 0.526459 0.142548
0.230927 0.538666 0.143036
0.260956 0.551697 0.143494
0.291748 0.565460 0.146606
0.319519 0.577881 0.152649
0.341919 0.592651 0.159790
0.370911 0.610504 0.168854
0.423126 0.624023 0.179413
0.464844 0.633667 0.186829
0.498322 0.639038 0.191864
0.527252 0.642426 0.196014
0.552185 0.644684 0.199677
0.575439 0.646759 0.203156
0.596466 0.649139 0.206207
0.615051 0.651062 0.208649
0.632660 0.656525 0.212402
0.648590 0.661011 0.215576
0.661987 0.663910 0.217896
0.674164 0.666046 0.219635
0.683685 0.666534 0.220642
0.694397 0.666962 0.221741
0.703552 0.667297 0.222656
0.710876 0.667572 0.223389
0.119171 0.506744 0.146851
0.122681 0.508911 0.146973
0.127167 0.511566 0.147247
0.131653 0.513977 0.147186
0.137054 0.517059 0.147400
0.142914 0.519257 0.147369
0.154480 0.521973 0.147583
0.169281 0.527405 0.147430
0.186768 0.535004 0.147125
0.208282 0.544098 0.147064
0.234650 0.554504 0.147308
0.264679 0.567780 0.147919
0.296051 0.581451 0.151459
0.323639 0.593994 0.157623
0.345306 0.609253 0.164520
0.368713 0.628876 0.172607
0.420959 0.641815 0.182770
0.462006 0.652069 0.190186
0.494781 0.657867 0.195251
0.523468 0.661682 0.199615
0.548218 0.664032 0.203339
0.571442 0.666077 0.206696
0.593292 0.668030 0.209930
0.612518 0.669952 0.212585
0.628021 0.671661 0.214752
0.643860 0.676117 0.217834
0.657623 0.679718 0.220306
0.670258 0.682800 0.222412
0.679901 0.683502 0.223480
0.690582 0.684082 0.224701
0.699738 0.684509 0.225616
0.707001 0.684784 0.226379
0.123932 0.524078 0.152130
0.127289 0.525787 0.152039
0.131622 0.528320 0.152161
0.136047 0.530579 0.151947
0.141266 0.533295 0.151794
0.146912 0.535370 0.151733
0.160400 0.538269 0.152130
0.175507 0.544403 0.151947
0.193115 0.552185 0.151794
0.214935 0.561340 0.151733
0.240631 0.571564 0.151886
0.269592 0.584473 0.152618
0.300507 0.597107 0.156555
0.327728 0.609741 0.162598
0.348206 0.624420 0.168793
0.371796 0.643341 0.176392
0.417511 0.657745 0.185486
0.458344 0.667999 0.192841
0.490967 0.674561 0.198090
0.519318 0.678772 0.202667
0.543976 0.681458 0.206299
0.567291 0.683563 0.209839
0.589172 0.685455 0.213013
0.609406 0.686951 0.215912
0.625153 0.688538 0.218079
0.639404 0.690460 0.220032
0.653137 0.694214 0.222595
0.665985 0.697937 0.224915
0.676056 0.700470 0.226562
0.686920 0.701355 0.227875
0.696075 0.701935 0.228882
0.703369 0.702209 0.229645
0.128204 0.539886 0.157074
0.131500 0.541290 0.156708
0.135681 0.543427 0.156647
0.139923 0.545380 0.156219
0.145111 0.547913 0.155914
0.151001 0.550079 0.155792
0.164246 0.552917 0.156158
0.180878 0.559692 0.156036
0.198608 0.567749 0.155975
0.220398 0.576965 0.156128
0.246490 0.587402 0.156372
0.275146 0.600006 0.157379
0.305481 0.611938 0.161652
0.331482 0.624237 0.167267
0.350952 0.638489 0.172760
0.374481 0.656006 0.179657
0.413513 0.671783 0.187744
0.454468 0.681763 0.195038
0.486969 0.688629 0.200348
0.515472 0.693390 0.205109
0.540558 0.696655 0.209106
0.563599 0.698853 0.212494
0.585236 0.700928 0.215729
0.605713 0.702240 0.218628
0.622009 0.703674 0.220886
0.636383 0.705536 0.222870
0.649017 0.707520 0.224609
0.661804 0.711517 0.227051
0.672058 0.714172 0.228821
0.683350 0.716919 0.230682
0.692627 0.717987 0.231842
0.699951 0.718414 0.232666
0.132477 0.555695 0.162109
0.135742 0.556976 0.161682
0.139801 0.558533 0.161133
0.143890 0.560242 0.160583
0.148834 0.562256 0.160004
0.155182 0.564575 0.159851
0.168823 0.567566 0.160156
0.185181 0.574554 0.160004
0.202911 0.582642 0.159973
0.226440 0.592407 0.160400
0.252380 0.602966 0.160919
0.281403 0.615021 0.162415
0.310730 0.626740 0.166840
0.335114 0.638824 0.171814
0.353790 0.652466 0.176697
0.377441 0.668793 0.183075
0.409576 0.685486 0.189972
