滤镜资源/Professional Luts Collection/Triune-Digital-Cinematic-LUTs/3D LUTs (CUBE)/REDLOGFILM/Captain America Civil War - REDlogFilm.cube
#Created by Benjamin (IWLTBAP) : http://luts.iwltbap.com
#Copyright: (C) Copyright 2016 Triune Films and IWLTBAP
TITLE "Blockbuster LUTs Pack (REDlogFilm)"
#LUT size
LUT_3D_SIZE 8
#LUT data points
DOMAIN_MIN 0.000000 0.000000 0.000000
DOMAIN_MAX 0.903226 0.903226 0.903226
0.001221 0.001709 0.000366
0.035217 0.010803 0.006714
0.115173 0.027924 0.020905
0.262543 0.058868 0.042816
0.495392 0.130524 0.086792
0.665619 0.199402 0.118256
0.734619 0.226410 0.125061
0.779083 0.246582 0.139038
0.004547 0.033112 0.004364
0.033112 0.039673 0.010040
0.115387 0.054291 0.024078
0.259186 0.084900 0.043854
0.491516 0.153107 0.087921
0.666901 0.223938 0.121124
0.740082 0.253052 0.127472
0.787262 0.274292 0.143188
0.001831 0.106720 0.007446
0.024109 0.112000 0.009613
0.111816 0.117889 0.022400
0.255066 0.141327 0.049805
0.475250 0.208160 0.090454
0.668243 0.277588 0.128082
0.751831 0.309509 0.134613
0.800842 0.333557 0.154846
0.000000 0.249695 0.027863
0.021118 0.252380 0.029999
0.064575 0.264954 0.030731
0.261475 0.267059 0.034698
0.486115 0.322388 0.111938
0.683167 0.384583 0.145142
0.768890 0.415009 0.151184
0.815521 0.438141 0.178223
0.009277 0.443817 0.087463
0.031464 0.444702 0.090485
0.078827 0.455475 0.093628
0.168396 0.488922 0.070587
0.521362 0.499542 0.092651
0.713104 0.549408 0.178711
0.804047 0.569458 0.176239
0.841492 0.581299 0.204071
0.047791 0.625427 0.152161
0.068848 0.624420 0.157074
0.114441 0.627319 0.159302
0.201721 0.650391 0.165619
0.463104 0.674286 0.055573
0.728790 0.700531 0.116974
0.822449 0.706543 0.250031
0.859436 0.714355 0.267853
0.072266 0.735779 0.186310
0.093170 0.733337 0.191589
0.137848 0.737183 0.195526
0.223877 0.755432 0.215759
0.342499 0.773712 0.225281
0.709747 0.803894 0.141144
0.834229 0.807831 0.155334
0.877380 0.812134 0.221100
0.082214 0.798981 0.209625
0.104370 0.795624 0.216248
0.151917 0.797852 0.223816
0.240021 0.813019 0.243317
0.362213 0.841400 0.263672
0.695312 0.859009 0.184204
0.823975 0.871368 0.148682
0.878723 0.872955 0.158295
0.001984 0.002380 0.022064
0.034058 0.005096 0.026062
0.116974 0.026184 0.040283
0.265594 0.056458 0.063049
0.495239 0.127106 0.105865
0.667603 0.195496 0.138245
0.736725 0.224365 0.145050
0.779510 0.246460 0.158936
0.004669 0.033539 0.025604
0.031250 0.037720 0.029236
0.117859 0.053741 0.043884
0.263672 0.081451 0.064484
0.496613 0.151245 0.108063
0.669464 0.221649 0.140228
0.741028 0.251373 0.147247
0.786499 0.273773 0.164124
0.002502 0.106598 0.031921
0.024323 0.111938 0.033051
0.107666 0.122803 0.042114
0.258301 0.140137 0.069183
0.481934 0.204651 0.110352
0.672485 0.276733 0.146301
0.758118 0.310150 0.156738
0.804474 0.334961 0.181366
0.000000 0.248138 0.056824
0.021118 0.253296 0.056976
0.064758 0.265472 0.060059
0.263214 0.267181 0.057404
0.494904 0.324951 0.132782
0.691162 0.387756 0.165070
0.775726 0.417969 0.177338
0.816376 0.438690 0.209381
0.007141 0.442047 0.122223
0.030212 0.445099 0.119232
0.078674 0.457184 0.120972
0.168274 0.490417 0.103363
0.530701 0.507904 0.115356
0.719391 0.554047 0.201416
0.801239 0.568024 0.201202
0.836334 0.576996 0.233337
0.047516 0.623688 0.181824
0.069580 0.624786 0.181824
0.115601 0.628296 0.183990
0.202179 0.651428 0.192749
0.472870 0.679901 0.081360
0.731079 0.702942 0.153076
0.821075 0.705261 0.271606
0.858521 0.713257 0.288300
0.072388 0.734100 0.214447
0.094025 0.735718 0.215668
0.138855 0.738892 0.219604
0.224945 0.756897 0.241150
0.340393 0.772858 0.250763
0.709259 0.804199 0.176666
0.832855 0.806976 0.180878
0.876892 0.812164 0.244263
0.082794 0.796021 0.238251
0.106201 0.797577 0.241211
0.153381 0.798798 0.248810
0.242035 0.814819 0.269104
0.363556 0.841492 0.287170
0.694885 0.858459 0.212952
0.823761 0.871246 0.172455
0.879120 0.872772 0.182800
0.003448 0.006409 0.074585
0.028900 0.005768 0.078308
0.116455 0.014404 0.084595
0.265198 0.055176 0.105560
0.501312 0.122925 0.148834
0.671814 0.193878 0.180542
0.739349 0.223602 0.190094
0.779053 0.246490 0.208252
0.005707 0.039337 0.074738
0.025513 0.036774 0.079834
0.112396 0.044708 0.086609
0.263123 0.076508 0.106293
0.498871 0.142731 0.149292
0.674469 0.218964 0.182190
0.743347 0.249664 0.193848
0.786346 0.273804 0.216614
0.004059 0.108063 0.084808
0.025146 0.114136 0.091858
0.089844 0.122467 0.112366
0.265503 0.138611 0.112061
0.492310 0.197235 0.155701
0.677887 0.272949 0.188141
0.760834 0.311676 0.210754
0.801147 0.333740 0.240173
0.000031 0.248993 0.125427
0.021332 0.253754 0.125580
0.064606 0.267059 0.128143
0.254303 0.264038 0.107025
0.506653 0.323486 0.174866
0.698975 0.392487 0.215942
0.778900 0.421600 0.249573
0.814819 0.440277 0.285736
0.004852 0.440094 0.184937
0.027679 0.444183 0.184326
0.075897 0.458282 0.185333
0.162628 0.491516 0.182098
0.535400 0.518799 0.149048
0.721375 0.559265 0.268463
0.797729 0.565369 0.285431
0.831146 0.572632 0.310333
0.049225 0.624298 0.238007
0.071350 0.625427 0.237457
0.118225 0.629791 0.237549
0.204102 0.652710 0.245544
0.447266 0.690826 0.163025
0.730255 0.704071 0.245850
0.818481 0.702240 0.316986
0.856781 0.712006 0.330902
0.074341 0.736786 0.266357
0.095673 0.737610 0.266510
0.140472 0.741180 0.269135
0.227142 0.758820 0.291443
0.340729 0.773010 0.304779
0.711853 0.806396 0.247559
0.832245 0.806396 0.235779
0.876587 0.812592 0.294708
0.086243 0.796875 0.291351
0.109161 0.798065 0.293915
0.157471 0.802063 0.301270
0.245392 0.816864 0.321045
0.367615 0.843597 0.341309
0.694061 0.861603 0.273865
0.822845 0.872528 0.222687
0.879456 0.873138 0.234558
0.003662 0.024994 0.221375
0.027527 0.024292 0.222778
0.092377 0.024445 0.223846
0.256836 0.025604 0.217804
0.467133 0.107422 0.232025
0.669250 0.197021 0.281677
0.737640 0.229858 0.312317
0.775574 0.251465 0.335358
0.002686 0.062103 0.219238
0.024017 0.050812 0.220184
0.082794 0.047363 0.229218
0.248260 0.050720 0.222565
0.477509 0.131989 0.234589
0.672241 0.223572 0.291290
0.743591 0.257080 0.321655
0.781586 0.278839 0.345612
0.000153 0.133087 0.214294
0.021210 0.132935 0.215973
0.065063 0.134003 0.231140
0.246948 0.124542 0.233063
0.492676 0.193207 0.252808
0.672485 0.280731 0.318542
0.757538 0.319550 0.350525
0.797180 0.340515 0.370789
0.000000 0.256134 0.241943
0.021118 0.255524 0.240295
0.064606 0.263672 0.250854
0.178192 0.274078 0.269867
0.499847 0.328735 0.299774
0.684967 0.397095 0.370941
0.772858 0.425812 0.387115
0.814728 0.441620 0.398865
0.011047 0.440704 0.308136
0.031982 0.440948 0.306549
0.078430 0.451050 0.308746
0.164703 0.491058 0.313538
0.508514 0.507477 0.276855
0.709686 0.557587 0.403290
0.802368 0.570587 0.412476
0.842407 0.581451 0.424164
0.053223 0.627258 0.343872
0.074860 0.626251 0.342407
0.123810 0.631805 0.341095
0.209991 0.655121 0.347076
0.388824 0.669037 0.360809
0.729248 0.712189 0.379700
0.823975 0.709564 0.429443
0.862610 0.719513 0.436127
0.079590 0.742157 0.364563
0.101074 0.739441 0.365234
0.147095 0.742706 0.367950
0.234497 0.761841 0.387756
0.348145 0.781921 0.406006
0.707245 0.812592 0.372528
0.834320 0.812500 0.343811
0.881195 0.817657 0.386475
0.095642 0.805084 0.390778
0.117249 0.802765 0.391907
0.164337 0.804718 0.395996
0.253998 0.821655 0.417206
0.376343 0.852112 0.444122
0.689087 0.867920 0.402649
0.826843 0.878204 0.314301
0.884369 0.879486 0.326477
0.027588 0.033539 0.419861
0.054565 0.033600 0.417236
0.104370 0.034668 0.415344
0.231750 0.037354 0.408875
0.461365 0.045166 0.391235
0.660767 0.177826 0.442413
0.740967 0.230743 0.482819
0.783081 0.254272 0.495544
0.023376 0.062927 0.416595
0.050507 0.055359 0.421997
0.103943 0.054657 0.423859
0.224518 0.057312 0.415710
0.451141 0.069214 0.394104
0.662018 0.201752 0.448273
0.737915 0.258209 0.482025
0.783752 0.280945 0.495239
0.015594 0.151123 0.395172
0.041199 0.141418 0.407684
0.091217 0.105804 0.435333
0.213806 0.099457 0.428467
0.454529 0.138702 0.411377
0.663208 0.259369 0.458618
0.751282 0.315735 0.490906
0.801270 0.339325 0.508301
0.000153 0.274353 0.390472
0.021149 0.276276 0.391571
0.065613 0.280609 0.400513
0.152222 0.276489 0.439301
0.485931 0.293518 0.448273
0.677765 0.388062 0.493439
0.782898 0.425781 0.522217
0.826233 0.442688 0.534454
0.029572 0.455322 0.444519
0.050903 0.457062 0.444031
0.096802 0.468201 0.450653
0.178894 0.496368 0.475739
0.428864 0.496246 0.502075
0.708282 0.565125 0.545868
0.810760 0.578247 0.564331
0.853638 0.593689 0.578369
0.063599 0.631744 0.497406
0.085175 0.632294 0.497192
0.131989 0.637848 0.502319
0.218567 0.661682 0.519012
0.371185 0.682617 0.522278
0.719604 0.712341 0.557037
0.837799 0.738220 0.598785
0.884216 0.749573 0.608978
0.087097 0.741608 0.532349
0.109711 0.743286 0.532227
0.157745 0.749084 0.533966
0.250793 0.772125 0.547150
0.381592 0.808167 0.569000
0.697968 0.831360 0.573395
0.846405 0.850983 0.552216
0.905609 0.853485 0.598328
0.107239 0.806335 0.553558
0.130463 0.808441 0.553223
0.179932 0.813660 0.554749
0.273285 0.833435 0.567352
0.403870 0.876526 0.601196
0.680420 0.893768 0.592224
0.838013 0.911865 0.547485
0.906494 0.911285 0.502808
0.048248 0.034760 0.610046
0.074158 0.034851 0.608673
0.127594 0.034576 0.602661
0.234955 0.035828 0.607208
0.483032 0.053558 0.588226
0.734680 0.132141 0.626434
0.838867 0.158630 0.651550
0.879913 0.192261 0.662750
0.042816 0.057556 0.612579
0.069794 0.056641 0.613434
0.123901 0.056519 0.611359
0.231842 0.057556 0.613800
0.471985 0.074829 0.590118
0.732544 0.155609 0.627106
0.838654 0.184418 0.652710
0.879639 0.218506 0.663727
0.036469 0.141693 0.603912
0.059753 0.124298 0.612488
0.114716 0.103821 0.626526
0.221405 0.104126 0.634277
0.453461 0.120270 0.591736
0.729767 0.215790 0.631439
0.836151 0.243805 0.653259
0.880890 0.278503 0.667908
0.029144 0.300964 0.566803
0.046875 0.298492 0.570282
0.084442 0.292328 0.583801
0.168884 0.289917 0.622589
0.455231 0.266266 0.627716
0.726654 0.353333 0.645355
0.839844 0.374878 0.666351
0.885956 0.394196 0.676605
0.040558 0.479980 0.583984
0.062134 0.481995 0.584930
0.107513 0.487335 0.590271
0.191528 0.509521 0.617554
0.398926 0.510315 0.646332
0.730804 0.557709 0.682312
0.830322 0.581055 0.689758
0.869751 0.597443 0.698395
0.074463 0.638763 0.635529
0.096588 0.640411 0.636688
0.143921 0.646637 0.642731
0.235840 0.671417 0.663696
0.374695 0.706604 0.692261
0.716217 0.742218 0.734283
0.844513 0.763184 0.744263
0.897797 0.774567 0.756012
0.107666 0.755280 0.677246
0.130920 0.756927 0.677216
0.181946 0.763885 0.679932
0.278992 0.784241 0.696228
0.406616 0.830475 0.741669
0.666473 0.864044 0.766113
0.843170 0.865784 0.758118
0.915344 0.878082 0.773926
0.133484 0.821869 0.699921
0.156616 0.823029 0.698792
0.206848 0.828369 0.700897
0.298126 0.846375 0.716156
0.420227 0.891449 0.758606
0.644989 0.923645 0.785187
0.831573 0.930908 0.769348
0.920654 0.936707 0.748749
0.061707 0.045441 0.755524
0.089355 0.045349 0.750885
0.147247 0.045197 0.744629
0.271881 0.053986 0.747040
0.535156 0.097900 0.742401
0.754608 0.149872 0.763031
0.861603 0.168182 0.782501
0.904633 0.190552 0.795197
0.058929 0.074280 0.755035
0.086304 0.069702 0.753632
0.146545 0.071259 0.753174
0.271240 0.080658 0.754333
0.537598 0.122803 0.744659
0.755646 0.172638 0.765961
0.862152 0.192474 0.783295
0.906464 0.217377 0.797852
0.051788 0.165924 0.735687
0.085052 0.144348 0.749176
0.139679 0.123138 0.761749
0.268890 0.138062 0.767670
0.526917 0.172913 0.752625
0.753601 0.219269 0.767090
0.864685 0.250427 0.791321
0.908264 0.282623 0.802673
0.042999 0.293274 0.712036
0.061859 0.284943 0.711639
0.114716 0.284668 0.720703
0.238281 0.295349 0.757050
0.482300 0.269257 0.761475
0.746704 0.345367 0.771912
0.865814 0.384430 0.798279
0.911255 0.405701 0.811890
0.054932 0.507019 0.710938
0.075531 0.505371 0.708038
0.123718 0.510925 0.713287
0.221039 0.531342 0.736877
0.401001 0.541748 0.767975
0.752167 0.554504 0.813049
0.877716 0.587250 0.823547
0.922821 0.598999 0.833374
0.094360 0.659363 0.744537
0.117279 0.660278 0.744171
0.165955 0.664856 0.748199
0.264191 0.685760 0.766266
0.402130 0.732025 0.817505
0.704803 0.768341 0.858551
0.868469 0.775513 0.864868
0.923187 0.788818 0.868256
0.134308 0.772858 0.779449
0.156036 0.771332 0.777252
0.206818 0.777283 0.781097
0.299652 0.799591 0.802338
0.423553 0.847107 0.853363
0.675446 0.887360 0.891876
0.853149 0.891479 0.900726
0.927124 0.894287 0.892822
0.155121 0.837433 0.801086
0.176819 0.836578 0.799011
0.225433 0.841766 0.803894
0.314240 0.862488 0.823792
0.439819 0.904724 0.868408
0.663513 0.939850 0.903381
0.840759 0.949493 0.912079
0.930267 0.950989 0.908661
0.089325 0.071869 0.834381
0.117645 0.067993 0.829895
0.181488 0.067749 0.823425
0.320831 0.083527 0.832153
0.553986 0.129486 0.844849
0.761810 0.155792 0.838379
0.876709 0.181488 0.867584
0.921692 0.206207 0.879517
0.088043 0.104828 0.833038
0.115479 0.096161 0.830261
0.181549 0.095856 0.828888
0.319946 0.109894 0.836548
0.551147 0.152191 0.844910
0.761444 0.178070 0.842163
0.877747 0.206390 0.868744
0.922668 0.231689 0.881409
0.076324 0.191345 0.806000
0.114990 0.171661 0.822510
0.177277 0.153931 0.832092
0.314819 0.165161 0.843353
0.548462 0.200653 0.847443
0.762695 0.224335 0.850983
0.881317 0.263947 0.879547
0.926331 0.295227 0.887817
0.072754 0.312439 0.800842
0.095947 0.303192 0.795563
0.151306 0.295349 0.794800
0.284119 0.283600 0.840759
0.501312 0.283783 0.859436
0.757660 0.337494 0.861420
0.887512 0.398926 0.885956
0.933350 0.427246 0.895477
0.075348 0.527649 0.788147
0.095703 0.524597 0.783264
0.145081 0.527893 0.784271
0.249237 0.544250 0.803711
0.402588 0.566498 0.851349
0.753540 0.558838 0.894745
0.892334 0.606232 0.897491
0.938232 0.620331 0.905701
0.117188 0.676666 0.810913
0.137573 0.673615 0.807190
0.186096 0.676300 0.808411
0.283051 0.696381 0.826843
0.413727 0.746185 0.885162
0.698822 0.784332 0.926819
0.885071 0.782745 0.933960
0.947418 0.784973 0.940216
0.153259 0.790222 0.845337
0.174133 0.787537 0.841583
0.221771 0.790314 0.842987
0.310577 0.811127 0.864044
0.435913 0.855438 0.911499
0.681427 0.896057 0.949310
0.859711 0.901611 0.954987
0.937042 0.903229 0.956116
0.169769 0.855103 0.867676
0.190430 0.852234 0.864136
0.236542 0.854004 0.865875
0.324554 0.874847 0.886505
0.457306 0.911285 0.923431
0.682037 0.947052 0.957245
0.859619 0.954193 0.964264
0.935974 0.957245 0.966705
