滤镜资源/Professional Luts Collection/Triune-Digital-Cinematic-LUTs/3D LUTs (CUBE)/REDLOGFILM/Captain America Civil War - REDlogFilm.cube
#Created by Benjamin (IWLTBAP) : http://luts.iwltbap.com
#Copyright: (C) Copyright 2016 Triune Films and IWLTBAP
TITLE "Blockbuster LUTs Pack (REDlogFilm)"
#LUT size
LUT_3D_SIZE 5
#LUT data points
DOMAIN_MIN 0.000000 0.000000 0.000000
DOMAIN_MAX 0.903226 0.903226 0.903226
0.001221 0.001709 0.000366
0.090424 0.022491 0.016418
0.378082 0.088043 0.062195
0.685486 0.207336 0.116302
0.779083 0.246582 0.139038
0.003418 0.083344 0.006622
0.088135 0.095642 0.019958
0.356384 0.151276 0.063843
0.689972 0.270172 0.123901
0.798126 0.316498 0.152283
0.000000 0.341705 0.052521
0.051819 0.353271 0.057617
0.390686 0.382172 0.061401
0.725861 0.469818 0.157349
0.826172 0.507904 0.190521
0.058594 0.657227 0.162933
0.111237 0.657227 0.170288
0.264191 0.696320 0.190430
0.759277 0.731079 0.136169
0.863129 0.743591 0.279144
0.082214 0.798981 0.209625
0.137421 0.796570 0.221558
0.300568 0.830261 0.259949
0.735535 0.866730 0.159821
0.878723 0.872955 0.158295
0.002838 0.004669 0.055939
0.092010 0.011475 0.065063
0.384796 0.086334 0.113678
0.690582 0.199646 0.167328
0.779114 0.246033 0.191711
0.004913 0.084381 0.063599
0.073517 0.095245 0.082855
0.371735 0.139130 0.113953
0.698822 0.263824 0.172821
0.797424 0.315552 0.214203
0.000061 0.340668 0.131165
0.051544 0.353882 0.130432
0.390808 0.383881 0.113251
0.742523 0.482086 0.223053
0.822083 0.505127 0.277222
0.060181 0.655640 0.230438
0.113434 0.659637 0.230713
0.264954 0.697845 0.251099
0.758667 0.728058 0.235229
0.861633 0.742523 0.328400
0.085205 0.796539 0.275665
0.141937 0.800049 0.283417
0.305511 0.834503 0.322327
0.735748 0.863525 0.236206
0.879120 0.872528 0.219025
0.010315 0.034271 0.311523
0.073273 0.034637 0.317078
0.346344 0.035828 0.294281
0.679993 0.207581 0.376373
0.776459 0.255096 0.416046
0.004211 0.126221 0.299164
0.061310 0.097900 0.320465
0.331329 0.101593 0.309784
0.699554 0.275208 0.400513
0.794037 0.321777 0.434174
0.000580 0.344208 0.340668
0.053101 0.353668 0.348450
0.275024 0.363525 0.375122
0.726776 0.478363 0.465210
0.832886 0.511902 0.486572
0.065613 0.657928 0.428345
0.120331 0.663635 0.429077
0.281677 0.712341 0.449127
0.760803 0.752960 0.461700
0.882050 0.765411 0.525818
0.099426 0.802521 0.469330
0.157135 0.807892 0.469604
0.325439 0.845673 0.504639
0.727448 0.885193 0.476532
0.891266 0.889130 0.386414
0.051788 0.037445 0.649963
0.116394 0.037476 0.645660
0.342010 0.040222 0.639618
0.779633 0.149109 0.674866
0.887360 0.187195 0.698944
0.041656 0.118927 0.647034
0.105682 0.092285 0.661835
0.338135 0.098236 0.650055
0.776581 0.207092 0.675812
0.887024 0.258331 0.702484
0.037170 0.402222 0.608032
0.088898 0.405670 0.615936
0.255035 0.423920 0.674896
0.776794 0.452606 0.703583
0.898315 0.488739 0.723785
0.087433 0.676605 0.678131
0.143341 0.682861 0.681671
0.325134 0.729279 0.721588
0.750641 0.790070 0.788513
0.907501 0.810608 0.794769
0.139374 0.824951 0.729248
0.196930 0.829193 0.730347
0.362335 0.870514 0.767029
0.704224 0.933655 0.829071
0.920166 0.938965 0.800018
0.089325 0.071869 0.834381
0.160767 0.066711 0.824921
0.418945 0.103912 0.859039
0.800629 0.162354 0.843994
0.921692 0.206207 0.879517
0.083374 0.164368 0.818024
0.157379 0.135620 0.830231
0.414093 0.162903 0.868408
0.802094 0.217163 0.856232
0.924927 0.274933 0.885071
0.068909 0.439575 0.783813
0.127502 0.431946 0.783722
0.337860 0.446533 0.840973
0.800598 0.457123 0.880615
0.932495 0.517792 0.894531
0.128174 0.709595 0.820312
0.181549 0.706970 0.815765
0.354370 0.751740 0.861237
0.750214 0.823944 0.938629
0.945770 0.820160 0.946411
0.169769 0.855103 0.867676
0.222290 0.851929 0.864441
0.386719 0.891388 0.903900
0.741272 0.950500 0.960632
0.935974 0.957245 0.966705
