滤镜资源/Professional Luts Collection/Triune-Digital-Cinematic-LUTs/3D LUTs (CUBE)/REDLOGFILM/Captain America Civil War - REDlogFilm.cube
#Created by Benjamin (IWLTBAP) : http://luts.iwltbap.com
#Copyright: (C) Copyright 2016 Triune Films and IWLTBAP
TITLE "Blockbuster LUTs Pack (REDlogFilm)"
#LUT size
LUT_3D_SIZE 32
#LUT data points
0.001221 0.001709 0.000366
0.006805 0.003296 0.001434
0.014984 0.005707 0.003021
0.023743 0.008240 0.004669
0.035217 0.010803 0.006714
0.048279 0.013458 0.009247
0.067810 0.017456 0.012512
0.090424 0.022491 0.016418
0.115173 0.027924 0.020905
0.146393 0.034363 0.026031
0.182556 0.042664 0.031830
0.220795 0.050140 0.037231
0.262543 0.058868 0.042816
0.316071 0.069489 0.050995
0.378082 0.088043 0.062195
0.434967 0.108215 0.073853
0.495392 0.130524 0.086792
0.551117 0.150543 0.098419
0.594421 0.167999 0.107452
0.633118 0.185364 0.114532
0.665619 0.199402 0.118256
0.685486 0.207336 0.116302
0.703186 0.214325 0.116821
0.720459 0.221008 0.120911
0.734619 0.226410 0.125061
0.748413 0.231964 0.129272
0.760406 0.237213 0.133087
0.771484 0.242462 0.136322
0.779083 0.246582 0.139038
0.788116 0.251495 0.142181
0.795654 0.255493 0.144714
0.800598 0.258118 0.146454
0.001831 0.006927 0.001007
0.006439 0.007935 0.001953
0.014801 0.010284 0.003632
0.023468 0.012787 0.005280
0.035278 0.015533 0.007355
0.048279 0.018188 0.009766
0.067871 0.022003 0.013184
0.090576 0.026917 0.017029
0.115143 0.032288 0.021393
0.146179 0.038513 0.026398
0.182251 0.046844 0.032074
0.220551 0.054779 0.037506
0.261627 0.062988 0.042877
0.314880 0.073547 0.051025
0.377167 0.091644 0.062286
0.434204 0.111694 0.073944
0.494843 0.134155 0.086975
0.551178 0.154480 0.098694
0.594727 0.172241 0.107758
0.633240 0.189392 0.114929
0.666016 0.203583 0.118622
0.686066 0.211609 0.116699
0.703857 0.218628 0.117188
0.721313 0.225342 0.121307
0.735321 0.230774 0.125336
0.749084 0.236359 0.129547
0.761230 0.241669 0.133392
0.772400 0.246735 0.136627
0.780060 0.250885 0.139374
0.789459 0.255951 0.143036
0.796997 0.259949 0.145660
0.801971 0.262665 0.147400
0.002655 0.014648 0.002014
0.007294 0.015656 0.002930
0.014160 0.017151 0.004333
0.023041 0.019470 0.006134
0.035126 0.022461 0.008270
0.048309 0.025208 0.010620
0.067993 0.028748 0.014191
0.090668 0.033508 0.017975
0.115112 0.038879 0.022156
0.146088 0.045044 0.027008
0.182007 0.053070 0.032532
0.220154 0.061707 0.037933
0.260925 0.069336 0.043152
0.313141 0.079590 0.051086
0.375732 0.096985 0.062347
0.433228 0.116913 0.074005
0.493958 0.139557 0.087219
0.551147 0.160583 0.099121
0.595001 0.178558 0.108337
0.633362 0.195374 0.115570
0.666473 0.209747 0.119324
0.686890 0.217926 0.117401
0.704834 0.224945 0.117706
0.722351 0.231689 0.121826
0.736450 0.237213 0.125824
0.750122 0.242828 0.130005
0.762451 0.248352 0.134003
0.774292 0.253479 0.137634
0.782074 0.257538 0.140778
0.791504 0.262604 0.144379
0.799042 0.266602 0.146973
0.804016 0.269287 0.148743
0.003510 0.022644 0.002991
0.008148 0.023560 0.003937
0.015015 0.025085 0.005310
0.022095 0.026703 0.006744
0.034424 0.029663 0.009155
0.047974 0.032745 0.011536
0.067780 0.036346 0.015106
0.090790 0.040863 0.019073
0.115051 0.045563 0.022888
0.146149 0.051971 0.027832
0.181732 0.059418 0.032990
0.219635 0.068146 0.038269
0.260284 0.075989 0.043457
0.310944 0.086029 0.051147
0.373901 0.102661 0.062408
0.431946 0.122437 0.074066
0.492981 0.145508 0.087585
0.550934 0.166870 0.099640
0.595276 0.185150 0.108948
0.633636 0.201721 0.116241
0.666748 0.215973 0.119995
0.687683 0.224487 0.118103
0.705719 0.231354 0.118378
0.723175 0.238251 0.122437
0.737396 0.243866 0.126465
0.751953 0.250031 0.130829
0.764709 0.255768 0.135223
0.776550 0.260895 0.138885
0.784180 0.264618 0.141998
0.793671 0.269531 0.145813
0.801178 0.273560 0.148376
0.806152 0.276154 0.150085
0.004547 0.033112 0.004364
0.009033 0.034088 0.005219
0.015747 0.035706 0.006622
0.022827 0.037323 0.008026
0.033112 0.039673 0.010040
0.047241 0.042480 0.012756
0.067871 0.046204 0.016296
0.091156 0.050049 0.020355
0.115387 0.054291 0.024078
0.146027 0.060608 0.028748
0.181335 0.067841 0.033661
0.219055 0.076477 0.038757
0.259186 0.084900 0.043854
0.308411 0.094727 0.051270
0.371002 0.110626 0.062408
0.429901 0.129883 0.074188
0.491516 0.153107 0.087921
0.550629 0.174988 0.100525
0.595428 0.193573 0.109741
0.634247 0.210175 0.117157
0.666901 0.223938 0.121124
0.688507 0.233002 0.119080
0.706543 0.239716 0.119385
0.724731 0.247040 0.123413
0.740082 0.253052 0.127472
0.754913 0.259430 0.131958
0.767792 0.265350 0.136353
0.779602 0.270538 0.140076
0.787262 0.274292 0.143188
0.796509 0.278717 0.146790
0.803986 0.282532 0.149689
0.808960 0.285248 0.151886
0.005707 0.044495 0.005859
0.010010 0.045532 0.006653
0.016571 0.047089 0.007996
0.023438 0.048706 0.009338
0.033325 0.051178 0.011108
0.046112 0.053589 0.013275
0.067657 0.056915 0.016968
0.091187 0.060608 0.021149
0.115692 0.064270 0.025360
0.146027 0.070251 0.029755
0.180969 0.077209 0.034454
0.218414 0.085571 0.039337
0.258209 0.094482 0.044373
0.305511 0.104431 0.051392
0.368042 0.119537 0.062561
0.427460 0.138245 0.074310
0.489685 0.161255 0.088196
0.549805 0.184021 0.101471
0.595184 0.202698 0.110626
0.634613 0.219360 0.118286
0.667084 0.232758 0.122314
0.688721 0.241852 0.120300
0.708374 0.248932 0.120544
0.727692 0.256775 0.124664
0.743195 0.263123 0.128632
0.757996 0.269470 0.133057
0.770752 0.275513 0.137421
0.782898 0.281006 0.141785
0.790497 0.284729 0.145325
0.799713 0.289246 0.149353
0.807037 0.292786 0.152405
0.811859 0.295135 0.154449
0.004913 0.062531 0.006470
0.008850 0.063538 0.006897
0.014740 0.064911 0.007751
0.021454 0.066376 0.008850
0.031067 0.068451 0.010468
0.042389 0.071014 0.012299
0.065338 0.073517 0.016144
0.091125 0.076508 0.021362
0.115814 0.079132 0.027313
0.146027 0.084351 0.031433
0.180237 0.090820 0.035950
0.217316 0.098724 0.040680
0.256622 0.108612 0.045654
0.303131 0.119232 0.052490
0.362640 0.133667 0.062988
0.422913 0.151886 0.074432
0.485962 0.174255 0.088684
0.546936 0.197357 0.102661
0.594269 0.216309 0.112030
0.634827 0.233215 0.119995
0.667877 0.246460 0.124023
0.689331 0.255310 0.121979
0.710846 0.262573 0.122253
0.730133 0.270081 0.126373
0.746033 0.276947 0.130280
0.761444 0.283875 0.135162
0.774536 0.290222 0.140259
0.786926 0.296082 0.144836
0.794617 0.300079 0.148804
0.803741 0.304504 0.153198
0.811157 0.308167 0.156555
0.815979 0.310516 0.158722
0.003418 0.083344 0.006622
0.007324 0.084351 0.007019
0.013092 0.085815 0.007782
0.019135 0.087219 0.008636
0.027161 0.089172 0.009735
0.037170 0.091309 0.011322
0.059082 0.093689 0.013611
0.088135 0.095642 0.019958
0.115997 0.097321 0.027466
0.146454 0.101532 0.033813
0.180206 0.106995 0.037964
0.216522 0.114258 0.042480
0.255402 0.124054 0.047394
0.301117 0.136261 0.053955
0.356384 0.151276 0.063843
0.416595 0.168823 0.074890
0.481079 0.189423 0.089142
0.542877 0.212433 0.104065
0.591827 0.231140 0.113434
0.633209 0.247894 0.121490
0.668579 0.261810 0.126068
0.689972 0.270172 0.123901
0.711731 0.277649 0.123932
0.733124 0.285675 0.128326
0.749817 0.292725 0.132538
0.764740 0.299561 0.137207
0.777710 0.306152 0.142456
0.790527 0.312439 0.147705
0.798126 0.316498 0.152283
0.807281 0.321289 0.157654
0.814667 0.325195 0.161560
0.819519 0.327606 0.163940
0.001831 0.106720 0.007446
0.005310 0.107574 0.007874
0.010559 0.108826 0.008484
0.016418 0.110321 0.009003
0.024109 0.112000 0.009613
0.032806 0.113922 0.010498
0.049469 0.115814 0.011780
0.074860 0.118103 0.012726
0.111816 0.117889 0.022400
0.145569 0.121307 0.033539
0.180786 0.125977 0.040894
0.216980 0.132446 0.045105
0.255066 0.141327 0.049805
0.299438 0.154541 0.056244
0.351562 0.170013 0.065399
0.409546 0.187225 0.075867
0.475250 0.208160 0.090454
0.537994 0.229095 0.105927
0.587463 0.247162 0.115326
0.631744 0.263702 0.123260
0.668243 0.277588 0.128082
0.690521 0.285583 0.125671
0.712219 0.293579 0.125671
0.734283 0.302521 0.130219
0.751831 0.309509 0.134613
0.767487 0.316650 0.139862
0.780457 0.323334 0.145294
0.793213 0.329620 0.150360
0.800842 0.333557 0.154846
0.809875 0.338409 0.160706
0.817230 0.342316 0.165100
0.822113 0.344940 0.167999
0.000671 0.136993 0.009491
0.004150 0.137756 0.009949
0.009277 0.138916 0.010529
0.014618 0.140137 0.011169
0.021545 0.141846 0.011932
0.029510 0.143860 0.012604
0.042999 0.145996 0.012390
0.059418 0.148102 0.012085
0.088165 0.148407 0.012115
0.139435 0.146484 0.025726
0.178162 0.152618 0.041473
0.217896 0.159058 0.049469
0.257355 0.164948 0.053619
0.300232 0.176819 0.059875
0.350677 0.193176 0.068359
0.404999 0.210449 0.078339
0.469116 0.230652 0.092651
0.532074 0.250580 0.107849
0.583160 0.267853 0.118225
0.629120 0.283600 0.125427
0.668427 0.297607 0.130737
0.692566 0.305481 0.128143
0.714050 0.313049 0.128021
0.736145 0.322968 0.132477
0.753845 0.330872 0.137299
0.769836 0.338013 0.142822
0.783112 0.344360 0.148987
0.795807 0.350708 0.154327
0.803253 0.354645 0.159241
0.812225 0.359406 0.165161
0.819519 0.363281 0.169434
0.824341 0.365875 0.172455
0.000092 0.170105 0.011780
0.003571 0.170563 0.012207
0.008820 0.171295 0.012787
0.014221 0.172028 0.013397
0.021149 0.173645 0.014282
0.028595 0.175690 0.015015
0.039520 0.179810 0.015076
0.054291 0.183228 0.015167
0.074768 0.185364 0.014343
0.113159 0.185364 0.013824
0.172852 0.180328 0.028229
0.216644 0.189484 0.050537
0.260101 0.196045 0.059357
0.304749 0.204315 0.064819
0.357605 0.221863 0.073730
0.410522 0.238892 0.083832
0.469147 0.256500 0.096985
0.530060 0.275482 0.111053
0.583832 0.292511 0.121918
0.631561 0.308014 0.128998
0.671906 0.321716 0.133514
0.696930 0.330200 0.131622
0.718475 0.337799 0.131958
0.740021 0.346863 0.136169
0.757324 0.354797 0.141144
0.773071 0.362274 0.146973
0.786194 0.368744 0.153534
0.798737 0.374847 0.159180
0.806000 0.378693 0.164215
0.814880 0.383423 0.170319
0.822083 0.387268 0.174866
0.826874 0.389862 0.177826
0.000000 0.208252 0.017761
0.003540 0.208618 0.018066
0.008728 0.209229 0.018616
0.014160 0.210022 0.019318
0.021118 0.211090 0.020203
0.028595 0.212494 0.021179
0.039398 0.216278 0.022125
0.051636 0.220795 0.022583
0.066010 0.224213 0.020721
0.092438 0.227295 0.016724
0.147003 0.224640 0.015533
0.214691 0.221039 0.031677
0.261078 0.231476 0.061615
0.311462 0.240051 0.071808
0.365692 0.253937 0.080322
0.419922 0.271088 0.091309
0.477478 0.287506 0.103760
0.535278 0.304565 0.116730
0.587677 0.320892 0.126678
0.637024 0.337158 0.134460
0.677338 0.350861 0.138367
0.702881 0.358490 0.136078
0.724457 0.366730 0.136810
0.745270 0.375244 0.140778
0.762421 0.382935 0.146149
0.778168 0.390594 0.152710
0.791077 0.397369 0.159668
0.803253 0.402985 0.165771
0.810272 0.406555 0.171173
0.818939 0.411041 0.177399
0.826019 0.414734 0.181946
0.830719 0.417175 0.184998
0.000000 0.249695 0.027863
0.003540 0.250153 0.028198
0.008728 0.250793 0.028625
0.014160 0.251495 0.029236
0.021118 0.252380 0.029999
0.028595 0.253540 0.030731
0.039398 0.256714 0.031433
0.051544 0.260712 0.031982
0.064575 0.264954 0.030731
0.081451 0.269440 0.026215
0.111267 0.275177 0.019226
0.182526 0.269501 0.017334
0.261475 0.267059 0.034698
0.315796 0.279022 0.073395
0.374817 0.292511 0.089386
0.428467 0.306152 0.099670
0.486115 0.322388 0.111938
0.543610 0.339294 0.124207
0.594177 0.355194 0.133423
0.642242 0.370941 0.140900
0.683167 0.384583 0.145142
0.709747 0.391724 0.142792
0.732178 0.399628 0.143188
0.752258 0.407440 0.146210
0.768890 0.415009 0.151184
0.784637 0.422882 0.158081
0.797394 0.429657 0.165924
0.808929 0.435089 0.172791
0.815521 0.438141 0.178223
0.824005 0.442017 0.184174
0.830811 0.445221 0.188782
0.835297 0.447296 0.191803
0.000000 0.292969 0.038605
0.003540 0.293396 0.038940
0.008728 0.293976 0.039551
0.014160 0.294678 0.040131
0.021118 0.295929 0.040833
0.028595 0.297485 0.041595
0.039398 0.300507 0.042236
0.051544 0.304535 0.041412
0.064575 0.310913 0.039978
0.080811 0.319672 0.036041
0.101807 0.324554 0.027405
0.147217 0.330078 0.020935
0.232178 0.320801 0.019287
0.319153 0.321503 0.040131
0.383881 0.334686 0.094147
0.440063 0.348083 0.110413
0.496918 0.362976 0.122162
0.555786 0.380432 0.134277
0.605652 0.396301 0.142578
0.650909 0.410919 0.148804
0.689819 0.422485 0.152679
0.717590 0.429077 0.150330
0.740509 0.436615 0.150238
0.759552 0.443390 0.151947
0.775635 0.450531 0.156372
0.790802 0.458313 0.163788
0.803253 0.464905 0.171661
0.814331 0.469849 0.178650
0.820282 0.471985 0.184052
0.828278 0.475159 0.189758
0.834839 0.477997 0.194153
0.839111 0.479889 0.197205
0.000000 0.341705 0.052521
0.003540 0.341888 0.052948
0.008728 0.342194 0.053589
0.014160 0.342499 0.054291
0.021118 0.342957 0.055084
0.028595 0.344513 0.056030
0.039398 0.348297 0.056854
0.051819 0.353271 0.057617
0.065918 0.360199 0.056702
0.085052 0.369781 0.054108
0.106934 0.377777 0.045227
0.139893 0.384308 0.027283
0.214050 0.380402 0.023743
0.301086 0.373230 0.024841
0.390686 0.382172 0.061401
0.452301 0.394287 0.122650
0.511963 0.409607 0.134827
0.568329 0.425568 0.144836
0.616638 0.440460 0.152222
0.660461 0.453583 0.157532
0.698273 0.464172 0.160431
0.725861 0.469818 0.157349
0.748322 0.475830 0.155853
0.767853 0.482422 0.157623
0.783997 0.489319 0.162079
0.797882 0.495850 0.169830
0.809357 0.501251 0.177765
0.820282 0.505981 0.184784
0.826172 0.507904 0.190521
0.833374 0.510345 0.197296
0.838989 0.512238 0.202515
0.842743 0.513489 0.205902
0.002136 0.391937 0.069183
0.005890 0.392181 0.069641
0.011505 0.392639 0.070282
0.017059 0.393005 0.070984
0.024200 0.393616 0.071838
0.032227 0.394592 0.072662
0.044098 0.397400 0.073181
0.057587 0.401306 0.074249
0.072815 0.407104 0.074921
0.092194 0.416229 0.074799
0.113861 0.427948 0.071930
0.137817 0.434906 0.057007
0.182617 0.437103 0.031281
0.281250 0.428253 0.029694
0.377960 0.430725 0.034821
0.454834 0.437866 0.082153
0.519745 0.452362 0.145355
0.580231 0.470398 0.155029
0.626892 0.484283 0.161316
0.669464 0.496399 0.165771
0.706573 0.506287 0.168884
0.735168 0.511292 0.165680
0.758179 0.515839 0.162781
0.778809 0.522430 0.163208
0.795135 0.529114 0.167236
0.807983 0.534149 0.176117
0.818268 0.538177 0.184692
0.828003 0.541565 0.192139
0.833252 0.542664 0.198761
0.839966 0.544495 0.206055
0.845245 0.546021 0.211792
0.848724 0.547028 0.215607
0.009277 0.443817 0.087463
0.012939 0.443878 0.088013
0.018433 0.444061 0.088684
0.024078 0.444275 0.089508
0.031464 0.444702 0.090485
0.039459 0.445465 0.091370
0.051300 0.447998 0.091919
0.064484 0.451233 0.092926
0.078827 0.455475 0.093628
0.096985 0.462128 0.094299
0.117554 0.471710 0.095276
0.140076 0.481781 0.093262
0.168396 0.488922 0.070587
0.238220 0.487396 0.035431
0.347839 0.480316 0.038605
0.445740 0.487488 0.044220
0.521362 0.499542 0.092651
0.586914 0.514648 0.163361
0.634918 0.529846 0.170105
0.677155 0.541534 0.174896
0.713104 0.549408 0.178711
0.742218 0.553955 0.176605
0.767334 0.558441 0.174072
0.787994 0.563568 0.173767
0.804047 0.569458 0.176239
0.817078 0.574249 0.183197
0.827301 0.577698 0.191345
0.836578 0.580627 0.198334
0.841492 0.581299 0.204071
0.847321 0.582001 0.211456
0.851990 0.582520 0.217316
0.855042 0.582886 0.221222
0.015472 0.495331 0.106659
0.019012 0.495117 0.107086
0.024323 0.494843 0.107666
0.029816 0.494629 0.108337
0.036926 0.494568 0.109222
0.044617 0.494965 0.110382
0.056061 0.497925 0.111481
0.069000 0.501221 0.112671
0.082855 0.505005 0.113953
0.100372 0.510284 0.115234
0.120453 0.518066 0.117188
0.143127 0.528046 0.117859
0.167908 0.535278 0.112549
0.206757 0.538971 0.080505
0.320374 0.534607 0.040283
0.432709 0.534363 0.045166
0.520660 0.549316 0.049683
0.590088 0.564178 0.098816
0.640900 0.573883 0.169495
0.682281 0.584717 0.183716
0.717377 0.592194 0.189423
0.747711 0.595703 0.186188
0.775299 0.601532 0.185974
0.797638 0.606750 0.187347
0.812164 0.610657 0.192383
0.823914 0.613739 0.200928
0.833740 0.616364 0.209076
0.842285 0.618256 0.215057
0.847687 0.619019 0.218445
0.854004 0.619843 0.223053
0.858734 0.620361 0.227173
0.861969 0.620758 0.230377
0.022522 0.544312 0.124969
0.025970 0.544037 0.125549
0.031097 0.543579 0.126343
0.036407 0.543182 0.127136
0.043304 0.542664 0.128021
0.050842 0.542389 0.128906
0.062256 0.543762 0.129120
0.075409 0.546295 0.130066
0.089905 0.550415 0.131531
0.107849 0.555328 0.133301
0.128265 0.561584 0.135620
0.151581 0.569855 0.137177
0.178253 0.579041 0.135742
0.205139 0.580719 0.123688
0.270325 0.589844 0.079590
0.406891 0.579407 0.046021
0.517090 0.590912 0.050842
0.589020 0.607666 0.051941
0.644653 0.616699 0.096588
0.688171 0.623505 0.175323
0.720428 0.629944 0.201965
0.750885 0.634277 0.200439
0.781281 0.640656 0.200897
0.802917 0.643524 0.205597
0.817078 0.646057 0.211243
0.828186 0.647766 0.219727
0.837433 0.648682 0.228394
0.846039 0.649872 0.235504
0.852264 0.651123 0.238190
0.859650 0.652588 0.241241
0.865082 0.653656 0.243378
0.868744 0.654388 0.244781
0.034668 0.589233 0.140778
0.038116 0.588989 0.141418
0.043274 0.588623 0.142456
0.048584 0.588287 0.143463
0.055389 0.587860 0.144501
0.062866 0.587555 0.145538
0.073914 0.588104 0.145447
0.086578 0.589050 0.145538
0.100861 0.591797 0.146606
0.119293 0.596710 0.148346
0.140137 0.601624 0.150238
0.164429 0.608459 0.152344
0.191803 0.617157 0.152954
0.220917 0.625305 0.148865
0.251831 0.626526 0.124207
0.358643 0.639069 0.059174
0.499725 0.631561 0.051971
0.587799 0.646057 0.054199
0.642517 0.655853 0.055542
0.692535 0.663086 0.101929
0.726990 0.666168 0.181915
0.754333 0.670593 0.211426
0.782043 0.674377 0.222931
0.804932 0.676178 0.227753
0.819977 0.678009 0.232819
0.831268 0.679474 0.239807
0.841187 0.681213 0.245483
0.850433 0.682648 0.250549
0.856506 0.683746 0.253571
0.864166 0.685547 0.256897
0.870178 0.686768 0.259491
0.874084 0.687622 0.261139
0.047791 0.625427 0.152161
0.051331 0.625183 0.153015
0.056488 0.624939 0.154236
0.061890 0.624695 0.155548
0.068848 0.624420 0.157074
0.076294 0.624146 0.158325
0.087494 0.624695 0.158386
0.100220 0.625488 0.158508
0.114441 0.627319 0.159302
0.132416 0.630524 0.160797
0.152679 0.634735 0.161865
0.175903 0.641205 0.163757
0.201721 0.650391 0.165619
0.229248 0.659790 0.170319
0.259521 0.661163 0.164001
0.324341 0.681854 0.096558
0.463104 0.674286 0.055573
0.578461 0.679382 0.057648
0.639587 0.687561 0.060638
0.687622 0.698639 0.068665
0.728790 0.700531 0.116974
0.758026 0.698944 0.191650
0.783203 0.701752 0.232483
0.806885 0.704803 0.245636
0.822449 0.706543 0.250031
0.833771 0.708405 0.256165
0.843872 0.710938 0.260773
0.853363 0.713074 0.265137
0.859436 0.714355 0.267853
0.866943 0.716187 0.270721
0.872894 0.717773 0.272797
0.876831 0.718781 0.274200
0.058594 0.657227 0.162933
0.062225 0.656952 0.163788
0.067566 0.656555 0.165039
0.073029 0.656158 0.166382
0.080109 0.655762 0.167999
0.087769 0.655579 0.169525
0.098755 0.656281 0.169952
0.111237 0.657227 0.170288
0.125092 0.659210 0.170929
0.142395 0.662415 0.172089
0.161804 0.666718 0.173737
0.183502 0.672729 0.175842
0.207977 0.681183 0.180908
0.235596 0.691193 0.187439
0.264191 0.696320 0.190430
0.305084 0.700165 0.166504
0.418762 0.720398 0.074768
0.559906 0.714539 0.066315
0.633148 0.719025 0.068848
0.682190 0.729462 0.079620
0.722473 0.734222 0.097229
0.759277 0.731079 0.136169
0.788025 0.730499 0.202515
0.810608 0.733368 0.239014
0.824982 0.736023 0.261017
0.836731 0.737762 0.268524
0.846710 0.739746 0.273071
0.856720 0.742096 0.276611
0.863129 0.743591 0.279144
0.870880 0.745453 0.282074
0.876984 0.747131 0.283905
0.881042 0.748230 0.285065
0.064972 0.687378 0.172791
0.068481 0.686981 0.173615
0.073669 0.686432 0.174866
0.079193 0.685944 0.176208
0.086334 0.685455 0.177826
0.094025 0.685181 0.179443
0.104950 0.686127 0.179749
0.117249 0.687164 0.180145
0.130859 0.689148 0.180939
0.147949 0.692505 0.182159
0.167206 0.696808 0.184448
0.188873 0.702576 0.187378
0.213562 0.710327 0.193726
0.241791 0.719910 0.201447
0.272034 0.729156 0.208252
0.298767 0.725769 0.203522
0.382812 0.748199 0.135101
0.525726 0.751526 0.085114
0.623993 0.751984 0.081665
0.677734 0.757538 0.091797
0.717285 0.762878 0.110291
0.753998 0.761932 0.120819
0.788818 0.759583 0.154694
0.815155 0.760284 0.201691
0.830872 0.761871 0.230499
0.842133 0.764282 0.248810
0.851288 0.766296 0.264343
0.860352 0.768768 0.277008
0.866302 0.770477 0.285095
0.873901 0.772400 0.290863
0.880249 0.774017 0.292664
0.884705 0.775299 0.293732
0.069397 0.714203 0.180389
0.072906 0.713806 0.181244
0.078003 0.713165 0.182465
0.083344 0.712585 0.183716
0.090210 0.711884 0.185211
0.097809 0.711609 0.186798
0.108734 0.712799 0.187103
0.121216 0.714172 0.187683
0.134674 0.716125 0.188782
0.151794 0.719208 0.190674
0.171509 0.723297 0.194275
0.193848 0.728729 0.198853
0.219147 0.735931 0.206085
0.247925 0.745178 0.213867
0.279175 0.755737 0.221893
0.306732 0.756195 0.220093
0.346619 0.753784 0.208466
0.489624 0.785065 0.119720
0.605988 0.782867 0.107880
0.673065 0.783325 0.110016
0.713501 0.785950 0.125336
0.750244 0.788086 0.130524
0.785126 0.787994 0.137238
0.816620 0.786194 0.156219
0.833893 0.786682 0.186493
0.847046 0.787933 0.211731
0.857697 0.789215 0.231567
0.866913 0.791534 0.244690
0.873077 0.793335 0.252289
0.880310 0.795380 0.261688
0.885834 0.796967 0.269928
0.889801 0.798279 0.275238
0.072266 0.735779 0.186310
0.075745 0.735352 0.187286
0.080963 0.734680 0.188660
0.086304 0.734039 0.190002
0.093170 0.733337 0.191589
0.100708 0.732880 0.193237
0.111786 0.734070 0.193542
0.124298 0.735504 0.194214
0.137848 0.737183 0.195526
0.154907 0.740143 0.197754
0.174652 0.743988 0.201691
0.198029 0.748749 0.208221
0.223877 0.755432 0.215759
0.252625 0.764038 0.223389
0.284729 0.776031 0.232727
0.313446 0.779205 0.232910
0.342499 0.773712 0.225281
0.462860 0.794098 0.169952
0.588715 0.802063 0.139404
0.665344 0.802490 0.132416
0.709747 0.803894 0.141144
0.746735 0.808105 0.139648
0.781525 0.809021 0.139191
0.812408 0.808594 0.143799
0.834229 0.807831 0.155334
0.848846 0.807678 0.173309
0.860138 0.808960 0.194000
0.870514 0.810760 0.210815
0.877380 0.812134 0.221100
0.885437 0.813934 0.232574
0.891693 0.815430 0.241211
0.895538 0.816620 0.246399
0.074036 0.756531 0.191803
0.077728 0.755981 0.193054
0.083191 0.755188 0.194916
0.088776 0.754425 0.196686
0.095825 0.753662 0.198486
0.103760 0.752930 0.200684
0.115051 0.754059 0.201141
0.127899 0.755310 0.202271
0.141815 0.756592 0.204224
0.159576 0.758728 0.207489
0.179565 0.762512 0.211487
0.202576 0.766998 0.217468
0.228241 0.773163 0.224457
0.257355 0.781281 0.232025
0.289612 0.793060 0.241547
0.319733 0.800415 0.245575
0.347504 0.794434 0.236938
0.449097 0.804199 0.204651
0.576172 0.819336 0.163452
0.655304 0.817139 0.156769
0.705383 0.820343 0.154602
0.743500 0.826447 0.147491
0.777893 0.828583 0.143982
0.808472 0.828461 0.142059
0.830017 0.828918 0.145569
0.847687 0.829041 0.155853
0.861481 0.828888 0.162842
0.873047 0.829895 0.174774
0.879883 0.831299 0.185150
0.888153 0.833099 0.197296
0.894653 0.834381 0.207031
0.898926 0.835205 0.213318
0.076233 0.774231 0.197723
0.079895 0.773682 0.198822
0.085266 0.772980 0.200562
0.090790 0.772308 0.202393
0.097961 0.771454 0.204651
0.105896 0.770782 0.206970
0.117645 0.771606 0.208008
0.130981 0.772614 0.209534
0.145355 0.773590 0.212036
0.163361 0.775116 0.215698
0.184113 0.778717 0.220123
0.207092 0.783173 0.225494
0.232819 0.788788 0.231873
0.261749 0.796387 0.239594
0.293823 0.807495 0.248993
0.324921 0.817078 0.254822
0.352509 0.812561 0.247253
0.441620 0.818115 0.222992
0.562866 0.831696 0.188385
0.647186 0.831726 0.175659
0.700714 0.834930 0.165558
0.740784 0.841919 0.153870
0.774811 0.846100 0.147064
0.805450 0.846283 0.143585
0.826630 0.846252 0.144592
0.844421 0.846832 0.147888
0.859650 0.847443 0.155731
0.871796 0.848450 0.161133
0.879639 0.849091 0.164368
0.889282 0.850159 0.168060
0.896484 0.851105 0.173920
0.900909 0.851837 0.181030
0.079865 0.789368 0.205078
0.083527 0.788727 0.206146
0.088989 0.787872 0.207825
0.094727 0.787140 0.209595
0.101898 0.786255 0.211823
0.109863 0.785583 0.214172
0.121613 0.786316 0.215546
0.134949 0.787384 0.216949
0.149445 0.788574 0.219299
0.167450 0.790100 0.222992
0.188110 0.793396 0.227417
0.211273 0.798157 0.232788
0.237030 0.803497 0.238800
0.266022 0.810699 0.246399
0.297943 0.821381 0.255707
0.329529 0.832123 0.262817
0.358124 0.829926 0.257263
