滤镜资源/Professional Luts Collection/Triune-Digital-Cinematic-LUTs/3D LUTs (CUBE)/REDLOGFILM/Drive - REDlogFilm.cube
#Created by Benjamin (IWLTBAP) : http://luts.iwltbap.com
#Copyright: (C) Copyright 2016 Triune Films and IWLTBAP
TITLE "Blockbuster LUTs Pack (REDlogFilm)"
#LUT size
LUT_3D_SIZE 32
#LUT data points
0.000000 0.000000 0.000854
0.003418 0.000000 0.000885
0.008484 0.000000 0.000854
0.014343 0.000000 0.000702
0.022156 0.000000 0.000305
0.030548 0.000000 0.000000
0.048920 0.000000 0.000000
0.068420 0.000000 0.000000
0.090912 0.000000 0.000000
0.122681 0.000000 0.000000
0.157227 0.002502 0.000000
0.198700 0.007721 0.000000
0.246033 0.010498 0.000000
0.296448 0.013214 0.000000
0.352631 0.018463 0.000000
0.410645 0.026245 0.000000
0.475800 0.038177 0.000000
0.536072 0.048035 0.001190
0.583069 0.055634 0.005463
0.628235 0.062012 0.007751
0.668213 0.068024 0.011688
0.702423 0.074188 0.015350
0.731873 0.079102 0.017761
0.756805 0.083008 0.019440
0.775543 0.085938 0.020538
0.792725 0.088593 0.021515
0.808197 0.091675 0.022552
0.822815 0.094391 0.023438
0.831909 0.095947 0.023865
0.843018 0.097900 0.024811
0.852142 0.099945 0.026184
0.858185 0.101410 0.027100
0.000000 0.003418 0.001251
0.003418 0.003418 0.001251
0.008484 0.003418 0.001190
0.014252 0.003418 0.001007
0.022034 0.003418 0.000458
0.030548 0.003418 0.000000
0.049286 0.003418 0.000000
0.068817 0.003418 0.000000
0.091370 0.003418 0.000000
0.123749 0.004059 0.000000
0.158356 0.009125 0.000000
0.200287 0.013641 0.000000
0.246521 0.016907 0.000000
0.297119 0.018799 0.000000
0.353302 0.023926 0.000000
0.411255 0.031342 0.000000
0.476532 0.043274 0.000000
0.536530 0.052948 0.001465
0.583221 0.060486 0.005585
0.628296 0.066925 0.007812
0.668152 0.072876 0.011688
0.702637 0.079254 0.015472
0.732025 0.084229 0.017822
0.756958 0.088257 0.019440
0.775879 0.091156 0.020599
0.793243 0.093994 0.021454
0.808563 0.096954 0.022522
0.823242 0.099792 0.023407
0.832336 0.101196 0.023804
0.843414 0.103058 0.024841
0.852600 0.105194 0.026215
0.858643 0.106537 0.027100
0.000000 0.009369 0.001740
0.003418 0.009277 0.001648
0.008484 0.009094 0.001526
0.014099 0.009003 0.001373
0.021912 0.009094 0.000793
0.030731 0.009186 0.000214
0.049713 0.008972 0.000000
0.069580 0.008942 0.000000
0.092102 0.009705 0.000000
0.125641 0.013855 0.000000
0.160889 0.018005 0.000000
0.202484 0.022308 0.000000
0.247223 0.026093 0.000000
0.297089 0.028076 0.000000
0.354248 0.031647 0.000000
0.412048 0.038940 0.000000
0.477081 0.050568 0.000000
0.536438 0.060120 0.001648
0.583527 0.067596 0.005737
0.628479 0.074249 0.007935
0.667938 0.080139 0.011810
0.703003 0.086945 0.015625
0.732544 0.092041 0.017914
0.757751 0.096313 0.019470
0.776917 0.099152 0.020660
0.794220 0.102020 0.021423
0.809296 0.104919 0.022461
0.823883 0.107544 0.023346
0.833008 0.109100 0.023712
0.844116 0.111084 0.024902
0.853333 0.112854 0.026245
0.859283 0.114105 0.027069
0.000000 0.017303 0.002289
0.003418 0.016937 0.002136
0.008484 0.016632 0.002014
0.014008 0.016479 0.001831
0.021729 0.016602 0.001282
0.030762 0.016785 0.000549
0.050262 0.017456 0.000000
0.070892 0.018494 0.000000
0.093689 0.019653 0.000000
0.127167 0.023376 0.000000
0.163300 0.026703 0.000000
0.205231 0.030640 0.000000
0.247528 0.035004 0.000000
0.297241 0.037567 0.000000
0.355072 0.039886 0.000000
0.412292 0.046692 0.000000
0.477081 0.058075 0.000000
0.536530 0.067413 0.001923
0.583649 0.074982 0.005951
0.628937 0.081696 0.008087
0.668396 0.087921 0.011932
0.703613 0.094910 0.015808
0.733337 0.100128 0.018036
0.758606 0.104523 0.019562
0.777802 0.107452 0.020752
0.795135 0.110352 0.021484
0.810333 0.113037 0.022400
0.824646 0.115753 0.023254
0.833832 0.117126 0.023621
0.845123 0.119232 0.024994
0.854218 0.121002 0.026276
0.860352 0.122192 0.027008
0.000000 0.031250 0.003754
0.003418 0.030670 0.003540
0.008484 0.030396 0.003418
0.014008 0.029999 0.003235
0.021698 0.029663 0.002655
0.031250 0.029846 0.001648
0.050476 0.030609 0.000000
0.072357 0.030884 0.000000
0.095154 0.031830 0.000000
0.128387 0.034668 0.000000
0.165161 0.037994 0.000000
0.207550 0.041168 0.000000
0.249603 0.045380 0.000000
0.295990 0.049255 0.000031
0.354980 0.050842 0.000000
0.411987 0.056854 0.000000
0.477142 0.067627 0.000000
0.536682 0.076813 0.002289
0.584595 0.084503 0.006226
0.629883 0.091522 0.008575
0.669617 0.098053 0.012390
0.704742 0.105255 0.016144
0.734375 0.110626 0.018219
0.759949 0.115173 0.019745
0.779266 0.118225 0.020935
0.796722 0.121002 0.021759
0.811859 0.123718 0.022522
0.826477 0.126190 0.023224
0.835632 0.127533 0.023712
0.846924 0.129639 0.025330
0.856049 0.131409 0.026398
0.862152 0.132538 0.027100
0.000000 0.045868 0.005249
0.003418 0.045624 0.005127
0.008484 0.045288 0.004852
0.013855 0.044922 0.004639
0.022217 0.044525 0.004120
0.032501 0.044189 0.003143
0.050873 0.044464 0.000061
0.073486 0.044312 0.000000
0.097076 0.044800 0.000000
0.129700 0.046814 0.000000
0.166962 0.049957 0.000000
0.209137 0.052887 0.000000
0.252136 0.056000 0.000000
0.295746 0.060944 0.000885
0.353058 0.064240 0.000000
0.411835 0.067993 0.000000
0.477692 0.078278 0.000000
0.537201 0.087280 0.002686
0.585449 0.094940 0.006561
0.631287 0.102295 0.009094
0.671509 0.109344 0.013214
0.706482 0.116699 0.016693
0.735931 0.122192 0.018646
0.761322 0.126648 0.020142
0.781189 0.129791 0.021301
0.799072 0.132477 0.022095
0.814423 0.135254 0.022919
0.829132 0.137604 0.023590
0.838440 0.139221 0.024567
0.849823 0.141327 0.026184
0.859039 0.143036 0.027252
0.865143 0.144348 0.027893
0.000000 0.065643 0.007629
0.003418 0.065521 0.007507
0.008484 0.065277 0.007324
0.014923 0.065063 0.007141
0.024261 0.064758 0.006287
0.034149 0.064423 0.005463
0.051971 0.064087 0.002106
0.074066 0.063812 0.000000
0.100067 0.063110 0.000000
0.132538 0.064270 0.000000
0.170135 0.066864 0.000000
0.211487 0.069519 0.000000
0.255005 0.072571 0.000000
0.298035 0.077606 0.000000
0.350433 0.082886 0.002380
0.411713 0.085846 0.000000
0.477997 0.094238 0.000000
0.538086 0.102966 0.003357
0.587311 0.110687 0.007416
0.634094 0.118774 0.010254
0.674225 0.125641 0.014221
0.708527 0.133240 0.017548
0.738739 0.138702 0.019409
0.764374 0.142914 0.020905
0.784515 0.146149 0.021851
0.802979 0.149261 0.022705
0.818939 0.152069 0.023712
0.833221 0.154358 0.024292
0.842560 0.156219 0.025696
0.853851 0.158539 0.027161
0.862671 0.160278 0.028381
0.868683 0.161530 0.028961
0.000244 0.085602 0.008850
0.004608 0.085541 0.008728
0.011017 0.085449 0.008575
0.017517 0.085236 0.008331
0.026184 0.085083 0.007751
0.036011 0.084991 0.007263
0.052551 0.085236 0.004791
0.074554 0.084595 0.000854
0.101196 0.083649 0.000000
0.134979 0.084167 0.000000
0.172516 0.085876 0.000000
0.213867 0.088074 0.000000
0.257538 0.091248 0.000000
0.303101 0.095673 0.000000
0.351318 0.102478 0.002808
0.405945 0.108215 0.004944
0.476868 0.114685 0.002289
0.539917 0.121613 0.004639
0.589447 0.129395 0.008423
0.636414 0.137878 0.011597
0.676727 0.144653 0.015472
0.712219 0.152191 0.018585
0.742706 0.157684 0.020599
0.768036 0.162323 0.021942
0.787994 0.165527 0.022705
0.806427 0.168976 0.023560
0.822418 0.172058 0.024384
0.837494 0.175049 0.025543
0.846863 0.177124 0.027374
0.858246 0.179565 0.029083
0.866913 0.181305 0.030304
0.872406 0.182190 0.030884
0.002747 0.106628 0.010406
0.007019 0.106598 0.010284
0.013245 0.106598 0.010101
0.019592 0.106445 0.009979
0.028259 0.106323 0.009460
0.037842 0.106262 0.008881
0.053772 0.106628 0.006927
0.074402 0.106903 0.004120
0.101715 0.105774 0.000000
0.135895 0.105499 0.000000
0.175568 0.105591 0.000000
0.216858 0.107635 0.000000
0.260101 0.111053 0.000000
0.305878 0.115845 0.000000
0.356323 0.121887 0.000000
0.406677 0.129639 0.006195
0.468781 0.138885 0.010529
0.539490 0.144836 0.009399
0.591217 0.152222 0.012024
0.638611 0.159180 0.013611
0.679688 0.166260 0.016876
0.715057 0.174469 0.020264
0.746033 0.181244 0.023193
0.772125 0.186920 0.026611
0.792206 0.190216 0.027740
0.809937 0.193878 0.029663
0.825562 0.197937 0.032410
0.840363 0.201721 0.035278
0.849365 0.204590 0.037994
0.860107 0.207764 0.040588
0.868561 0.210175 0.041992
0.873840 0.211243 0.042999
0.005829 0.132416 0.011841
0.010040 0.132416 0.011719
0.016174 0.132385 0.011566
0.022247 0.132446 0.011353
0.030518 0.132507 0.010834
0.040222 0.132629 0.010071
0.055389 0.133087 0.008789
0.073303 0.133850 0.007172
0.099274 0.133270 0.003235
0.135468 0.132172 0.000000
0.176666 0.131958 0.000000
0.218506 0.132141 0.000000
0.263184 0.135681 0.000000
0.309845 0.140839 0.000000
0.361755 0.146851 0.000000
0.415955 0.154663 0.001434
0.472748 0.165283 0.010406
0.532715 0.175903 0.019379
0.587128 0.184235 0.022919
0.636993 0.192596 0.025787
0.677185 0.200043 0.029144
0.712555 0.207489 0.032776
0.743408 0.213928 0.035156
0.769440 0.219452 0.037659
0.790466 0.223206 0.038300
0.808746 0.227356 0.040344
0.824036 0.231537 0.042664
0.838593 0.235687 0.045776
0.847809 0.237946 0.047607
0.858337 0.240936 0.049744
0.866364 0.243347 0.051575
0.871490 0.244385 0.052399
0.007812 0.161346 0.015808
0.011993 0.161377 0.015594
0.018127 0.161346 0.015167
0.024536 0.161285 0.014740
0.032715 0.161407 0.013824
0.042023 0.161499 0.012909
0.056427 0.162170 0.011353
0.073425 0.163483 0.009735
0.095642 0.164307 0.007568
0.132385 0.162933 0.002747
0.175354 0.162750 0.000000
0.219299 0.161652 0.000000
0.265778 0.164032 0.000000
0.314575 0.168915 0.000000
0.367432 0.175201 0.000000
0.422394 0.183136 0.002625
0.482056 0.191528 0.006989
0.540253 0.202362 0.018097
0.589905 0.212616 0.024933
0.635406 0.222687 0.030334
0.674438 0.231110 0.034943
0.710419 0.239044 0.038757
0.742371 0.245483 0.040649
0.769165 0.251160 0.042542
0.790222 0.255310 0.043365
0.808716 0.260284 0.046173
0.824982 0.264435 0.048065
0.839020 0.268188 0.051361
0.848328 0.270386 0.053223
0.859070 0.273346 0.055603
0.867310 0.275269 0.057007
0.872406 0.276337 0.057739
0.010101 0.193542 0.020844
0.014435 0.193542 0.020630
0.020599 0.193542 0.020203
0.026855 0.193542 0.019745
0.035095 0.193512 0.019043
0.044281 0.193665 0.018127
0.058289 0.194458 0.016724
0.074707 0.195648 0.012909
0.094269 0.198120 0.011169
0.128815 0.197784 0.007141
0.173462 0.197479 0.002930
0.219513 0.195923 0.001251
0.268005 0.196198 0.000122
0.320526 0.200378 0.000702
0.376099 0.206573 0.002960
0.431641 0.214752 0.006409
0.489777 0.222473 0.009460
0.549896 0.229980 0.013031
0.600616 0.240540 0.021606
0.645050 0.251495 0.030334
0.683197 0.260559 0.035797
0.717712 0.269257 0.040222
0.749237 0.276398 0.042542
0.776215 0.282593 0.044464
0.797424 0.287628 0.046173
0.816498 0.292633 0.048950
0.832123 0.296692 0.051056
0.846680 0.300537 0.054413
0.855957 0.303101 0.056427
0.866821 0.305756 0.058533
0.874695 0.307465 0.059906
0.880005 0.308563 0.060577
0.013885 0.228607 0.025116
0.018005 0.228668 0.025085
0.024109 0.228790 0.024719
0.030396 0.228851 0.024261
0.038544 0.228851 0.023499
0.046906 0.228973 0.022583
0.061188 0.229950 0.021149
0.077789 0.231506 0.016846
0.096497 0.233795 0.013672
0.125671 0.236725 0.012299
0.172760 0.235504 0.008087
0.219147 0.235107 0.005768
0.271637 0.233368 0.004242
0.327454 0.236450 0.004974
0.388031 0.242981 0.007812
0.445465 0.249603 0.010132
0.503021 0.256958 0.012482
0.561920 0.265167 0.016418
0.612122 0.273499 0.020447
0.658752 0.281952 0.024658
0.696777 0.291870 0.033325
0.730774 0.300873 0.038757
0.761688 0.308807 0.041931
0.788483 0.315552 0.044556
0.808899 0.320740 0.047241
0.826935 0.325684 0.050140
0.842041 0.330017 0.052826
0.856964 0.334442 0.056061
0.866699 0.337341 0.058014
0.877899 0.340240 0.060181
0.886108 0.342010 0.061401
0.891449 0.343140 0.062012
0.018768 0.268188 0.029938
0.022766 0.268280 0.029968
0.028778 0.268494 0.029938
0.035431 0.268585 0.029388
0.043793 0.268707 0.028687
0.052216 0.268890 0.027649
0.066040 0.269775 0.026184
0.082794 0.271027 0.022369
0.100952 0.272949 0.018402
0.127045 0.276123 0.016876
0.166443 0.278107 0.014801
0.220703 0.279572 0.012512
0.278015 0.278259 0.010468
0.336609 0.278687 0.010559
0.402710 0.283936 0.012390
0.463928 0.288910 0.014282
0.522552 0.295685 0.016846
0.578278 0.303894 0.020966
0.625916 0.312073 0.024353
0.671295 0.320374 0.027679
0.710022 0.328094 0.030762
0.744263 0.335876 0.034027
0.774933 0.343231 0.037262
0.801208 0.349274 0.039124
0.821014 0.355133 0.043121
0.839691 0.360443 0.045349
0.855011 0.364990 0.048553
0.870056 0.369324 0.051331
0.879547 0.372406 0.053986
0.890320 0.374481 0.054932
0.898163 0.376007 0.055664
0.903381 0.376892 0.056458
0.025696 0.308929 0.035980
0.029755 0.309204 0.036011
0.035919 0.309448 0.035919
0.042297 0.309723 0.035614
0.050629 0.309875 0.034821
0.059113 0.310242 0.033722
0.073059 0.311188 0.031982
0.089844 0.312714 0.028290
0.107544 0.314667 0.023987
0.132172 0.317963 0.021912
0.169098 0.322021 0.020294
0.220367 0.324982 0.020142
0.279938 0.327271 0.020630
0.349976 0.325500 0.017334
0.421112 0.327698 0.018036
0.482697 0.331421 0.019257
0.540375 0.337952 0.022400
0.594727 0.345276 0.025726
0.640717 0.353577 0.028687
0.683258 0.361725 0.032074
0.721313 0.370087 0.034943
0.754395 0.377136 0.036743
0.784546 0.384247 0.038666
0.810120 0.390228 0.040466
0.830292 0.396210 0.043945
0.848694 0.401917 0.046631
0.863647 0.405914 0.049866
0.878174 0.409851 0.053009
0.887329 0.412445 0.055176
0.897247 0.414490 0.057220
0.904907 0.415833 0.058441
0.909851 0.416656 0.059082
0.031372 0.348206 0.043213
0.035645 0.348480 0.043213
0.041809 0.348846 0.043152
0.048187 0.349274 0.042999
0.056519 0.349701 0.042664
0.065430 0.350037 0.041870
0.079742 0.351196 0.040100
0.097076 0.353363 0.036621
0.115204 0.355743 0.031982
0.140259 0.359955 0.026947
0.175385 0.364166 0.025696
0.222778 0.369812 0.027985
0.283051 0.374420 0.031677
0.359009 0.375061 0.027679
0.438782 0.375183 0.025391
0.501190 0.375305 0.025146
0.555542 0.380798 0.027832
0.608826 0.388397 0.031219
0.653809 0.395142 0.033203
0.695557 0.403015 0.036133
0.731720 0.411743 0.039093
0.764130 0.418732 0.040619
0.792603 0.425781 0.042786
0.817688 0.432312 0.044830
0.837006 0.437805 0.048645
0.855347 0.443329 0.051788
0.869720 0.446899 0.056091
0.883362 0.450378 0.059631
0.891876 0.452545 0.062012
0.901672 0.454132 0.063629
0.909302 0.455536 0.064880
0.914246 0.456360 0.065704
0.037964 0.390564 0.050934
0.042236 0.390930 0.050903
0.048340 0.391632 0.050903
0.054657 0.392181 0.050903
0.062958 0.392853 0.050690
0.072540 0.393768 0.050659
0.088013 0.395203 0.049835
0.105438 0.397583 0.046631
0.123474 0.400146 0.042694
0.147217 0.404236 0.036499
0.178894 0.408264 0.034119
0.223907 0.414124 0.035492
0.292908 0.425140 0.042542
0.372314 0.431946 0.042358
0.452484 0.432251 0.039581
0.519806 0.429474 0.035767
0.572174 0.430237 0.035248
0.622925 0.435638 0.037628
0.666321 0.441223 0.038879
0.706024 0.448486 0.041534
0.740631 0.455688 0.043304
0.772064 0.462341 0.044403
0.799957 0.469360 0.047241
0.825470 0.476440 0.049896
0.844696 0.481049 0.053802
0.862427 0.485565 0.057037
0.875824 0.488434 0.061768
0.888519 0.491394 0.066101
0.896698 0.493286 0.068604
0.906464 0.494934 0.069977
0.914032 0.496155 0.071167
0.918793 0.496796 0.071930
0.043671 0.434998 0.060028
0.047791 0.435364 0.059998
0.054047 0.436035 0.060028
0.060883 0.436829 0.060120
0.070679 0.438080 0.059967
0.081055 0.439301 0.060028
0.096283 0.441284 0.060242
0.114075 0.443787 0.059174
0.132324 0.446655 0.057281
0.156342 0.451630 0.051575
0.186066 0.457916 0.046417
0.229279 0.460480 0.045776
0.304626 0.470947 0.051697
0.387848 0.483093 0.055634
0.461212 0.488251 0.054260
0.527985 0.487122 0.050720
0.587097 0.485718 0.046814
0.634308 0.486084 0.045532
0.676178 0.489349 0.045807
0.714691 0.495239 0.047241
0.749207 0.501526 0.047577
0.779572 0.507782 0.049103
0.807648 0.513672 0.051971
0.832397 0.519226 0.055328
0.850922 0.523804 0.059967
0.867371 0.527435 0.063995
0.880432 0.529755 0.068451
0.893097 0.532074 0.072845
0.901154 0.533325 0.074921
0.910767 0.534882 0.076202
0.918304 0.535950 0.077301
0.923187 0.536682 0.077911
0.047119 0.476349 0.070892
0.051788 0.476837 0.070862
0.059052 0.477722 0.071075
0.066315 0.478699 0.071259
0.075623 0.479767 0.071381
0.085602 0.480927 0.071350
0.100433 0.482880 0.071716
0.118500 0.485687 0.071655
0.138214 0.488556 0.070953
0.163666 0.493622 0.069275
0.192352 0.500427 0.061371
0.240112 0.506470 0.057770
0.314026 0.511475 0.061340
0.398376 0.522736 0.063934
0.470520 0.531677 0.063354
0.528259 0.535095 0.061432
0.590790 0.534851 0.056793
0.642578 0.534576 0.053772
0.683319 0.534607 0.051910
0.721527 0.537872 0.051636
0.755615 0.542908 0.051819
0.785156 0.548584 0.054596
0.813171 0.553497 0.057312
0.836945 0.558075 0.061798
0.854279 0.561035 0.067139
0.870148 0.563965 0.071564
0.883636 0.565979 0.074829
0.896393 0.567810 0.078491
0.904541 0.568878 0.080139
0.913910 0.570343 0.081665
0.921143 0.571350 0.082611
0.925964 0.571991 0.083374
0.052460 0.517090 0.082642
0.057312 0.517426 0.082642
0.064301 0.518402 0.082916
0.071320 0.519348 0.083130
0.080597 0.520782 0.083496
0.090485 0.522064 0.083710
0.105316 0.524536 0.084564
0.123749 0.526764 0.084625
0.143951 0.529327 0.083801
0.170288 0.533661 0.081207
0.201782 0.539825 0.075653
0.248993 0.548401 0.068115
0.323944 0.553619 0.071442
0.408356 0.560974 0.071045
0.478180 0.570740 0.069550
0.532440 0.576843 0.068542
0.586853 0.581116 0.066376
0.643524 0.580536 0.061340
0.687225 0.580170 0.058105
0.725952 0.580811 0.056000
0.759613 0.583771 0.056335
0.789429 0.587769 0.058960
0.816193 0.591919 0.063843
0.839264 0.595612 0.068481
0.856415 0.597809 0.074127
0.871887 0.600067 0.078888
0.885742 0.601929 0.081604
0.898560 0.603394 0.084503
0.906708 0.604248 0.086090
0.915619 0.605194 0.087463
0.922607 0.605835 0.088593
0.927155 0.606262 0.089325
0.057983 0.553345 0.093353
0.062805 0.553741 0.093292
0.069946 0.554718 0.093506
0.077332 0.555573 0.093658
0.086853 0.557068 0.093994
0.097046 0.558502 0.094391
0.112610 0.561127 0.095154
0.132294 0.563538 0.095154
0.153534 0.566132 0.094452
0.181152 0.570435 0.090820
0.213989 0.576233 0.082306
0.253387 0.583588 0.076599
0.327850 0.591431 0.078033
0.417633 0.596008 0.076172
0.483582 0.605072 0.073730
0.537567 0.612610 0.073975
0.588654 0.618896 0.072571
0.640259 0.622101 0.069305
0.688019 0.621857 0.065002
0.728210 0.622040 0.062988
0.761627 0.623108 0.063141
0.791138 0.625214 0.065613
0.817474 0.626404 0.070862
0.840332 0.629700 0.075836
0.857635 0.631104 0.080139
0.873291 0.632690 0.084808
0.886597 0.633972 0.087769
0.899078 0.635101 0.090607
0.906982 0.635773 0.092163
0.915649 0.636444 0.093628
0.922516 0.637024 0.094879
0.926910 0.637360 0.095581
0.064972 0.586670 0.103149
0.069855 0.587067 0.103027
0.077118 0.588196 0.103210
0.084778 0.589233 0.103455
0.094666 0.590637 0.103729
0.105225 0.592072 0.104004
0.121765 0.594635 0.104767
0.142273 0.597473 0.104675
0.165192 0.600952 0.101898
0.194244 0.605621 0.095123
0.226562 0.610657 0.087799
0.265839 0.618500 0.082336
0.327362 0.625763 0.083221
0.419342 0.630249 0.081329
0.490082 0.637787 0.078674
0.541199 0.645172 0.078461
0.592194 0.651672 0.076660
0.641083 0.656952 0.074738
0.687134 0.659698 0.072968
0.729584 0.660767 0.071991
0.763458 0.660950 0.072845
0.792145 0.659180 0.075836
0.818176 0.659485 0.078827
0.840363 0.660614 0.083344
0.857330 0.660950 0.087006
0.873199 0.661987 0.091339
0.886292 0.663147 0.094543
0.898621 0.664429 0.097534
0.906128 0.665070 0.098999
0.914886 0.665649 0.100311
0.921661 0.666077 0.101318
0.926208 0.666412 0.101929
0.073456 0.617645 0.111572
0.078369 0.618195 0.111542
0.085968 0.619110 0.111603
0.093658 0.620148 0.111694
0.103821 0.621582 0.111847
0.114807 0.623352 0.112213
0.131409 0.625946 0.112610
0.152222 0.628662 0.112000
0.174591 0.631561 0.110413
0.203644 0.637085 0.104248
0.236145 0.642426 0.094879
0.277954 0.650116 0.086334
0.337067 0.658203 0.088043
0.419708 0.663391 0.087189
0.493500 0.668396 0.083374
0.546265 0.675323 0.081512
0.595581 0.681458 0.080292
0.642975 0.687775 0.079071
0.686401 0.692413 0.078827
0.727936 0.694031 0.081543
0.762360 0.692596 0.085022
0.791992 0.690613 0.087341
0.817596 0.689697 0.089508
0.839630 0.689453 0.092194
0.856506 0.689484 0.095337
0.872131 0.689636 0.098022
0.885254 0.690643 0.100769
0.897705 0.691711 0.103302
0.905304 0.692139 0.104279
0.914124 0.692719 0.105194
0.920959 0.693146 0.106018
0.925415 0.693512 0.106384
0.081940 0.644806 0.117767
0.086884 0.645264 0.117676
0.094604 0.646240 0.117737
0.102570 0.647461 0.117767
0.112823 0.648926 0.117889
0.123779 0.650757 0.118042
0.140320 0.653320 0.118042
0.160248 0.655365 0.117126
0.181549 0.657928 0.115997
0.209778 0.662781 0.112457
0.243500 0.668793 0.107086
0.290833 0.679138 0.094177
0.348755 0.685913 0.093384
0.425812 0.692505 0.091736
0.495544 0.695648 0.087433
0.551514 0.700897 0.084778
0.599152 0.707184 0.083405
0.645966 0.714203 0.083313
0.687103 0.719391 0.083862
0.727356 0.721252 0.087646
0.761292 0.721069 0.092621
0.790741 0.718933 0.095490
0.816467 0.717194 0.097870
0.838715 0.716125 0.099884
0.855316 0.714905 0.101532
0.870850 0.714722 0.103210
0.884216 0.715363 0.105103
0.896729 0.716187 0.107086
0.904205 0.716736 0.107910
0.912994 0.717072 0.108521
0.919769 0.717468 0.108948
0.924316 0.717651 0.109253
0.087006 0.665283 0.121582
0.091919 0.665802 0.121552
0.099457 0.666687 0.121643
0.107330 0.667755 0.121704
0.117767 0.669464 0.121857
0.129211 0.671051 0.121887
0.146912 0.673370 0.121429
0.167450 0.675568 0.120575
0.189606 0.678558 0.119171
0.216339 0.682220 0.119263
0.249969 0.688171 0.116547
0.299072 0.700134 0.102173
0.359467 0.709137 0.099487
0.431305 0.714081 0.096039
0.498840 0.717285 0.090820
0.555756 0.721649 0.087494
0.603424 0.728180 0.086700
0.648956 0.734711 0.086731
0.687744 0.739838 0.089355
0.726715 0.741791 0.092987
0.761108 0.741699 0.097229
0.789490 0.741089 0.100952
0.814697 0.738495 0.103882
0.836914 0.736877 0.105682
0.854279 0.736053 0.106537
0.869629 0.735107 0.107880
0.882904 0.735321 0.108856
0.895538 0.735779 0.109802
0.903198 0.736053 0.110291
0.912018 0.736389 0.110901
0.918823 0.736603 0.111359
0.923248 0.736755 0.111633
0.093903 0.684021 0.125305
0.098907 0.684631 0.125275
0.106720 0.685608 0.125336
0.115021 0.686737 0.125397
0.126007 0.688263 0.125519
0.137848 0.689728 0.125580
0.155762 0.692017 0.125061
0.176147 0.694580 0.124298
0.197632 0.697205 0.123352
0.223755 0.700104 0.124573
0.256042 0.705414 0.123291
0.305115 0.717438 0.112305
0.369049 0.730042 0.105682
0.436768 0.734314 0.100220
0.502106 0.737152 0.094696
0.559601 0.740753 0.090668
0.608063 0.746735 0.088898
0.652100 0.753632 0.089844
0.689362 0.758392 0.094604
0.726257 0.760406 0.098022
0.759735 0.759949 0.101227
0.787903 0.759583 0.105316
0.813293 0.757812 0.108215
0.835236 0.756165 0.110077
0.852631 0.755280 0.110779
0.868500 0.754578 0.111786
0.881836 0.754181 0.112427
0.894409 0.754517 0.113129
0.901947 0.754608 0.113403
0.910706 0.754517 0.113647
0.917480 0.754608 0.114044
0.922028 0.754669 0.114288
0.100861 0.699829 0.128418
0.106049 0.700562 0.128479
0.114136 0.701691 0.128479
0.122742 0.702728 0.128510
0.133759 0.704224 0.128632
0.145416 0.705841 0.128632
0.163177 0.708099 0.128174
0.183319 0.710541 0.127350
0.204742 0.712982 0.127197
0.231140 0.715759 0.128998
0.261414 0.720306 0.128479
0.309937 0.732513 0.118469
0.375366 0.747162 0.111847
0.443268 0.752808 0.105286
0.505768 0.754608 0.098114
0.563293 0.757416 0.093292
0.611786 0.762512 0.091644
0.654297 0.768890 0.094055
0.691071 0.773773 0.098907
0.726044 0.776001 0.102051
0.758820 0.775177 0.104218
0.786865 0.774536 0.108185
0.811768 0.773987 0.111359
0.834076 0.772491 0.112793
0.851654 0.771698 0.113373
0.867432 0.771057 0.114441
0.880798 0.770630 0.114868
0.893372 0.770416 0.115295
0.901093 0.770569 0.115570
0.909943 0.770416 0.115784
0.916656 0.770325 0.115784
0.921051 0.770233 0.115784
0.107452 0.714905 0.131195
0.112671 0.715576 0.131226
0.120422 0.716614 0.131256
0.129059 0.717834 0.131378
0.140320 0.719452 0.131622
0.152557 0.720917 0.131348
0.170105 0.723145 0.130707
0.190247 0.725677 0.130035
0.211090 0.727753 0.130951
0.237396 0.730255 0.133087
0.267059 0.734680 0.132019
0.313446 0.746063 0.123627
0.379974 0.762329 0.117920
0.449646 0.769379 0.109589
0.511719 0.771454 0.101562
0.567535 0.773743 0.097168
0.615143 0.778046 0.095123
