滤镜资源/Professional Luts Collection/Triune-Digital-Cinematic-LUTs/3D LUTs (CUBE)/REDLOGFILM/Drive - REDlogFilm.cube
#Created by Benjamin (IWLTBAP) : http://luts.iwltbap.com
#Copyright: (C) Copyright 2016 Triune Films and IWLTBAP
TITLE "Blockbuster LUTs Pack (REDlogFilm)"
#LUT size
LUT_3D_SIZE 8
#LUT data points
DOMAIN_MIN 0.000000 0.000000 0.000000
DOMAIN_MAX 0.903226 0.903226 0.903226
0.000000 0.000000 0.000854
0.022156 0.000000 0.000305
0.090912 0.000000 0.000000
0.246033 0.010498 0.000000
0.475800 0.038177 0.000000
0.668213 0.068024 0.011688
0.775543 0.085938 0.020538
0.831909 0.095947 0.023865
0.000000 0.031250 0.003754
0.021698 0.029663 0.002655
0.095154 0.031830 0.000000
0.249603 0.045380 0.000000
0.477142 0.067627 0.000000
0.669617 0.098053 0.012390
0.779266 0.118225 0.020935
0.835632 0.127533 0.023712
0.002747 0.106628 0.010406
0.028259 0.106323 0.009460
0.101715 0.105774 0.000000
0.260101 0.111053 0.000000
0.468781 0.138885 0.010529
0.679688 0.166260 0.016876
0.792206 0.190216 0.027740
0.849365 0.204590 0.037994
0.013885 0.228607 0.025116
0.038544 0.228851 0.023499
0.096497 0.233795 0.013672
0.271637 0.233368 0.004242
0.503021 0.256958 0.012482
0.696777 0.291870 0.033325
0.808899 0.320740 0.047241
0.866699 0.337341 0.058014
0.037964 0.390564 0.050934
0.062958 0.392853 0.050690
0.123474 0.400146 0.042694
0.292908 0.425140 0.042542
0.572174 0.430237 0.035248
0.740631 0.455688 0.043304
0.844696 0.481049 0.053802
0.896698 0.493286 0.068604
0.057983 0.553345 0.093353
0.086853 0.557068 0.093994
0.153534 0.566132 0.094452
0.327850 0.591431 0.078033
0.588654 0.618896 0.072571
0.761627 0.623108 0.063141
0.857635 0.631104 0.080139
0.906982 0.635773 0.092163
0.087006 0.665283 0.121582
0.117767 0.669464 0.121857
0.189606 0.678558 0.119171
0.359467 0.709137 0.099487
0.603424 0.728180 0.086700
0.761108 0.741699 0.097229
0.854279 0.736053 0.106537
0.903198 0.736053 0.110291
0.111664 0.724518 0.133026
0.144409 0.729004 0.133270
0.215027 0.737091 0.133484
0.381317 0.771729 0.121429
0.617401 0.788239 0.097351
0.757843 0.800018 0.110474
0.850067 0.796783 0.116577
0.899658 0.795197 0.118195
0.000000 0.000000 0.027466
0.022034 0.000000 0.028717
0.091431 0.000000 0.026428
0.247223 0.009979 0.022888
0.479126 0.038513 0.027283
0.671631 0.068909 0.041290
0.777924 0.086578 0.048401
0.834351 0.096649 0.051910
0.000000 0.029510 0.032379
0.021698 0.029968 0.034607
0.092377 0.033508 0.031830
0.252747 0.045227 0.027954
0.482239 0.068329 0.027588
0.673798 0.098602 0.041901
0.781921 0.117798 0.048889
0.837952 0.127441 0.052551
0.000366 0.108215 0.044281
0.026398 0.108826 0.044159
0.097076 0.109039 0.035980
0.257233 0.114136 0.030121
0.480316 0.136871 0.035736
0.682892 0.167908 0.045288
0.794128 0.189636 0.052612
0.850708 0.204041 0.063080
0.011871 0.231323 0.058777
0.035950 0.231537 0.058441
0.095551 0.234955 0.055389
0.273682 0.236176 0.032715
0.507721 0.259277 0.040375
0.699036 0.297058 0.063263
0.811310 0.326294 0.076477
0.868042 0.342773 0.088684
0.036407 0.393280 0.081726
0.060822 0.394409 0.081787
0.122192 0.401825 0.080902
0.286469 0.428650 0.071136
0.577850 0.436646 0.064941
0.745483 0.462341 0.071655
0.846985 0.486725 0.083954
0.897156 0.497650 0.099731
0.053955 0.556763 0.124817
0.083710 0.558380 0.124207
0.147614 0.568726 0.126709
0.308044 0.593750 0.106903
0.591858 0.623810 0.100403
0.762817 0.628387 0.092590
0.857513 0.634399 0.112122
0.906708 0.639130 0.122833
0.084961 0.668121 0.152405
0.114227 0.670624 0.152283
0.184875 0.680298 0.151428
0.348877 0.710144 0.131927
0.605499 0.731812 0.114197
0.760773 0.743835 0.126434
0.853760 0.739410 0.136017
0.903351 0.739899 0.140442
0.109589 0.726288 0.163574
0.140442 0.730347 0.164215
0.211334 0.740082 0.164856
0.365723 0.767090 0.158417
0.618622 0.790833 0.126343
0.757568 0.802216 0.140167
0.849487 0.799774 0.144562
0.899231 0.797943 0.146606
0.000000 0.000000 0.094391
0.021851 0.000000 0.095184
0.089355 0.000000 0.096497
0.254150 0.010162 0.092590
0.483704 0.039215 0.088837
0.678619 0.071442 0.099884
0.782837 0.088562 0.105286
0.837128 0.099243 0.109558
0.000000 0.035156 0.100739
0.021515 0.032959 0.102142
0.084534 0.036652 0.104279
0.258362 0.044128 0.095154
0.487518 0.068268 0.089233
0.679840 0.100220 0.100647
0.786438 0.119507 0.106232
0.839996 0.129730 0.111389
0.000000 0.109314 0.113861
0.021179 0.110870 0.116028
0.079132 0.114532 0.121338
0.251007 0.118835 0.109467
0.496368 0.134155 0.092560
0.688507 0.168030 0.103180
0.796021 0.189178 0.108246
0.851929 0.201630 0.116394
0.004089 0.240784 0.136414
0.028839 0.241486 0.134918
0.087036 0.242371 0.129761
0.273010 0.243439 0.099701
0.518799 0.265930 0.101654
0.703217 0.307800 0.123566
0.813995 0.338409 0.139679
0.868256 0.354492 0.155792
0.030121 0.406342 0.164459
0.054779 0.406494 0.161835
0.114807 0.409515 0.157440
0.265137 0.440491 0.137939
0.586945 0.450989 0.127228
0.752869 0.477692 0.132538
0.848480 0.497711 0.150513
0.897217 0.507721 0.164368
0.048828 0.569031 0.196899
0.077362 0.569885 0.196198
0.138733 0.573853 0.195374
0.270996 0.594055 0.193542
0.596191 0.634247 0.158142
0.763641 0.638153 0.159973
0.857452 0.641968 0.176910
0.906403 0.647369 0.187988
0.083923 0.677460 0.220123
0.113098 0.678741 0.219513
0.176758 0.684235 0.218719
0.308136 0.700989 0.223938
0.609711 0.741425 0.178192
0.759430 0.748474 0.186462
0.854462 0.746643 0.199158
0.904053 0.747406 0.202362
0.108093 0.734497 0.230682
0.137177 0.735626 0.230133
0.201080 0.742340 0.229828
0.334778 0.759644 0.240601
0.619110 0.797333 0.199371
0.756805 0.807617 0.201996
0.849030 0.805786 0.204163
0.899109 0.803894 0.206757
0.000000 0.013092 0.213654
0.021667 0.006592 0.212372
0.075195 0.008148 0.215240
0.230103 0.012695 0.213562
0.487274 0.043640 0.198334
0.684143 0.074799 0.203064
0.787506 0.096588 0.210907
0.839539 0.106934 0.217926
0.000000 0.052490 0.222443
0.021698 0.050415 0.222992
0.071259 0.043976 0.223206
0.223511 0.044525 0.220276
0.490814 0.073822 0.200867
0.686157 0.105743 0.205780
0.791687 0.129089 0.214874
0.843781 0.138916 0.222931
0.000000 0.119629 0.236908
0.021149 0.120209 0.238251
0.068573 0.123718 0.244080
0.206696 0.123535 0.238525
0.503754 0.141693 0.207306
0.694183 0.177704 0.218018
0.800537 0.203461 0.228027
0.853424 0.217163 0.240051
0.000000 0.244049 0.261536
0.020447 0.244843 0.262909
0.066742 0.249176 0.270935
0.172028 0.263275 0.285828
0.520538 0.305695 0.268921
0.703308 0.344910 0.279938
0.807373 0.374847 0.301178
0.863068 0.385864 0.306824
0.010925 0.425568 0.310303
0.039459 0.428802 0.311707
0.096375 0.436005 0.315369
0.206055 0.449036 0.306335
0.589355 0.484497 0.246826
0.737061 0.521881 0.315826
0.826813 0.540192 0.338684
0.877472 0.547363 0.343140
0.054871 0.598419 0.350159
0.081940 0.600037 0.348480
0.139465 0.603455 0.341766
0.245514 0.607452 0.324310
0.587128 0.668518 0.308105
0.761322 0.663208 0.313507
0.855072 0.668304 0.324249
0.906952 0.673248 0.326935
0.089691 0.699799 0.356323
0.116577 0.700531 0.353180
0.176422 0.702209 0.346436
0.285217 0.708893 0.342804
0.598969 0.762360 0.345642
0.760071 0.771912 0.327728
0.855774 0.767212 0.327393
0.905792 0.769409 0.333008
0.108398 0.752686 0.361816
0.136383 0.753754 0.359467
0.196411 0.755890 0.355103
0.308990 0.766327 0.358154
0.610687 0.816437 0.362152
0.761627 0.830719 0.342163
0.852570 0.826324 0.333160
0.902802 0.824768 0.336243
0.000000 0.046600 0.368011
0.022095 0.038269 0.366241
0.074860 0.030670 0.366241
0.180237 0.034088 0.368134
0.422058 0.046539 0.355133
0.674835 0.083527 0.343872
0.781403 0.111847 0.363373
0.834534 0.125061 0.374725
0.000000 0.079651 0.374786
0.021973 0.078278 0.375305
0.071442 0.063843 0.372528
0.177826 0.064178 0.375122
0.417389 0.077271 0.360382
0.677734 0.117218 0.352020
0.784821 0.147552 0.373932
0.839142 0.162628 0.386810
0.000000 0.143463 0.389709
0.020447 0.145416 0.392181
0.069000 0.148621 0.397034
0.172455 0.127869 0.394928
0.420013 0.151123 0.382111
0.688171 0.198822 0.377258
0.798004 0.233643 0.406006
0.854004 0.251007 0.421112
0.000000 0.257568 0.418579
0.020447 0.259277 0.420593
0.067841 0.264832 0.426727
0.162567 0.273621 0.440704
0.480896 0.315430 0.441895
0.709747 0.363983 0.458435
0.815308 0.390137 0.478851
0.869812 0.399292 0.483307
0.000885 0.425049 0.458649
0.024475 0.429138 0.461975
0.076965 0.439697 0.470459
0.181671 0.465851 0.494141
0.419678 0.517334 0.528809
0.724060 0.566742 0.539459
0.826721 0.583008 0.551361
0.882019 0.588684 0.553772
0.046387 0.615234 0.517273
0.074463 0.619232 0.521301
0.132935 0.627045 0.527954
0.238739 0.640686 0.536957
0.537933 0.680878 0.541199
0.759125 0.703583 0.509430
0.858643 0.715637 0.538208
0.909271 0.723145 0.548737
0.096405 0.725372 0.545502
0.124512 0.727386 0.546692
0.183441 0.731720 0.548737
0.289062 0.741089 0.550995
0.586121 0.786896 0.549286
0.762299 0.806549 0.527405
0.863708 0.806976 0.520203
0.914337 0.807953 0.527527
0.119995 0.779419 0.552826
0.147980 0.781708 0.553345
0.206482 0.787140 0.555115
0.311279 0.798218 0.555023
0.605164 0.844727 0.554291
0.769257 0.859467 0.536560
0.861786 0.865326 0.530212
0.911682 0.857239 0.518646
0.002106 0.060730 0.509674
0.025330 0.056335 0.509857
0.080414 0.043457 0.511047
0.183716 0.045105 0.508118
0.325012 0.047699 0.508820
0.644318 0.095581 0.480072
0.776520 0.124512 0.493134
0.833710 0.136749 0.503082
0.001007 0.094574 0.514374
0.024780 0.092072 0.516357
0.077484 0.080261 0.516418
0.181000 0.075256 0.515778
0.321960 0.078461 0.514740
0.653381 0.131195 0.487823
0.781403 0.161011 0.503998
0.840027 0.176941 0.518127
0.000000 0.163422 0.529083
0.023773 0.163666 0.531708
0.071533 0.159485 0.536804
0.174988 0.140442 0.536682
0.324310 0.146881 0.536072
0.672791 0.214386 0.517090
0.791168 0.245880 0.538635
0.849823 0.261688 0.552856
0.002625 0.284607 0.558960
0.026031 0.287231 0.562134
0.073914 0.293152 0.570831
0.168579 0.299164 0.585602
0.335632 0.302856 0.599365
0.694885 0.380402 0.597565
0.807159 0.398560 0.608276
0.862915 0.409149 0.616425
0.006439 0.454071 0.603302
0.029633 0.457916 0.607086
0.084778 0.465729 0.615173
0.181915 0.483948 0.634674
0.358673 0.516571 0.662994
0.724152 0.582703 0.676910
0.829926 0.600098 0.689819
0.885773 0.604248 0.693970
0.021484 0.611786 0.648804
0.049133 0.614746 0.651794
0.107513 0.622009 0.659424
0.216400 0.638000 0.673523
0.416077 0.674347 0.694092
0.751801 0.735443 0.710388
0.855469 0.746460 0.712921
0.907562 0.754822 0.726288
0.068451 0.722321 0.680237
0.096527 0.725311 0.683075
0.156128 0.732605 0.688629
0.261841 0.743774 0.694824
0.454407 0.782776 0.711792
0.761688 0.829163 0.711914
0.866150 0.835632 0.695312
0.922485 0.837646 0.705414
0.093445 0.779175 0.689697
0.121948 0.782562 0.691620
0.183136 0.790833 0.695251
0.290649 0.804901 0.700500
0.501953 0.847198 0.720154
0.768799 0.882843 0.718384
0.868561 0.885773 0.697662
0.919983 0.885529 0.693237
0.002930 0.077728 0.612457
0.026215 0.074249 0.612793
0.082031 0.063416 0.613403
0.185242 0.061005 0.613007
0.328491 0.059784 0.604370
0.613800 0.102356 0.594452
0.770844 0.136200 0.587555
0.831604 0.150513 0.600677
0.002441 0.109161 0.616425
0.025696 0.108124 0.617981
0.078552 0.102539 0.619293
0.182068 0.090607 0.619324
0.326141 0.093018 0.612396
0.620270 0.140656 0.605652
0.773590 0.177368 0.605194
0.834137 0.192139 0.618622
0.003418 0.176544 0.628601
0.025909 0.175659 0.630798
0.072693 0.174255 0.634705
0.177551 0.169128 0.638702
0.331177 0.175934 0.643982
0.640625 0.231110 0.638306
0.779205 0.264221 0.645111
0.839569 0.274231 0.652039
0.007172 0.307770 0.660980
0.029968 0.310120 0.664124
0.079956 0.315063 0.671753
0.177765 0.322998 0.684082
0.338898 0.328888 0.698578
0.674500 0.384583 0.698059
0.797699 0.404327 0.698914
0.855560 0.412567 0.703644
0.009583 0.474213 0.702789
0.036011 0.477417 0.706177
0.090363 0.484467 0.713531
0.189850 0.500183 0.730072
0.360382 0.529083 0.753754
0.711243 0.580688 0.764832
0.826416 0.601929 0.773712
0.887634 0.605804 0.776184
0.025238 0.616791 0.739471
0.052917 0.620178 0.742828
0.110229 0.627899 0.749939
0.219940 0.644836 0.763641
0.410095 0.676849 0.781250
0.732117 0.745239 0.818329
0.850464 0.757355 0.819153
0.905426 0.762390 0.822876
0.059814 0.721771 0.765289
0.089355 0.725739 0.768524
0.151276 0.734100 0.775238
0.257721 0.745392 0.782349
0.436646 0.778320 0.803192
0.731750 0.842712 0.839539
0.861847 0.851349 0.831879
0.918488 0.853424 0.831482
0.082703 0.781067 0.779694
0.111603 0.784576 0.782501
0.171631 0.791168 0.786743
0.277313 0.803253 0.794159
0.451141 0.834961 0.814392
0.743652 0.895203 0.843170
0.867981 0.900024 0.831573
0.924469 0.901398 0.824097
0.003510 0.088409 0.667694
0.026642 0.086548 0.668121
0.083557 0.078735 0.668915
0.187500 0.071625 0.670380
0.331787 0.071442 0.659393
0.602814 0.110840 0.653900
0.762207 0.146027 0.647858
0.825470 0.160187 0.659058
0.003387 0.120239 0.671997
0.026337 0.119476 0.672638
0.079132 0.116882 0.674042
0.185455 0.103149 0.675873
0.331512 0.107849 0.670532
0.610474 0.152283 0.667572
0.764801 0.189850 0.668793
0.827209 0.200745 0.676971
0.005676 0.188049 0.684143
0.027863 0.187592 0.686218
0.074982 0.187592 0.689728
0.178864 0.185699 0.692291
0.337341 0.195465 0.704590
0.630829 0.239868 0.700348
0.773041 0.271729 0.700684
0.833923 0.280945 0.707123
0.008606 0.320160 0.715149
0.031464 0.323151 0.718781
0.084503 0.328552 0.725922
0.184998 0.337799 0.738342
0.344574 0.344849 0.753998
0.647949 0.383057 0.755646
0.791382 0.407104 0.751892
0.850830 0.417114 0.756256
0.012970 0.483398 0.755646
0.039703 0.486816 0.759094
0.094543 0.494263 0.766388
0.196014 0.509308 0.780853
0.359222 0.536255 0.805084
0.689850 0.584839 0.822754
0.821869 0.600555 0.823730
0.879730 0.606293 0.825439
0.030914 0.623108 0.789642
0.058746 0.626343 0.792633
0.116852 0.634827 0.799744
0.221283 0.649841 0.812744
0.402222 0.679291 0.831390
0.717102 0.747101 0.867950
0.845062 0.759247 0.869019
0.901794 0.762512 0.870911
0.058136 0.722778 0.811920
0.087921 0.727173 0.815765
0.149811 0.735687 0.822815
0.259705 0.747772 0.830902
0.431824 0.777405 0.850281
0.728119 0.841064 0.884735
0.858856 0.855164 0.888123
0.916229 0.858368 0.889099
0.080994 0.781006 0.825073
0.110413 0.784943 0.828247
0.170898 0.791748 0.833160
0.276703 0.803589 0.841003
0.447876 0.833618 0.861786
0.732849 0.892883 0.893524
0.865387 0.904724 0.892517
0.921356 0.907410 0.889801
