滤镜资源/Professional Luts Collection/Triune-Digital-Cinematic-LUTs/3D LUTs (CUBE)/REDLOGFILM/Drive - REDlogFilm.cube
#Created by Benjamin (IWLTBAP) : http://luts.iwltbap.com
#Copyright: (C) Copyright 2016 Triune Films and IWLTBAP
TITLE "Blockbuster LUTs Pack (REDlogFilm)"
#LUT size
LUT_3D_SIZE 5
#LUT data points
DOMAIN_MIN 0.000000 0.000000 0.000000
DOMAIN_MAX 0.903226 0.903226 0.903226
0.000000 0.000000 0.000854
0.068420 0.000000 0.000000
0.352631 0.018463 0.000000
0.702423 0.074188 0.015350
0.831909 0.095947 0.023865
0.000244 0.085602 0.008850
0.074554 0.084595 0.000854
0.351318 0.102478 0.002808
0.712219 0.152191 0.018585
0.846863 0.177124 0.027374
0.025696 0.308929 0.035980
0.089844 0.312714 0.028290
0.421112 0.327698 0.018036
0.754395 0.377136 0.036743
0.887329 0.412445 0.055176
0.064972 0.586670 0.103149
0.142273 0.597473 0.104675
0.490082 0.637787 0.078674
0.792145 0.659180 0.075836
0.906128 0.665070 0.098999
0.111664 0.724518 0.133026
0.194305 0.735077 0.132507
0.515564 0.782074 0.104980
0.784943 0.798859 0.112366
0.899658 0.795197 0.118195
0.000000 0.000000 0.074829
0.066589 0.000000 0.076813
0.357666 0.020660 0.069550
0.710175 0.076904 0.084625
0.836182 0.098328 0.091888
0.000000 0.085754 0.089294
0.061707 0.089996 0.094971
0.365723 0.101715 0.075195
0.717560 0.152679 0.086761
0.847412 0.177979 0.096283
0.019012 0.317963 0.123993
0.083557 0.319336 0.120239
0.428589 0.337280 0.088135
0.764099 0.391663 0.106049
0.888092 0.423462 0.132599
0.059021 0.597595 0.182892
0.132050 0.602264 0.182190
0.485962 0.647247 0.150696
0.792175 0.668243 0.151978
0.906769 0.673981 0.172821
0.108521 0.731934 0.210449
0.183167 0.738678 0.209869
0.499817 0.789673 0.192078
0.783905 0.804474 0.182434
0.898895 0.801910 0.188202
0.000000 0.029266 0.291016
0.054749 0.020264 0.289764
0.319580 0.026703 0.285492
0.717896 0.086304 0.272095
0.839874 0.117126 0.296539
0.000000 0.110413 0.307190
0.053955 0.114716 0.313110
0.294189 0.108734 0.305817
0.726044 0.173431 0.296600
0.852203 0.211945 0.327698
0.000000 0.326996 0.358337
0.052704 0.333649 0.364624
0.251617 0.368652 0.400604
0.752411 0.463623 0.419647
0.880280 0.479065 0.420319
0.070770 0.646576 0.449005
0.139130 0.651764 0.449280
0.356689 0.667572 0.433319
0.790649 0.715393 0.415924
0.910767 0.725952 0.439117
0.115234 0.769501 0.465210
0.182373 0.772491 0.460205
0.401764 0.793579 0.455933
0.793121 0.849518 0.439056
0.905853 0.840088 0.424744
0.002167 0.064911 0.539734
0.063171 0.052307 0.540466
0.252686 0.049438 0.535309
0.686920 0.106934 0.507538
0.833038 0.139038 0.529175
0.000610 0.145142 0.552795
0.057831 0.141846 0.559052
0.246552 0.128052 0.560486
0.703186 0.202820 0.540741
0.845123 0.240143 0.570557
0.005768 0.373230 0.609009
0.064667 0.382477 0.619049
0.247009 0.414673 0.654999
0.744751 0.489807 0.668427
0.876678 0.504913 0.677826
0.030121 0.643311 0.683472
0.099915 0.652252 0.691925
0.311707 0.685364 0.716431
0.784637 0.772308 0.748413
0.912628 0.783936 0.754700
0.089417 0.779419 0.717041
0.161011 0.787689 0.721375
0.361450 0.815613 0.734039
0.797272 0.888062 0.752899
0.923065 0.891266 0.733856
0.003510 0.088409 0.667694
0.065369 0.081818 0.668610
0.255035 0.070953 0.664673
0.655396 0.123322 0.652588
0.825470 0.160187 0.659058
0.004822 0.166840 0.680237
0.059814 0.166290 0.684357
0.253479 0.158569 0.691193
0.675171 0.227814 0.691406
0.831665 0.257477 0.698608
0.009491 0.403412 0.734802
0.074524 0.412262 0.744415
0.257294 0.437531 0.771698
0.709930 0.489990 0.789917
0.866180 0.512848 0.791199
0.036713 0.651947 0.795929
0.105530 0.661316 0.804352
0.315369 0.691101 0.826721
0.763702 0.781708 0.876404
0.906158 0.791199 0.877075
0.080994 0.781006 0.825073
0.152679 0.789825 0.831879
0.350952 0.815063 0.849487
0.776276 0.897858 0.894379
0.921356 0.907410 0.889801
