滤镜资源/Professional Luts Collection/Triune-Digital-Cinematic-LUTs/3D LUTs (CUBE)/REDLOGFILM/Game of Thrones - REDlogFilm.cube
#Created by Benjamin (IWLTBAP) : http://luts.iwltbap.com
#Copyright: (C) Copyright 2016 Triune Films and IWLTBAP
TITLE "Blockbuster LUTs Pack (REDlogFilm)"
#LUT size
LUT_3D_SIZE 8
#LUT data points
DOMAIN_MIN 0.000000 0.000000 0.000000
DOMAIN_MAX 0.903226 0.903226 0.903226
0.000000 0.000000 0.000000
0.032928 0.001373 0.000183
0.094543 0.004822 0.000244
0.234619 0.010498 0.000000
0.395996 0.020660 0.000000
0.536987 0.029114 0.000000
0.636017 0.034332 0.003052
0.695587 0.037140 0.006256
0.004700 0.033234 0.000366
0.036407 0.034973 0.001770
0.098694 0.039093 0.000610
0.239746 0.045105 0.000458
0.404999 0.053986 0.000000
0.546814 0.062103 0.004333
0.653870 0.063080 0.009979
0.710571 0.067169 0.013458
0.012482 0.097107 0.000580
0.044952 0.099030 0.002289
0.111572 0.103058 0.004150
0.255524 0.112000 0.002991
0.427795 0.123505 0.011688
0.578674 0.132446 0.020081
0.679596 0.139740 0.025635
0.738159 0.144562 0.028809
0.031982 0.246735 0.004700
0.063782 0.251404 0.010162
0.143921 0.255859 0.021484
0.290802 0.268555 0.040283
0.474335 0.284180 0.046082
0.631317 0.298126 0.051636
0.739227 0.308289 0.056213
0.800903 0.316254 0.060425
0.067810 0.429443 0.031403
0.096710 0.437134 0.039978
0.186218 0.448303 0.059204
0.341156 0.467102 0.079803
0.528381 0.492157 0.103882
0.696045 0.509125 0.107178
0.809875 0.518036 0.108368
0.875671 0.522888 0.107758
0.092621 0.596680 0.057281
0.131500 0.605530 0.067841
0.217041 0.625061 0.092133
0.383575 0.647461 0.109467
0.573151 0.669556 0.129608
0.733856 0.683807 0.140778
0.846283 0.690887 0.137299
0.912140 0.693970 0.135315
0.112701 0.716339 0.074707
0.154785 0.726532 0.084869
0.239532 0.744873 0.108887
0.404327 0.765961 0.124115
0.594604 0.785187 0.138855
0.753967 0.796844 0.149567
0.860626 0.803497 0.150818
0.927094 0.804840 0.148865
0.121368 0.788422 0.083008
0.166077 0.796387 0.092651
0.251770 0.812378 0.116760
0.412903 0.833588 0.130188
0.603333 0.851562 0.141388
0.761688 0.862000 0.149872
0.868256 0.866180 0.157288
0.927155 0.868652 0.164520
0.001007 0.000519 0.030273
0.034210 0.001770 0.030426
0.102112 0.004791 0.030426
0.238007 0.013367 0.030548
0.403778 0.022064 0.031830
0.546021 0.029938 0.037170
0.649017 0.033813 0.043365
0.706116 0.038544 0.047211
0.004028 0.034607 0.030518
0.035614 0.035828 0.035156
0.107513 0.038330 0.032654
0.248932 0.045349 0.032867
0.412018 0.056580 0.040375
0.561951 0.061066 0.046570
0.665039 0.063934 0.051147
0.717590 0.070679 0.055023
0.011444 0.106598 0.031738
0.045532 0.107361 0.037384
0.117432 0.112183 0.045380
0.266388 0.120697 0.048340
0.444733 0.130890 0.056580
0.592010 0.142670 0.064697
0.691071 0.151398 0.069641
0.752533 0.155060 0.072723
0.036255 0.255798 0.047974
0.066681 0.261108 0.054810
0.150848 0.266663 0.072021
0.298370 0.280518 0.091278
0.485260 0.295410 0.099335
0.642609 0.310394 0.103210
0.751648 0.321381 0.106781
0.818451 0.326935 0.109650
0.070496 0.441193 0.074188
0.101776 0.448914 0.084015
0.193939 0.461090 0.109009
0.349426 0.481476 0.130066
0.537933 0.505829 0.155396
0.704620 0.522278 0.158112
0.817841 0.530701 0.159119
0.885223 0.533997 0.160126
0.098114 0.610077 0.102051
0.140137 0.620331 0.113800
0.227112 0.638428 0.141785
0.391113 0.660889 0.161102
0.580444 0.681824 0.181122
0.741150 0.694427 0.193268
0.852264 0.701385 0.188599
0.917938 0.704132 0.186310
0.118591 0.730255 0.119934
0.163116 0.740967 0.131195
0.247833 0.758179 0.155609
0.410950 0.778168 0.175507
0.601288 0.795624 0.191010
0.759064 0.806610 0.200500
0.865448 0.812134 0.202209
0.931396 0.813324 0.199646
0.126740 0.801971 0.128265
0.173157 0.810699 0.138153
0.259033 0.825378 0.162842
0.418518 0.845215 0.181702
0.608276 0.861816 0.192352
0.766937 0.870483 0.201233
0.872192 0.873566 0.211487
0.931183 0.876282 0.214447
0.002197 0.001678 0.087769
0.034363 0.003540 0.090790
0.114075 0.005646 0.095978
0.252441 0.014648 0.104248
0.422424 0.023224 0.113586
0.567200 0.031403 0.121613
0.669983 0.034943 0.126953
0.727478 0.038696 0.130035
0.005524 0.035950 0.094696
0.038055 0.037628 0.097961
0.115204 0.042297 0.103699
0.263397 0.047302 0.112976
0.433502 0.057007 0.123901
0.582306 0.064636 0.133118
0.681976 0.071899 0.139191
0.744995 0.073822 0.142639
0.019257 0.119171 0.109039
0.050629 0.121674 0.117157
0.128601 0.128479 0.135437
0.278534 0.139221 0.139832
0.462524 0.150635 0.147400
0.616028 0.163269 0.154144
0.722748 0.170380 0.161438
0.783203 0.175995 0.165619
0.044312 0.272552 0.132721
0.075165 0.278229 0.142853
0.164246 0.287415 0.166016
0.312195 0.303223 0.193054
0.502228 0.320740 0.203796
0.664551 0.336853 0.212250
0.777985 0.346222 0.217987
0.843201 0.352142 0.218750
0.078674 0.463989 0.166687
0.121307 0.471802 0.181274
0.211334 0.487671 0.205841
0.367126 0.509552 0.238800
0.555695 0.532562 0.264832
0.723358 0.546204 0.267090
0.836914 0.552673 0.267700
0.902252 0.556335 0.266357
0.112427 0.637726 0.195648
0.160156 0.647614 0.211243
0.244110 0.666504 0.235992
0.404724 0.686981 0.266052
0.594604 0.704315 0.286499
0.752197 0.715973 0.295898
0.864197 0.720032 0.291412
0.928864 0.721985 0.287628
0.131378 0.758423 0.207855
0.178223 0.767212 0.221893
0.263092 0.782654 0.245819
0.421600 0.800842 0.274658
0.609497 0.816254 0.287567
0.766724 0.824310 0.295715
0.873871 0.826965 0.297485
0.938232 0.827728 0.292419
0.139496 0.826630 0.211151
0.188507 0.833221 0.225739
0.271301 0.848114 0.246918
0.426666 0.865723 0.273987
0.616211 0.879059 0.285187
0.774384 0.884949 0.294464
0.878387 0.887787 0.298035
0.936981 0.889221 0.303162
0.005768 0.004089 0.205048
0.038910 0.006042 0.209717
0.129242 0.009033 0.216949
0.271729 0.018005 0.228333
0.445007 0.027740 0.241852
0.601227 0.033447 0.253723
0.703125 0.040833 0.261780
0.762238 0.045929 0.266602
0.014069 0.043945 0.214478
0.048218 0.046631 0.218903
0.134705 0.053864 0.226746
0.284698 0.062500 0.239166
0.466644 0.073364 0.254242
0.619415 0.085693 0.267212
0.720673 0.096191 0.276062
0.784515 0.100525 0.281219
0.026581 0.141205 0.231659
0.065399 0.144135 0.236603
0.154938 0.151855 0.256500
0.304474 0.163788 0.279755
0.491547 0.178833 0.289398
0.653381 0.191803 0.299591
0.761475 0.202271 0.304535
0.825684 0.208160 0.308563
0.054871 0.298798 0.267487
0.098450 0.305267 0.281006
0.188995 0.317291 0.305756
0.335510 0.336456 0.346375
0.530304 0.357178 0.363068
0.699249 0.373352 0.374146
0.812622 0.382294 0.378082
0.879089 0.386566 0.379608
0.096008 0.501068 0.309448
0.143982 0.510468 0.325745
0.239288 0.526825 0.354889
0.393921 0.549622 0.400085
0.578735 0.569855 0.433716
0.746674 0.580139 0.437042
0.858063 0.585999 0.435577
0.923645 0.588104 0.435120
0.137177 0.681732 0.349304
0.183380 0.691528 0.363312
0.268494 0.707153 0.389069
0.426758 0.724426 0.426758
0.609619 0.739288 0.455872
0.767151 0.746582 0.467957
0.878632 0.748474 0.463287
0.943024 0.748932 0.460419
0.152924 0.801971 0.365143
0.199707 0.809265 0.378967
0.283966 0.822113 0.402130
0.439240 0.837402 0.435638
0.620758 0.848755 0.461456
0.777710 0.852234 0.471497
0.882599 0.852783 0.475189
0.948151 0.851257 0.471619
0.160004 0.869537 0.372009
0.205750 0.876617 0.384369
0.290588 0.887177 0.406891
0.442200 0.901917 0.437103
0.624634 0.910095 0.462860
0.780853 0.911987 0.470367
0.886047 0.910614 0.475250
0.945160 0.909943 0.479187
0.018372 0.009521 0.341522
0.053253 0.015289 0.349426
0.146362 0.020905 0.358978
0.293701 0.032318 0.374054
0.478821 0.044067 0.392365
0.635620 0.056854 0.408569
0.740265 0.067505 0.419708
0.805725 0.072205 0.426270
0.022247 0.064545 0.355286
0.068787 0.067780 0.360931
0.159912 0.076019 0.371063
0.312592 0.087189 0.387299
0.498962 0.100861 0.407440
0.657990 0.114624 0.424530
0.762146 0.126770 0.436279
0.827148 0.132416 0.443298
0.043945 0.162445 0.376709
0.089111 0.169739 0.383087
0.187103 0.176270 0.401184
0.337952 0.191833 0.427795
0.523712 0.210419 0.456360
0.689301 0.226654 0.469208
0.802094 0.238190 0.477997
0.869324 0.244629 0.483978
0.079926 0.328827 0.415314
0.130219 0.336945 0.427704
0.224121 0.349487 0.457153
0.374298 0.371643 0.502258
0.567017 0.396484 0.540131
0.736481 0.410767 0.550446
0.851624 0.416656 0.555298
0.917633 0.420105 0.556458
0.120422 0.542816 0.477600
0.170502 0.552582 0.495941
0.271423 0.569427 0.529449
0.424133 0.589722 0.574066
0.602844 0.606628 0.619049
0.768219 0.613922 0.624390
0.880829 0.616364 0.622955
0.945496 0.617676 0.620789
0.159302 0.726868 0.521881
0.207001 0.733948 0.537292
0.295105 0.746918 0.561676
0.449432 0.760895 0.599792
0.625549 0.771790 0.639160
0.778229 0.775208 0.659119
0.888092 0.774597 0.654388
0.952423 0.773376 0.650970
0.173065 0.842896 0.539856
0.218292 0.849731 0.551544
0.301605 0.859955 0.573273
0.456696 0.871002 0.606812
0.632629 0.877228 0.641968
0.783173 0.877319 0.660217
0.887634 0.874420 0.665375
0.951508 0.871918 0.660522
0.174713 0.911133 0.543488
0.220062 0.916229 0.555023
0.303894 0.923981 0.576141
0.457336 0.933075 0.607849
0.634064 0.936676 0.641052
0.783752 0.934479 0.659363
0.886810 0.930878 0.662628
0.946625 0.928314 0.663330
0.022705 0.028687 0.459564
0.071381 0.031158 0.467102
0.163239 0.038452 0.478760
0.316864 0.049805 0.496918
0.502991 0.064819 0.519226
0.662781 0.079620 0.539062
0.770691 0.091125 0.552704
0.837341 0.096710 0.560791
0.035522 0.081055 0.474518
0.083740 0.086792 0.481018
0.177490 0.095337 0.492889
0.340210 0.104492 0.512238
0.522400 0.124298 0.536011
0.684998 0.139862 0.557007
0.797699 0.150330 0.571320
0.859894 0.158936 0.579834
0.059967 0.182861 0.499603
0.114685 0.187317 0.506866
0.211823 0.196899 0.521851
0.364349 0.214935 0.551880
0.551971 0.236542 0.586395
0.718231 0.254578 0.612823
0.833466 0.267609 0.623627
0.901459 0.273560 0.629425
0.107361 0.352173 0.544434
0.160767 0.359711 0.555756
0.251923 0.376007 0.584106
0.405457 0.400116 0.633728
0.600922 0.425568 0.675171
0.763550 0.437317 0.696564
0.877838 0.442108 0.700836
0.943878 0.444427 0.701965
0.149811 0.573578 0.614441
0.204254 0.584534 0.632904
0.300995 0.601105 0.664062
0.451385 0.617889 0.706329
0.628937 0.631378 0.750671
0.786499 0.637146 0.767883
0.897339 0.638214 0.766235
0.961975 0.637695 0.764496
0.175507 0.758514 0.665558
0.220673 0.766022 0.677948
0.314545 0.775635 0.704346
0.463531 0.787384 0.740723
0.639496 0.793732 0.779572
0.787018 0.794464 0.807007
0.893890 0.792145 0.806030
0.957397 0.790100 0.801147
0.183685 0.873962 0.680450
0.227844 0.880005 0.690948
0.311157 0.887756 0.711761
0.468079 0.894470 0.747040
0.643036 0.895966 0.782196
0.787567 0.893646 0.807190
0.886230 0.889862 0.817871
0.948639 0.886292 0.813751
0.180054 0.927002 0.688629
0.225769 0.930298 0.697845
0.309540 0.936584 0.714722
0.465393 0.946777 0.747345
0.641327 0.953735 0.779510
0.786194 0.949127 0.803436
0.883850 0.944000 0.814056
0.942566 0.940369 0.814850
0.033447 0.039368 0.540619
0.084198 0.041443 0.547455
0.172394 0.050903 0.559784
0.330200 0.062012 0.579865
0.519440 0.078003 0.604858
0.681854 0.093689 0.627014
0.791260 0.106140 0.642456
0.857208 0.113007 0.651550
0.044098 0.093262 0.555359
0.099670 0.096130 0.562347
0.193512 0.105560 0.575195
0.352570 0.118530 0.596527
0.542999 0.136780 0.622955
0.702789 0.155548 0.649292
0.813904 0.169098 0.662384
0.885681 0.173828 0.671967
0.077606 0.193451 0.582855
0.128082 0.200562 0.590668
0.226593 0.210754 0.604980
0.382416 0.229187 0.636627
0.572815 0.252258 0.673950
0.737305 0.272980 0.706268
0.853363 0.285889 0.721313
0.921112 0.290649 0.726349
0.123383 0.368500 0.632050
0.175476 0.377655 0.641113
0.269379 0.393860 0.669250
0.425079 0.419006 0.721832
0.620667 0.442932 0.764282
0.782104 0.453033 0.787872
0.893188 0.457306 0.797180
0.958038 0.459106 0.798279
0.174286 0.593689 0.706024
0.225922 0.605682 0.723267
0.320038 0.618896 0.753754
0.467834 0.634613 0.794434
0.643799 0.646667 0.837250
0.800781 0.650299 0.854797
0.907227 0.650330 0.862152
0.966827 0.649384 0.860077
0.185760 0.777618 0.757263
0.232422 0.784515 0.769043
0.327271 0.793243 0.793304
0.476105 0.801910 0.828369
0.651245 0.805939 0.864746
0.797394 0.804901 0.891327
0.900452 0.801331 0.897827
0.962463 0.798767 0.894958
0.188538 0.890656 0.775391
0.232574 0.895996 0.783234
0.321869 0.902222 0.804810
0.473724 0.907410 0.839630
0.647186 0.907288 0.873871
0.792633 0.901978 0.897675
0.888489 0.897522 0.910431
0.947968 0.893738 0.910980
0.180084 0.929230 0.783478
0.226044 0.932526 0.792450
0.310455 0.938354 0.808899
0.468323 0.948608 0.839569
0.644989 0.958435 0.873901
0.788849 0.956665 0.894257
0.884552 0.950195 0.908081
0.938934 0.946838 0.913940
0.040558 0.045441 0.588715
0.087189 0.049622 0.595062
0.181000 0.056396 0.607452
0.340698 0.067566 0.628540
0.526520 0.086670 0.655060
0.690613 0.102875 0.678680
0.801270 0.115509 0.694946
0.868134 0.122467 0.704803
0.051575 0.099182 0.602966
0.102814 0.104523 0.610199
0.199310 0.113190 0.623566
0.360779 0.126068 0.646027
0.550110 0.146271 0.673950
0.714264 0.164581 0.699493
0.827026 0.177734 0.716431
0.897064 0.184174 0.725922
0.085815 0.200531 0.631866
0.134705 0.208710 0.639984
0.232391 0.219910 0.654816
0.391632 0.238220 0.685120
0.582581 0.262695 0.723206
0.749878 0.283203 0.758179
0.864075 0.295715 0.777740
0.933380 0.298523 0.784180
0.131409 0.378479 0.683594
0.185394 0.386963 0.692932
0.280121 0.403625 0.719696
0.436890 0.429535 0.773682
0.631531 0.452118 0.815948
0.792877 0.461456 0.839325
0.901123 0.465546 0.852539
0.960999 0.466888 0.854370
0.184570 0.607269 0.756989
0.238617 0.617554 0.777069
0.328644 0.629730 0.804016
0.475952 0.644165 0.844482
0.652527 0.654266 0.888000
0.808533 0.657074 0.905090
0.913727 0.656830 0.912323
0.967834 0.655396 0.914764
0.193756 0.788574 0.807587
0.243561 0.794342 0.820496
0.334747 0.802673 0.843201
0.482361 0.810089 0.877808
0.656921 0.812500 0.913544
0.803436 0.809723 0.939728
0.905487 0.806061 0.944977
0.964783 0.803467 0.946259
0.187866 0.893860 0.825684
0.234924 0.895935 0.840698
0.326874 0.903839 0.858063
0.477966 0.913177 0.890564
0.651733 0.912628 0.921082
0.795898 0.906738 0.943939
0.891968 0.901062 0.958038
0.949951 0.897064 0.960297
0.179840 0.929718 0.842133
0.225800 0.932922 0.851074
0.313751 0.939331 0.865967
0.468781 0.950256 0.890137
0.644379 0.959595 0.924927
0.790192 0.960388 0.945679
0.884979 0.953918 0.957031
0.940063 0.949677 0.962982
