滤镜资源/Professional Luts Collection/Triune-Digital-Cinematic-LUTs/3D LUTs (CUBE)/REDLOGFILM/Game of Thrones - REDlogFilm.cube
#Created by Benjamin (IWLTBAP) : http://luts.iwltbap.com
#Copyright: (C) Copyright 2016 Triune Films and IWLTBAP
TITLE "Blockbuster LUTs Pack (REDlogFilm)"
#LUT size
LUT_3D_SIZE 32
#LUT data points
0.000000 0.000000 0.000000
0.005951 0.000275 0.000275
0.015198 0.000153 0.000122
0.022583 0.001007 0.000153
0.032928 0.001373 0.000183
0.046661 0.000397 0.000275
0.058563 0.002411 0.000244
0.075958 0.002502 0.000244
0.094543 0.004822 0.000244
0.123901 0.006836 0.000214
0.156372 0.008820 0.000153
0.195007 0.009186 0.000092
0.234619 0.010498 0.000000
0.272552 0.014069 0.000000
0.314331 0.016388 0.000000
0.353271 0.019196 0.000000
0.395996 0.020660 0.000000
0.434143 0.024139 0.000000
0.469696 0.026367 0.000000
0.507843 0.026489 0.000000
0.536987 0.029114 0.000000
0.564941 0.031097 0.000244
0.593414 0.031677 0.001007
0.614044 0.034698 0.002045
0.636017 0.034332 0.003052
0.658386 0.032898 0.003937
0.672211 0.034607 0.004791
0.685547 0.036346 0.005676
0.695587 0.037140 0.006256
0.708252 0.037537 0.006958
0.720001 0.037170 0.007538
0.728333 0.037018 0.007935
0.000671 0.006317 0.000092
0.006561 0.006714 0.000153
0.015167 0.006836 0.000183
0.023987 0.006958 0.000244
0.034393 0.007294 0.000244
0.043579 0.008575 0.000275
0.058044 0.009308 0.000305
0.074066 0.010101 0.000366
0.095001 0.011353 0.000336
0.125854 0.012665 0.000275
0.157898 0.014862 0.000244
0.195984 0.015594 0.000153
0.235352 0.017029 0.000031
0.274078 0.020233 0.000000
0.316193 0.022461 0.000000
0.354736 0.025452 0.000000
0.397614 0.026855 0.000000
0.437256 0.029541 0.000000
0.471680 0.032318 0.000000
0.509827 0.032501 0.000061
0.538544 0.035309 0.000244
0.567444 0.036865 0.000732
0.595642 0.037537 0.001831
0.616669 0.040405 0.003174
0.639343 0.039581 0.004211
0.660797 0.038666 0.005219
0.674866 0.040222 0.006104
0.688202 0.041931 0.006989
0.698456 0.042664 0.007568
0.710144 0.043549 0.008270
0.721924 0.043152 0.008881
0.729950 0.043152 0.009247
0.002106 0.014465 0.000183
0.008179 0.014679 0.000702
0.015717 0.015320 0.000702
0.024292 0.015625 0.000519
0.034973 0.015869 0.000366
0.044525 0.016968 0.000397
0.058777 0.017822 0.000397
0.074799 0.018616 0.000427
0.096039 0.019867 0.000427
0.128326 0.020416 0.000397
0.160309 0.022766 0.000336
0.197266 0.024109 0.000244
0.236481 0.025696 0.000122
0.276001 0.028534 0.000000
0.318878 0.030457 0.000000
0.356873 0.033813 0.000000
0.399811 0.035187 0.000000
0.441559 0.036865 0.000000
0.474457 0.040314 0.000000
0.512634 0.040497 0.000244
0.540924 0.043549 0.001221
0.570831 0.044556 0.002289
0.598694 0.045380 0.003510
0.621063 0.047516 0.004852
0.644073 0.046570 0.005981
0.663910 0.046448 0.006989
0.678101 0.047974 0.007843
0.692017 0.049347 0.008728
0.702332 0.050018 0.009369
0.712677 0.051514 0.010040
0.724304 0.051239 0.010590
0.732117 0.051331 0.011047
0.002899 0.023102 0.000244
0.009186 0.023193 0.000610
0.017273 0.023529 0.001190
0.025269 0.024017 0.001434
0.035767 0.024384 0.001099
0.045380 0.025543 0.000488
0.059601 0.026398 0.000488
0.075653 0.027222 0.000549
0.097198 0.028503 0.000519
0.130859 0.028442 0.000488
0.163269 0.030579 0.000427
0.198792 0.032715 0.000366
0.237885 0.034454 0.000275
0.278137 0.037018 0.000153
0.321594 0.038605 0.000000
0.359070 0.042236 0.000000
0.402222 0.043549 0.000000
0.445526 0.044403 0.000000
0.477692 0.048279 0.000000
0.515472 0.048676 0.000427
0.543335 0.051941 0.002106
0.574341 0.052460 0.003784
0.601929 0.053406 0.005249
0.626160 0.054504 0.006653
0.649200 0.053558 0.007751
0.667175 0.054382 0.008789
0.681427 0.055847 0.009674
0.696045 0.056885 0.010559
0.706268 0.057556 0.011169
0.716675 0.059082 0.011871
0.726624 0.059601 0.012482
0.734436 0.059662 0.012878
0.004700 0.033234 0.000366
0.010284 0.033752 0.000427
0.018463 0.034027 0.001068
0.026367 0.034546 0.001312
0.036407 0.034973 0.001770
0.046692 0.035950 0.000580
0.060669 0.036896 0.000580
0.076752 0.037781 0.000610
0.098694 0.039093 0.000610
0.131622 0.039429 0.000610
0.166809 0.040222 0.000549
0.200867 0.043213 0.000549
0.239746 0.045105 0.000458
0.280762 0.047394 0.000397
0.324707 0.048828 0.000275
0.361938 0.052643 0.000153
0.404999 0.053986 0.000000
0.450439 0.053833 0.000336
0.482361 0.057861 0.001190
0.519470 0.058624 0.002594
0.546814 0.062103 0.004333
0.579315 0.061829 0.005981
0.606781 0.062836 0.007477
0.630890 0.063995 0.008881
0.653870 0.063080 0.009979
0.671265 0.064178 0.011047
0.685486 0.065613 0.011932
0.700317 0.066498 0.012817
0.710571 0.067169 0.013458
0.720825 0.068756 0.014191
0.730713 0.069244 0.014740
0.738586 0.069275 0.015167
0.004333 0.045166 0.000366
0.011658 0.044769 0.000488
0.019684 0.045135 0.000916
0.027710 0.045563 0.001282
0.037750 0.046021 0.001770
0.048462 0.046448 0.002258
0.062622 0.047607 0.000763
0.078400 0.048615 0.000702
0.100922 0.049927 0.000702
0.133362 0.050659 0.000702
0.167755 0.051910 0.000702
0.203156 0.054230 0.000702
0.242432 0.056061 0.000671
0.283203 0.058563 0.000702
0.326996 0.060181 0.000702
0.364929 0.063721 0.000702
0.408356 0.065002 0.000702
0.454529 0.064423 0.001373
0.485687 0.068909 0.002960
0.524292 0.068939 0.004944
0.551239 0.072601 0.006714
0.585785 0.071320 0.008423
0.613129 0.072449 0.009979
0.634674 0.074860 0.011383
0.657501 0.073975 0.012482
0.675690 0.074646 0.013550
0.690033 0.076050 0.014465
0.704712 0.076935 0.015320
0.714966 0.077545 0.015961
0.725922 0.078827 0.016724
0.735870 0.079315 0.017303
0.743561 0.079437 0.017731
0.005707 0.060333 0.000427
0.012177 0.060364 0.000610
0.021210 0.060303 0.000671
0.029785 0.060333 0.001526
0.039734 0.060852 0.001953
0.050415 0.061279 0.002441
0.064941 0.061859 0.003052
0.081299 0.062836 0.001953
0.105286 0.064056 0.000824
0.135742 0.065857 0.000824
0.168274 0.068237 0.000854
0.206360 0.069275 0.000916
0.246124 0.071014 0.001190
0.286377 0.073853 0.001282
0.329712 0.075897 0.001465
0.370575 0.078094 0.001831
0.412842 0.080078 0.002960
0.459686 0.079407 0.005035
0.491852 0.083496 0.006897
0.530029 0.083679 0.008667
0.560211 0.085663 0.010254
0.593658 0.084869 0.011810
0.621857 0.085571 0.013397
0.641663 0.088898 0.014832
0.662079 0.089264 0.015991
0.681366 0.089569 0.017059
0.696381 0.090668 0.017975
0.711182 0.091675 0.018890
0.721375 0.092346 0.019501
0.733551 0.093201 0.020264
0.743591 0.093781 0.020844
0.750854 0.094147 0.021271
0.007446 0.077362 0.000549
0.013550 0.077667 0.000732
0.022583 0.077637 0.000793
0.031433 0.077667 0.001129
0.041901 0.077850 0.002106
0.052704 0.078217 0.002625
0.067230 0.078796 0.003235
0.083679 0.079590 0.003967
0.109161 0.080597 0.002899
0.139893 0.082825 0.000977
0.169800 0.086670 0.001160
0.210541 0.086670 0.001495
0.250916 0.088409 0.001831
0.290741 0.091797 0.002106
0.333862 0.094299 0.002899
0.376923 0.095947 0.004913
0.419312 0.098297 0.007172
0.465546 0.098419 0.009430
0.500458 0.101593 0.011414
0.537415 0.102997 0.013306
0.568878 0.104889 0.015015
0.601868 0.104736 0.016541
0.630157 0.105743 0.017975
0.651062 0.108856 0.019226
0.669403 0.110413 0.020203
0.688721 0.110992 0.021149
0.703491 0.112610 0.022034
0.718353 0.113892 0.022949
0.728241 0.114990 0.023590
0.739410 0.116638 0.024353
0.749329 0.117493 0.024963
0.756622 0.118073 0.025391
0.012482 0.097107 0.000580
0.018280 0.097809 0.000824
0.026367 0.098267 0.000946
0.034515 0.098816 0.001373
0.044952 0.099030 0.002289
0.055603 0.099457 0.002594
0.069550 0.100555 0.002594
0.086151 0.101501 0.003235
0.111572 0.103058 0.004150
0.143860 0.104858 0.002411
0.177032 0.107666 0.001770
0.216705 0.108795 0.002228
0.255524 0.112000 0.002991
0.298218 0.114777 0.004333
0.344452 0.116608 0.006836
0.384491 0.120667 0.009247
0.427795 0.123505 0.011688
0.474274 0.124359 0.014130
0.512604 0.126556 0.016205
0.548615 0.129089 0.018280
0.578674 0.132446 0.020081
0.609131 0.134125 0.021698
0.637207 0.135834 0.023224
0.661163 0.137787 0.024567
0.679596 0.139740 0.025635
0.697418 0.141266 0.026611
0.712219 0.142822 0.027435
0.726868 0.144257 0.028259
0.738159 0.144562 0.028809
0.749634 0.145935 0.029480
0.759399 0.146820 0.030029
0.767365 0.147003 0.030426
0.016846 0.129364 0.000702
0.022064 0.130371 0.000946
0.029053 0.131683 0.001190
0.036469 0.132629 0.001251
0.045868 0.133606 0.001282
0.057495 0.133789 0.001251
0.073761 0.133667 0.001984
0.091675 0.134827 0.002991
0.117462 0.136505 0.004730
0.149536 0.138092 0.006592
0.183289 0.141479 0.003601
0.221680 0.143890 0.004700
0.265717 0.144867 0.006744
0.306641 0.149017 0.009338
0.355011 0.150299 0.012024
0.398682 0.152832 0.014587
0.440826 0.156708 0.017212
0.485199 0.159088 0.019806
0.522186 0.162354 0.022064
0.560394 0.164124 0.024261
0.591980 0.166992 0.026184
0.620422 0.169952 0.027954
0.647308 0.172485 0.029602
0.672119 0.174377 0.031036
0.690857 0.176208 0.032135
0.710724 0.176880 0.033264
0.726929 0.177948 0.034119
0.742310 0.179077 0.035004
0.753265 0.179657 0.035583
0.765747 0.180573 0.036346
0.775909 0.181274 0.036865
0.783356 0.181763 0.037262
0.021179 0.165192 0.000977
0.026855 0.166016 0.001282
0.034454 0.167175 0.001678
0.042450 0.168091 0.002228
0.052765 0.168762 0.002441
0.064240 0.169006 0.002411
0.080078 0.169128 0.004028
0.100677 0.169952 0.006012
0.123962 0.173737 0.004944
0.154999 0.176270 0.008575
0.191895 0.177216 0.014465
0.228973 0.181274 0.013123
0.273804 0.182129 0.016907
0.318024 0.185455 0.017670
0.365601 0.187714 0.020294
0.410736 0.190094 0.022644
0.456085 0.193024 0.024506
0.496094 0.198273 0.026184
0.535522 0.200836 0.028656
0.570435 0.204651 0.030975
0.602570 0.207550 0.032990
0.633484 0.209656 0.034943
0.661621 0.211853 0.036682
0.688904 0.212738 0.038269
0.709473 0.213867 0.039429
0.728027 0.215271 0.040558
0.741394 0.218048 0.041565
0.753357 0.221039 0.042511
0.763123 0.222382 0.043152
0.776337 0.223083 0.043915
0.787170 0.223541 0.044495
0.794922 0.223938 0.044952
0.030182 0.202301 0.001709
0.035278 0.203491 0.002106
0.041687 0.205261 0.002686
0.048218 0.207123 0.003815
0.056885 0.208862 0.004425
0.068359 0.209320 0.005127
0.084381 0.209778 0.006317
0.105530 0.212036 0.008057
0.133728 0.212921 0.012970
0.165100 0.215698 0.016663
0.200592 0.217834 0.022064
0.239044 0.220703 0.026489
0.283081 0.222626 0.029297
0.326508 0.227234 0.028809
0.374237 0.230042 0.031342
0.419220 0.233093 0.033264
0.463409 0.237518 0.033447
0.507324 0.241608 0.034088
0.547119 0.244537 0.035797
0.586823 0.246246 0.039093
0.621063 0.248566 0.040802
0.651703 0.251251 0.042542
0.678467 0.254456 0.044403
0.699066 0.259003 0.046082
0.720337 0.260071 0.047394
0.739471 0.261383 0.048615
0.755524 0.262939 0.049622
0.770691 0.264496 0.050659
0.781219 0.265625 0.051361
0.794250 0.266968 0.052246
0.805756 0.267609 0.052917
0.813965 0.268066 0.053406
0.031982 0.246735 0.004700
0.037354 0.247864 0.005707
0.044861 0.249207 0.007050
0.053375 0.250214 0.008484
0.063782 0.251404 0.010162
0.075653 0.251740 0.011871
0.092590 0.252075 0.014801
0.115753 0.254517 0.016937
0.143921 0.255859 0.021484
0.176605 0.258240 0.026184
0.212646 0.260651 0.031769
0.251038 0.263855 0.037231
0.290802 0.268555 0.040283
0.336914 0.272034 0.042023
0.384460 0.275604 0.044128
0.428406 0.280273 0.044556
0.474335 0.284180 0.046082
0.521149 0.286865 0.049530
0.560303 0.290924 0.050079
0.598816 0.294159 0.051819
0.631317 0.298126 0.051636
0.663300 0.300720 0.053131
0.692993 0.303436 0.054321
0.718201 0.306580 0.054779
0.739227 0.308289 0.056213
0.760010 0.309662 0.057465
0.774780 0.312469 0.058594
0.789307 0.315155 0.059662
0.800903 0.316254 0.060425
0.814514 0.317322 0.061218
0.825500 0.318298 0.061890
0.833527 0.318970 0.062347
0.043091 0.290070 0.010895
0.048309 0.291382 0.011932
0.055115 0.293182 0.013336
0.062042 0.295074 0.014832
0.070587 0.297363 0.016663
0.080170 0.299377 0.018555
0.100952 0.299042 0.023224
0.127808 0.299683 0.027771
0.154510 0.302551 0.030518
0.188751 0.304443 0.036316
0.223389 0.308502 0.040070
0.260773 0.313080 0.044250
0.302124 0.317169 0.050079
0.346130 0.321869 0.054504
0.394348 0.325928 0.056671
0.441711 0.328888 0.060150
0.487396 0.333832 0.060913
0.532257 0.338654 0.062164
0.573212 0.342316 0.064087
0.612244 0.346161 0.065521
0.646271 0.350311 0.065887
0.678497 0.354187 0.066467
0.709717 0.357056 0.067841
0.736450 0.359955 0.068359
0.759064 0.361481 0.069916
0.779724 0.362885 0.070923
0.797394 0.364319 0.071594
0.813110 0.366547 0.070953
0.824707 0.367615 0.071198
0.838715 0.368408 0.071930
0.850098 0.369080 0.072388
0.858368 0.369690 0.072601
0.052338 0.336578 0.017609
0.058594 0.337189 0.019592
0.066467 0.338196 0.022614
0.074127 0.339600 0.025330
0.082886 0.341736 0.027924
0.092224 0.344086 0.030731
0.110382 0.347321 0.033264
0.136993 0.349152 0.036194
0.165527 0.351318 0.040161
0.199493 0.354187 0.045013
0.234436 0.358673 0.048645
0.272491 0.363495 0.053192
0.314789 0.367767 0.059479
0.359589 0.372498 0.065948
0.406738 0.377045 0.071960
0.452271 0.382202 0.072998
0.499664 0.386749 0.075226
0.545929 0.392029 0.076782
0.587646 0.397217 0.077820
0.627747 0.401825 0.079010
0.664337 0.405365 0.080475
0.698395 0.408081 0.082428
0.730194 0.410339 0.084076
0.756195 0.413696 0.083374
0.777588 0.415833 0.083740
0.797943 0.417358 0.084167
0.815460 0.418915 0.084167
0.832153 0.420319 0.084412
0.844269 0.420929 0.085205
0.857849 0.421906 0.085449
0.868591 0.423096 0.084991
0.876343 0.423981 0.084625
0.058777 0.382904 0.024323
0.065033 0.383759 0.025452
0.072540 0.385162 0.027924
0.079956 0.386810 0.030426
0.089325 0.388885 0.033447
0.100372 0.391327 0.036987
0.118683 0.394592 0.042816
0.146393 0.396790 0.045715
0.174896 0.399658 0.048431
0.208160 0.403778 0.052032
0.245880 0.406952 0.058075
0.286713 0.410767 0.064697
0.327332 0.416931 0.068939
0.372864 0.421906 0.075836
0.419312 0.427460 0.082550
0.465027 0.433441 0.087189
0.513214 0.439117 0.089050
0.561432 0.444672 0.090942
0.604431 0.449005 0.092804
0.645172 0.453064 0.093994
0.681183 0.456848 0.094360
0.713989 0.460266 0.094452
0.745667 0.462311 0.096191
0.774017 0.463928 0.097290
0.794922 0.466309 0.096924
0.814056 0.468506 0.096161
0.831512 0.469971 0.096069
0.848450 0.471222 0.096130
0.860107 0.472137 0.096252
0.873322 0.473206 0.096161
0.884094 0.474152 0.095856
0.892151 0.474854 0.095642
0.067810 0.429443 0.031403
0.073090 0.430817 0.032715
0.079956 0.432678 0.034790
0.087006 0.434692 0.036926
0.096710 0.437134 0.039978
0.109344 0.439819 0.043884
0.128418 0.443634 0.049591
0.154419 0.446869 0.054749
0.186218 0.448303 0.059204
0.221741 0.451630 0.064117
0.258148 0.456635 0.068237
0.297668 0.462036 0.073151
0.341156 0.467102 0.079803
0.386414 0.473450 0.085663
0.434174 0.480286 0.092407
0.479492 0.487152 0.097839
0.528381 0.492157 0.103882
0.576569 0.497589 0.104889
0.619629 0.501709 0.106293
0.659943 0.505798 0.106415
0.696045 0.509125 0.107178
0.729340 0.512146 0.107117
0.758911 0.515411 0.106354
0.787567 0.516815 0.107300
0.809875 0.518036 0.108368
0.829773 0.519531 0.108368
0.847412 0.520630 0.108368
0.864410 0.521759 0.108307
0.875671 0.522888 0.107758
0.888275 0.524384 0.106689
0.899170 0.525177 0.106476
0.906982 0.525879 0.106140
0.072205 0.478027 0.038513
0.078339 0.479126 0.039764
0.086548 0.480530 0.041412
0.094879 0.482147 0.044006
0.105469 0.484283 0.047699
0.120605 0.486816 0.052765
0.141388 0.490295 0.059570
0.163788 0.495514 0.064880
0.195557 0.497803 0.068787
0.230591 0.502380 0.072052
0.269165 0.506775 0.077423
0.309540 0.512695 0.082489
0.353821 0.518829 0.088959
0.400665 0.525818 0.095123
0.449493 0.532135 0.102051
0.495300 0.538330 0.107849
0.541687 0.544495 0.113129
0.589844 0.548889 0.117706
0.631195 0.553802 0.117188
0.672455 0.557220 0.117615
0.708374 0.560455 0.117493
0.743042 0.562286 0.118591
0.773407 0.564819 0.118347
0.799835 0.567505 0.117249
0.821594 0.569092 0.116882
0.842316 0.569824 0.117645
0.860168 0.570618 0.118103
0.876068 0.572327 0.116638
0.887939 0.573029 0.116455
0.901306 0.573883 0.116211
0.912384 0.574463 0.116302
0.920410 0.574951 0.116241
0.082336 0.518463 0.045044
0.087189 0.520233 0.046356
0.094086 0.522675 0.048004
0.102722 0.524750 0.050659
0.113739 0.527039 0.054443
0.129456 0.529724 0.059662
0.150574 0.533875 0.066376
0.173920 0.538635 0.073303
0.202667 0.542664 0.077667
0.240417 0.546844 0.081207
0.279327 0.552094 0.085968
0.321045 0.558319 0.091400
0.365967 0.564636 0.097565
0.412964 0.571503 0.103485
0.460663 0.578369 0.108704
0.507568 0.583588 0.115082
0.554474 0.589264 0.120331
0.600250 0.594360 0.125031
0.641724 0.598541 0.127014
0.682007 0.602234 0.126617
0.718597 0.604858 0.126770
0.753021 0.606720 0.127319
0.783875 0.608673 0.127075
0.810394 0.610992 0.126282
0.831482 0.612854 0.125214
0.851654 0.614044 0.124725
0.868835 0.615265 0.124420
0.886230 0.615814 0.124664
0.898041 0.616364 0.124512
0.911652 0.616974 0.124115
0.922607 0.617584 0.123871
0.930389 0.618195 0.123444
0.087738 0.559601 0.051514
0.093414 0.561066 0.052765
0.101471 0.563049 0.054871
0.111816 0.565399 0.058136
0.123505 0.568024 0.061859
0.138855 0.571228 0.066650
0.160004 0.575592 0.073425
0.183197 0.580994 0.080200
0.209290 0.586273 0.086212
0.247467 0.591400 0.088196
0.288391 0.596466 0.093445
0.331451 0.601929 0.099457
0.376038 0.608368 0.104553
0.422668 0.615265 0.109558
0.472015 0.620758 0.115967
0.516907 0.627197 0.119843
0.565277 0.631622 0.125977
0.610962 0.636414 0.130402
0.650757 0.641022 0.133484
0.691101 0.644165 0.134857
0.728394 0.645844 0.135895
0.760468 0.648987 0.134308
0.790985 0.651276 0.133057
0.817810 0.653168 0.132294
0.840302 0.654022 0.132263
0.861115 0.654633 0.132294
0.877228 0.656433 0.130798
0.892517 0.658173 0.129120
0.904602 0.658417 0.129364
0.919037 0.658264 0.130035
0.930420 0.658569 0.130096
0.938080 0.659271 0.129456
0.092621 0.596680 0.057281
0.098572 0.598083 0.058563
0.107483 0.600037 0.060333
0.118927 0.602417 0.064087
0.131500 0.605530 0.067841
0.147614 0.608551 0.073273
0.168884 0.613281 0.079926
0.191071 0.619568 0.085724
0.217041 0.625061 0.092133
0.256256 0.629242 0.097382
0.296631 0.635071 0.100525
0.338867 0.641113 0.104889
0.383575 0.647461 0.109467
0.431519 0.653198 0.115356
0.479950 0.659271 0.120270
0.526917 0.664062 0.125763
0.573151 0.669556 0.129608
0.619354 0.673950 0.134003
0.660553 0.677246 0.138397
0.697998 0.681366 0.140503
0.733856 0.683807 0.140778
0.766785 0.686066 0.140259
0.798859 0.687225 0.139923
0.824097 0.690002 0.137634
0.846283 0.690887 0.137299
0.867279 0.691223 0.137451
0.883759 0.692749 0.136108
0.900360 0.693542 0.135345
0.912140 0.693970 0.135315
0.925781 0.694336 0.135040
0.936401 0.695099 0.134308
0.944122 0.695740 0.133636
0.101196 0.629547 0.062683
0.106445 0.631409 0.064148
0.114227 0.634094 0.066406
0.125092 0.637634 0.069031
0.138428 0.641144 0.072815
0.153687 0.645020 0.077301
0.175568 0.649292 0.084595
0.200073 0.654083 0.092499
0.225677 0.659668 0.098999
0.260315 0.665710 0.103333
0.302246 0.671173 0.105499
0.345764 0.676453 0.110168
0.390106 0.682953 0.113922
0.438660 0.688171 0.119812
0.487823 0.693481 0.125061
0.533234 0.699188 0.128479
0.581543 0.703156 0.134125
0.627136 0.707642 0.137726
0.666840 0.711884 0.140106
0.705322 0.714935 0.143372
0.740326 0.717102 0.146423
0.771393 0.720398 0.144318
0.804016 0.720947 0.144684
0.829590 0.723389 0.142548
0.851868 0.723938 0.142487
0.871460 0.724976 0.141388
0.888123 0.726410 0.139954
0.904877 0.727142 0.139130
0.916870 0.727325 0.139069
0.930573 0.727539 0.138855
0.941467 0.727966 0.138428
0.949188 0.728546 0.137817
0.103027 0.663849 0.067505
0.109192 0.665710 0.068787
0.118134 0.668030 0.070526
0.129242 0.671539 0.072205
0.144928 0.674225 0.077606
0.160889 0.677521 0.082672
0.181854 0.682404 0.088867
0.205719 0.687317 0.096313
0.231049 0.692902 0.102905
0.263153 0.699066 0.108643
0.308105 0.703247 0.111359
0.350433 0.709686 0.113525
0.397003 0.714478 0.119019
0.445160 0.719849 0.124023
0.492676 0.726135 0.127228
0.540924 0.729706 0.133057
0.586365 0.735443 0.135498
0.633575 0.738586 0.140472
0.673370 0.742462 0.143036
0.710052 0.746735 0.143982
0.746155 0.747894 0.147980
0.776581 0.750671 0.149445
0.807892 0.752014 0.148254
0.833771 0.754150 0.146118
0.855927 0.754700 0.145935
0.876068 0.755249 0.145264
0.893005 0.756348 0.144012
0.909210 0.757416 0.142639
0.921326 0.757538 0.142487
0.934967 0.757690 0.142151
0.945923 0.758026 0.141632
0.953857 0.758423 0.141266
0.105194 0.694550 0.071625
0.112091 0.696045 0.072845
0.122528 0.698090 0.074463
0.135956 0.700104 0.077423
0.151093 0.703064 0.082245
0.167145 0.706207 0.087372
0.187073 0.711578 0.092499
0.210541 0.716644 0.099182
0.236786 0.721222 0.107483
0.268463 0.727295 0.113098
0.311157 0.732666 0.114502
0.355469 0.737793 0.117767
0.401001 0.743378 0.121674
0.450134 0.747894 0.127136
0.497498 0.754303 0.129791
0.544617 0.758362 0.134338
0.592163 0.762604 0.138367
0.637787 0.766602 0.141541
0.678467 0.769714 0.144806
0.715790 0.773315 0.146240
0.750580 0.775238 0.148651
0.781036 0.777863 0.150055
0.810638 0.779205 0.151581
0.837067 0.781036 0.149597
0.859100 0.781647 0.149231
0.879425 0.782104 0.148499
0.897095 0.782532 0.147675
0.913391 0.783417 0.146393
0.924133 0.784393 0.145142
0.936920 0.785095 0.144012
0.947815 0.785431 0.143433
0.955505 0.785675 0.143616
0.112701 0.716339 0.074707
0.119202 0.717987 0.075867
0.128967 0.720276 0.077515
0.140381 0.723206 0.080688
0.154785 0.726532 0.084869
0.170654 0.729675 0.089691
0.191559 0.734344 0.095673
0.214905 0.739410 0.102264
0.239532 0.744873 0.108887
0.271210 0.750610 0.114868
0.313019 0.755981 0.117035
0.359406 0.759949 0.121490
0.404327 0.765961 0.124115
0.454041 0.770203 0.129639
0.502441 0.775604 0.133057
0.548065 0.780670 0.135712
0.594604 0.785187 0.138855
0.641479 0.788452 0.142853
0.681763 0.791626 0.145599
0.719086 0.795105 0.146759
0.753967 0.796844 0.149567
0.784668 0.799194 0.150696
0.813721 0.800659 0.152588
0.840271 0.801971 0.152557
0.860626 0.803497 0.150818
0.880829 0.803925 0.149933
0.898621 0.804352 0.148956
0.915833 0.804535 0.148621
0.927094 0.804840 0.148865
0.939056 0.805603 0.149475
0.948853 0.806061 0.151001
0.955963 0.806458 0.152039
0.116241 0.737885 0.077332
0.122345 0.739655 0.078491
0.131561 0.742310 0.080048
0.143127 0.745239 0.082275
0.157501 0.748474 0.086456
0.173370 0.751495 0.091248
0.195343 0.755371 0.098053
0.217926 0.760681 0.104218
0.242645 0.765930 0.110748
0.275116 0.770966 0.117859
0.315796 0.776093 0.121277
0.360687 0.781586 0.122620
0.407318 0.786560 0.126221
0.457062 0.790588 0.131500
0.505493 0.795959 0.134521
0.551758 0.800537 0.137695
0.596985 0.805817 0.139374
0.643982 0.808807 0.143311
0.684723 0.811523 0.146210
0.721771 0.815033 0.147095
0.756592 0.816620 0.150024
0.787415 0.818878 0.150757
0.816376 0.820312 0.152863
0.842957 0.821167 0.154510
0.863403 0.822418 0.153534
0.882599 0.823364 0.152069
0.900299 0.823792 0.151062
0.916931 0.824158 0.150818
0.927246 0.824493 0.153473
0.939301 0.824921 0.155365
0.949066 0.825409 0.156494
0.956238 0.825745 0.157654
0.118469 0.756989 0.079590
0.125031 0.758514 0.080719
0.134888 0.760742 0.082153
0.146576 0.763489 0.084869
0.160614 0.766907 0.088745
0.176208 0.770050 0.093201
0.197083 0.774628 0.098785
0.220215 0.779449 0.105408
0.245056 0.784546 0.111938
0.277527 0.789246 0.119446
0.317444 0.793854 0.124451
0.363708 0.798981 0.125427
0.408966 0.804962 0.127258
0.459442 0.808502 0.132782
0.507385 0.814117 0.135162
0.553619 0.818634 0.137909
0.600250 0.822815 0.140961
0.645996 0.826477 0.143616
0.687164 0.828796 0.146759
0.724457 0.832031 0.147766
0.759033 0.833588 0.150482
0.790588 0.835449 0.151642
0.818085 0.837677 0.152252
0.844604 0.838470 0.153839
0.865601 0.838928 0.155579
0.884918 0.839691 0.154449
0.901550 0.840210 0.154755
0.916809 0.840790 0.156769
0.927338 0.841309 0.158203
0.939362 0.841736 0.159912
0.949158 0.842285 0.160645
0.956299 0.842682 0.161163
0.120605 0.775330 0.081604
0.127808 0.776398 0.082703
0.139038 0.777802 0.084747
0.151093 0.780090 0.088440
0.164734 0.783661 0.091949
0.178833 0.787781 0.095032
0.199432 0.792419 0.100220
0.223450 0.796509 0.107574
0.249207 0.800842 0.114960
0.279144 0.807129 0.120270
0.316620 0.812042 0.125946
0.365723 0.816040 0.127472
0.411194 0.821899 0.128876
0.461700 0.825439 0.134094
0.509918 0.830780 0.136566
0.555176 0.835846 0.138153
0.602051 0.839752 0.141235
