滤镜资源/Professional Luts Collection/Triune-Digital-Cinematic-LUTs/3D LUTs (CUBE)/REDLOGFILM/Game of Thrones - REDlogFilm.cube
#Created by Benjamin (IWLTBAP) : http://luts.iwltbap.com
#Copyright: (C) Copyright 2016 Triune Films and IWLTBAP
TITLE "Blockbuster LUTs Pack (REDlogFilm)"
#LUT size
LUT_3D_SIZE 5
#LUT data points
DOMAIN_MIN 0.000000 0.000000 0.000000
DOMAIN_MAX 0.903226 0.903226 0.903226
0.000000 0.000000 0.000000
0.075958 0.002502 0.000244
0.314331 0.016388 0.000000
0.564941 0.031097 0.000244
0.695587 0.037140 0.006256
0.007446 0.077362 0.000549
0.083679 0.079590 0.003967
0.333862 0.094299 0.002899
0.601868 0.104736 0.016541
0.728241 0.114990 0.023590
0.052338 0.336578 0.017609
0.136993 0.349152 0.036194
0.406738 0.377045 0.071960
0.698395 0.408081 0.082428
0.844269 0.420929 0.085205
0.101196 0.629547 0.062683
0.200073 0.654083 0.092499
0.487823 0.693481 0.125061
0.771393 0.720398 0.144318
0.916870 0.727325 0.139069
0.121368 0.788422 0.083008
0.225922 0.808228 0.109253
0.511688 0.842438 0.137451
0.794281 0.862793 0.151917
0.927155 0.868652 0.164520
0.002289 0.001038 0.069214
0.081451 0.005707 0.072357
0.332428 0.019104 0.085693
0.593170 0.030823 0.098450
0.722839 0.036835 0.104523
0.014221 0.087585 0.082184
0.094360 0.093719 0.100677
0.359833 0.110931 0.106812
0.631500 0.128601 0.124420
0.762878 0.139709 0.132446
0.061249 0.360657 0.125702
0.155792 0.377258 0.151642
0.428009 0.409729 0.199524
0.724854 0.439423 0.211304
0.869781 0.450470 0.212097
0.113922 0.663696 0.169037
0.220123 0.687134 0.200836
0.503601 0.721588 0.244385
0.784973 0.743378 0.262451
0.928802 0.748474 0.255890
0.136871 0.818451 0.186310
0.242737 0.837585 0.214844
0.521698 0.867432 0.253387
0.802765 0.882141 0.268219
0.935303 0.885254 0.278931
0.011749 0.003876 0.273804
0.107635 0.012054 0.286530
0.372528 0.028046 0.310303
0.648529 0.046417 0.335083
0.783142 0.059021 0.347534
0.030365 0.122681 0.299316
0.139435 0.132141 0.313507
0.407288 0.155548 0.354156
0.694336 0.181000 0.372162
0.834106 0.195435 0.384583
0.086029 0.417023 0.371857
0.201721 0.436646 0.407593
0.475922 0.477905 0.489777
0.775238 0.499908 0.505249
0.921387 0.506134 0.506409
0.153351 0.741364 0.442474
0.261780 0.757629 0.475922
0.532074 0.784119 0.537933
0.807404 0.793030 0.569489
0.949738 0.792206 0.561493
0.170105 0.890381 0.461639
0.273529 0.904358 0.487579
0.541992 0.922119 0.542450
0.814240 0.923340 0.568756
0.947357 0.920105 0.570953
0.024261 0.032593 0.483276
0.140289 0.039062 0.499237
0.413910 0.061432 0.532837
0.702911 0.085907 0.569031
0.841583 0.102386 0.587524
0.055603 0.156708 0.516327
0.177704 0.167877 0.532806
0.458191 0.195892 0.580780
0.747833 0.229065 0.627747
0.897369 0.245605 0.641968
0.135101 0.468628 0.600708
0.255524 0.490082 0.641571
0.531281 0.529633 0.728058
0.816010 0.545563 0.765656
0.960175 0.548096 0.764679
0.180511 0.799225 0.698181
0.289673 0.811829 0.728363
0.557037 0.826782 0.791199
0.818756 0.826660 0.839355
0.956299 0.821503 0.834503
0.180023 0.928162 0.713989
0.285339 0.935181 0.737640
0.556244 0.952728 0.791809
0.815216 0.950226 0.834503
0.941406 0.942474 0.844360
0.040558 0.045441 0.588715
0.155304 0.052948 0.603699
0.432831 0.077698 0.641785
0.722870 0.106659 0.683441
0.868134 0.122467 0.704803
0.075165 0.170837 0.623230
0.193817 0.185150 0.641113
0.479706 0.216034 0.688293
0.772461 0.251984 0.747406
0.923004 0.267670 0.767487
0.160156 0.491486 0.717804
0.280609 0.515106 0.755890
0.553589 0.550568 0.841400
0.835449 0.563446 0.878510
0.963745 0.564453 0.887604
0.190216 0.823792 0.812653
0.307861 0.832855 0.843567
0.570526 0.842743 0.900757
0.830048 0.838043 0.945282
0.960632 0.831726 0.951050
0.179840 0.929718 0.842133
0.285126 0.937683 0.858582
0.558472 0.954895 0.908356
0.818939 0.958130 0.949829
0.940063 0.949677 0.962982
