滤镜资源/Professional Luts Collection/Triune-Digital-Cinematic-LUTs/3D LUTs (CUBE)/REDLOGFILM/Gravity - REDlogFilm.cube
#Created by Benjamin (IWLTBAP) : http://luts.iwltbap.com
#Copyright: (C) Copyright 2016 Triune Films and IWLTBAP
TITLE "Blockbuster LUTs Pack (REDlogFilm)"
#LUT size
LUT_3D_SIZE 5
#LUT data points
DOMAIN_MIN 0.000000 0.000000 0.000000
DOMAIN_MAX 0.903226 0.903226 0.903226
0.000977 0.001099 0.006042
0.077515 0.008301 0.008301
0.345154 0.042786 0.042786
0.674927 0.086517 0.086517
0.854950 0.110138 0.110138
0.014557 0.115906 0.021210
0.068176 0.088654 0.010132
0.330200 0.112488 0.040344
0.674957 0.133636 0.086517
0.855499 0.157318 0.110260
0.047699 0.375397 0.066101
0.094879 0.375977 0.047791
0.330200 0.374207 0.047516
0.666962 0.411743 0.085205
0.862488 0.440521 0.111359
0.087708 0.682068 0.151184
0.139343 0.689728 0.151062
0.275299 0.692535 0.093353
0.678162 0.693237 0.089508
0.855743 0.709686 0.110260
0.109589 0.851532 0.205627
0.160828 0.856445 0.212677
0.272003 0.876404 0.203308
0.692169 0.867798 0.169312
0.852417 0.866302 0.173615
0.011322 0.011322 0.095917
0.088318 0.011414 0.096649
0.353210 0.044098 0.124237
0.680481 0.087433 0.135620
0.854736 0.110107 0.157166
0.012329 0.094055 0.102203
0.074615 0.101593 0.118927
0.354523 0.102661 0.124390
0.687561 0.138977 0.145752
0.861633 0.161682 0.164307
0.047028 0.371307 0.168640
0.099609 0.384430 0.164886
0.352478 0.391724 0.157990
0.699127 0.427246 0.163727
0.878784 0.455750 0.220825
0.088196 0.685181 0.255371
0.139282 0.689392 0.258209
0.271973 0.718414 0.242401
0.700775 0.718201 0.237274
0.879517 0.732025 0.288330
0.109894 0.853302 0.307953
0.160950 0.857330 0.316437
0.270233 0.873047 0.327789
0.718079 0.883362 0.313019
0.875092 0.886139 0.323669
0.086548 0.054535 0.417389
0.154968 0.053009 0.408051
0.354553 0.051666 0.399750
0.673096 0.086212 0.438354
0.858002 0.110657 0.475891
0.052399 0.143036 0.404327
0.152130 0.108002 0.427979
0.355530 0.106720 0.428131
0.682129 0.138123 0.445312
0.865906 0.162354 0.488403
0.056854 0.393646 0.431671
0.107941 0.398346 0.435730
0.369781 0.435303 0.491974
0.747284 0.470917 0.534668
0.914307 0.490204 0.562378
0.089020 0.690308 0.493866
0.140686 0.697937 0.496124
0.277405 0.721954 0.526520
0.755280 0.770355 0.564575
0.912262 0.778778 0.592804
0.110504 0.857178 0.535736
0.161652 0.861542 0.544495
0.270508 0.874756 0.561707
0.762604 0.929413 0.605042
0.898773 0.916229 0.609100
0.180756 0.095825 0.732117
0.246307 0.094818 0.726013
0.449799 0.094025 0.721039
0.726685 0.094940 0.722260
0.868652 0.112366 0.739960
0.162109 0.148621 0.724457
0.242493 0.146545 0.733734
0.451508 0.146362 0.732880
0.730469 0.145996 0.726349
0.872650 0.163452 0.746368
0.094177 0.452362 0.721863
0.145569 0.457642 0.727966
0.472198 0.483124 0.791443
0.772949 0.471649 0.780914
0.916626 0.489319 0.797913
0.098053 0.715118 0.745819
0.148865 0.718842 0.748322
0.374329 0.757904 0.783539
0.796509 0.816986 0.850403
0.944885 0.824249 0.855011
0.111725 0.864563 0.772369
0.162872 0.869110 0.778351
0.322174 0.888672 0.799530
0.791595 0.954926 0.867493
0.938232 0.950531 0.867004
0.219238 0.111877 0.865570
0.300018 0.111847 0.865417
0.506409 0.112030 0.866364
0.766205 0.111206 0.861298
0.868652 0.112366 0.862885
0.208801 0.165192 0.870178
0.291260 0.162964 0.869659
0.503967 0.163116 0.870544
0.771606 0.162720 0.868286
0.872681 0.163452 0.868317
0.111450 0.483002 0.862976
0.216431 0.495453 0.873871
0.518402 0.511536 0.920227
0.806305 0.479401 0.912781
0.917511 0.494812 0.913605
0.112335 0.744568 0.868408
0.163452 0.750244 0.872681
0.416382 0.789551 0.904755
0.817200 0.839172 0.958557
0.955688 0.834045 0.959991
0.112366 0.868652 0.868652
0.163452 0.872681 0.872681
0.400696 0.902222 0.902222
0.805267 0.955444 0.957367
0.963257 0.974548 0.976593
