滤镜资源/Professional Luts Collection/Triune-Digital-Cinematic-LUTs/3D LUTs (CUBE)/REDLOGFILM/Gravity - REDlogFilm.cube
#Created by Benjamin (IWLTBAP) : http://luts.iwltbap.com
#Copyright: (C) Copyright 2016 Triune Films and IWLTBAP
TITLE "Blockbuster LUTs Pack (REDlogFilm)"
#LUT size
LUT_3D_SIZE 8
#LUT data points
DOMAIN_MIN 0.000000 0.000000 0.000000
DOMAIN_MAX 0.903226 0.903226 0.903226
0.000977 0.001099 0.006042
0.023651 0.001862 0.001862
0.104492 0.011780 0.011780
0.252502 0.030792 0.030792
0.448273 0.056458 0.056458
0.636383 0.081421 0.081421
0.770935 0.099182 0.099182
0.854950 0.110138 0.110138
0.006805 0.054016 0.011322
0.024109 0.026825 0.002380
0.102051 0.033264 0.011383
0.247864 0.051758 0.030029
0.443878 0.077423 0.055756
0.639679 0.103668 0.081970
0.775116 0.121552 0.099854
0.853546 0.131592 0.109894
0.017914 0.142242 0.025696
0.036621 0.123962 0.014954
0.092255 0.116547 0.013733
0.239960 0.130981 0.028748
0.425659 0.149170 0.052795
0.629791 0.153839 0.080383
0.773315 0.160278 0.099548
0.857117 0.168396 0.110474
0.036102 0.285217 0.050446
0.056946 0.279755 0.035217
0.092010 0.276550 0.034698
0.235718 0.272583 0.034058
0.426788 0.291748 0.052948
0.618256 0.315491 0.078461
0.773865 0.334076 0.099640
0.861389 0.348877 0.111206
0.060516 0.473267 0.083069
0.084167 0.475769 0.082245
0.119141 0.477234 0.066010
0.203827 0.467834 0.059631
0.436951 0.469727 0.059937
0.632080 0.492310 0.080719
0.787018 0.516296 0.101776
0.866425 0.528107 0.112030
0.083191 0.647217 0.142181
0.106964 0.650238 0.141235
0.146667 0.659912 0.133545
0.199768 0.662018 0.096344
0.445770 0.646912 0.083160
0.636017 0.654755 0.084412
0.784271 0.672577 0.101349
0.858215 0.678772 0.110687
0.099426 0.772491 0.176086
0.122986 0.774414 0.178101
0.161804 0.778290 0.184387
0.224640 0.799744 0.170380
0.445496 0.792175 0.127014
0.647308 0.785706 0.110168
0.775024 0.785706 0.122192
0.855835 0.794037 0.140839
0.109589 0.851532 0.205627
0.133118 0.853119 0.206055
0.171967 0.857635 0.214508
0.233032 0.867798 0.212433
0.445404 0.874939 0.194244
0.654236 0.869385 0.175598
0.783417 0.867065 0.171051
0.852417 0.866302 0.173615
0.003998 0.003998 0.036835
0.024231 0.002380 0.026733
0.111755 0.012970 0.034882
0.255432 0.031281 0.053101
0.454010 0.057404 0.079132
0.643127 0.082550 0.104218
0.770325 0.099091 0.120789
0.855591 0.110260 0.131958
0.004242 0.033966 0.038269
0.026917 0.028687 0.034576
0.109711 0.036011 0.036133
0.255920 0.054596 0.054779
0.453461 0.080566 0.080566
0.644318 0.105957 0.105957
0.778198 0.123627 0.123627
0.857025 0.133728 0.133728
0.015228 0.125641 0.051514
0.038574 0.126312 0.048584
0.096313 0.120300 0.039703
0.250610 0.130280 0.053925
0.438660 0.142365 0.078125
0.641083 0.150421 0.105438
0.782440 0.159882 0.124298
0.859955 0.169830 0.134216
0.034760 0.276733 0.073456
0.058441 0.279419 0.075500
0.096436 0.285583 0.069427
0.241821 0.276764 0.062988
0.439697 0.295197 0.078491
0.632660 0.319672 0.104095
0.789703 0.336304 0.125488
0.866486 0.349152 0.135284
0.060089 0.470642 0.130554
0.083954 0.474335 0.132904
0.123657 0.483826 0.127472
0.195435 0.482605 0.107727
0.447174 0.480011 0.093567
0.646393 0.500427 0.106354
0.794678 0.521515 0.126282
0.867493 0.530792 0.135925
0.083282 0.647797 0.189270
0.107025 0.650909 0.189270
0.145966 0.655518 0.185730
0.208466 0.674713 0.162079
0.457306 0.659271 0.130066
0.641113 0.661774 0.113892
0.784851 0.674744 0.140137
0.865051 0.686829 0.186737
0.099518 0.773010 0.222748
0.123047 0.774536 0.225494
0.161987 0.779572 0.232605
0.223633 0.793518 0.238007
0.452942 0.803802 0.201538
0.656006 0.795288 0.187897
0.788147 0.797089 0.210541
0.855164 0.796356 0.229431
0.109680 0.852142 0.251587
0.133270 0.854218 0.254303
0.171783 0.856384 0.260437
0.232971 0.867584 0.265015
0.457336 0.883301 0.256622
0.665771 0.876373 0.240540
0.795319 0.874451 0.240631
0.851379 0.865204 0.253387
0.015747 0.015747 0.128845
0.039948 0.016296 0.132202
0.115997 0.015900 0.129913
0.258118 0.031738 0.141357
0.461426 0.058594 0.163849
0.645691 0.082947 0.159607
0.770508 0.099121 0.156830
0.855347 0.110199 0.172180
0.015930 0.038544 0.130127
0.040283 0.040466 0.136841
0.112946 0.040344 0.136963
0.262177 0.055634 0.143311
0.461792 0.081909 0.164612
0.648560 0.106689 0.163635
0.779907 0.123901 0.162750
0.858643 0.134003 0.175598
0.016785 0.123535 0.135284
0.041229 0.128174 0.142517
0.099640 0.136810 0.158295
0.271698 0.142212 0.155670
0.459686 0.132019 0.167084
0.651123 0.147247 0.183105
0.791412 0.163910 0.175842
0.864166 0.173065 0.189697
0.034698 0.276581 0.167633
0.058594 0.280273 0.167877
0.097900 0.287506 0.173218
0.253876 0.294525 0.174286
0.467865 0.311829 0.188507
0.659241 0.333496 0.197937
0.805725 0.348724 0.206482
0.881500 0.364044 0.246948
0.060608 0.473877 0.218964
0.084442 0.477386 0.220062
0.124237 0.487518 0.221771
0.187622 0.502106 0.212189
0.468658 0.505219 0.206146
0.673126 0.526062 0.220490
0.816315 0.542175 0.257904
0.887787 0.551056 0.288818
0.083862 0.651306 0.271027
0.107513 0.653717 0.271057
0.145844 0.654938 0.270935
0.207031 0.665955 0.282501
0.469269 0.686981 0.243286
0.670471 0.688110 0.257965
0.811890 0.696289 0.295715
0.886108 0.705261 0.316223
0.099884 0.775452 0.300446
0.123413 0.777039 0.304413
0.162415 0.782227 0.312164
0.223053 0.789948 0.325134
0.463501 0.820587 0.321289
0.675873 0.813507 0.310333
0.802917 0.811310 0.324432
0.881836 0.820099 0.336670
0.109894 0.853271 0.331360
0.133453 0.855316 0.334991
0.172272 0.859436 0.342529
0.232758 0.866333 0.354675
0.451233 0.896393 0.364532
0.683167 0.889954 0.345520
0.807190 0.889313 0.345123
0.878723 0.890656 0.354980
0.056641 0.040314 0.311096
0.080811 0.039429 0.305511
0.146576 0.038605 0.300415
0.264221 0.038086 0.297333
0.435333 0.054321 0.305603
0.640381 0.082092 0.327911
0.775787 0.099945 0.343658
0.854736 0.110107 0.365875
0.044525 0.069000 0.305328
0.074982 0.062927 0.306885
0.144867 0.063751 0.311981
0.258972 0.062469 0.304352
0.443512 0.078949 0.306671
0.654785 0.107666 0.332977
0.785309 0.124756 0.353821
0.857880 0.133881 0.370667
0.040070 0.164368 0.309387
0.062988 0.156921 0.307526
0.134979 0.151886 0.324524
0.267761 0.136749 0.333038
0.455811 0.132721 0.318909
0.657288 0.148010 0.350098
0.793854 0.164368 0.379028
0.864532 0.173096 0.394012
0.043243 0.296600 0.329041
0.065186 0.290039 0.320831
0.104462 0.291931 0.327698
0.246796 0.315430 0.358124
0.493622 0.338196 0.382141
0.682556 0.352905 0.410278
0.827820 0.376251 0.442657
0.898376 0.381653 0.451996
0.061310 0.477997 0.365845
0.085114 0.481445 0.363525
0.124756 0.490631 0.366455
0.186432 0.504822 0.380829
0.488953 0.535004 0.403931
0.700653 0.557556 0.443573
0.844940 0.574280 0.469940
0.917297 0.581482 0.478058
0.084106 0.652954 0.401703
0.107788 0.655518 0.401123
0.146973 0.661682 0.402618
0.208160 0.673035 0.422760
0.485382 0.717133 0.459167
0.699219 0.718750 0.459564
0.842041 0.728912 0.478943
0.913177 0.736359 0.494232
0.100250 0.777466 0.432251
0.123962 0.780487 0.437683
0.163086 0.786438 0.442535
0.223938 0.795288 0.455353
0.454620 0.828278 0.488007
0.705780 0.844238 0.487793
0.832275 0.841797 0.490540
0.906128 0.846924 0.504211
0.110016 0.854309 0.456329
0.133789 0.857452 0.459900
0.172638 0.861511 0.469421
0.233307 0.869415 0.481079
0.459625 0.900848 0.510956
0.708923 0.913147 0.506409
0.839050 0.914276 0.509552
0.902008 0.915955 0.515259
0.119476 0.068634 0.523224
0.149719 0.068451 0.522095
0.201996 0.067230 0.514526
0.307861 0.067474 0.515961
0.459991 0.066193 0.508362
0.643066 0.082520 0.525177
0.784393 0.101379 0.553680
0.863831 0.111572 0.573120
0.111694 0.091278 0.519348
0.148621 0.092560 0.527344
0.204620 0.092224 0.525238
0.307983 0.091278 0.519379
0.454437 0.090210 0.512878
0.645752 0.106201 0.528259
0.785858 0.124847 0.557892
0.865295 0.135071 0.575348
0.077728 0.178894 0.509521
0.123505 0.172455 0.519684
0.201324 0.132233 0.536530
0.313354 0.131805 0.533875
0.469177 0.131012 0.529144
0.649200 0.144928 0.538483
0.791321 0.163910 0.565552
0.869568 0.173920 0.579254
0.067688 0.327271 0.517242
0.091278 0.329407 0.519379
0.141418 0.330322 0.532074
0.313934 0.336304 0.566986
0.509613 0.337738 0.572479
0.693787 0.353333 0.581604
0.835846 0.363739 0.604034
0.895416 0.373108 0.612854
0.070435 0.499207 0.534302
0.093994 0.501648 0.536163
0.133331 0.507843 0.543488
0.223328 0.520050 0.559937
0.512360 0.560516 0.615448
0.733978 0.580750 0.632477
0.869812 0.589386 0.648926
0.930298 0.593048 0.660156
0.085205 0.659790 0.564911
0.109100 0.663544 0.567078
0.148254 0.669678 0.571228
0.209442 0.680756 0.582489
0.491272 0.724365 0.633209
0.731201 0.743652 0.654449
0.873291 0.763428 0.673584
0.939911 0.771667 0.687866
0.101105 0.782745 0.596985
0.124786 0.785461 0.598816
0.163910 0.791473 0.601624
0.225220 0.803223 0.609955
0.485992 0.848206 0.656860
0.734924 0.874817 0.685760
0.863922 0.876465 0.682159
0.932281 0.883667 0.694733
0.110870 0.859436 0.615784
0.134308 0.860474 0.617279
0.173096 0.864319 0.621307
0.233887 0.873016 0.630676
0.474182 0.907593 0.668976
0.740509 0.945251 0.703522
0.867767 0.943237 0.700409
0.927551 0.941833 0.700897
0.171967 0.091278 0.696899
0.199768 0.091278 0.696838
0.252075 0.089966 0.688721
0.356964 0.088684 0.681061
0.525604 0.089386 0.685303
0.682587 0.089630 0.686737
0.815369 0.106384 0.703522
0.868195 0.112305 0.712433
0.164948 0.113129 0.688263
0.198059 0.114807 0.698425
0.253540 0.114716 0.698059
0.358551 0.113220 0.688721
0.524780 0.113373 0.689789
0.684204 0.112793 0.686279
0.817139 0.129944 0.708496
0.870117 0.135864 0.716217
0.154175 0.187469 0.690979
0.179749 0.166107 0.692719
0.247437 0.153656 0.702820
0.363281 0.153931 0.704498
0.525635 0.152466 0.695557
0.685120 0.152100 0.693359
0.814056 0.167633 0.709564
0.872040 0.174316 0.721283
0.089508 0.357605 0.686005
0.113525 0.360229 0.688843
0.206329 0.366974 0.704468
0.374634 0.364868 0.737885
0.559448 0.347412 0.741516
0.713287 0.350952 0.727875
0.840607 0.360535 0.739807
0.896912 0.363098 0.748871
0.091248 0.529999 0.696655
0.114746 0.531525 0.698212
0.153992 0.537720 0.704956
0.304779 0.560516 0.729553
0.560272 0.588135 0.774902
0.747192 0.583557 0.771973
0.876556 0.596191 0.785370
0.931244 0.598389 0.789520
0.093933 0.679260 0.713257
0.117188 0.680115 0.713379
0.155670 0.683716 0.715363
0.225739 0.697418 0.727264
0.520599 0.744934 0.778046
0.753662 0.774384 0.813202
0.893188 0.784637 0.819885
0.952393 0.793915 0.829987
0.103027 0.794586 0.731476
0.126770 0.797638 0.733734
0.165771 0.802826 0.736481
0.226624 0.812103 0.744995
0.497406 0.858398 0.791718
0.736298 0.888550 0.824158
0.888916 0.900208 0.839661
0.950409 0.905060 0.842682
0.111542 0.863617 0.745911
0.135132 0.865662 0.746826
0.173920 0.869324 0.753326
0.234314 0.875793 0.761658
0.493927 0.913025 0.800781
0.742188 0.948608 0.837921
0.889771 0.962891 0.850739
0.945099 0.957367 0.845795
0.204437 0.105408 0.809265
0.233276 0.105194 0.808044
0.294525 0.104858 0.805725
0.408600 0.104828 0.805511
0.571808 0.104614 0.804413
0.715027 0.103577 0.798065
0.826385 0.108215 0.800018
0.861023 0.111115 0.802002
0.192963 0.127197 0.800049
0.232208 0.128906 0.810577
0.293732 0.128815 0.810150
0.409668 0.129120 0.812103
0.572388 0.128113 0.805939
0.720428 0.127228 0.800598
0.829346 0.131927 0.806183
0.862000 0.134552 0.803986
0.186096 0.180115 0.808319
0.216461 0.173187 0.805603
0.285370 0.167206 0.811676
0.405884 0.167969 0.816284
0.572449 0.167145 0.811157
0.722351 0.166351 0.806122
0.833435 0.170776 0.810699
0.863434 0.172943 0.807861
0.110474 0.383850 0.798615
0.163910 0.388153 0.805542
0.265442 0.393829 0.823853
0.416504 0.379730 0.850342
0.588745 0.353760 0.847351
0.742798 0.340546 0.835266
0.853119 0.350525 0.836029
0.885132 0.361053 0.834015
0.104553 0.553497 0.804047
0.128357 0.555817 0.807434
0.167084 0.558746 0.810852
0.362183 0.588806 0.841797
0.597595 0.608551 0.884674
0.776978 0.592163 0.879944
0.887207 0.598663 0.877594
0.921417 0.601013 0.875458
0.106750 0.700806 0.817474
0.130096 0.702820 0.818176
0.168610 0.706573 0.820129
0.268250 0.723877 0.837036
0.547424 0.769836 0.880341
0.771118 0.794006 0.910065
0.899933 0.790588 0.910400
0.950378 0.797272 0.914062
0.107727 0.808716 0.823608
0.131561 0.811249 0.827240
0.170227 0.815247 0.830139
0.230652 0.823853 0.836578
0.518585 0.866913 0.878784
0.751648 0.899109 0.910583
0.897980 0.913391 0.928253
0.960083 0.916138 0.930054
0.112122 0.867065 0.833313
0.135712 0.869110 0.835266
0.174438 0.872498 0.840057
0.234741 0.878326 0.844574
0.522369 0.918671 0.883118
0.753448 0.948792 0.913666
0.895172 0.966980 0.930725
0.961639 0.971527 0.934479
0.219238 0.111877 0.865570
0.253326 0.111938 0.866028
0.319794 0.111877 0.865601
0.432190 0.112030 0.866425
0.586914 0.111847 0.865265
0.734802 0.111298 0.861969
0.836212 0.111298 0.861847
0.868652 0.112366 0.862885
0.214264 0.134827 0.863922
0.251556 0.135529 0.868011
0.316956 0.135498 0.867767
0.430908 0.135651 0.868988
0.587006 0.135345 0.866882
0.737335 0.135071 0.865326
0.836975 0.134979 0.864655
0.870514 0.135956 0.865387
0.207825 0.192444 0.872894
0.242737 0.186035 0.871643
0.309082 0.177032 0.871399
0.425903 0.174255 0.871704
0.584839 0.174011 0.870117
0.741638 0.173950 0.869690
0.841034 0.173767 0.868561
0.873596 0.174591 0.869385
0.138519 0.402435 0.865326
0.196014 0.404541 0.872131
0.292389 0.409698 0.887726
0.433929 0.392975 0.903748
0.600342 0.366333 0.899628
0.758850 0.341278 0.893738
0.860199 0.345276 0.890961
0.899048 0.362335 0.894318
0.111786 0.566223 0.865082
0.135345 0.568268 0.866821
0.187012 0.574677 0.871918
0.380005 0.601868 0.899445
0.606812 0.621735 0.932617
0.787537 0.603577 0.931519
0.892426 0.604431 0.928925
0.933258 0.610565 0.929840
0.112183 0.713470 0.867584
0.135742 0.715973 0.869354
0.174591 0.720673 0.873596
0.276581 0.736267 0.885132
0.557404 0.781097 0.924591
0.779724 0.803314 0.954498
0.904999 0.797119 0.956207
0.954498 0.797028 0.955414
0.112366 0.821136 0.868652
0.135956 0.822449 0.870514
0.174591 0.826996 0.873596
0.234741 0.833252 0.878326
0.533478 0.875793 0.920746
0.760162 0.905914 0.951691
0.900391 0.920410 0.968628
0.960327 0.919403 0.970886
0.112366 0.868652 0.868652
0.135956 0.870514 0.870514
0.174591 0.873596 0.873596
0.238678 0.878967 0.878967
0.543060 0.921570 0.922241
0.763824 0.950531 0.951630
0.896240 0.966309 0.968384
0.963257 0.974548 0.976593
