滤镜资源/Professional Luts Collection/Triune-Digital-Cinematic-LUTs/3D LUTs (CUBE)/REDLOGFILM/Gravity - REDlogFilm.cube
#Created by Benjamin (IWLTBAP) : http://luts.iwltbap.com
#Copyright: (C) Copyright 2016 Triune Films and IWLTBAP
TITLE "Blockbuster LUTs Pack (REDlogFilm)"
#LUT size
LUT_3D_SIZE 32
#LUT data points
0.000977 0.001099 0.006042
0.004944 0.000641 0.003601
0.010559 0.000854 0.001312
0.016541 0.001312 0.001312
0.023651 0.001862 0.001862
0.033966 0.002930 0.002930
0.052582 0.005157 0.005157
0.077515 0.008301 0.008301
0.104492 0.011780 0.011780
0.137543 0.016083 0.016083
0.174042 0.020782 0.020782
0.213898 0.025970 0.025970
0.252502 0.030792 0.030792
0.295746 0.036346 0.036346
0.345154 0.042786 0.042786
0.396759 0.049652 0.049652
0.448273 0.056458 0.056458
0.501740 0.063568 0.063568
0.551300 0.070251 0.070251
0.596497 0.076202 0.076202
0.636383 0.081421 0.081421
0.674927 0.086517 0.086517
0.711456 0.091370 0.091370
0.744324 0.095673 0.095673
0.770935 0.099182 0.099182
0.797180 0.102661 0.102661
0.821075 0.105835 0.105835
0.843964 0.108856 0.108856
0.854950 0.110138 0.110138
0.866913 0.111542 0.111542
0.877502 0.112732 0.112732
0.885956 0.113708 0.113708
0.001404 0.011108 0.006348
0.005310 0.005981 0.003967
0.010651 0.005859 0.001404
0.016541 0.005615 0.001312
0.023621 0.006195 0.001862
0.033203 0.007141 0.002808
0.052185 0.009430 0.005096
0.076996 0.012604 0.008240
0.103790 0.015991 0.011658
0.136780 0.020233 0.015900
0.172791 0.024902 0.020569
0.212585 0.030060 0.025696
0.251648 0.035004 0.030670
0.294891 0.040497 0.036163
0.343872 0.046906 0.042572
0.395691 0.053833 0.049500
0.447479 0.060669 0.056335
0.501373 0.067841 0.063538
0.551361 0.074585 0.070251
0.596832 0.080597 0.076263
0.637268 0.085938 0.081573
0.675903 0.091064 0.086700
0.712097 0.095825 0.091461
0.744873 0.100159 0.095795
0.771729 0.103607 0.099304
0.796875 0.106964 0.102600
0.820740 0.110107 0.105774
0.843597 0.113159 0.108795
0.854858 0.114471 0.110138
0.866852 0.115875 0.111511
0.877472 0.117035 0.112732
0.885925 0.118011 0.113708
0.003143 0.024689 0.007996
0.006927 0.019501 0.005463
0.010895 0.012268 0.001648
0.016541 0.011780 0.001312
0.023621 0.011597 0.001862
0.032776 0.012482 0.002716
0.051361 0.014679 0.004913
0.076569 0.017914 0.008179
0.103149 0.021271 0.011536
0.135864 0.025513 0.015778
0.171509 0.030090 0.020355
0.210815 0.035156 0.025421
0.250732 0.040253 0.030487
0.293793 0.045776 0.036011
0.342560 0.052094 0.042358
0.394196 0.058960 0.049255
0.446533 0.065918 0.056152
0.500732 0.073151 0.063416
0.551361 0.079987 0.070251
0.596893 0.086029 0.076263
0.637970 0.091431 0.081696
0.677094 0.096588 0.086884
0.712860 0.101288 0.091583
0.745575 0.105652 0.095856
0.772675 0.109161 0.099457
0.797546 0.112396 0.102692
0.820404 0.115448 0.105713
0.843170 0.118439 0.108765
0.854431 0.119781 0.110077
0.866699 0.121216 0.111481
0.877411 0.122437 0.112701
0.885895 0.123413 0.113708
0.004822 0.038239 0.009491
0.008667 0.033325 0.007202
0.012665 0.026123 0.003387
0.016907 0.018860 0.001648
0.023560 0.018127 0.001831
0.031647 0.017761 0.002533
0.050598 0.020050 0.004822
0.076111 0.023315 0.008087
0.102539 0.026703 0.011444
0.134918 0.030884 0.015594
0.170471 0.035431 0.020172
0.209229 0.040405 0.025177
0.249878 0.045593 0.030396
0.292694 0.051086 0.035828
0.341339 0.057404 0.042175
0.392487 0.064209 0.048981
0.445465 0.071198 0.056000
0.499878 0.078491 0.063293
0.550598 0.085327 0.070099
0.596954 0.091522 0.076294
0.639313 0.097137 0.081909
0.678650 0.102356 0.087158
0.714417 0.107056 0.091827
0.746857 0.111389 0.096100
0.773712 0.114899 0.099640
0.798462 0.118103 0.102875
0.820404 0.121033 0.105713
0.842743 0.123871 0.108673
0.853973 0.125275 0.109985
0.866394 0.126678 0.111420
0.877319 0.127899 0.112701
0.885803 0.128906 0.113708
0.006805 0.054016 0.011322
0.010651 0.049164 0.009003
0.014709 0.042297 0.005432
0.018982 0.035126 0.003723
0.024109 0.026825 0.002380
0.030945 0.025238 0.002411
0.048981 0.026459 0.004578
0.075256 0.029846 0.007996
0.102051 0.033264 0.011383
0.134033 0.037354 0.015472
0.169281 0.041870 0.019989
0.207367 0.046661 0.024872
0.247864 0.051758 0.030029
0.291321 0.057343 0.035583
0.339905 0.063629 0.041931
0.390442 0.070282 0.048615
0.443878 0.077423 0.055756
0.498688 0.084808 0.063080
0.549683 0.091675 0.069977
0.596893 0.097992 0.076263
0.639679 0.103668 0.081970
0.680481 0.109131 0.087433
0.716248 0.113831 0.092133
0.748474 0.118073 0.096344
0.775116 0.121552 0.099854
0.799744 0.124786 0.103088
0.821442 0.127625 0.105927
0.842407 0.130341 0.108612
0.853546 0.131592 0.109894
0.865875 0.133026 0.111328
0.876923 0.134369 0.112671
0.885712 0.135376 0.113678
0.008911 0.070801 0.013550
0.012878 0.066528 0.011261
0.016968 0.060059 0.007690
0.021271 0.053192 0.006042
0.026459 0.045074 0.004700
0.032684 0.041687 0.004181
0.046997 0.040527 0.004242
0.073486 0.043823 0.007690
0.101044 0.046814 0.011200
0.132965 0.049500 0.015289
0.167999 0.053192 0.019775
0.205658 0.057312 0.024567
0.245667 0.059174 0.029694
0.289368 0.063782 0.035278
0.336823 0.069885 0.041412
0.386932 0.076569 0.048065
0.441254 0.083832 0.055328
0.496155 0.091187 0.062683
0.547760 0.098206 0.069672
0.595673 0.104584 0.076080
0.638611 0.110321 0.081818
0.680939 0.115967 0.087494
0.717041 0.120758 0.092255
0.749390 0.125061 0.096497
0.776031 0.128510 0.100006
0.800537 0.131683 0.103180
0.821991 0.134460 0.105957
0.842468 0.137177 0.108643
0.853638 0.138428 0.109924
0.865906 0.139862 0.111328
0.877014 0.141205 0.112671
0.885803 0.142212 0.113708
0.011597 0.092163 0.016968
0.015625 0.088318 0.014191
0.019775 0.082367 0.010529
0.024261 0.076447 0.009033
0.029510 0.068665 0.007751
0.035706 0.065033 0.007172
0.047424 0.063019 0.006866
0.069489 0.062866 0.007019
0.098999 0.066895 0.010895
0.131378 0.069397 0.015045
0.166351 0.072601 0.019501
0.203644 0.076294 0.024292
0.243317 0.078461 0.029327
0.286560 0.081360 0.034821
0.333069 0.085724 0.040833
0.382812 0.090027 0.047394
0.437286 0.095276 0.054657
0.492554 0.099457 0.062103
0.544556 0.106476 0.069153
0.593842 0.113129 0.075745
0.636292 0.118805 0.081421
0.678772 0.124481 0.087158
0.716858 0.129547 0.092224
0.749817 0.133972 0.096588
0.776550 0.137421 0.100067
0.801666 0.140747 0.103394
0.822845 0.143463 0.106140
0.842804 0.146057 0.108673
0.854218 0.147369 0.110016
0.866425 0.148804 0.111420
0.877197 0.150024 0.112701
0.886017 0.151093 0.113739
0.014557 0.115906 0.021210
0.018646 0.112427 0.017944
0.022949 0.106995 0.013794
0.027466 0.101501 0.012207
0.032837 0.094788 0.011139
0.039032 0.091034 0.010529
0.048187 0.088959 0.010193
0.068176 0.088654 0.010132
0.094086 0.088898 0.010193
0.128967 0.093903 0.014648
0.163971 0.097290 0.019135
0.201691 0.101257 0.023956
0.241211 0.104187 0.028992
0.283569 0.108002 0.034363
0.330200 0.112488 0.040344
0.378296 0.114319 0.046661
0.432007 0.117645 0.053802
0.487579 0.116486 0.061279
0.539520 0.121429 0.068329
0.590637 0.125732 0.075256
0.633728 0.129639 0.080994
0.674957 0.133636 0.086517
0.714233 0.138885 0.091797
0.748566 0.143433 0.096375
0.775787 0.147034 0.099945
0.802032 0.150482 0.103455
0.823975 0.153351 0.106293
0.843658 0.155884 0.108795
0.855499 0.157318 0.110260
0.867828 0.158722 0.111633
0.877716 0.159790 0.112762
0.886230 0.160828 0.113770
0.017914 0.142242 0.025696
0.022186 0.139862 0.022369
0.026581 0.134949 0.017578
0.031189 0.130157 0.015930
0.036621 0.123962 0.014954
0.042816 0.119904 0.014313
0.051208 0.117371 0.013885
0.063385 0.117096 0.013824
0.092255 0.116547 0.013733
0.123077 0.117554 0.013885
0.160217 0.122772 0.018524
0.198853 0.126984 0.023468
0.239960 0.130981 0.028748
0.281677 0.135162 0.034058
0.327148 0.140808 0.039856
0.373230 0.144714 0.045837
0.425659 0.149170 0.052795
0.482147 0.153717 0.060394
0.533264 0.151306 0.067261
0.585297 0.150940 0.074371
0.629791 0.153839 0.080383
0.670807 0.153198 0.085846
0.709900 0.156342 0.091095
0.745178 0.158600 0.095825
0.773315 0.160278 0.099548
0.800537 0.163300 0.103180
0.824188 0.166046 0.106323
0.844513 0.168579 0.108978
0.857117 0.168396 0.110474
0.869873 0.169769 0.112000
0.878815 0.170258 0.112946
0.886230 0.171112 0.113770
0.022125 0.174927 0.031708
0.026428 0.172821 0.027191
0.031097 0.169495 0.022156
0.035950 0.166199 0.020691
0.041595 0.161163 0.019867
0.047882 0.158081 0.019379
0.056183 0.154785 0.018860
0.065521 0.152649 0.018494
0.083801 0.151489 0.018311
0.120850 0.150482 0.018127
0.154297 0.151672 0.018341
0.194061 0.156067 0.022705
0.239258 0.162445 0.028656
0.281158 0.166687 0.033936
0.325195 0.172211 0.039551
0.370087 0.177765 0.045319
0.420227 0.182648 0.051880
0.474396 0.188263 0.059113
0.527405 0.192902 0.066345
0.578766 0.195129 0.073303
0.624512 0.196747 0.079498
0.666382 0.197205 0.085144
0.706116 0.197266 0.090515
0.741699 0.197815 0.095276
0.770477 0.197174 0.099121
0.799072 0.197571 0.102936
0.823090 0.198303 0.106171
0.844421 0.199066 0.108978
0.857605 0.198242 0.110565
0.871216 0.197083 0.112213
0.879456 0.196960 0.113037
0.886230 0.196960 0.113770
0.026611 0.209961 0.038940
0.031067 0.208618 0.033844
0.035889 0.205963 0.027222
0.040649 0.202637 0.025391
0.046478 0.198944 0.024841
0.052887 0.196289 0.024384
0.061462 0.194550 0.024109
0.070801 0.192505 0.023743
0.083405 0.189484 0.023285
0.114746 0.187927 0.023010
0.154846 0.187683 0.022980
0.191467 0.188568 0.023163
0.235809 0.194702 0.028107
0.282135 0.200867 0.034119
0.326508 0.205719 0.039734
0.371246 0.211670 0.045502
0.419739 0.216431 0.051788
0.471130 0.222321 0.058594
0.521912 0.229218 0.065460
0.572235 0.233398 0.072266
0.620239 0.238037 0.078796
0.662750 0.240204 0.084534
0.705109 0.242126 0.090302
0.741547 0.244293 0.095245
0.770203 0.246735 0.099060
0.798859 0.247192 0.102905
0.823822 0.248016 0.106262
0.845276 0.247559 0.109070
0.858398 0.247772 0.110718
0.872192 0.247528 0.112366
0.879883 0.248749 0.113098
0.886230 0.248901 0.113770
0.031067 0.245514 0.043945
0.035583 0.244629 0.039612
0.040833 0.243103 0.033813
0.045654 0.240509 0.031281
0.051483 0.237610 0.029785
0.057983 0.235443 0.029449
0.066559 0.233917 0.029205
0.076080 0.232849 0.029022
0.086060 0.230988 0.028748
0.108734 0.228271 0.028259
0.151642 0.227325 0.028137
0.194397 0.227600 0.028168
0.234650 0.229858 0.028503
0.282074 0.235992 0.034088
0.329346 0.241882 0.040192
0.375549 0.248016 0.046204
0.423218 0.252289 0.052368
0.474640 0.258606 0.059143
0.523315 0.265442 0.065674
0.571838 0.270416 0.072205
0.618378 0.275513 0.078491
0.663757 0.280151 0.084686
0.706970 0.283081 0.090607
0.744720 0.286987 0.095764
0.773468 0.289948 0.099609
0.800934 0.292816 0.103271
0.824646 0.295105 0.106415
0.845306 0.296082 0.109070
0.858734 0.298279 0.110748
0.872681 0.300690 0.112427
0.880219 0.302185 0.113190
0.886230 0.303467 0.113770
0.036102 0.285217 0.050446
0.040771 0.285339 0.047882
0.046509 0.285004 0.043945
0.051453 0.282990 0.039124
0.056946 0.279755 0.035217
0.063507 0.278381 0.035004
0.072235 0.277679 0.034882
0.081940 0.277557 0.034882
0.092010 0.276550 0.034698
0.104156 0.276184 0.034668
0.136810 0.274323 0.034363
0.189331 0.273956 0.034302
0.235718 0.272583 0.034058
0.280029 0.274109 0.034302
0.329376 0.279968 0.040222
0.376923 0.285950 0.046448
0.426788 0.291748 0.052948
0.479279 0.297791 0.059937
0.526398 0.304565 0.066162
0.572845 0.310272 0.072357
0.618256 0.315491 0.078461
0.663452 0.321045 0.084625
0.706390 0.325714 0.090546
0.744202 0.329865 0.095642
0.773865 0.334076 0.099640
0.801941 0.337494 0.103455
0.825928 0.340607 0.106628
0.847595 0.344696 0.109467
0.861389 0.348877 0.111206
0.875458 0.351379 0.112885
0.881409 0.352173 0.113342
0.886230 0.352997 0.113770
0.041779 0.329407 0.058411
0.046570 0.329956 0.056854
0.052399 0.330627 0.054810
0.058167 0.329590 0.049713
0.062927 0.326111 0.041260
0.069580 0.324951 0.041107
0.078430 0.324860 0.041077
0.088165 0.325348 0.041138
0.098419 0.325195 0.041138
0.110565 0.325012 0.041107
0.125366 0.324554 0.041016
0.178955 0.325439 0.041138
0.232178 0.321442 0.040497
0.281036 0.321075 0.040436
0.328613 0.322235 0.040619
0.378235 0.328033 0.046631
0.429352 0.334259 0.053375
0.481537 0.340393 0.060303
0.529602 0.346619 0.066681
0.575531 0.353271 0.072815
0.620636 0.359497 0.078857
0.665253 0.365143 0.084930
0.707184 0.370239 0.090668
0.743988 0.374786 0.095612
0.773346 0.379120 0.099548
0.802338 0.383423 0.103485
0.827240 0.387421 0.106842
0.848541 0.391479 0.109619
0.861877 0.395050 0.111298
0.875549 0.398926 0.112946
0.881531 0.400757 0.113373
0.886230 0.402222 0.113770
0.047699 0.375397 0.066101
0.052521 0.376556 0.065796
0.058533 0.377899 0.064911
0.064423 0.377838 0.057983
0.069366 0.375122 0.047729
0.076233 0.375366 0.047699
0.085052 0.375427 0.047729
0.094879 0.375977 0.047791
0.105103 0.375824 0.047760
0.117218 0.375366 0.047699
0.130127 0.373322 0.047363
0.162994 0.373047 0.047302
0.226135 0.374573 0.047577
0.280396 0.374023 0.047485
0.330200 0.374207 0.047516
0.377197 0.372467 0.047241
0.430939 0.377808 0.053650
0.483093 0.384644 0.060547
0.532990 0.390533 0.067230
0.580902 0.398071 0.073669
0.623993 0.405670 0.079407
0.666962 0.411743 0.085205
0.706116 0.416107 0.090515
0.742523 0.420441 0.095398
0.774323 0.424774 0.099731
0.803436 0.429291 0.103699
0.828461 0.433594 0.107025
0.850281 0.437622 0.109894
0.862488 0.440521 0.111359
0.875549 0.443848 0.112946
0.881531 0.445740 0.113373
0.886230 0.447113 0.113770
0.053802 0.422516 0.073730
0.058594 0.423096 0.074524
0.064484 0.423798 0.075287
0.070404 0.423981 0.071320
0.077087 0.423676 0.063934
0.083496 0.423828 0.060760
0.091888 0.424316 0.057190
0.101349 0.425110 0.054291
0.111694 0.426086 0.054413
0.123718 0.424866 0.054260
0.136505 0.421875 0.053741
0.151154 0.418945 0.053253
0.216187 0.420319 0.053467
0.279236 0.420959 0.053589
0.332184 0.422455 0.053802
0.380310 0.421631 0.053711
0.431793 0.419678 0.053772
0.486847 0.426483 0.061157
0.536377 0.433868 0.067780
0.584961 0.441528 0.074310
0.628815 0.448395 0.080170
0.671875 0.454742 0.086029
0.711823 0.459900 0.091400
0.749420 0.465179 0.096497
0.781525 0.470032 0.100922
0.809357 0.474152 0.104645
0.832916 0.477478 0.107758
0.854645 0.480316 0.110596
0.864777 0.482178 0.111755
0.875549 0.484741 0.112946
0.881531 0.486938 0.113373
0.886230 0.488770 0.113770
0.060516 0.473267 0.083069
0.065308 0.473999 0.083160
0.071198 0.474854 0.083466
0.077209 0.475311 0.083679
0.084167 0.475769 0.082245
0.091522 0.476196 0.081146
0.100952 0.477173 0.078705
0.109894 0.477234 0.073303
0.119141 0.477234 0.066010
0.130798 0.477722 0.061829
0.143707 0.475586 0.060883
0.157135 0.469574 0.059906
0.203827 0.467834 0.059631
0.277740 0.467407 0.059570
0.335907 0.468811 0.059784
0.385376 0.469879 0.059937
0.436951 0.469727 0.059937
0.487915 0.469208 0.061340
0.537964 0.476959 0.068054
0.586792 0.485382 0.074615
0.632080 0.492310 0.080719
0.675873 0.498901 0.086700
0.717468 0.505432 0.092316
0.755341 0.511292 0.097473
0.787018 0.516296 0.101776
0.814056 0.521027 0.105408
0.836609 0.524414 0.108368
0.857971 0.527100 0.111145
0.866425 0.528107 0.112030
0.875519 0.529236 0.112915
0.881470 0.530182 0.113373
0.886230 0.531464 0.113770
0.067078 0.523224 0.101349
0.071838 0.523865 0.100800
0.077789 0.524902 0.100067
0.083832 0.525787 0.099304
0.090881 0.526550 0.098389
0.098389 0.527802 0.096649
0.108032 0.528992 0.094788
0.118439 0.530029 0.090820
0.127502 0.530090 0.082550
0.138641 0.530823 0.074219
0.150909 0.529694 0.068237
0.164368 0.523956 0.067230
0.192047 0.519623 0.066467
0.271790 0.517487 0.066132
0.337372 0.516937 0.066040
0.387939 0.518127 0.066223
0.438507 0.519226 0.066437
0.488342 0.519958 0.066559
0.535248 0.522186 0.067627
0.586365 0.530762 0.074554
0.632751 0.537170 0.080841
0.677246 0.544006 0.086884
0.719238 0.550537 0.092590
0.756714 0.556427 0.097687
0.787933 0.561401 0.101929
0.814392 0.565369 0.105438
0.836517 0.568848 0.108337
0.858582 0.572632 0.111267
0.866241 0.573151 0.112000
0.874359 0.573639 0.112701
0.880737 0.574036 0.113281
0.885712 0.574585 0.113678
0.072845 0.567383 0.116547
0.077576 0.567963 0.116089
0.083496 0.568787 0.115509
0.089539 0.569580 0.114716
0.096619 0.570526 0.113831
0.104156 0.572235 0.111938
0.113953 0.574127 0.108765
0.124756 0.576508 0.104736
0.135101 0.578339 0.097290
0.145844 0.578552 0.086700
0.157776 0.577179 0.078522
0.171173 0.573730 0.074554
0.186859 0.569183 0.073120
0.258484 0.564758 0.072418
0.332916 0.563049 0.072113
0.388519 0.562164 0.071991
0.439819 0.563568 0.072235
0.489563 0.565186 0.072479
0.537140 0.567078 0.072815
0.584412 0.570282 0.074249
0.632355 0.577484 0.080780
0.677429 0.584961 0.086914
0.720184 0.591431 0.092773
0.756805 0.596527 0.097717
0.787109 0.601135 0.101807
0.813171 0.604401 0.105255
0.835327 0.607239 0.108154
0.856598 0.610413 0.110931
0.864166 0.610779 0.111633
0.872070 0.611206 0.112366
0.878845 0.611572 0.112976
0.884186 0.611908 0.113403
0.078369 0.609955 0.131226
0.083160 0.610718 0.130829
0.089081 0.611694 0.130249
0.095184 0.612640 0.129791
0.102264 0.613708 0.129272
0.109772 0.614990 0.128113
0.119415 0.616272 0.125488
0.130280 0.618896 0.121368
0.141998 0.623383 0.114960
0.153534 0.623962 0.105133
0.165405 0.623169 0.095306
0.178833 0.622528 0.089142
0.192719 0.617889 0.082184
0.230225 0.611755 0.079254
0.320404 0.609100 0.078247
0.386169 0.606842 0.077881
0.440979 0.606415 0.077820
0.492249 0.607849 0.078033
0.540466 0.609497 0.078339
0.587158 0.612640 0.078827
0.632782 0.616058 0.080841
0.679626 0.623505 0.087250
0.722748 0.630676 0.093170
0.758484 0.635620 0.097961
0.786682 0.639587 0.101746
0.811066 0.641998 0.104950
0.831787 0.643829 0.107574
0.852295 0.645874 0.110229
0.861481 0.646790 0.111206
0.871246 0.647339 0.112213
0.878571 0.647919 0.112915
0.883942 0.648315 0.113403
0.083191 0.647217 0.142181
0.087891 0.647522 0.142212
0.093811 0.648224 0.141907
0.099854 0.649170 0.141663
0.106964 0.650238 0.141235
0.114471 0.651489 0.140900
0.124207 0.653259 0.140137
0.134979 0.655518 0.137299
0.146667 0.659912 0.133545
0.160400 0.664093 0.128418
0.173676 0.665588 0.120300
0.187073 0.667145 0.110840
0.199768 0.662018 0.096344
0.214508 0.655792 0.088654
0.302124 0.650909 0.083801
0.383484 0.648376 0.083405
0.445770 0.646912 0.083160
0.499359 0.647400 0.083221
0.546387 0.648407 0.083405
0.593292 0.651855 0.083923
0.636017 0.654755 0.084412
0.679626 0.657806 0.087280
0.722870 0.664398 0.093201
0.757904 0.669189 0.097870
0.784271 0.672577 0.101349
0.808411 0.674866 0.104462
0.828949 0.676208 0.107086
0.848175 0.677551 0.109558
0.858215 0.678772 0.110687
0.868225 0.680084 0.111755
0.876801 0.681091 0.112701
0.883606 0.681641 0.113373
0.087708 0.682068 0.151184
0.092377 0.682343 0.151306
0.098175 0.682709 0.151489
0.104187 0.682983 0.151550
0.111237 0.683777 0.151520
0.118774 0.685364 0.151703
0.128571 0.687317 0.151520
0.139343 0.689728 0.151062
0.150909 0.693237 0.149658
0.164673 0.697601 0.147614
0.179688 0.702240 0.142975
0.194916 0.707306 0.134338
0.207764 0.704926 0.117493
0.221527 0.699005 0.103180
0.275299 0.692535 0.093353
0.376831 0.688232 0.088684
0.446838 0.685516 0.088257
0.503662 0.685883 0.088287
0.551697 0.685944 0.088287
0.598511 0.688141 0.088684
0.640320 0.691895 0.089264
0.678162 0.693237 0.089508
0.719421 0.696289 0.092651
0.756348 0.699860 0.097626
0.781647 0.702850 0.100922
0.805237 0.705688 0.103973
0.825684 0.707306 0.106567
0.844849 0.708527 0.109009
0.855743 0.709686 0.110260
0.867279 0.711212 0.112518
0.877655 0.713348 0.119293
0.884949 0.714478 0.121582
0.092102 0.716064 0.160767
0.096802 0.716431 0.160919
0.102631 0.716766 0.161133
0.108643 0.717255 0.161194
0.115631 0.717773 0.161346
0.123077 0.718506 0.161560
0.132812 0.720184 0.161865
0.143555 0.722473 0.162537
0.154999 0.725220 0.163422
0.168671 0.729034 0.163971
0.183685 0.733612 0.162231
0.200378 0.741516 0.153900
0.215454 0.743744 0.140564
0.229156 0.740845 0.122772
0.274414 0.732971 0.108521
0.369019 0.727448 0.098999
0.445496 0.722504 0.093292
0.506104 0.721313 0.092957
0.556152 0.721558 0.093018
0.602814 0.722473 0.093140
0.643524 0.726044 0.093719
0.680878 0.728912 0.094177
0.715118 0.729187 0.094238
0.750580 0.729553 0.096710
0.778687 0.731354 0.100403
0.802582 0.733917 0.103516
0.823639 0.736633 0.108459
0.843872 0.739502 0.115814
0.855621 0.741272 0.119720
0.868317 0.743164 0.123718
0.879303 0.745300 0.129242
0.887878 0.746918 0.133942
0.096161 0.747192 0.169220
0.100891 0.747650 0.169769
0.106750 0.748260 0.170380
0.112732 0.748779 0.170563
0.119751 0.749359 0.170837
0.127136 0.749786 0.171783
0.136719 0.750580 0.172455
0.147369 0.751984 0.173462
0.158752 0.754211 0.175049
0.172333 0.757812 0.176270
0.187317 0.762238 0.175690
0.203918 0.769440 0.168060
0.221619 0.776062 0.158844
0.236450 0.776886 0.144623
0.264130 0.770477 0.130005
0.367157 0.765686 0.118683
0.444672 0.759705 0.106720
0.506409 0.755646 0.097534
0.557739 0.755524 0.097504
0.604767 0.756104 0.097595
0.645477 0.757202 0.097809
0.682800 0.759583 0.100891
0.715942 0.759796 0.098328
0.747284 0.758514 0.097992
0.774353 0.759033 0.104462
0.800720 0.761719 0.110809
0.823120 0.764709 0.118103
0.843933 0.768219 0.128662
0.856628 0.770294 0.131897
0.870422 0.772614 0.135864
0.881866 0.774933 0.140656
0.890869 0.776642 0.144653
0.099426 0.772491 0.176086
0.104156 0.772949 0.176605
0.110046 0.773529 0.177307
0.115997 0.773926 0.177734
0.122986 0.774414 0.178101
0.130432 0.775055 0.179626
0.139954 0.775696 0.181091
0.150513 0.776581 0.182526
0.161804 0.778290 0.184387
0.175354 0.781616 0.185822
0.190430 0.786438 0.185852
0.206909 0.792908 0.179382
0.224640 0.799744 0.170380
0.242035 0.804504 0.162567
0.257019 0.800964 0.149445
0.361664 0.797241 0.137421
0.445496 0.792175 0.127014
0.507874 0.787018 0.113556
0.558411 0.784821 0.103821
0.606262 0.785126 0.103729
0.647308 0.785706 0.110168
0.685974 0.786835 0.117981
0.719788 0.786987 0.119598
0.750519 0.785828 0.118042
0.775024 0.785706 0.122192
0.799377 0.786499 0.126709
0.822144 0.789062 0.131531
0.843140 0.791748 0.137634
0.855835 0.794037 0.140839
0.869934 0.796509 0.144318
0.882172 0.798920 0.147827
0.891510 0.800751 0.151245
0.102478 0.796082 0.184448
0.107147 0.796112 0.184570
0.112976 0.796509 0.185089
0.118927 0.796722 0.185516
0.125916 0.797119 0.186035
0.133392 0.798309 0.187744
0.143005 0.799286 0.189575
0.153595 0.800293 0.191437
0.164734 0.801361 0.193085
0.178192 0.803802 0.194763
0.193176 0.808228 0.195282
0.209564 0.814056 0.191254
0.227142 0.820038 0.182098
0.246185 0.827515 0.177673
0.262543 0.826813 0.168182
0.358154 0.823914 0.157562
0.445618 0.819458 0.148895
0.509491 0.815796 0.139465
0.560944 0.812439 0.128143
0.608124 0.811707 0.123108
0.649414 0.811676 0.125031
0.687531 0.811829 0.131409
0.722992 0.812073 0.138397
0.753235 0.810730 0.134064
0.777649 0.810822 0.138123
0.800293 0.811371 0.140289
0.820801 0.811859 0.142456
0.841705 0.814270 0.146027
0.854340 0.816193 0.148560
0.868408 0.818726 0.151794
0.880493 0.820892 0.154694
0.890228 0.822815 0.157501
0.105164 0.816864 0.192444
0.109863 0.817017 0.192535
0.115631 0.817078 0.192719
0.121552 0.817291 0.192993
0.128510 0.817444 0.193512
0.135986 0.818726 0.195068
0.145691 0.820007 0.197388
0.156311 0.821259 0.199463
0.167480 0.822510 0.201141
0.180756 0.823822 0.202148
0.195618 0.827606 0.203430
0.211884 0.832733 0.201691
0.229431 0.838348 0.193756
0.248444 0.845795 0.189423
0.269409 0.848358 0.183441
0.355072 0.846527 0.175720
0.446228 0.842468 0.168945
0.510529 0.839600 0.160095
0.562653 0.836823 0.153473
0.610138 0.835724 0.149139
0.651245 0.834503 0.144073
0.689148 0.834045 0.146027
0.724884 0.833984 0.151947
0.755524 0.832977 0.148560
0.779694 0.833099 0.150787
0.802399 0.833649 0.152771
0.821869 0.833984 0.152466
0.840179 0.834045 0.153198
0.852875 0.835968 0.155823
0.866699 0.838013 0.158600
0.878387 0.839752 0.161163
0.888000 0.841492 0.163452
0.107666 0.836578 0.199890
0.112366 0.836761 0.199921
0.118164 0.837006 0.200012
0.124146 0.837372 0.200256
0.131134 0.837769 0.200592
0.138611 0.838928 0.202179
0.148285 0.840088 0.204559
0.158905 0.841248 0.207245
0.170044 0.842468 0.209015
0.183258 0.843628 0.209625
0.197968 0.846375 0.210754
0.214203 0.851135 0.210236
0.231628 0.856079 0.204956
0.250549 0.862732 0.200165
0.276031 0.868286 0.197144
0.354248 0.868134 0.191833
0.445465 0.864563 0.187225
