滤镜资源/Professional Luts Collection/Triune-Digital-Cinematic-LUTs/3D LUTs (CUBE)/REDLOGFILM/Harry Potter - REDlogFilm.cube
#Created by Benjamin (IWLTBAP) : http://luts.iwltbap.com
#Copyright: (C) Copyright 2016 Triune Films and IWLTBAP
TITLE "Blockbuster LUTs Pack (REDlogFilm)"
#LUT size
LUT_3D_SIZE 32
#LUT data points
0.000000 0.000031 0.025452
0.001282 0.000031 0.027069
0.002869 0.000061 0.029053
0.004486 0.000183 0.031250
0.006378 0.000214 0.033997
0.008392 0.000427 0.036194
0.011017 0.000671 0.038666
0.013885 0.000854 0.040924
0.031830 0.001282 0.042358
0.078766 0.005890 0.043304
0.130554 0.018402 0.043365
0.173431 0.036621 0.041962
0.218567 0.053131 0.039001
0.266968 0.063812 0.034027
0.315887 0.072754 0.031006
0.360321 0.080688 0.032654
0.402069 0.088287 0.040558
0.443207 0.095490 0.048767
0.483337 0.100952 0.053345
0.522583 0.106232 0.055542
0.554352 0.111267 0.057800
0.581970 0.116333 0.061615
0.607025 0.121399 0.065704
0.629059 0.126038 0.069305
0.646942 0.130341 0.072144
0.662903 0.135162 0.074524
0.676880 0.139771 0.076782
0.690186 0.144348 0.079010
0.698639 0.148376 0.081268
0.708038 0.152985 0.083893
0.715393 0.157104 0.086334
0.721252 0.160431 0.088379
0.000000 0.001556 0.028412
0.001282 0.001404 0.027679
0.002869 0.001404 0.029663
0.004486 0.002380 0.031677
0.006378 0.002594 0.034393
0.008392 0.004089 0.036438
0.011078 0.004913 0.038879
0.014099 0.006226 0.041077
0.034119 0.008331 0.042145
0.083679 0.013763 0.042725
0.133942 0.026031 0.042480
0.176697 0.042084 0.040558
0.222046 0.056580 0.036591
0.270081 0.066925 0.031158
0.318481 0.075653 0.027344
0.362518 0.083466 0.028687
0.403931 0.090912 0.036987
0.444916 0.097961 0.045746
0.485107 0.103302 0.050537
0.524231 0.108459 0.053894
0.555756 0.113495 0.056915
0.583313 0.118500 0.060883
0.608215 0.123505 0.064972
0.630157 0.128143 0.068634
0.647919 0.132416 0.071411
0.663818 0.137238 0.073730
0.677704 0.141785 0.075989
0.690979 0.146362 0.078186
0.699280 0.150452 0.080505
0.708618 0.155029 0.083160
0.715942 0.159149 0.085693
0.721771 0.162506 0.087708
0.000000 0.003479 0.032349
0.001282 0.003296 0.031433
0.002869 0.003113 0.030457
0.004486 0.004120 0.032440
0.006378 0.005524 0.034851
0.008392 0.007141 0.036926
0.011108 0.009491 0.039185
0.014404 0.012878 0.041229
0.036896 0.016907 0.041870
0.089691 0.023499 0.042023
0.138123 0.035461 0.041351
0.180817 0.049438 0.039062
0.226105 0.061768 0.034363
0.273987 0.070831 0.027435
0.322144 0.079315 0.022797
0.365417 0.086914 0.023407
0.406494 0.094147 0.032227
0.447418 0.100983 0.042542
0.487579 0.106140 0.047882
0.526550 0.111237 0.051758
0.557800 0.116272 0.055389
0.585205 0.121216 0.059509
0.609955 0.126160 0.063782
0.631744 0.130798 0.067505
0.649323 0.134979 0.070312
0.664978 0.139771 0.072662
0.678833 0.144318 0.074890
0.692078 0.148895 0.077118
0.700134 0.153015 0.079498
0.709381 0.157593 0.082214
0.716614 0.161713 0.084778
0.722412 0.165009 0.086884
0.000000 0.012054 0.036774
0.001282 0.012207 0.035736
0.002869 0.012115 0.034607
0.004486 0.012939 0.033752
0.006378 0.014435 0.036102
0.008392 0.016022 0.037781
0.011169 0.018890 0.039764
0.014984 0.022949 0.041595
0.038330 0.027710 0.041931
0.093201 0.035156 0.041626
0.141052 0.046234 0.040405
0.183716 0.056763 0.037476
0.228851 0.066925 0.032013
0.276703 0.075256 0.024597
0.324707 0.083130 0.018433
0.367828 0.090454 0.018524
0.408691 0.097198 0.026794
0.449707 0.103912 0.037262
0.489990 0.108856 0.042664
0.528717 0.113983 0.047089
0.559723 0.119080 0.051941
0.587189 0.123993 0.057495
0.611755 0.128906 0.062469
0.633453 0.133514 0.066284
0.650879 0.137665 0.069031
0.666321 0.142426 0.071350
0.680023 0.146973 0.073547
0.693176 0.151489 0.075714
0.701202 0.155609 0.078186
0.710205 0.160309 0.080994
0.717377 0.164398 0.083618
0.723175 0.167694 0.085754
0.000000 0.025909 0.042236
0.001282 0.026245 0.041138
0.002869 0.026642 0.039795
0.004486 0.027527 0.038757
0.006378 0.028992 0.037933
0.008392 0.030365 0.039398
0.011200 0.032623 0.041046
0.015747 0.036407 0.042236
0.040436 0.041901 0.042236
0.097137 0.049713 0.041443
0.143768 0.059784 0.039703
0.186188 0.067688 0.036377
0.231049 0.074371 0.030334
0.278839 0.080750 0.022064
0.326904 0.087982 0.014709
0.370117 0.094666 0.013245
0.411041 0.100861 0.020355
0.452454 0.107178 0.029633
0.493134 0.112030 0.034790
0.531586 0.117126 0.040436
0.562408 0.122375 0.048309
0.589844 0.127289 0.054871
0.614258 0.132141 0.060150
0.635803 0.136780 0.064087
0.653076 0.140930 0.066864
0.668243 0.145691 0.069214
0.681641 0.150146 0.071503
0.694519 0.154663 0.073822
0.702393 0.158813 0.076416
0.711304 0.163483 0.079376
0.718414 0.167572 0.082123
0.724091 0.170837 0.084351
0.000000 0.045319 0.047882
0.001282 0.045197 0.046906
0.002869 0.045715 0.045563
0.004486 0.046234 0.044495
0.006378 0.047729 0.043427
0.008392 0.049133 0.042480
0.011200 0.050812 0.043640
0.016510 0.053986 0.044281
0.042542 0.058105 0.043549
0.100983 0.063751 0.042450
0.146729 0.070892 0.040039
0.189056 0.077240 0.036194
0.233948 0.083038 0.029327
0.281281 0.088715 0.020844
0.329163 0.094421 0.011932
0.372406 0.100464 0.009979
0.413239 0.105591 0.015869
0.454834 0.111237 0.023346
0.495789 0.115540 0.026520
0.533875 0.120148 0.030640
0.564545 0.125427 0.039429
0.592224 0.130432 0.046997
0.616547 0.135254 0.053802
0.638153 0.140015 0.059845
0.655334 0.144287 0.063477
0.670441 0.149048 0.065979
0.683533 0.153564 0.068573
0.696045 0.158081 0.071045
0.703888 0.162262 0.073883
0.712616 0.166992 0.077057
0.719574 0.170959 0.080017
0.725250 0.174225 0.082245
0.000000 0.070160 0.055206
0.001282 0.069977 0.054291
0.002869 0.069733 0.053101
0.004486 0.070190 0.052124
0.006378 0.071045 0.051025
0.008392 0.072144 0.049805
0.011047 0.073730 0.048309
0.016846 0.075745 0.048065
0.043823 0.078033 0.046417
0.105835 0.081116 0.044556
0.150604 0.085205 0.041412
0.192932 0.090454 0.036926
0.237946 0.095551 0.029480
0.285095 0.100464 0.020111
0.332611 0.105164 0.010406
0.375763 0.109955 0.007812
0.416168 0.113831 0.012848
0.457977 0.117920 0.017120
0.499390 0.121185 0.015686
0.537262 0.124847 0.017273
0.567780 0.129517 0.024841
0.595306 0.134369 0.034393
0.619598 0.139191 0.043488
0.640991 0.143951 0.050812
0.658020 0.148346 0.055450
0.673187 0.153168 0.058624
0.686035 0.157745 0.062134
0.697998 0.162506 0.065979
0.705719 0.166656 0.069000
0.714386 0.171478 0.072968
0.721283 0.175415 0.076050
0.726776 0.178589 0.078583
0.000000 0.089447 0.064117
0.001282 0.089355 0.063354
0.002869 0.089294 0.062469
0.004486 0.089569 0.061462
0.006378 0.090088 0.060211
0.008392 0.090881 0.058716
0.011047 0.091827 0.056488
0.015778 0.093414 0.054291
0.042511 0.094940 0.051880
0.109650 0.097198 0.048340
0.154755 0.100769 0.044434
0.197723 0.105011 0.038666
0.243042 0.109741 0.030304
0.290558 0.114441 0.019745
0.337555 0.119080 0.009827
0.380249 0.123260 0.007599
0.420380 0.126831 0.012970
0.461578 0.129425 0.016388
0.502991 0.131500 0.013519
0.540802 0.133881 0.012543
0.571136 0.136871 0.017090
0.598663 0.140503 0.023010
0.622925 0.144409 0.029633
0.644226 0.148773 0.035767
0.661072 0.152802 0.040100
0.675964 0.157074 0.043427
0.688324 0.161804 0.048706
0.699799 0.166748 0.054260
0.707581 0.171082 0.059235
0.716095 0.175842 0.064453
0.722931 0.179871 0.068329
0.728394 0.183044 0.071564
0.000000 0.107208 0.073456
0.001282 0.107147 0.072968
0.002869 0.107086 0.072327
0.004486 0.107391 0.071716
0.006378 0.107941 0.071136
0.008392 0.108673 0.069763
0.011047 0.109589 0.067505
0.015411 0.110748 0.064148
0.032288 0.112793 0.060913
0.106049 0.114716 0.055847
0.156982 0.117584 0.050110
0.202271 0.121399 0.043457
0.249023 0.125702 0.032410
0.297211 0.130127 0.020325
0.344330 0.134155 0.009399
0.386200 0.138062 0.007874
0.425995 0.141510 0.013763
0.466919 0.144135 0.016846
0.507324 0.145386 0.013733
0.544495 0.147186 0.013000
0.574219 0.149200 0.017639
0.601257 0.151611 0.022949
0.625366 0.154388 0.028748
0.646667 0.157593 0.032837
0.663605 0.160950 0.035187
0.678802 0.164795 0.036835
0.690979 0.169159 0.040436
0.702209 0.173828 0.045349
0.709961 0.177551 0.049683
0.718201 0.182159 0.055786
0.724487 0.186401 0.062012
0.729614 0.189667 0.066376
0.000000 0.127808 0.083710
0.001282 0.127747 0.083282
0.002869 0.127716 0.082733
0.004486 0.127991 0.082397
0.006378 0.128571 0.082123
0.008392 0.129395 0.081573
0.011414 0.130524 0.080353
0.019348 0.131775 0.077637
0.038818 0.133575 0.073395
0.091278 0.136383 0.069275
0.153046 0.139130 0.061890
0.205292 0.142242 0.052765
0.256073 0.145996 0.038422
0.305511 0.149963 0.022278
0.352936 0.153564 0.010925
0.394440 0.156616 0.009674
0.433838 0.160339 0.015625
0.474396 0.162903 0.018005
0.514099 0.164398 0.014496
0.550171 0.165619 0.014404
0.579407 0.167114 0.019653
0.605591 0.168335 0.025238
0.628876 0.169861 0.031250
0.649658 0.171997 0.034760
0.666351 0.174103 0.035797
0.681427 0.176483 0.036163
0.693451 0.180603 0.039398
0.704529 0.184998 0.043732
0.712280 0.188477 0.047638
0.720367 0.192719 0.053650
0.726501 0.196533 0.060333
0.731201 0.199768 0.065704
0.000000 0.150940 0.095306
0.001282 0.151001 0.095001
0.002899 0.151062 0.094604
0.004517 0.151459 0.094421
0.006561 0.152130 0.094269
0.008820 0.153015 0.094116
0.014191 0.154358 0.093689
0.029236 0.155945 0.092499
0.058746 0.157806 0.089294
0.103699 0.160828 0.084473
0.144379 0.165070 0.080078
0.201263 0.168762 0.069641
0.261505 0.171967 0.052948
0.315002 0.175018 0.030975
0.363220 0.178711 0.015778
0.404541 0.181458 0.014709
0.443909 0.183777 0.019470
0.484192 0.185791 0.020142
0.523041 0.187286 0.015533
0.558380 0.188782 0.016266
0.586975 0.190002 0.022125
0.612518 0.190918 0.028595
0.634949 0.191528 0.035126
0.654663 0.192871 0.038971
0.670776 0.194672 0.039795
0.685730 0.196655 0.039673
0.696869 0.198608 0.041992
0.707336 0.201508 0.045563
0.714966 0.204651 0.049164
0.722778 0.208832 0.055511
0.728851 0.212982 0.063019
0.733276 0.216522 0.069427
0.000031 0.177551 0.109131
0.001312 0.177765 0.108917
0.003723 0.177979 0.108643
0.007141 0.178558 0.108582
0.012299 0.179321 0.108612
0.022827 0.180359 0.108612
0.035706 0.181976 0.108612
0.053497 0.183929 0.108215
0.086578 0.186096 0.106689
0.120422 0.189545 0.102875
0.152313 0.194427 0.098022
0.194183 0.200317 0.092590
0.258026 0.205109 0.077637
0.323700 0.207672 0.052704
0.374512 0.210419 0.032410
0.415924 0.213043 0.024475
0.455811 0.215515 0.026459
0.497375 0.216553 0.020081
0.536194 0.217621 0.013275
0.570312 0.218109 0.017517
0.598511 0.219208 0.025574
0.623199 0.220306 0.033722
0.644836 0.221161 0.041412
0.663574 0.222260 0.045135
0.678192 0.223511 0.046295
0.692383 0.225281 0.046661
0.702789 0.226410 0.048706
0.712433 0.227448 0.050964
0.719452 0.228668 0.053162
0.726746 0.232269 0.059509
0.732697 0.236450 0.067474
0.737122 0.240875 0.074707
0.002838 0.209198 0.126160
0.005310 0.209595 0.126068
0.012878 0.210022 0.125916
0.027313 0.210724 0.125946
0.040100 0.211700 0.126068
0.056976 0.212921 0.126282
0.073883 0.214935 0.126556
0.091675 0.217346 0.126678
0.111328 0.220123 0.126190
0.135803 0.224060 0.124298
0.165894 0.229279 0.119690
0.203583 0.236664 0.113892
0.252747 0.244965 0.107635
0.321442 0.250000 0.087524
0.385498 0.252472 0.063416
0.429199 0.253143 0.048737
0.469849 0.254700 0.037170
0.512573 0.255524 0.024292
0.552002 0.255859 0.013062
0.585327 0.255524 0.018097
0.612823 0.254944 0.029419
0.636810 0.255463 0.038452
0.657532 0.256134 0.047150
0.674774 0.256836 0.052063
0.688751 0.258301 0.053131
0.701569 0.259888 0.053864
0.711060 0.260834 0.056122
0.720306 0.261932 0.058197
0.727020 0.262695 0.059814
0.733917 0.266602 0.066925
0.739716 0.271210 0.075043
0.744141 0.276245 0.082672
0.043976 0.245361 0.146179
0.051453 0.245850 0.146240
0.058960 0.246857 0.146423
0.069611 0.247650 0.146454
0.079559 0.249023 0.146729
0.090118 0.250824 0.147247
0.102753 0.253387 0.147919
0.116547 0.256073 0.148285
0.131836 0.259216 0.148285
0.154785 0.263977 0.147491
0.185211 0.270447 0.145233
0.221436 0.278534 0.139374
0.264923 0.288513 0.132782
0.319092 0.298553 0.125336
0.386108 0.303131 0.103790
0.442200 0.304352 0.079071
0.487183 0.304565 0.065430
0.531219 0.305267 0.051941
0.570282 0.305145 0.038879
0.603485 0.303741 0.034668
0.630859 0.302704 0.042053
0.653809 0.301392 0.045441
0.673676 0.300781 0.050842
0.689545 0.299866 0.056061
0.701813 0.299469 0.058868
0.713318 0.299866 0.060486
0.722382 0.300476 0.062469
0.730835 0.301025 0.064453
0.736938 0.301300 0.065948
0.743469 0.305634 0.073883
0.748901 0.309998 0.082184
0.753510 0.315918 0.090576
0.085602 0.286591 0.169769
0.089996 0.287262 0.169952
0.095367 0.288361 0.170227
0.100555 0.289459 0.170410
0.107208 0.290833 0.170654
0.114197 0.292633 0.171143
0.124451 0.295685 0.172119
0.137390 0.299438 0.173126
0.152100 0.303253 0.173492
0.174988 0.308380 0.172760
0.205414 0.315521 0.171143
0.242218 0.324219 0.168152
0.284698 0.334412 0.160431
0.334076 0.345978 0.152924
0.386749 0.355743 0.144928
0.444153 0.359283 0.124542
0.500366 0.359833 0.098907
0.550171 0.358002 0.080994
0.588928 0.357391 0.070679
0.621490 0.355042 0.065094
0.649017 0.352936 0.061462
0.671570 0.351135 0.060699
0.690735 0.349274 0.060059
0.706177 0.347626 0.061615
0.717621 0.346008 0.063843
0.727905 0.344666 0.065552
0.736572 0.344025 0.066162
0.744720 0.344330 0.068359
0.750671 0.344360 0.069489
0.756805 0.348389 0.077301
0.761993 0.352142 0.084930
0.766327 0.358887 0.095947
0.110077 0.327911 0.195007
0.113739 0.328522 0.195190
0.118408 0.329620 0.195435
0.123230 0.330750 0.195679
0.129211 0.332397 0.196136
0.135468 0.334045 0.196564
0.144989 0.337219 0.197601
0.157227 0.341827 0.199341
0.171753 0.346893 0.200806
0.194611 0.352295 0.200348
0.224243 0.358246 0.198181
0.263550 0.366547 0.195068
0.308746 0.376617 0.189453
0.354065 0.387299 0.179779
0.401001 0.397644 0.171387
0.446259 0.404663 0.163239
0.501373 0.407471 0.142914
0.557831 0.407349 0.117432
0.603302 0.405121 0.098175
0.636993 0.403015 0.090485
0.664642 0.400726 0.084625
0.687836 0.398895 0.079529
0.706909 0.396851 0.076721
0.722321 0.394775 0.073578
0.733765 0.393066 0.072906
0.743622 0.391052 0.072632
0.751709 0.388947 0.071442
0.759094 0.388458 0.074463
0.764465 0.387848 0.076416
0.769897 0.391602 0.084961
0.774628 0.395081 0.093109
0.778656 0.402618 0.106812
0.132263 0.372040 0.223572
0.135986 0.372955 0.223907
0.140656 0.374207 0.224304
0.145508 0.375519 0.224701
0.151611 0.377380 0.225342
0.158081 0.379395 0.226044
0.166840 0.382294 0.226990
0.177521 0.385956 0.228027
0.192169 0.391235 0.229706
0.217621 0.398071 0.230255
0.249878 0.404175 0.227966
0.289093 0.410675 0.223602
0.333435 0.419403 0.218719
0.376648 0.428925 0.210754
0.419128 0.438477 0.200592
0.459473 0.446350 0.191620
0.504028 0.452362 0.182465
0.557465 0.455017 0.162659
0.607208 0.454620 0.139282
0.649353 0.451324 0.117401
0.679047 0.448792 0.108917
0.702942 0.446930 0.102570
0.722473 0.445160 0.097504
0.737671 0.442993 0.093567
0.748505 0.440948 0.091034
0.757843 0.438721 0.089691
0.765564 0.436371 0.088959
0.772095 0.436157 0.094330
0.777039 0.436310 0.098511
0.782135 0.440552 0.108795
0.786530 0.444336 0.117889
0.790100 0.450287 0.130859
0.155273 0.418152 0.254944
0.159271 0.419189 0.255371
0.164062 0.420471 0.255829
0.169067 0.421906 0.256317
0.175140 0.423798 0.256989
0.182129 0.425934 0.257751
0.191193 0.428833 0.258698
0.204987 0.433105 0.259979
0.222473 0.438568 0.261627
0.247925 0.445099 0.262329
0.278229 0.451599 0.261261
0.313873 0.456970 0.257019
0.355743 0.463806 0.251678
0.400726 0.471893 0.244080
0.440125 0.479950 0.233032
0.478699 0.488129 0.222809
0.517944 0.494659 0.213440
0.559570 0.498505 0.203552
0.606079 0.500427 0.186432
0.649536 0.499908 0.165283
0.687378 0.496704 0.140594
0.714783 0.493073 0.129761
0.735077 0.490936 0.122772
0.750671 0.489227 0.117889
0.761200 0.487244 0.115326
0.770294 0.485229 0.113098
0.777924 0.483368 0.111481
0.784180 0.484100 0.118744
0.788849 0.485321 0.125183
0.793884 0.489777 0.136871
0.798096 0.493958 0.147919
0.801392 0.499023 0.161133
0.178497 0.461273 0.284271
0.182861 0.462280 0.284668
0.188202 0.463531 0.285065
0.193878 0.464935 0.285461
0.200867 0.466858 0.286133
0.209442 0.469055 0.286743
0.221252 0.472076 0.287598
0.236176 0.476349 0.288666
0.253876 0.482117 0.290741
0.276855 0.487823 0.291443
0.303619 0.493805 0.291046
0.338196 0.499481 0.287903
0.376801 0.505096 0.282959
0.420898 0.512543 0.276917
0.461975 0.519958 0.266998
0.498657 0.526886 0.254181
0.534912 0.533020 0.242401
0.572876 0.537994 0.232910
0.609161 0.540497 0.223816
0.649658 0.542084 0.209930
0.686432 0.540649 0.190430
0.718994 0.537018 0.167145
0.743134 0.532440 0.151672
0.760498 0.529846 0.143097
0.771576 0.527863 0.138458
0.780731 0.525787 0.135498
0.788116 0.524017 0.134766
0.794006 0.524994 0.143311
0.798340 0.526764 0.152161
0.803101 0.531128 0.165894
0.807159 0.535553 0.179657
0.810394 0.540619 0.194061
0.204315 0.502838 0.313110
0.208954 0.503845 0.313599
0.214600 0.505127 0.314056
0.220978 0.506561 0.314545
0.229126 0.508545 0.315247
0.237854 0.510651 0.315918
0.249573 0.513489 0.316681
0.263275 0.516968 0.317322
0.280243 0.522003 0.318970
0.303619 0.528442 0.320740
0.330811 0.534271 0.320709
0.364075 0.539734 0.317963
0.400482 0.545013 0.313477
0.442047 0.551453 0.307953
0.483551 0.558044 0.300232
0.518799 0.563629 0.288818
0.553619 0.569305 0.275452
0.589264 0.574432 0.264008
0.621552 0.577759 0.255676
0.654541 0.579407 0.247192
0.688293 0.580231 0.235626
0.719421 0.578369 0.218475
0.745544 0.574310 0.195526
0.765778 0.569977 0.177917
0.779114 0.566376 0.166748
0.789368 0.563843 0.160156
0.797089 0.562195 0.159271
0.802856 0.563324 0.169220
0.807007 0.565826 0.181030
0.811523 0.570953 0.200470
0.815338 0.575897 0.217102
0.818237 0.580627 0.233246
0.229340 0.540405 0.339539
0.233948 0.541382 0.339966
0.239655 0.542572 0.340424
0.245758 0.544006 0.341064
0.253540 0.545868 0.341919
0.261780 0.547852 0.342682
0.273682 0.550415 0.343414
0.287384 0.553680 0.344177
0.304016 0.557526 0.345032
0.326599 0.563324 0.346619
0.354919 0.569733 0.347412
0.388733 0.575928 0.345520
0.424530 0.581146 0.341400
0.463470 0.586456 0.335907
0.503387 0.592010 0.329071
0.538605 0.597046 0.319977
0.572662 0.602509 0.307220
0.605255 0.607361 0.294708
0.635742 0.610901 0.285034
0.664948 0.612854 0.277039
0.692902 0.613800 0.269806
0.720917 0.613586 0.259827
0.746246 0.611237 0.244049
0.767609 0.607147 0.222656
0.782898 0.603577 0.206360
0.794739 0.599915 0.194153
0.803680 0.597870 0.189850
0.810059 0.598389 0.199280
0.814148 0.601410 0.214142
0.818542 0.607025 0.238129
0.822113 0.612427 0.257385
0.824829 0.617188 0.273956
0.254730 0.574829 0.363312
0.259247 0.575775 0.363739
0.264923 0.576996 0.364227
0.271088 0.578400 0.364807
0.278839 0.580170 0.365570
0.287750 0.581940 0.366180
0.299622 0.584351 0.366882
0.313843 0.587158 0.367493
0.329773 0.590454 0.368225
0.349884 0.594666 0.369019
0.376434 0.600494 0.369568
0.412354 0.608337 0.369293
0.448395 0.613953 0.365906
0.484467 0.618317 0.360901
0.522552 0.623138 0.354767
0.557159 0.627747 0.347351
0.591125 0.632538 0.336548
0.620880 0.636902 0.324005
0.649139 0.640320 0.313080
0.676239 0.642609 0.304932
0.700531 0.643860 0.299133
0.724426 0.644135 0.292938
0.748169 0.643524 0.284180
0.768555 0.641205 0.271576
0.784363 0.638000 0.255463
0.797638 0.634918 0.241302
0.807892 0.632629 0.233429
0.815704 0.631836 0.234955
0.820068 0.634430 0.249146
0.824402 0.638977 0.271027
0.827667 0.644775 0.294067
0.830048 0.649719 0.313385
0.280853 0.606110 0.384277
0.285370 0.607025 0.384705
0.291412 0.608154 0.385040
0.298035 0.609467 0.385468
0.306030 0.611115 0.386108
0.315247 0.612793 0.386597
0.327423 0.615051 0.387115
0.341309 0.617645 0.387726
0.356293 0.620483 0.388367
0.375122 0.624207 0.389191
0.399200 0.629150 0.389587
0.433289 0.636597 0.389648
0.468750 0.642761 0.387695
0.504456 0.647156 0.383362
0.541626 0.651581 0.377716
0.574554 0.655579 0.371429
0.608276 0.659790 0.362762
0.636871 0.663574 0.350891
0.662445 0.667175 0.340088
0.687256 0.669617 0.331665
0.709656 0.671143 0.325684
0.730713 0.671875 0.321106
0.751404 0.671844 0.315704
0.770660 0.670746 0.307892
0.785919 0.669220 0.299957
0.799347 0.666534 0.287018
0.810425 0.664551 0.278168
0.819855 0.663635 0.275116
0.824646 0.665253 0.284790
0.829285 0.667999 0.300018
0.832367 0.673645 0.325256
0.834625 0.678589 0.347107
0.303864 0.632874 0.402405
0.308472 0.633820 0.402802
0.314514 0.634857 0.403137
0.321289 0.636017 0.403473
0.329590 0.637512 0.403931
0.338623 0.639191 0.404388
0.350555 0.641388 0.404999
0.364105 0.643921 0.405731
0.378815 0.646698 0.406433
0.397675 0.650360 0.407349
0.421417 0.654907 0.407776
0.452606 0.661072 0.407532
0.486572 0.666901 0.405823
0.522522 0.671875 0.402435
0.559021 0.676270 0.397461
0.590088 0.679810 0.391876
0.623657 0.683685 0.384827
0.651917 0.687073 0.374390
0.675171 0.690094 0.364227
0.697601 0.692566 0.355225
0.718689 0.693726 0.348053
0.738037 0.694427 0.342651
0.756226 0.694550 0.338257
0.773682 0.694122 0.332947
0.788147 0.693665 0.328247
0.801422 0.692780 0.321716
0.812592 0.691437 0.314850
0.822632 0.690033 0.309174
0.827606 0.691742 0.318939
0.832642 0.694244 0.332703
0.835815 0.699280 0.356476
0.838226 0.703461 0.376190
0.322632 0.654205 0.416962
0.327423 0.654938 0.417206
0.333313 0.655853 0.417480
0.339752 0.656921 0.417847
0.347382 0.658203 0.418274
0.356079 0.659760 0.418732
0.367767 0.661896 0.419403
0.381195 0.664429 0.420105
0.396210 0.667236 0.420898
0.415924 0.671082 0.421997
0.439789 0.675446 0.422485
0.469299 0.680756 0.421936
0.502075 0.685974 0.419983
0.537628 0.691010 0.416992
0.573029 0.695435 0.412659
0.603058 0.698853 0.407745
0.635620 0.702576 0.401550
0.663879 0.705658 0.393036
0.685577 0.708344 0.383698
0.706757 0.710541 0.374603
0.726379 0.711884 0.366699
0.744629 0.712494 0.360748
0.761414 0.712646 0.355804
0.777283 0.712372 0.351044
0.790863 0.712280 0.347565
0.803284 0.712219 0.344666
0.814636 0.711639 0.339996
0.825043 0.710815 0.335510
0.829803 0.712189 0.344696
0.834869 0.714325 0.357330
0.837799 0.719086 0.381989
0.840149 0.722992 0.401794
0.340240 0.673676 0.430206
0.344818 0.674377 0.430481
0.350586 0.675232 0.430756
0.356567 0.676178 0.431122
0.363892 0.677368 0.431580
0.371674 0.678650 0.432068
0.383209 0.680756 0.432739
0.396698 0.683258 0.433472
0.412201 0.686188 0.434357
0.432404 0.689850 0.435394
0.456818 0.694061 0.435883
0.485504 0.698730 0.435059
0.517517 0.703552 0.433014
0.551666 0.708252 0.430054
0.585388 0.712402 0.426270
0.614868 0.715759 0.421722
0.646210 0.719238 0.415985
0.674164 0.722107 0.409271
0.695190 0.724609 0.400970
0.715302 0.726715 0.392181
0.733765 0.728210 0.384064
0.750946 0.728760 0.377319
0.767059 0.729065 0.372131
0.781525 0.728760 0.367493
0.794098 0.728760 0.364502
0.805695 0.728760 0.362061
0.816406 0.728790 0.359741
0.826935 0.728394 0.356232
0.831512 0.730164 0.368042
0.836487 0.732147 0.380646
0.839386 0.736633 0.405060
0.841705 0.740387 0.424835
0.355530 0.690002 0.441193
0.360138 0.690735 0.441467
0.365967 0.691650 0.441833
0.372009 0.692627 0.442230
0.379608 0.693848 0.442688
0.387573 0.695190 0.443207
0.398621 0.697083 0.443939
0.412262 0.699493 0.444672
0.428101 0.702332 0.445587
0.448669 0.705994 0.446716
0.472595 0.709961 0.447144
0.500397 0.714233 0.446198
0.532410 0.719055 0.444244
0.564636 0.723389 0.441711
0.596375 0.727112 0.438049
0.625702 0.730469 0.433807
0.655457 0.733673 0.428467
0.682068 0.736237 0.422485
0.703522 0.738556 0.415497
0.722961 0.740662 0.407227
0.740723 0.742126 0.399323
0.756927 0.742950 0.392059
0.772461 0.743103 0.386444
0.786285 0.743134 0.382355
0.797394 0.742828 0.379181
0.808289 0.742859 0.376923
0.818298 0.742950 0.375397
0.828217 0.743103 0.374329
0.832825 0.744934 0.386200
0.837708 0.747284 0.401215
0.840576 0.751678 0.425415
0.842896 0.755188 0.444794
0.370422 0.705414 0.451599
0.375061 0.706116 0.451843
0.381195 0.707031 0.452209
0.387238 0.708008 0.452606
0.395172 0.709259 0.453064
0.403656 0.710754 0.453705
0.415253 0.712708 0.454437
0.429138 0.715027 0.455170
0.444977 0.717651 0.455902
0.465271 0.721008 0.456818
0.488739 0.724670 0.457123
0.515991 0.728607 0.456024
0.545685 0.732758 0.454071
0.576599 0.737030 0.452087
0.607239 0.740631 0.448761
0.635345 0.743835 0.445038
0.663818 0.746765 0.440155
