滤镜资源/Professional Luts Collection/Triune-Digital-Cinematic-LUTs/3D LUTs (CUBE)/REDLOGFILM/Harry Potter - REDlogFilm.cube
#Created by Benjamin (IWLTBAP) : http://luts.iwltbap.com
#Copyright: (C) Copyright 2016 Triune Films and IWLTBAP
TITLE "Blockbuster LUTs Pack (REDlogFilm)"
#LUT size
LUT_3D_SIZE 5
#LUT data points
DOMAIN_MIN 0.000000 0.000000 0.000000
DOMAIN_MAX 0.903226 0.903226 0.903226
0.000000 0.000031 0.025452
0.013885 0.000854 0.040924
0.315887 0.072754 0.031006
0.581970 0.116333 0.061615
0.698639 0.148376 0.081268
0.000000 0.089447 0.064117
0.015778 0.093414 0.054291
0.337555 0.119080 0.009827
0.598663 0.140503 0.023010
0.707581 0.171082 0.059235
0.085602 0.286591 0.169769
0.137390 0.299438 0.173126
0.386749 0.355743 0.144928
0.671570 0.351135 0.060699
0.750671 0.344360 0.069489
0.254730 0.574829 0.363312
0.313843 0.587158 0.367493
0.522552 0.623138 0.354767
0.724426 0.644135 0.292938
0.820068 0.634430 0.249146
0.381897 0.716644 0.459137
0.442230 0.726227 0.462524
0.615540 0.750702 0.457947
0.767334 0.764709 0.416168
0.834991 0.768127 0.417908
0.000000 0.001495 0.091034
0.013824 0.005219 0.103424
0.303162 0.078094 0.110321
0.581573 0.124542 0.121643
0.700043 0.156281 0.134155
0.000000 0.096191 0.116364
0.013977 0.101868 0.120331
0.340424 0.117371 0.099426
0.603760 0.146729 0.106964
0.710449 0.178986 0.122833
0.084320 0.297363 0.215759
0.130585 0.303040 0.222015
0.370819 0.358521 0.202332
0.677979 0.344238 0.091919
0.753174 0.346100 0.114624
0.252777 0.584045 0.410706
0.299561 0.590698 0.414856
0.505432 0.629761 0.411102
0.722778 0.651184 0.349701
0.819733 0.642700 0.307770
0.380859 0.723053 0.498322
0.435883 0.729767 0.501617
0.610901 0.756012 0.503998
0.767548 0.770172 0.466187
0.832123 0.776245 0.482025
0.000000 0.062592 0.218140
0.013824 0.070892 0.225647
0.238556 0.107086 0.261505
0.563934 0.170593 0.306427
0.703979 0.227783 0.341278
0.000000 0.125793 0.250275
0.014221 0.127472 0.249634
0.241241 0.157501 0.278992
0.585602 0.201752 0.312073
0.717438 0.251648 0.341248
0.050690 0.322540 0.359406
0.119446 0.334137 0.366608
0.258636 0.374237 0.397003
0.682800 0.398224 0.357941
0.765289 0.414490 0.368378
0.255066 0.600250 0.521729
0.297485 0.610504 0.527527
0.467621 0.645630 0.549133
0.731781 0.676849 0.513916
0.813873 0.683746 0.519379
0.381622 0.734406 0.600525
0.431854 0.742432 0.606995
0.602112 0.766876 0.633484
0.763885 0.785950 0.613342
0.819336 0.795685 0.653412
0.000000 0.114471 0.368713
0.018433 0.119141 0.374603
0.220947 0.148865 0.415558
0.530731 0.222046 0.511536
0.687256 0.297089 0.569061
0.000031 0.166779 0.402374
0.057404 0.171448 0.406525
0.221832 0.203491 0.447662
0.546265 0.285889 0.541229
0.696777 0.336273 0.583038
0.106171 0.364563 0.546600
0.152954 0.377747 0.557404
0.265076 0.411774 0.584473
0.619171 0.491150 0.642365
0.745392 0.510773 0.658569
0.240570 0.613373 0.671356
0.291809 0.627411 0.679901
0.437653 0.665039 0.704834
0.694489 0.707794 0.725189
0.793884 0.715302 0.721558
0.370453 0.744476 0.731354
0.414917 0.752625 0.737427
0.591339 0.778900 0.755280
0.744476 0.800568 0.770050
0.808777 0.808716 0.775604
0.009674 0.146179 0.477417
0.083740 0.152039 0.485931
0.228027 0.185394 0.537506
0.516357 0.260223 0.620331
0.685944 0.334625 0.683197
0.047333 0.200623 0.518799
0.108826 0.206573 0.525818
0.234100 0.241760 0.570496
0.533081 0.322815 0.648468
0.696625 0.380585 0.699280
0.139374 0.391541 0.655762
0.182892 0.406006 0.666840
0.290497 0.439972 0.692902
0.607086 0.505096 0.734161
0.739258 0.535339 0.755859
0.256470 0.628876 0.759003
0.308655 0.644287 0.767426
0.445007 0.678497 0.785248
0.691010 0.717621 0.801605
0.781250 0.729980 0.807556
0.358948 0.746552 0.796143
0.406555 0.756653 0.801453
0.586731 0.783295 0.812469
0.740112 0.805511 0.823822
0.804291 0.814545 0.829376
