滤镜资源/Professional Luts Collection/Triune-Digital-Cinematic-LUTs/3D LUTs (CUBE)/REDLOGFILM/Harry Potter - REDlogFilm.cube
#Created by Benjamin (IWLTBAP) : http://luts.iwltbap.com
#Copyright: (C) Copyright 2016 Triune Films and IWLTBAP
TITLE "Blockbuster LUTs Pack (REDlogFilm)"
#LUT size
LUT_3D_SIZE 8
#LUT data points
DOMAIN_MIN 0.000000 0.000000 0.000000
DOMAIN_MAX 0.903226 0.903226 0.903226
0.000000 0.000031 0.025452
0.006378 0.000214 0.033997
0.031830 0.001282 0.042358
0.218567 0.053131 0.039001
0.402069 0.088287 0.040558
0.554352 0.111267 0.057800
0.646942 0.130341 0.072144
0.698639 0.148376 0.081268
0.000000 0.025909 0.042236
0.006378 0.028992 0.037933
0.040436 0.041901 0.042236
0.231049 0.074371 0.030334
0.411041 0.100861 0.020355
0.562408 0.122375 0.048309
0.653076 0.140930 0.066864
0.702393 0.158813 0.076416
0.000000 0.107208 0.073456
0.006378 0.107941 0.071136
0.032288 0.112793 0.060913
0.249023 0.125702 0.032410
0.425995 0.141510 0.013763
0.574219 0.149200 0.017639
0.663605 0.160950 0.035187
0.709961 0.177551 0.049683
0.002838 0.209198 0.126160
0.040100 0.211700 0.126068
0.111328 0.220123 0.126190
0.252747 0.244965 0.107635
0.469849 0.254700 0.037170
0.612823 0.254944 0.029419
0.688751 0.258301 0.053131
0.727020 0.262695 0.059814
0.132263 0.372040 0.223572
0.151611 0.377380 0.225342
0.192169 0.391235 0.229706
0.333435 0.419403 0.218719
0.504028 0.452362 0.182465
0.679047 0.448792 0.108917
0.748505 0.440948 0.091034
0.777039 0.436310 0.098511
0.229340 0.540405 0.339539
0.253540 0.545868 0.341919
0.304016 0.557526 0.345032
0.424530 0.581146 0.341400
0.572662 0.602509 0.307220
0.692902 0.613800 0.269806
0.782898 0.603577 0.206360
0.814148 0.601410 0.214142
0.322632 0.654205 0.416962
0.347382 0.658203 0.418274
0.396210 0.667236 0.420898
0.502075 0.685974 0.419983
0.635620 0.702576 0.401550
0.726379 0.711884 0.366699
0.790863 0.712280 0.347565
0.829803 0.712189 0.344696
0.381897 0.716644 0.459137
0.407532 0.720673 0.460663
0.458099 0.728790 0.463226
0.556396 0.743164 0.461975
0.670288 0.756653 0.450439
0.751923 0.763702 0.423889
0.804535 0.765442 0.403473
0.834991 0.768127 0.417908
0.000000 0.000153 0.058136
0.006378 0.000641 0.065155
0.020660 0.002228 0.072327
0.212830 0.055115 0.075470
0.399475 0.090240 0.076355
0.554352 0.113922 0.085236
0.647064 0.132935 0.095673
0.699097 0.150818 0.102966
0.000000 0.029968 0.071014
0.006378 0.034546 0.073212
0.035156 0.049622 0.074951
0.236481 0.075134 0.068054
0.410095 0.102875 0.069275
0.562439 0.124695 0.079773
0.653198 0.143280 0.091431
0.702881 0.161194 0.099182
0.000000 0.110504 0.095123
0.006378 0.111542 0.096741
0.024872 0.114563 0.088348
0.255585 0.124084 0.059082
0.428711 0.137024 0.047729
0.578735 0.145264 0.050690
0.666779 0.160980 0.065247
0.712097 0.179474 0.078369
0.004395 0.213898 0.145447
0.038239 0.213806 0.146118
0.106750 0.222198 0.146484
0.247009 0.246033 0.130463
0.473114 0.253357 0.061951
0.615784 0.252716 0.057831
0.690826 0.256348 0.070465
0.728149 0.259583 0.075562
0.131256 0.376465 0.245422
0.148926 0.379395 0.247437
0.188568 0.392120 0.251312
0.320740 0.422394 0.245422
0.500763 0.455444 0.208618
0.681915 0.449280 0.121155
0.749329 0.438904 0.101013
0.777252 0.436249 0.113831
0.225800 0.543457 0.360657
0.248291 0.547852 0.363617
0.296875 0.558228 0.366211
0.413147 0.583405 0.366882
0.571198 0.606354 0.333893
0.692108 0.616852 0.294464
0.782501 0.604248 0.221527
0.814362 0.603577 0.233795
0.320160 0.656830 0.435730
0.342133 0.659729 0.437286
0.390625 0.668671 0.439972
0.494659 0.687286 0.441650
0.633331 0.704895 0.423523
0.726135 0.714508 0.388763
0.790619 0.714111 0.367035
0.828888 0.715302 0.369781
0.380096 0.718903 0.476562
0.403839 0.721924 0.478149
0.455200 0.730316 0.480988
0.553894 0.745483 0.482208
0.669189 0.758972 0.470856
0.751923 0.765930 0.445251
0.804230 0.766968 0.420044
0.834015 0.771027 0.442963
0.000000 0.002502 0.103882
0.006378 0.004761 0.108734
0.016846 0.010010 0.118469
0.196625 0.059601 0.124268
0.389893 0.095825 0.127319
0.550293 0.121857 0.134888
0.647552 0.141907 0.142975
0.700409 0.160797 0.151062
0.000000 0.046234 0.117920
0.006378 0.049408 0.118622
0.016846 0.061462 0.125061
0.212830 0.081482 0.126160
0.400269 0.108490 0.125061
0.560425 0.133026 0.132385
0.654266 0.151855 0.139496
0.704224 0.169861 0.146484
0.000000 0.115753 0.135254
0.006378 0.118073 0.136993
0.018555 0.122925 0.140411
0.238037 0.132446 0.129456
0.429504 0.137360 0.113708
0.585052 0.149719 0.114563
0.671204 0.168701 0.123474
0.714722 0.187378 0.133606
0.003418 0.220337 0.184509
0.031799 0.223145 0.185699
0.098694 0.226318 0.188599
0.236084 0.247833 0.176178
0.480133 0.249329 0.105133
0.623291 0.242798 0.090118
0.695648 0.243469 0.096680
0.731140 0.255615 0.117401
0.128723 0.384613 0.283997
0.147125 0.389648 0.287689
0.182190 0.397095 0.294922
0.293671 0.429291 0.297913
0.491241 0.462585 0.263702
0.688354 0.449890 0.147186
0.752045 0.433167 0.118317
0.779449 0.441742 0.153992
0.224854 0.551086 0.397797
0.245331 0.555695 0.400940
0.284393 0.561615 0.405365
0.384918 0.582153 0.408295
0.567902 0.613556 0.385956
0.691162 0.624939 0.347260
0.782410 0.610107 0.269928
0.815063 0.610291 0.281525
0.321747 0.663757 0.469513
0.339752 0.666077 0.470581
0.380096 0.671783 0.474731
0.486176 0.691315 0.479340
0.630707 0.710144 0.463135
0.726379 0.720062 0.432709
0.789764 0.719147 0.408325
0.826447 0.723785 0.426300
0.380463 0.724335 0.506805
0.401184 0.726837 0.507690
0.451324 0.733398 0.512146
0.550385 0.749390 0.517242
0.667419 0.763000 0.506989
0.753052 0.770386 0.484680
0.803467 0.771698 0.460938
0.831238 0.778351 0.498322
0.000000 0.034363 0.174377
0.006378 0.041412 0.177734
0.016846 0.055084 0.185303
0.158630 0.078796 0.203827
0.356537 0.106903 0.214508
0.533966 0.144653 0.232513
0.647308 0.175873 0.250122
0.703400 0.198730 0.262665
0.000000 0.077728 0.188324
0.006378 0.078430 0.187927
0.016846 0.084595 0.193756
0.160278 0.101898 0.209320
0.362427 0.121948 0.216248
0.546997 0.157532 0.234894
0.654327 0.186920 0.249878
0.707703 0.208008 0.260193
0.000000 0.129547 0.210571
0.006378 0.132172 0.212830
0.018616 0.134796 0.212982
0.167908 0.150513 0.226990
0.379425 0.166870 0.229065
0.575073 0.181305 0.236420
0.674103 0.207855 0.247803
0.720367 0.225250 0.254211
0.000183 0.232941 0.259766
0.015503 0.236328 0.261749
0.092499 0.243805 0.266693
0.175781 0.260193 0.279602
0.445496 0.282990 0.260223
0.625641 0.280853 0.246094
0.706268 0.272949 0.236969
0.740082 0.288330 0.250397
0.125824 0.397339 0.360382
0.144379 0.402405 0.363556
0.177917 0.413605 0.371124
0.244629 0.433319 0.386627
0.474030 0.475739 0.372101
0.690338 0.467438 0.274292
0.758759 0.445801 0.228271
0.784515 0.472656 0.290161
0.223846 0.559845 0.461700
0.242493 0.564484 0.463989
0.277466 0.574249 0.468231
0.356567 0.590912 0.482300
0.552917 0.626343 0.472656
0.695953 0.639648 0.443390
0.786194 0.629211 0.380859
0.814636 0.638000 0.410492
0.318359 0.669769 0.522003
0.337006 0.673889 0.523804
0.374969 0.682404 0.528046
0.473053 0.697266 0.539703
0.620392 0.719543 0.533722
0.730927 0.730286 0.508423
0.790771 0.732544 0.492981
0.821136 0.739136 0.519989
0.376343 0.729980 0.558075
0.396423 0.733459 0.560974
0.446228 0.741364 0.568024
0.543610 0.754089 0.583435
0.662628 0.770721 0.582397
0.753204 0.778687 0.557312
0.802795 0.782104 0.545410
0.824310 0.788971 0.589783
0.000000 0.079865 0.264160
0.006378 0.082245 0.266388
0.016846 0.088287 0.273224
0.140411 0.103668 0.290955
0.322113 0.135437 0.325653
0.508301 0.174988 0.357361
0.641602 0.222015 0.395508
0.702332 0.253998 0.417358
0.000000 0.105133 0.278229
0.006378 0.104889 0.276581
0.017242 0.110077 0.282227
0.142639 0.123993 0.298126
0.320892 0.154877 0.331543
0.512238 0.191406 0.360748
0.645477 0.234131 0.396576
0.706757 0.264801 0.417999
0.000000 0.152588 0.306610
0.006531 0.154114 0.307556
0.029480 0.155457 0.306976
0.150970 0.168884 0.320953
0.327148 0.204254 0.355408
0.527924 0.237915 0.378815
0.655670 0.261780 0.399567
0.717865 0.286774 0.418793
0.011505 0.255707 0.370453
0.041779 0.259613 0.373016
0.105713 0.266846 0.378418
0.175201 0.281525 0.387482
0.344543 0.329407 0.423950
0.584747 0.360779 0.437866
0.698517 0.363861 0.438141
0.742279 0.368835 0.440643
0.108826 0.413696 0.458710
0.130615 0.419403 0.461914
0.169434 0.431183 0.469482
0.236481 0.454681 0.487122
0.396332 0.493652 0.511536
0.672485 0.512329 0.483002
0.751434 0.513794 0.477966
0.781219 0.528137 0.493042
0.223511 0.572571 0.545715
0.244263 0.577484 0.548828
0.281891 0.587646 0.555634
0.351166 0.608063 0.570465
0.522369 0.639587 0.587891
0.689880 0.661438 0.574585
0.779266 0.659088 0.544220
0.806976 0.667175 0.561676
0.325592 0.681152 0.606354
0.343384 0.685059 0.609100
0.376984 0.692505 0.614166
0.460205 0.708557 0.623505
0.608612 0.730469 0.640594
0.722565 0.744904 0.620972
0.780640 0.751495 0.642029
0.812012 0.755585 0.640900
0.382660 0.738464 0.643524
0.401794 0.741699 0.646545
0.447876 0.748810 0.652954
0.539246 0.763153 0.666351
0.654205 0.778778 0.680725
0.740784 0.789703 0.674225
0.793701 0.795532 0.672546
0.816589 0.800537 0.696350
0.000000 0.108551 0.350800
0.006378 0.110596 0.352753
0.026337 0.114929 0.358459
0.148834 0.127869 0.375732
0.306915 0.161560 0.416748
0.492493 0.204468 0.473572
0.622498 0.251678 0.514465
0.688873 0.289612 0.543030
0.000000 0.130707 0.363098
0.006592 0.130890 0.362366
0.038940 0.135651 0.367950
0.152069 0.149261 0.385986
0.306244 0.183594 0.427124
0.497498 0.228333 0.483978
0.626495 0.269440 0.520508
0.691742 0.303528 0.546936
0.000031 0.176086 0.393188
0.018433 0.177795 0.394623
0.079407 0.182251 0.398560
0.160645 0.197449 0.416748
0.304688 0.233398 0.456909
0.511810 0.284912 0.512878
0.640228 0.318939 0.542847
0.701141 0.338104 0.560333
0.066986 0.283691 0.472961
0.091949 0.287689 0.476257
0.131592 0.295227 0.483917
0.190674 0.310394 0.496826
0.322113 0.349396 0.531891
0.552216 0.404572 0.576569
0.676819 0.426758 0.595215
0.730286 0.432648 0.601685
0.126038 0.434479 0.565582
0.147186 0.440399 0.569336
0.183929 0.452667 0.578461
0.247345 0.476776 0.599823
0.391876 0.510895 0.616425
0.616211 0.554443 0.646759
0.723694 0.564636 0.655426
0.763367 0.572784 0.655121
0.212555 0.580444 0.636627
0.236450 0.586700 0.640259
0.277008 0.598236 0.647766
0.348236 0.619995 0.663879
0.502838 0.652893 0.683258
0.660828 0.677979 0.695496
0.754700 0.683472 0.688354
0.792328 0.687683 0.688599
0.314117 0.686615 0.687439
0.333160 0.691162 0.690491
0.367188 0.699615 0.696747
0.443146 0.715759 0.707794
0.590851 0.739929 0.721527
0.704865 0.755371 0.731323
0.766968 0.763428 0.735596
0.805359 0.765808 0.729065
0.372955 0.743622 0.716858
0.391174 0.747009 0.719421
0.432922 0.754089 0.725098
0.529633 0.768616 0.735474
0.651001 0.786407 0.748260
0.730377 0.797150 0.755737
0.783752 0.803558 0.750061
0.810120 0.807373 0.762909
0.000031 0.130005 0.420807
0.012665 0.131897 0.422363
0.072754 0.136932 0.430542
0.163635 0.152802 0.456207
0.300934 0.186432 0.506195
0.481995 0.229401 0.557037
0.619507 0.279724 0.605957
0.685822 0.318970 0.632568
0.000183 0.152618 0.435516
0.024048 0.153992 0.437042
0.085907 0.159088 0.444061
0.166504 0.175446 0.470001
0.300690 0.209991 0.518677
0.486389 0.254303 0.567871
0.624420 0.300568 0.613861
0.689423 0.333710 0.637451
0.022156 0.199524 0.473358
0.064209 0.201721 0.475739
0.109222 0.206909 0.482117
0.176056 0.223450 0.505310
0.303375 0.260193 0.548676
0.498993 0.309204 0.595306
0.638123 0.350922 0.635529
0.700226 0.375854 0.654236
0.097137 0.304504 0.557465
0.118439 0.309723 0.561981
0.152954 0.319092 0.570984
0.206696 0.333649 0.582794
0.324615 0.369446 0.613708
0.536957 0.416260 0.651215
0.669830 0.450745 0.680328
0.725098 0.464935 0.692627
0.149933 0.453735 0.647949
0.170868 0.460907 0.652832
0.207031 0.474243 0.662476
0.269562 0.495728 0.680725
0.401276 0.525513 0.694611
0.605377 0.560944 0.717224
0.711884 0.580658 0.731384
0.756470 0.589539 0.737183
0.224365 0.592529 0.709839
0.248138 0.599121 0.713562
0.289673 0.611450 0.721069
0.359802 0.632080 0.734100
0.497406 0.660706 0.750763
0.656708 0.685699 0.757904
0.740509 0.699249 0.766083
0.780884 0.704987 0.769836
0.301361 0.688049 0.743591
0.323486 0.693634 0.746552
0.360931 0.703247 0.752289
0.431702 0.719177 0.762299
0.586578 0.743927 0.773621
0.700562 0.762115 0.782288
0.759613 0.770782 0.787415
0.798950 0.774506 0.787659
0.362915 0.745789 0.766876
0.382446 0.750092 0.769501
0.420288 0.757385 0.774384
0.514496 0.771729 0.782410
0.642181 0.790283 0.792084
0.727081 0.802582 0.799347
0.778046 0.808655 0.803467
0.805969 0.811798 0.805481
0.009674 0.146179 0.477417
0.043121 0.148071 0.479309
0.100708 0.154419 0.489807
0.174316 0.170746 0.515839
0.297302 0.202820 0.560303
0.475647 0.247925 0.608429
0.613464 0.294250 0.652130
0.685944 0.334625 0.683197
0.019318 0.168152 0.493073
0.058838 0.169769 0.494843
0.107666 0.176117 0.503632
0.177155 0.193512 0.529144
0.296722 0.226624 0.572113
0.480377 0.273743 0.619904
0.619080 0.315582 0.660156
0.689545 0.350983 0.688446
0.061249 0.215607 0.531158
0.089417 0.218231 0.534393
0.126251 0.223877 0.540741
0.187042 0.240997 0.561676
0.302795 0.278290 0.601410
0.496674 0.327942 0.646240
0.633850 0.367401 0.682556
0.700043 0.394073 0.704407
0.115814 0.320557 0.610870
0.134766 0.325470 0.614929
0.166901 0.334564 0.623505
0.218628 0.349274 0.635742
0.324371 0.382172 0.663544
0.537170 0.428711 0.696869
0.665619 0.459717 0.722290
0.723816 0.477539 0.736969
0.165619 0.465393 0.694702
0.186768 0.472870 0.699493
0.222504 0.485931 0.708038
0.284637 0.507019 0.724030
0.412659 0.536102 0.746368
0.608459 0.567566 0.760498
0.710175 0.583588 0.770630
0.753998 0.596161 0.774109
0.237488 0.601471 0.749512
0.261444 0.608582 0.753418
0.302032 0.621033 0.760498
0.368561 0.640778 0.772217
0.499817 0.667725 0.785950
0.655640 0.691315 0.794342
0.738464 0.700897 0.800232
0.776306 0.708313 0.802246
0.306519 0.694183 0.780396
0.328949 0.700104 0.783508
0.367462 0.710022 0.788544
0.442780 0.725342 0.795593
0.581055 0.747803 0.804932
0.693115 0.765472 0.813599
0.758942 0.774139 0.817139
0.794464 0.779114 0.820099
0.358948 0.746552 0.796143
0.379272 0.751038 0.798492
0.420380 0.759155 0.802643
0.519928 0.773773 0.808472
0.642578 0.791656 0.816833
0.724670 0.803436 0.822784
0.775757 0.810150 0.826416
0.804291 0.814545 0.829376
