滤镜资源/Professional Luts Collection/Triune-Digital-Cinematic-LUTs/3D LUTs (CUBE)/REDLOGFILM/House of Cards - REDlogFilm.cube
#Created by Benjamin (IWLTBAP) : http://luts.iwltbap.com
#Copyright: (C) Copyright 2016 Triune Films and IWLTBAP
TITLE "Blockbuster LUTs Pack (REDlogFilm)"
#LUT size
LUT_3D_SIZE 32
#LUT data points
0.000000 0.000000 0.000000
0.008514 0.001007 0.000916
0.019928 0.002411 0.001984
0.031525 0.003723 0.003143
0.047455 0.005554 0.004547
0.065277 0.007568 0.006134
0.089233 0.010742 0.008728
0.115997 0.014465 0.011658
0.142426 0.018585 0.014557
0.174225 0.024017 0.017822
0.210938 0.030518 0.020935
0.251831 0.035431 0.024567
0.298157 0.044708 0.031311
0.344452 0.053375 0.039062
0.394043 0.063873 0.048218
0.441528 0.074097 0.057281
0.489563 0.084900 0.066315
0.539154 0.092224 0.075104
0.582977 0.104523 0.083527
0.624451 0.112762 0.090912
0.661865 0.121002 0.098541
0.695374 0.128448 0.104218
0.726410 0.135498 0.109467
0.754608 0.141754 0.114929
0.777161 0.148621 0.119171
0.798492 0.153076 0.122864
0.816376 0.157471 0.126495
0.834442 0.162689 0.129883
0.847260 0.166321 0.132172
0.861603 0.169952 0.135162
0.873566 0.173004 0.137634
0.882355 0.175232 0.139374
0.001617 0.007660 0.000946
0.010010 0.008087 0.001465
0.021423 0.009430 0.002594
0.033051 0.010864 0.003662
0.048035 0.012939 0.004913
0.065826 0.014679 0.006592
0.089111 0.017975 0.009125
0.115845 0.021637 0.011963
0.142761 0.026123 0.014832
0.174622 0.031647 0.018097
0.211517 0.037262 0.021240
0.252472 0.041779 0.024902
0.298096 0.050079 0.031403
0.344574 0.058746 0.039215
0.393860 0.069031 0.048401
0.441498 0.079224 0.057312
0.489655 0.089844 0.066437
0.539154 0.096832 0.075165
0.582977 0.109253 0.083679
0.624451 0.117706 0.091095
0.661682 0.125702 0.098541
0.695190 0.133148 0.104309
0.726166 0.140411 0.109497
0.754364 0.146667 0.114960
0.776947 0.153259 0.119324
0.798309 0.157684 0.123016
0.816528 0.161987 0.126495
0.834625 0.167175 0.129883
0.847260 0.170868 0.132263
0.861816 0.174561 0.135162
0.873840 0.177582 0.137573
0.882660 0.179810 0.139343
0.003174 0.017670 0.001831
0.011536 0.018280 0.002380
0.023438 0.019165 0.003387
0.035187 0.020325 0.004547
0.050049 0.022156 0.005768
0.066620 0.024261 0.007233
0.089752 0.027496 0.009674
0.115662 0.031555 0.012360
0.143158 0.036407 0.015289
0.175049 0.041168 0.018524
0.211639 0.046234 0.021606
0.252411 0.050079 0.024933
0.298004 0.057159 0.031494
0.344757 0.066132 0.039459
0.393646 0.075806 0.048584
0.441498 0.085968 0.057404
0.489960 0.096252 0.066498
0.539093 0.103424 0.075409
0.583008 0.115417 0.083771
0.624451 0.124420 0.091370
0.661499 0.131866 0.098450
0.694855 0.139374 0.104401
0.725769 0.147064 0.109528
0.754028 0.153290 0.114960
0.776703 0.159424 0.119507
0.798035 0.163849 0.123199
0.816711 0.167999 0.126495
0.834564 0.173279 0.129944
0.847046 0.176971 0.132355
0.862244 0.180634 0.135071
0.874207 0.183716 0.137482
0.883026 0.185913 0.139252
0.005188 0.028076 0.002960
0.013367 0.028809 0.003601
0.024719 0.029175 0.004120
0.037048 0.030365 0.005432
0.051880 0.031921 0.006531
0.067963 0.034149 0.008057
0.090393 0.037445 0.010132
0.115662 0.041534 0.012787
0.143219 0.045807 0.015839
0.175598 0.050262 0.018951
0.211334 0.054535 0.021881
0.252319 0.058533 0.024994
0.297882 0.064484 0.031586
0.344940 0.073669 0.039734
0.393768 0.082764 0.048981
0.441528 0.092865 0.057526
0.490295 0.102814 0.066559
0.539032 0.110229 0.075653
0.583008 0.121735 0.083893
0.624634 0.130981 0.091644
0.661285 0.138184 0.098389
0.694519 0.145752 0.104553
0.725433 0.153503 0.109650
0.753632 0.160156 0.115021
0.776428 0.165771 0.119720
0.797852 0.170135 0.123413
0.816589 0.174286 0.126648
0.834351 0.179535 0.130035
0.846832 0.183289 0.132416
0.862640 0.186951 0.135010
0.874603 0.189972 0.137421
0.883392 0.192169 0.139191
0.006683 0.042389 0.004364
0.014984 0.043396 0.005524
0.026215 0.043854 0.005951
0.037628 0.043976 0.006378
0.052521 0.044861 0.007477
0.068451 0.046387 0.008850
0.090698 0.049194 0.010803
0.115875 0.052704 0.013428
0.143463 0.056824 0.016632
0.176453 0.061279 0.019745
0.210968 0.064758 0.022217
0.252136 0.068817 0.025146
0.297760 0.073914 0.031738
0.345215 0.083252 0.040161
0.394562 0.091125 0.049683
0.441589 0.101532 0.057739
0.490692 0.111084 0.066650
0.538879 0.118683 0.075989
0.583313 0.129578 0.083862
0.624817 0.139130 0.092072
0.661072 0.146057 0.098267
0.694183 0.153625 0.104584
0.725067 0.161469 0.109802
0.753235 0.168549 0.115051
0.776276 0.173767 0.119659
0.797821 0.177917 0.123688
0.816528 0.182007 0.126923
0.834076 0.187347 0.130157
0.846558 0.191071 0.132538
0.862366 0.194702 0.135132
0.875092 0.197723 0.137360
0.883911 0.199951 0.139099
0.008392 0.058044 0.006012
0.016876 0.059631 0.007629
0.028198 0.060120 0.008209
0.039612 0.060120 0.008575
0.053223 0.059784 0.008545
0.069031 0.060059 0.009857
0.091187 0.061951 0.011658
0.116119 0.064545 0.014191
0.143616 0.068848 0.017456
0.176910 0.073334 0.020630
0.211761 0.076813 0.023163
0.252014 0.079865 0.025879
0.297974 0.085297 0.032043
0.345123 0.093262 0.040558
0.395172 0.100983 0.050354
0.441895 0.110870 0.058197
0.491211 0.120361 0.066742
0.539093 0.128479 0.076508
0.583649 0.138123 0.083801
0.625122 0.148010 0.092529
0.661072 0.154755 0.098450
0.693909 0.162170 0.104492
0.724976 0.170135 0.109985
0.753204 0.177155 0.114868
0.776245 0.182312 0.119476
0.797760 0.186279 0.124023
0.816498 0.190338 0.127228
0.833832 0.195740 0.130341
0.846222 0.199463 0.132660
0.862061 0.203125 0.135254
0.875153 0.206146 0.137390
0.884491 0.208282 0.139038
0.011932 0.078735 0.009308
0.021149 0.080292 0.010742
0.034332 0.081848 0.011749
0.045563 0.082031 0.012268
0.057281 0.081909 0.011993
0.070129 0.080688 0.011658
0.092621 0.080963 0.013214
0.118347 0.083191 0.016052
0.143555 0.086273 0.018768
0.177887 0.089935 0.022003
0.212738 0.094299 0.024750
0.252472 0.096313 0.027435
0.298370 0.101807 0.032654
0.344879 0.107483 0.041199
0.395172 0.115936 0.051025
0.441864 0.124451 0.059143
0.491028 0.133331 0.067322
0.539856 0.142426 0.076813
0.584015 0.151550 0.084351
0.625549 0.160095 0.092499
0.661163 0.167633 0.098938
0.694611 0.175049 0.104797
0.725372 0.182343 0.110321
0.753510 0.189301 0.115112
0.776215 0.194275 0.119263
0.797729 0.198090 0.123962
0.816406 0.201965 0.127686
0.833801 0.207336 0.130798
0.846008 0.211121 0.132935
0.861816 0.214874 0.135712
0.875061 0.217865 0.137909
0.884705 0.220093 0.139526
0.016846 0.101837 0.013702
0.025757 0.103271 0.015228
0.039581 0.106384 0.017548
0.051880 0.107422 0.018127
0.063538 0.107422 0.017456
0.074829 0.105957 0.016724
0.093536 0.103210 0.015198
0.120758 0.104309 0.018097
0.145538 0.106140 0.020599
0.177826 0.109619 0.023285
0.213837 0.112915 0.026306
0.253723 0.116089 0.029175
0.298828 0.119995 0.034454
0.346100 0.125275 0.042175
0.394379 0.133423 0.051514
0.441193 0.140808 0.060211
0.490723 0.148529 0.068024
0.540375 0.158508 0.077240
0.583649 0.167389 0.085022
0.625244 0.175568 0.092438
0.660980 0.183105 0.099365
0.695099 0.190155 0.105164
0.726257 0.197174 0.110748
0.753967 0.203308 0.115601
0.776367 0.208160 0.119446
0.797485 0.212402 0.123718
0.816345 0.215973 0.127747
0.834198 0.220276 0.131042
0.846405 0.224060 0.133179
0.862061 0.228119 0.136322
0.875061 0.231323 0.138794
0.884766 0.233521 0.140381
0.026215 0.128693 0.018433
0.034241 0.129761 0.019928
0.046112 0.132233 0.022278
0.057800 0.134125 0.024292
0.069122 0.134003 0.023163
0.081390 0.131836 0.022583
0.098969 0.128448 0.020355
0.121033 0.128143 0.021118
0.147949 0.127930 0.023712
0.178650 0.130920 0.025391
0.214142 0.133972 0.027863
0.254791 0.136841 0.030548
0.299469 0.140320 0.036011
0.347321 0.145569 0.043457
0.395264 0.152435 0.052063
0.442383 0.159607 0.060760
0.491364 0.166016 0.069122
0.539734 0.176025 0.077911
0.583252 0.184784 0.085693
0.624817 0.192780 0.092926
0.660980 0.199097 0.099854
0.694519 0.205597 0.105713
0.726562 0.212799 0.111420
0.754303 0.218933 0.116425
0.776764 0.223816 0.120361
0.797455 0.228485 0.123993
0.816040 0.232269 0.127594
0.834198 0.235687 0.131042
0.846893 0.238159 0.133453
0.862427 0.242371 0.136597
0.875244 0.245850 0.139191
0.884644 0.248444 0.141052
0.036987 0.159790 0.024475
0.043030 0.160522 0.026093
0.052612 0.162567 0.028442
0.062469 0.164703 0.030975
0.074829 0.166718 0.031433
0.087677 0.165680 0.030579
0.104126 0.162689 0.027863
0.125549 0.160645 0.026276
0.148254 0.159943 0.026764
0.179626 0.158997 0.027618
0.215332 0.160065 0.029968
0.255524 0.162750 0.032410
0.299225 0.167267 0.037781
0.346893 0.171936 0.045593
0.396393 0.177246 0.053925
0.443481 0.183136 0.061768
0.491821 0.189758 0.070496
0.539886 0.197601 0.078674
0.583832 0.205597 0.087158
0.625641 0.213806 0.094299
0.661530 0.217987 0.101227
0.694458 0.223816 0.106812
0.725769 0.231537 0.112152
0.754211 0.238708 0.117432
0.776642 0.243774 0.121490
0.797852 0.248108 0.125061
0.816193 0.252106 0.128296
0.834595 0.255676 0.131958
0.847412 0.257965 0.134460
0.862183 0.261963 0.136963
0.874420 0.265289 0.139069
0.883820 0.267853 0.140961
0.046753 0.193634 0.030609
0.052582 0.194336 0.032135
0.062103 0.196533 0.034332
0.071869 0.198853 0.036591
0.083435 0.201996 0.038116
0.095215 0.203308 0.039703
0.110229 0.199158 0.036469
0.130981 0.196045 0.035004
0.154785 0.193329 0.032501
0.184570 0.190857 0.032776
0.218445 0.189392 0.034119
0.256500 0.191528 0.035553
0.302673 0.196411 0.042603
0.348755 0.201355 0.047974
0.396637 0.206085 0.056396
0.444183 0.210785 0.064270
0.492432 0.217590 0.072449
0.541199 0.222839 0.080505
0.584259 0.229614 0.088379
0.625366 0.236877 0.095459
0.660339 0.243896 0.101959
0.694519 0.249664 0.108032
0.725800 0.256256 0.113434
0.753540 0.262024 0.118469
0.776093 0.266632 0.122681
0.797363 0.270721 0.126190
0.816284 0.274475 0.129395
0.834625 0.278534 0.132935
0.847473 0.281067 0.135437
0.862122 0.283752 0.138672
0.874207 0.286835 0.140778
0.883118 0.289154 0.142334
0.056213 0.230927 0.037628
0.061554 0.231476 0.038757
0.070374 0.233490 0.040863
0.079651 0.235596 0.042938
0.091522 0.238312 0.044556
0.104492 0.241119 0.046326
0.122375 0.241119 0.045654
0.139465 0.236755 0.042389
0.160004 0.232819 0.040344
0.189087 0.229523 0.039825
0.221130 0.226929 0.039764
0.258392 0.225677 0.040222
0.303925 0.227692 0.045837
0.350189 0.232697 0.052338
0.397156 0.237854 0.059143
0.445007 0.242035 0.066681
0.494263 0.247223 0.074829
0.542175 0.254517 0.082977
0.584930 0.259003 0.090820
0.625214 0.266388 0.097260
0.660706 0.272644 0.103424
0.693909 0.276428 0.109436
0.725555 0.281158 0.114899
0.753876 0.286224 0.119812
0.776672 0.290588 0.123779
0.797363 0.294983 0.127350
0.815704 0.298889 0.130676
0.834076 0.303528 0.134094
0.846954 0.306885 0.136505
0.862305 0.309631 0.139557
0.874481 0.311646 0.142120
0.883423 0.313171 0.144012
0.063080 0.273071 0.046326
0.069122 0.273376 0.047150
0.079498 0.275391 0.048340
0.090302 0.277374 0.049500
0.101868 0.280334 0.050842
0.112976 0.283447 0.052979
0.130585 0.286713 0.054565
0.149261 0.282654 0.052277
0.167572 0.277344 0.048584
0.192719 0.273102 0.046173
0.226044 0.269897 0.045380
0.262482 0.267639 0.046539
0.304840 0.265259 0.049500
0.350464 0.267883 0.056458
0.398743 0.273346 0.062775
0.446716 0.276733 0.070526
0.495514 0.281769 0.077332
0.542969 0.286987 0.085846
0.585541 0.292725 0.093140
0.626373 0.298706 0.099762
0.661682 0.303711 0.105713
0.694672 0.308624 0.111084
0.725403 0.313538 0.116394
0.753021 0.318512 0.121246
0.775238 0.322235 0.125031
0.796631 0.325714 0.128571
0.815460 0.328857 0.131775
0.833801 0.332184 0.135254
0.846680 0.334503 0.137726
0.861816 0.337128 0.140320
0.874634 0.339447 0.142731
0.884064 0.341156 0.144531
0.076965 0.316681 0.054047
0.081818 0.316956 0.055298
0.089844 0.318451 0.057831
0.098145 0.320160 0.060333
0.110016 0.323059 0.061798
0.122894 0.326202 0.063538
0.140259 0.329956 0.065399
0.160004 0.334106 0.067139
0.178375 0.326050 0.060394
0.201080 0.320221 0.056366
0.231842 0.315765 0.055145
0.267792 0.311432 0.053162
0.308655 0.308533 0.056946
0.353821 0.307251 0.061615
0.400879 0.309845 0.067505
0.448517 0.314362 0.074249
0.495667 0.319305 0.081329
0.543884 0.324066 0.089386
0.585510 0.328857 0.095123
0.626556 0.333313 0.102417
0.662811 0.339600 0.108215
0.695282 0.344269 0.113922
0.726288 0.348480 0.119202
0.754669 0.352905 0.124146
0.776123 0.356812 0.127808
0.797363 0.360046 0.131439
0.816284 0.362976 0.134460
0.834198 0.365936 0.137207
0.846893 0.368073 0.139435
0.862213 0.370667 0.142456
0.874603 0.372620 0.144623
0.883698 0.374023 0.146118
0.090088 0.362183 0.065033
0.094818 0.362732 0.065826
0.102478 0.364624 0.067383
0.110443 0.366943 0.069366
0.120728 0.369629 0.070953
0.131958 0.372406 0.072601
0.149750 0.375824 0.075165
0.170380 0.379578 0.078003
0.190796 0.382019 0.078888
0.211823 0.370575 0.069214
0.239655 0.363190 0.065186
0.272339 0.359985 0.064606
0.312103 0.356598 0.064392
0.357300 0.351715 0.067993
0.403320 0.351349 0.074036
0.450348 0.353394 0.079590
0.498535 0.358246 0.086212
0.543854 0.363159 0.093811
0.586426 0.367004 0.099030
0.626862 0.372345 0.106262
0.662384 0.377228 0.112091
0.696228 0.380890 0.117767
0.726959 0.385895 0.122681
0.754974 0.389160 0.126587
0.777313 0.392670 0.130829
0.798065 0.395447 0.134613
0.817017 0.398529 0.137695
0.834473 0.401245 0.140137
0.846832 0.403320 0.141724
0.862488 0.405518 0.144989
0.875366 0.407227 0.147522
0.884644 0.408722 0.149414
0.101898 0.406860 0.076508
0.106415 0.407410 0.077148
0.113586 0.409149 0.078156
0.121277 0.411530 0.079529
0.131927 0.413635 0.081146
0.143311 0.415894 0.083038
0.160583 0.419708 0.084900
0.180695 0.423767 0.086914
0.201660 0.428375 0.088928
0.221527 0.421906 0.085449
0.248810 0.411865 0.077515
0.281464 0.406464 0.074310
0.318573 0.401276 0.074280
0.360779 0.397827 0.075562
0.407227 0.396149 0.079956
0.451965 0.394409 0.084229
0.498901 0.396301 0.090363
0.545715 0.400604 0.097534
0.588043 0.404907 0.103577
0.627899 0.409698 0.109955
0.662903 0.413605 0.115936
0.696075 0.417999 0.120789
0.727631 0.421509 0.125885
0.755219 0.424927 0.130615
0.778168 0.428040 0.134033
0.798340 0.431152 0.137268
0.816620 0.433350 0.140137
0.834686 0.436005 0.142853
0.846924 0.437897 0.144714
0.862457 0.439178 0.147736
0.874908 0.441406 0.149933
0.884155 0.442932 0.151550
0.113556 0.451508 0.088043
0.117950 0.452271 0.088745
0.125397 0.453979 0.089630
0.133698 0.456451 0.090881
0.144226 0.458954 0.092041
0.156342 0.461029 0.093445
0.172150 0.464935 0.095215
0.190796 0.469421 0.097260
0.210938 0.473663 0.099792
0.238586 0.478241 0.104065
0.258972 0.463776 0.092926
0.288788 0.455383 0.086945
0.324097 0.449341 0.085907
0.365479 0.446014 0.085938
0.410980 0.441620 0.087952
0.454681 0.439911 0.092224
0.501526 0.438385 0.096893
0.547272 0.440186 0.102875
0.589539 0.443909 0.109131
0.628448 0.447968 0.113983
0.663635 0.451813 0.119568
0.695953 0.456299 0.124451
0.726868 0.459106 0.128845
0.755035 0.462158 0.132996
0.778229 0.465546 0.136841
0.799286 0.467804 0.140228
0.817627 0.470215 0.143372
0.835602 0.472656 0.146545
0.848206 0.474487 0.148773
0.863953 0.476135 0.151520
0.876678 0.477905 0.153564
0.885956 0.479279 0.154999
0.128906 0.498138 0.098755
0.133484 0.498627 0.099426
0.140503 0.499207 0.100342
0.147888 0.500916 0.101776
0.158356 0.503387 0.102997
0.169647 0.506134 0.104340
0.185120 0.508575 0.105835
0.202942 0.511597 0.107971
0.224579 0.517059 0.110962
0.249725 0.522308 0.114410
0.274536 0.518250 0.111176
0.299530 0.504578 0.101288
0.334259 0.497650 0.097168
0.372925 0.492432 0.096741
0.416565 0.488647 0.097534
0.458862 0.485168 0.099701
0.504639 0.482910 0.103638
0.548950 0.481964 0.108032
0.589996 0.483185 0.113861
0.628967 0.486969 0.118713
0.665222 0.490387 0.124359
0.697052 0.493561 0.129242
0.728485 0.496643 0.133850
0.756897 0.499542 0.138062
0.779327 0.502319 0.141327
0.799652 0.504944 0.144592
0.817749 0.507080 0.147797
0.835419 0.509186 0.150665
0.847656 0.510681 0.152679
0.863190 0.511688 0.155579
0.876038 0.513275 0.157806
0.885498 0.514618 0.159363
0.142395 0.537567 0.108429
0.146820 0.538177 0.109070
0.153778 0.539246 0.110321
0.162689 0.540527 0.111572
0.173431 0.542969 0.113342
0.184875 0.545715 0.115082
0.200256 0.548859 0.117371
0.217743 0.552307 0.120178
0.237885 0.556335 0.122589
0.263245 0.560913 0.125183
0.291687 0.566223 0.128021
0.311798 0.550446 0.115845
0.344055 0.541290 0.110168
0.379639 0.535095 0.107117
0.421417 0.530609 0.107483
0.462921 0.526611 0.108185
0.507324 0.524780 0.111237
0.551208 0.523132 0.114929
0.591339 0.521637 0.119171
0.630463 0.522064 0.124451
0.666351 0.525543 0.128693
0.699066 0.528290 0.133453
0.728882 0.531097 0.138123
0.757568 0.534515 0.142365
0.780151 0.536713 0.145721
0.800812 0.538757 0.148682
0.818665 0.540527 0.151367
0.836670 0.542450 0.154114
0.849670 0.543762 0.156494
0.864685 0.544861 0.159119
0.877289 0.545959 0.161285
0.886719 0.547058 0.162750
0.158813 0.574188 0.119904
0.163300 0.574646 0.120544
0.169556 0.575348 0.121002
0.177277 0.577393 0.122803
0.185608 0.579712 0.124268
0.194550 0.582062 0.125793
0.210388 0.585297 0.127716
0.230347 0.588989 0.129608
0.249420 0.593018 0.131592
0.274231 0.598755 0.134460
0.301483 0.603394 0.137787
0.325562 0.595062 0.132416
0.355347 0.581665 0.122803
0.389191 0.575653 0.118347
0.428589 0.569672 0.117767
0.468903 0.565704 0.117493
0.512024 0.562073 0.118988
0.553925 0.559784 0.122528
0.594452 0.558441 0.125885
0.632324 0.558319 0.129333
0.667328 0.558929 0.134399
0.700806 0.560638 0.138245
0.730530 0.564026 0.142456
0.758606 0.566162 0.146729
0.781097 0.568085 0.150146
0.802216 0.570282 0.153290
0.820770 0.572083 0.155914
0.838440 0.574127 0.158752
0.851227 0.575348 0.160736
0.865875 0.577026 0.162903
0.877960 0.578430 0.164703
0.886993 0.579468 0.166199
0.172241 0.608063 0.129456
0.176636 0.608582 0.130096
0.182312 0.609039 0.130402
0.189270 0.610992 0.131195
0.198212 0.612885 0.132446
0.208038 0.614929 0.134033
0.223022 0.618378 0.135742
0.239990 0.622437 0.137665
0.259399 0.626190 0.140167
0.282898 0.631592 0.143250
0.310974 0.636841 0.146942
0.341919 0.642456 0.151031
0.364197 0.620575 0.134827
0.397186 0.610657 0.129517
0.435181 0.604553 0.126373
0.473877 0.600616 0.126587
0.515747 0.596710 0.126251
0.557129 0.593811 0.129517
0.596954 0.592010 0.132629
0.634277 0.591339 0.135803
0.669769 0.590363 0.139282
0.701782 0.589844 0.143341
0.731415 0.592621 0.146881
0.759155 0.595276 0.151245
0.781738 0.596985 0.154846
0.802673 0.599457 0.157196
0.821594 0.601257 0.159851
0.839020 0.602692 0.162689
0.851105 0.604156 0.164429
0.866119 0.605347 0.166901
0.878510 0.606293 0.168915
0.887817 0.607178 0.170319
0.181824 0.640320 0.137146
0.186279 0.640625 0.137726
0.192963 0.640137 0.138672
0.199585 0.641632 0.139618
0.209351 0.644043 0.140839
0.219788 0.646759 0.142090
0.233643 0.650177 0.143433
0.250519 0.653717 0.145752
0.269592 0.657440 0.149139
0.293671 0.662781 0.152466
0.320190 0.667236 0.155426
0.350037 0.673706 0.159302
0.374573 0.658142 0.146942
0.404266 0.644745 0.139709
0.440735 0.638336 0.135193
0.478912 0.633698 0.134827
0.519226 0.629761 0.134094
0.559387 0.625488 0.136292
0.598938 0.623901 0.139252
0.636993 0.622528 0.141846
0.670959 0.621429 0.144928
0.703552 0.620239 0.148285
0.733459 0.620087 0.151611
0.760254 0.622528 0.155273
0.782837 0.624512 0.159119
0.804230 0.625671 0.161987
0.822815 0.627655 0.164520
0.840424 0.629272 0.167175
0.852844 0.630035 0.168945
0.867279 0.631897 0.170715
0.879272 0.633392 0.172272
0.888580 0.634247 0.173615
0.191101 0.670105 0.145447
0.195648 0.670563 0.145966
0.202515 0.670593 0.146393
0.210724 0.671265 0.148224
0.221069 0.673370 0.149597
0.231964 0.675751 0.150879
0.244324 0.679230 0.152283
0.258606 0.683136 0.154144
0.278473 0.687347 0.156769
0.300354 0.692841 0.159607
0.326996 0.696381 0.163086
0.357269 0.702698 0.167511
0.384888 0.695557 0.161499
0.411377 0.678192 0.149689
0.447327 0.670135 0.145172
0.483582 0.664398 0.142609
0.522583 0.659851 0.142456
0.563263 0.655640 0.143219
0.600769 0.653595 0.145050
0.638763 0.651978 0.147705
0.672791 0.650787 0.150238
0.704254 0.649750 0.153564
0.734711 0.648712 0.156677
0.761780 0.648712 0.159393
0.783966 0.650085 0.162659
0.804993 0.651489 0.165222
0.823547 0.652771 0.167816
0.841400 0.654541 0.170563
0.853668 0.655762 0.172424
0.868225 0.657227 0.174805
0.880157 0.658661 0.176483
0.889252 0.659729 0.177826
0.200653 0.695740 0.153259
0.205139 0.696228 0.153961
0.211975 0.696320 0.154114
0.220551 0.698029 0.154938
0.228943 0.699951 0.156097
0.237976 0.702087 0.157440
0.251526 0.705719 0.158875
0.267578 0.709686 0.160858
0.285126 0.713013 0.163849
0.308685 0.717590 0.167145
0.333588 0.722626 0.170563
0.363312 0.728455 0.174377
0.397827 0.734375 0.178192
0.419220 0.708679 0.159882
0.451843 0.698822 0.153503
0.488159 0.692780 0.150848
0.527191 0.686829 0.149231
0.566254 0.683044 0.149689
0.603027 0.680542 0.150513
0.640656 0.678009 0.152954
0.674744 0.676758 0.155365
0.705688 0.675812 0.158539
0.735687 0.674866 0.161652
0.763397 0.674133 0.164246
0.785187 0.674194 0.166229
0.805450 0.675049 0.168793
0.823792 0.676453 0.171173
0.841705 0.678070 0.173859
0.854309 0.679321 0.175781
0.869110 0.680237 0.177734
0.881134 0.681458 0.179718
0.890106 0.682220 0.181122
0.209106 0.717438 0.157623
0.213654 0.717896 0.158264
0.219727 0.717926 0.159027
0.227173 0.719543 0.160614
0.235596 0.721466 0.162048
0.244446 0.723602 0.163452
0.258575 0.727051 0.165497
0.274750 0.730804 0.167725
0.292023 0.734650 0.170654
0.314209 0.739136 0.173340
0.340057 0.743896 0.176819
0.368225 0.749878 0.181183
0.402100 0.756256 0.185150
0.425201 0.733521 0.167572
0.455811 0.721832 0.160248
0.491852 0.715546 0.157715
0.529785 0.709442 0.154388
0.569641 0.705444 0.154968
0.605316 0.702271 0.155365
0.642426 0.698944 0.156952
0.676697 0.697021 0.159485
0.707428 0.696045 0.162689
0.737213 0.695312 0.165771
0.764984 0.694794 0.168274
0.787079 0.694611 0.170227
0.806580 0.695068 0.172607
0.824036 0.695770 0.174866
0.842102 0.697144 0.177338
0.854767 0.698151 0.179047
0.869537 0.699005 0.180969
0.881775 0.699768 0.182587
0.890778 0.700317 0.183777
0.216309 0.737701 0.163849
0.220673 0.738342 0.164368
0.225983 0.738800 0.164642
0.233276 0.740326 0.166260
0.241791 0.742096 0.167725
0.250793 0.743958 0.169189
0.265198 0.747101 0.171173
0.281219 0.750580 0.173370
0.297913 0.754303 0.175598
0.318359 0.759125 0.178650
0.344849 0.764069 0.182312
0.373322 0.770447 0.186981
0.405914 0.776825 0.191589
0.431152 0.757751 0.175537
0.461212 0.743713 0.167999
0.494171 0.737152 0.163330
0.532898 0.730408 0.161530
0.571747 0.726013 0.160156
0.607880 0.722260 0.160004
0.644165 0.719360 0.160797
0.677826 0.717285 0.163788
0.709381 0.716461 0.166718
0.738708 0.715485 0.169861
0.766144 0.714508 0.172516
0.788086 0.713867 0.174561
0.808441 0.713837 0.176239
0.825714 0.714111 0.178284
0.842773 0.713531 0.179932
0.855377 0.714508 0.181641
0.870514 0.715942 0.183960
0.882965 0.716980 0.185791
0.891937 0.717499 0.186951
0.222717 0.754822 0.169495
0.227051 0.755402 0.170044
0.232361 0.755920 0.170349
0.238190 0.757507 0.171021
0.247192 0.759399 0.172211
0.256470 0.760834 0.173584
0.270935 0.763947 0.175659
0.286865 0.767517 0.177917
0.303436 0.770844 0.180511
0.324127 0.776550 0.183502
0.349182 0.781769 0.187195
0.377136 0.787933 0.191650
0.410461 0.792755 0.199493
0.437775 0.781616 0.184967
0.464935 0.764282 0.174866
0.497467 0.756561 0.168976
0.535583 0.749420 0.167664
0.573578 0.744507 0.165283
0.609772 0.740479 0.164368
0.646027 0.737183 0.165070
0.679047 0.735352 0.167542
0.710419 0.734680 0.170563
0.740417 0.733826 0.173279
0.767395 0.732697 0.175995
0.788971 0.731293 0.178284
0.809296 0.731201 0.180115
0.827148 0.731079 0.181610
0.844177 0.730560 0.183228
0.856140 0.730194 0.184357
0.871063 0.730743 0.186523
0.883606 0.731964 0.188507
0.892822 0.732849 0.189911
0.228302 0.771301 0.173859
0.232452 0.771698 0.174377
0.237579 0.771698 0.174957
0.243378 0.773163 0.175629
0.252441 0.775116 0.176849
0.262421 0.777161 0.178253
0.276520 0.780640 0.180389
0.292175 0.784882 0.183319
0.308990 0.788635 0.186523
0.329895 0.794312 0.188629
0.354004 0.798401 0.193359
0.381683 0.803253 0.200623
0.415802 0.807037 0.210266
0.445648 0.802185 0.203461
0.469330 0.783691 0.180695
0.500854 0.776154 0.175201
0.537201 0.768524 0.172729
