滤镜资源/Professional Luts Collection/Triune-Digital-Cinematic-LUTs/3D LUTs (CUBE)/REDLOGFILM/House of Cards - REDlogFilm.cube
#Created by Benjamin (IWLTBAP) : http://luts.iwltbap.com
#Copyright: (C) Copyright 2016 Triune Films and IWLTBAP
TITLE "Blockbuster LUTs Pack (REDlogFilm)"
#LUT size
LUT_3D_SIZE 5
#LUT data points
DOMAIN_MIN 0.000000 0.000000 0.000000
DOMAIN_MAX 0.903226 0.903226 0.903226
0.000000 0.000000 0.000000
0.115997 0.014465 0.011658
0.394043 0.063873 0.048218
0.695374 0.128448 0.104218
0.847260 0.166321 0.132172
0.016846 0.101837 0.013702
0.120758 0.104309 0.018097
0.394379 0.133423 0.051514
0.695099 0.190155 0.105164
0.846405 0.224060 0.133179
0.090088 0.362183 0.065033
0.170380 0.379578 0.078003
0.403320 0.351349 0.074036
0.696228 0.380890 0.117767
0.846832 0.403320 0.141724
0.181824 0.640320 0.137146
0.250519 0.653717 0.145752
0.440735 0.638336 0.135193
0.703552 0.620239 0.148285
0.852844 0.630035 0.168945
0.232574 0.783264 0.177002
0.295959 0.797333 0.187531
0.475372 0.798462 0.189056
0.713043 0.764832 0.177216
0.858948 0.762390 0.191071
0.012390 0.006195 0.095612
0.093933 0.015869 0.080444
0.382263 0.068909 0.110077
0.706177 0.151611 0.168610
0.857300 0.185516 0.190887
0.027893 0.092712 0.088165
0.137054 0.136353 0.119629
0.409363 0.165558 0.133972
0.704529 0.215698 0.168182
0.857269 0.248108 0.191650
0.093048 0.352509 0.130676
0.188873 0.408020 0.164642
0.416504 0.385590 0.145874
0.705261 0.412567 0.177338
0.857788 0.432007 0.199432
0.179474 0.630432 0.192749
0.270752 0.678833 0.225067
0.452728 0.661530 0.204437
0.713287 0.646118 0.207336
0.861389 0.655243 0.226410
0.227234 0.774933 0.229675
0.311066 0.819824 0.263214
0.479431 0.806854 0.250854
0.722534 0.782440 0.233734
0.866821 0.781494 0.248627
0.038391 0.016846 0.347870
0.099518 0.016693 0.328552
0.324738 0.059479 0.287476
0.641113 0.128540 0.316864
0.800049 0.168976 0.337738
0.069336 0.131134 0.382019
0.141632 0.139618 0.374969
0.360657 0.170959 0.326843
0.669220 0.228027 0.352905
0.827606 0.262848 0.370789
0.088379 0.316010 0.315308
0.190094 0.355347 0.348724
0.462524 0.464050 0.443756
0.738251 0.489990 0.449310
0.889923 0.507965 0.455444
0.166565 0.598480 0.357117
0.261719 0.640991 0.393402
0.504700 0.733459 0.487549
0.746490 0.720551 0.459839
0.892670 0.731628 0.462372
0.222107 0.744598 0.392151
0.300262 0.778992 0.421844
0.532318 0.868317 0.512482
0.759308 0.851227 0.481293
0.896271 0.846405 0.473236
0.066406 0.052979 0.639252
0.110077 0.049133 0.622314
0.296814 0.062469 0.594818
0.580200 0.112640 0.537415
0.743713 0.152069 0.547150
0.096436 0.151459 0.673920
0.158752 0.151550 0.661499
0.344391 0.172516 0.625580
0.610016 0.215485 0.572418
0.767456 0.251465 0.582642
0.150116 0.377502 0.664001
0.226318 0.397888 0.678894
0.457153 0.476013 0.727325
0.694763 0.499603 0.674713
0.848114 0.522369 0.684174
0.157837 0.567352 0.589203
0.253510 0.603241 0.615936
0.500122 0.692505 0.689392
0.792816 0.801178 0.784576
0.927521 0.810272 0.784241
0.191101 0.710175 0.595795
0.275208 0.744049 0.620575
0.525330 0.834045 0.707092
0.809998 0.928253 0.801941
0.931427 0.921448 0.788422
0.090729 0.071686 0.788025
0.138275 0.067993 0.770905
0.295685 0.071655 0.745941
0.564148 0.111908 0.692474
0.710266 0.143066 0.666473
0.118469 0.158966 0.817719
0.175934 0.158325 0.806427
0.347839 0.174347 0.774139
0.596069 0.215973 0.723907
0.735596 0.243439 0.699127
0.180176 0.402832 0.834930
0.255341 0.421753 0.847534
0.455780 0.477570 0.869507
0.684235 0.500610 0.823608
0.818024 0.515869 0.795258
0.210480 0.610535 0.776123
0.287079 0.628784 0.791138
0.511444 0.704865 0.843811
0.786957 0.800079 0.914429
0.916199 0.823212 0.908020
0.202148 0.697876 0.729675
0.290558 0.730957 0.752899
0.530579 0.817871 0.822754
0.810699 0.912750 0.905243
0.953644 0.960938 0.949707
