滤镜资源/Professional Luts Collection/Triune-Digital-Cinematic-LUTs/3D LUTs (CUBE)/REDLOGFILM/House of Cards - REDlogFilm.cube
#Created by Benjamin (IWLTBAP) : http://luts.iwltbap.com
#Copyright: (C) Copyright 2016 Triune Films and IWLTBAP
TITLE "Blockbuster LUTs Pack (REDlogFilm)"
#LUT size
LUT_3D_SIZE 8
#LUT data points
DOMAIN_MIN 0.000000 0.000000 0.000000
DOMAIN_MAX 0.903226 0.903226 0.903226
0.000000 0.000000 0.000000
0.047455 0.005554 0.004547
0.142426 0.018585 0.014557
0.298157 0.044708 0.031311
0.489563 0.084900 0.066315
0.661865 0.121002 0.098541
0.777161 0.148621 0.119171
0.847260 0.166321 0.132172
0.006683 0.042389 0.004364
0.052521 0.044861 0.007477
0.143463 0.056824 0.016632
0.297760 0.073914 0.031738
0.490692 0.111084 0.066650
0.661072 0.146057 0.098267
0.776276 0.173767 0.119659
0.846558 0.191071 0.132538
0.026215 0.128693 0.018433
0.069122 0.134003 0.023163
0.147949 0.127930 0.023712
0.299469 0.140320 0.036011
0.491364 0.166016 0.069122
0.660980 0.199097 0.099854
0.776764 0.223816 0.120361
0.846893 0.238159 0.133453
0.063080 0.273071 0.046326
0.101868 0.280334 0.050842
0.167572 0.277344 0.048584
0.304840 0.265259 0.049500
0.495514 0.281769 0.077332
0.661682 0.303711 0.105713
0.775238 0.322235 0.125031
0.846680 0.334503 0.137726
0.113556 0.451508 0.088043
0.144226 0.458954 0.092041
0.210938 0.473663 0.099792
0.324097 0.449341 0.085907
0.501526 0.438385 0.096893
0.663635 0.451813 0.119568
0.778229 0.465546 0.136841
0.848206 0.474487 0.148773
0.172241 0.608063 0.129456
0.198212 0.612885 0.132446
0.259399 0.626190 0.140167
0.364197 0.620575 0.134827
0.515747 0.596710 0.126251
0.669769 0.590363 0.139282
0.781738 0.596985 0.154846
0.851105 0.604156 0.164429
0.209106 0.717438 0.157623
0.235596 0.721466 0.162048
0.292023 0.734650 0.170654
0.402100 0.756256 0.185150
0.529785 0.709442 0.154388
0.676697 0.697021 0.159485
0.787079 0.694611 0.170227
0.854767 0.698151 0.179047
0.232574 0.783264 0.177002
0.256500 0.787292 0.180939
0.313202 0.801086 0.190826
0.420227 0.817139 0.219482
0.539825 0.782043 0.177246
0.682648 0.765991 0.175140
0.789673 0.762543 0.183380
0.858948 0.762390 0.191071
0.004333 0.002960 0.039062
0.040802 0.006958 0.033051
0.135010 0.022400 0.042877
0.296051 0.048706 0.058990
0.496063 0.093048 0.092712
0.665649 0.129822 0.121704
0.782043 0.156128 0.142487
0.851654 0.174011 0.154602
0.011230 0.040344 0.036865
0.064087 0.058655 0.049988
0.150421 0.069702 0.055969
0.303528 0.087280 0.066162
0.496552 0.121002 0.093262
0.665741 0.156525 0.122620
0.781403 0.182648 0.142944
0.851227 0.199646 0.155212
0.030212 0.125763 0.050354
0.078278 0.145996 0.063995
0.152832 0.141296 0.059235
0.304260 0.155365 0.067169
0.497101 0.180237 0.095306
0.666321 0.209595 0.123352
0.781250 0.233673 0.144196
0.851227 0.249878 0.157043
0.065857 0.268616 0.075714
0.108582 0.291626 0.087708
0.173767 0.287201 0.080139
0.310577 0.277069 0.078979
0.499634 0.293884 0.102875
0.665955 0.316620 0.130005
0.780396 0.335327 0.149078
0.850952 0.347992 0.161835
0.113953 0.447815 0.112061
0.150635 0.470184 0.124298
0.213593 0.477631 0.124146
0.328735 0.457642 0.111969
0.504883 0.447998 0.120789
0.666840 0.461365 0.143280
0.781494 0.474640 0.160736
0.851471 0.483826 0.172150
0.168060 0.603180 0.152252
0.206909 0.622894 0.163483
0.262054 0.630371 0.164124
0.366302 0.624329 0.158203
0.517670 0.602966 0.150055
0.670929 0.597443 0.162628
0.783875 0.603394 0.178192
0.853363 0.611267 0.187775
0.207184 0.712128 0.180634
0.243073 0.731049 0.192078
0.294556 0.738403 0.194580
0.404297 0.760315 0.209290
0.531006 0.713318 0.177216
0.677948 0.701996 0.182373
0.788940 0.700104 0.193695
0.856567 0.703278 0.201721
0.230316 0.779114 0.198883
0.261475 0.796661 0.210236
0.314941 0.805084 0.215332
0.423553 0.820404 0.247406
0.543243 0.786713 0.202087
0.685669 0.771820 0.199371
0.794067 0.770050 0.207428
0.862946 0.770569 0.216736
0.012787 0.008057 0.119751
0.043610 0.009308 0.110443
0.116364 0.019836 0.099548
0.276825 0.047028 0.112762
0.478546 0.088318 0.140808
0.658356 0.130951 0.169922
0.786469 0.170746 0.195374
0.861023 0.192444 0.209137
0.027100 0.051910 0.123322
0.065186 0.063690 0.128113
0.137665 0.073090 0.117462
0.292206 0.093384 0.128998
0.494263 0.130127 0.153778
0.669983 0.169098 0.179657
0.790619 0.201538 0.198639
0.860046 0.219025 0.208710
0.033997 0.114929 0.108917
0.078949 0.131500 0.122345
0.171051 0.167419 0.150818
0.318512 0.182190 0.154175
0.508118 0.206207 0.166870
0.675568 0.233887 0.185272
0.790070 0.256042 0.199371
0.860382 0.270721 0.210327
0.067749 0.257843 0.130890
0.108704 0.278717 0.143341
0.194244 0.313965 0.171417
0.324829 0.304565 0.159363
0.510986 0.322845 0.171112
0.675171 0.344757 0.188202
0.789795 0.361694 0.203461
0.859436 0.373169 0.212799
0.117401 0.440613 0.164734
0.151886 0.459595 0.176117
0.238770 0.504608 0.207092
0.347107 0.487000 0.189697
0.517395 0.478302 0.184875
0.676178 0.488373 0.198792
0.791351 0.500641 0.213501
0.860748 0.508606 0.222900
0.168427 0.597290 0.200439
0.202972 0.613281 0.210480
0.284546 0.656982 0.243500
0.381653 0.649475 0.228302
0.531555 0.630981 0.214020
0.682098 0.624207 0.217133
0.795410 0.629883 0.229492
0.864288 0.635254 0.239288
0.205872 0.705872 0.227234
0.238373 0.721527 0.237335
0.314575 0.764282 0.270294
0.413025 0.775085 0.265686
0.543976 0.740875 0.241547
0.689575 0.729492 0.237732
0.799438 0.727295 0.244690
0.866150 0.728638 0.251648
0.227051 0.772919 0.244171
0.259674 0.788208 0.254211
0.329407 0.824402 0.285980
0.428589 0.825806 0.299622
0.552673 0.801971 0.256256
0.694824 0.790161 0.251038
0.801941 0.786835 0.255768
0.868011 0.786255 0.261780
0.029327 0.012756 0.258331
0.054596 0.013184 0.249176
0.116547 0.022247 0.237091
0.246918 0.043549 0.214508
0.443665 0.083221 0.231354
0.624695 0.123169 0.253723
0.746796 0.152893 0.271973
0.819977 0.172821 0.280487
0.045807 0.064453 0.273499
0.074493 0.065369 0.267242
0.136169 0.074188 0.254303
0.260223 0.093262 0.230774
0.459137 0.127350 0.246704
0.637207 0.164673 0.267365
0.759064 0.193024 0.283112
0.831970 0.209290 0.291962
0.059601 0.137451 0.268890
0.096344 0.148468 0.277405
0.171722 0.172333 0.290588
0.294800 0.187866 0.265015
0.488525 0.217651 0.281677
0.661865 0.247925 0.295746
0.780670 0.272675 0.308075
0.853455 0.287689 0.318451
0.068146 0.240417 0.234924
0.112610 0.256531 0.247864
0.198547 0.287994 0.273956
0.351410 0.351349 0.329254
0.530914 0.369568 0.331665
0.692352 0.389282 0.338165
0.807465 0.404266 0.344330
0.878357 0.413483 0.348816
0.112152 0.416077 0.257477
0.147430 0.435547 0.269928
0.238159 0.479218 0.305908
0.379944 0.525269 0.356567
0.536591 0.517059 0.338379
0.695099 0.530792 0.341156
0.810669 0.542145 0.348053
0.878510 0.550140 0.352234
0.164093 0.579651 0.291138
0.197174 0.593323 0.300659
0.282532 0.635864 0.337708
0.413452 0.685944 0.390686
0.553436 0.671661 0.366699
0.701141 0.668030 0.355194
0.813782 0.674042 0.357849
0.880890 0.681305 0.362518
0.209503 0.694275 0.321655
0.239624 0.706757 0.329742
0.313080 0.747742 0.362915
0.445496 0.813690 0.419678
0.570648 0.785248 0.392273
0.711334 0.775421 0.374512
0.817444 0.773376 0.371552
0.883240 0.772827 0.372772
0.229187 0.761627 0.337585
0.259369 0.773865 0.345612
0.324677 0.799622 0.372284
0.448364 0.850342 0.421753
0.578094 0.839050 0.402283
0.715729 0.829468 0.385040
0.820709 0.823364 0.379791
0.885773 0.823395 0.378662
0.042877 0.028107 0.443176
0.061951 0.026154 0.434265
0.118073 0.026306 0.417816
0.229675 0.044189 0.399170
0.403717 0.076263 0.363037
0.585754 0.116669 0.376862
0.710144 0.144012 0.388580
0.781311 0.163422 0.397675
0.052002 0.072845 0.457794
0.079865 0.073669 0.450745
0.134155 0.074249 0.438110
0.250946 0.091522 0.415985
0.419006 0.121643 0.380005
0.598938 0.158173 0.392670
0.718384 0.186768 0.404907
0.791779 0.204437 0.413696
0.082886 0.165344 0.484802
0.115356 0.172394 0.488678
0.171082 0.173615 0.475250
0.286926 0.190002 0.451019
0.449463 0.210785 0.414032
0.623352 0.244293 0.426453
0.742218 0.269196 0.437256
0.815063 0.285339 0.444855
0.101471 0.277405 0.455109
0.136230 0.285553 0.462799
0.207092 0.307922 0.478912
0.352997 0.359344 0.513885
0.504883 0.377258 0.481476
0.669281 0.402802 0.492188
0.785858 0.421631 0.500977
0.859894 0.432587 0.506561
0.109070 0.394318 0.402344
0.149353 0.412872 0.415192
0.230316 0.444550 0.441467
0.380035 0.498749 0.490326
0.566162 0.571564 0.552368
0.720001 0.582886 0.553314
0.832550 0.595093 0.558289
0.901367 0.603973 0.559998
0.143829 0.557831 0.417664
0.178589 0.571747 0.426971
0.273071 0.614075 0.462860
0.411011 0.656525 0.512939
0.585846 0.720215 0.575592
0.725159 0.713837 0.558533
0.835114 0.723846 0.559784
0.902496 0.730042 0.562439
0.185974 0.665802 0.436981
0.218201 0.677917 0.445404
0.301819 0.720276 0.481171
0.436249 0.770721 0.532837
0.608429 0.827698 0.592712
0.738312 0.819702 0.574371
0.840118 0.816864 0.567139
0.904755 0.819519 0.565948
0.211365 0.731995 0.450378
0.241333 0.744659 0.458710
0.315369 0.776031 0.491089
0.446747 0.824432 0.541168
0.619446 0.884705 0.601501
0.745239 0.877167 0.583618
0.839966 0.870453 0.572784
0.905487 0.870148 0.569672
0.058014 0.048828 0.607025
0.077698 0.047272 0.599915
0.122406 0.044281 0.584869
0.223145 0.050598 0.572784
0.387085 0.075531 0.539215
0.550171 0.105835 0.507446
0.675781 0.135712 0.514893
0.749908 0.153870 0.520691
0.069214 0.083313 0.617676
0.091888 0.083069 0.613220
0.142426 0.082794 0.602112
0.245270 0.095398 0.586975
0.403809 0.120087 0.554382
0.563293 0.149658 0.523132
0.688324 0.178406 0.530518
0.759583 0.195129 0.536072
0.102570 0.177673 0.652557
0.129761 0.178162 0.647461
0.179840 0.179413 0.636780
0.285492 0.189880 0.615265
0.435791 0.212036 0.586548
0.589508 0.237854 0.554077
0.708679 0.263550 0.560486
0.781158 0.279144 0.566101
0.129608 0.303131 0.643829
0.162231 0.310730 0.648773
0.231110 0.329407 0.663422
0.352356 0.362122 0.672760
0.496399 0.379822 0.642426
0.635956 0.397186 0.610992
0.753906 0.418091 0.618195
0.824524 0.430328 0.622559
0.154205 0.437805 0.606781
0.186859 0.446564 0.612793
0.255432 0.466400 0.627930
0.389221 0.513062 0.659454
0.559204 0.572113 0.705841
0.702576 0.593170 0.687836
0.815216 0.609528 0.694153
0.885712 0.619171 0.699036
0.146118 0.540009 0.558563
0.186859 0.555695 0.570007
0.269440 0.584259 0.592468
0.409241 0.633392 0.634003
0.588531 0.699127 0.690063
0.754608 0.763428 0.746307
0.856964 0.769379 0.745148
0.923462 0.776337 0.747131
0.168396 0.647247 0.561584
0.201294 0.659332 0.567932
0.289001 0.701538 0.598267
0.424957 0.744263 0.644104
0.605621 0.805939 0.704407
0.769501 0.863098 0.760345
0.860474 0.860443 0.749084
0.925507 0.863220 0.748016
0.192993 0.713623 0.569580
0.225494 0.726746 0.576172
0.303864 0.757294 0.604187
0.438232 0.807587 0.651794
0.618713 0.866547 0.713135
0.777771 0.920349 0.768127
0.868073 0.915985 0.756378
0.925995 0.913330 0.751648
0.077484 0.062836 0.718842
0.099945 0.061157 0.710785
0.138489 0.058136 0.696533
0.228790 0.059052 0.685272
0.376831 0.077698 0.661316
0.538025 0.104858 0.626556
0.649597 0.128174 0.608643
0.725952 0.146851 0.611328
0.087006 0.091278 0.727844
0.109741 0.090759 0.722931
0.151855 0.091003 0.712860
0.248169 0.098938 0.697510
0.391876 0.121857 0.676270
0.551727 0.149353 0.640533
0.662781 0.170502 0.622101
0.735504 0.189331 0.625366
0.117188 0.183990 0.761353
0.141174 0.184357 0.756531
0.189270 0.184448 0.745972
0.287323 0.191010 0.726227
0.431915 0.213135 0.702057
0.577942 0.237122 0.668213
0.686615 0.257233 0.649017
0.758728 0.273376 0.654175
0.155334 0.321350 0.773438
0.186035 0.328491 0.778809
0.250000 0.346069 0.790771
0.352844 0.363892 0.782288
0.493713 0.382507 0.755890
0.627136 0.399719 0.723419
0.729675 0.413788 0.702972
0.800751 0.427032 0.706757
0.179626 0.459564 0.739990
0.211700 0.466827 0.744629
0.272980 0.483490 0.757812
0.395020 0.525238 0.785675
0.562469 0.583649 0.824921
0.695190 0.594208 0.797882
0.793823 0.604584 0.776794
0.862762 0.617371 0.780243
0.190674 0.573395 0.701477
0.225311 0.581238 0.708496
0.290771 0.599823 0.722809
0.419342 0.645264 0.754791
0.588043 0.703644 0.798615
0.750336 0.761139 0.843445
0.855286 0.781982 0.844360
0.917084 0.790619 0.846710
0.184052 0.637939 0.663971
0.220612 0.651550 0.674957
0.297516 0.678986 0.695648
0.429962 0.727936 0.736053
0.602264 0.791199 0.786865
0.769531 0.851807 0.839417
0.880859 0.890900 0.874939
0.938965 0.893402 0.872040
0.186554 0.699249 0.659943
0.217407 0.712006 0.666138
0.294342 0.741730 0.692261
0.431458 0.793182 0.739868
0.615112 0.855499 0.795074
0.778046 0.909637 0.846985
0.886047 0.945679 0.881866
0.942902 0.943542 0.874451
0.090729 0.071686 0.788025
0.110809 0.070038 0.780579
0.150574 0.067047 0.766388
0.231812 0.066162 0.752869
0.373474 0.080353 0.733704
0.531738 0.105896 0.698486
0.643341 0.125732 0.676788
0.710266 0.143066 0.666473
0.095978 0.098389 0.795319
0.118652 0.097839 0.790131
0.161774 0.096954 0.780762
0.253113 0.101410 0.765594
0.390717 0.123596 0.747681
0.545929 0.150177 0.712463
0.654968 0.170349 0.690704
0.721710 0.184448 0.679688
0.130280 0.187073 0.827057
0.154907 0.186798 0.822327
0.203186 0.185974 0.812714
0.289856 0.192291 0.793427
0.432098 0.215057 0.771393
0.573212 0.238586 0.740021
0.678467 0.254730 0.716522
0.742188 0.269592 0.707672
0.171631 0.331787 0.850372
0.203552 0.339935 0.855316
0.260925 0.359100 0.867706
0.355865 0.361725 0.847473
0.492615 0.382782 0.823303
0.622375 0.399231 0.795410
0.723328 0.412384 0.769928
0.787048 0.423218 0.760071
0.192902 0.471954 0.817749
0.223877 0.479156 0.823151
0.285278 0.495056 0.835876
0.401459 0.531555 0.861664
0.563538 0.585602 0.891510
0.693298 0.596710 0.865021
0.788422 0.605560 0.841217
0.850708 0.613556 0.830627
0.210266 0.587494 0.783051
0.240906 0.594574 0.789368
0.302582 0.611420 0.802734
0.423737 0.652466 0.830719
0.590851 0.711060 0.870209
0.748749 0.764832 0.909882
0.849243 0.783081 0.906403
0.906006 0.787872 0.895233
0.211639 0.661652 0.754517
0.244354 0.669617 0.761414
0.312561 0.689178 0.775604
0.439911 0.733887 0.807495
0.609894 0.793549 0.852234
0.767914 0.847504 0.895752
0.880249 0.887817 0.927948
0.942444 0.906158 0.938416
0.202148 0.697876 0.729675
0.239166 0.710938 0.738495
0.311340 0.739532 0.758820
0.443604 0.788513 0.799072
0.616974 0.848877 0.849091
0.779480 0.902618 0.896515
0.887115 0.940063 0.928589
0.953644 0.960938 0.949707
