滤镜资源/Professional Luts Collection/Triune-Digital-Cinematic-LUTs/3D LUTs (CUBE)/REDLOGFILM/Indiana Jones - REDlogFilm.cube
#Created by Benjamin (IWLTBAP) : http://luts.iwltbap.com
#Copyright: (C) Copyright 2016 Triune Films and IWLTBAP
TITLE "Blockbuster LUTs Pack (REDlogFilm)"
#LUT size
LUT_3D_SIZE 32
#LUT data points
0.008209 0.012512 0.009857
0.012421 0.013000 0.009766
0.018036 0.013428 0.010040
0.023071 0.014679 0.010315
0.029694 0.015961 0.011047
0.039307 0.016937 0.012299
0.051605 0.019196 0.012970
0.069702 0.020081 0.013245
0.088806 0.022156 0.012299
0.119507 0.025513 0.015106
0.162140 0.031036 0.020325
0.211945 0.037750 0.025391
0.266479 0.045532 0.029297
0.324951 0.054138 0.030121
0.385529 0.062653 0.032623
0.434540 0.070374 0.034058
0.481110 0.077179 0.037476
0.530792 0.085236 0.043762
0.573120 0.090881 0.048615
0.610687 0.096405 0.050598
0.640442 0.100952 0.050537
0.666138 0.104889 0.050385
0.688599 0.108673 0.052246
0.707886 0.111572 0.054810
0.722504 0.113708 0.056213
0.736145 0.115051 0.058289
0.747589 0.116547 0.060089
0.759186 0.117706 0.062103
0.766541 0.118591 0.061890
0.775116 0.119324 0.062897
0.782623 0.120453 0.062988
0.788574 0.121338 0.063324
0.008850 0.016815 0.010284
0.013092 0.017273 0.010193
0.017548 0.018127 0.010498
0.023499 0.018738 0.010529
0.029053 0.020508 0.011353
0.038757 0.021454 0.012085
0.051666 0.023071 0.013458
0.066711 0.025635 0.012909
0.087585 0.026550 0.012054
0.117737 0.029785 0.014740
0.159851 0.035156 0.020355
0.206177 0.042023 0.024567
0.259094 0.049377 0.029327
0.315674 0.058289 0.030792
0.376099 0.067291 0.032990
0.426605 0.075409 0.034210
0.475189 0.082550 0.037628
0.524017 0.090149 0.043304
0.566681 0.096252 0.048248
0.606262 0.102203 0.049408
0.637177 0.106873 0.049561
0.663940 0.110870 0.049072
0.687622 0.113983 0.050995
0.707489 0.117096 0.054016
0.723480 0.119537 0.056061
0.736938 0.121490 0.058044
0.748627 0.123138 0.059875
0.760376 0.124359 0.061920
0.768646 0.125610 0.062897
0.776978 0.126556 0.063171
0.784149 0.127655 0.063782
0.790466 0.128387 0.064026
0.009460 0.022278 0.010620
0.012390 0.023224 0.011078
0.017090 0.024048 0.010925
0.022797 0.024597 0.011353
0.029327 0.025635 0.011353
0.037903 0.027039 0.012146
0.051056 0.028564 0.012939
0.066620 0.030518 0.013580
0.086243 0.032196 0.011749
0.115234 0.035522 0.013672
0.156677 0.040710 0.019592
0.199707 0.046936 0.023895
0.250824 0.054810 0.028381
0.303772 0.063843 0.031097
0.363831 0.072754 0.032837
0.416779 0.081238 0.034332
0.467163 0.089355 0.037659
0.515503 0.096313 0.042938
0.558624 0.102814 0.047821
0.600006 0.109009 0.048370
0.632751 0.114136 0.048126
0.660919 0.118195 0.047516
0.685883 0.120972 0.049225
0.707001 0.123932 0.052551
0.723999 0.126831 0.055450
0.737946 0.129089 0.057434
0.749969 0.130890 0.059448
0.761414 0.132935 0.061188
0.770142 0.134155 0.062622
0.779358 0.135468 0.063690
0.786774 0.136383 0.064209
0.792450 0.137268 0.064545
0.008881 0.028290 0.011566
0.013123 0.028778 0.011536
0.018677 0.029114 0.011719
0.023315 0.029968 0.011566
0.028687 0.031403 0.011597
0.038055 0.032196 0.012634
0.051270 0.033783 0.013519
0.065308 0.036621 0.013214
0.085663 0.037750 0.012573
0.113708 0.041412 0.013519
0.153442 0.046753 0.019165
0.195007 0.052765 0.023010
0.245392 0.060486 0.027802
0.296173 0.069916 0.030670
0.355316 0.079163 0.033661
0.411102 0.088501 0.035004
0.463654 0.097687 0.038940
0.511322 0.105774 0.043457
0.553345 0.113159 0.046265
0.594849 0.119476 0.046722
0.628296 0.124023 0.046997
0.657318 0.127716 0.048553
0.684113 0.130219 0.050476
0.705841 0.133179 0.053253
0.723480 0.135651 0.056458
0.738495 0.137939 0.058258
0.750519 0.139740 0.060089
0.762024 0.141632 0.061768
0.770203 0.143250 0.062256
0.779877 0.144684 0.063446
0.787048 0.145905 0.064026
0.792847 0.146637 0.064301
0.009308 0.035004 0.012299
0.012421 0.036011 0.012329
0.019073 0.035828 0.012421
0.023682 0.036652 0.012238
0.029602 0.037262 0.012238
0.037964 0.038513 0.012848
0.049377 0.041016 0.013306
0.064514 0.043365 0.013489
0.083710 0.045227 0.012451
0.112732 0.048157 0.013763
0.150360 0.053986 0.018402
0.190094 0.059875 0.021729
0.239227 0.067383 0.027222
0.288940 0.077057 0.030121
0.346130 0.087158 0.033752
0.404785 0.096924 0.035736
0.460114 0.107758 0.039825
0.509705 0.117249 0.045532
0.548889 0.125763 0.045502
0.589081 0.132782 0.044739
0.622955 0.136902 0.045502
0.653107 0.139679 0.048706
0.681549 0.141815 0.052612
0.704559 0.144592 0.055237
0.722443 0.146912 0.058075
0.737976 0.148865 0.060059
0.750977 0.150421 0.061432
0.762543 0.152130 0.062286
0.770630 0.153656 0.063202
0.779419 0.155609 0.063110
0.786713 0.156921 0.063507
0.792542 0.157990 0.063660
0.009155 0.042603 0.012970
0.014404 0.042480 0.012726
0.018036 0.043823 0.012726
0.024597 0.043732 0.012848
0.029816 0.044891 0.012665
0.036957 0.046204 0.012573
0.049164 0.047943 0.013275
0.063629 0.050568 0.013550
0.082977 0.052338 0.012512
0.109589 0.056641 0.012939
0.149200 0.061737 0.018524
0.187683 0.067749 0.021393
0.234894 0.076019 0.026367
0.285126 0.085144 0.029999
0.339172 0.095306 0.033661
0.397736 0.104828 0.035858
0.452637 0.116791 0.038177
0.504242 0.128632 0.043854
0.545868 0.138550 0.045258
0.584961 0.147369 0.045441
0.618042 0.151306 0.047363
0.648438 0.154083 0.051697
0.676575 0.156616 0.055420
0.699280 0.159515 0.058136
0.716949 0.161835 0.059479
0.733765 0.162811 0.060272
0.746613 0.164368 0.060944
0.758484 0.165833 0.061676
0.766876 0.166962 0.061554
0.775696 0.168671 0.061707
0.783020 0.170074 0.061951
0.788849 0.171173 0.062073
0.010651 0.051788 0.014069
0.014893 0.052155 0.013947
0.020386 0.052490 0.014130
0.024353 0.053802 0.013855
0.030670 0.054504 0.013641
0.037872 0.055725 0.013580
0.048004 0.057922 0.013794
0.061371 0.061096 0.013458
0.079865 0.063354 0.012085
0.106903 0.066895 0.012878
0.147522 0.072662 0.017609
0.184235 0.079193 0.020111
0.231293 0.087280 0.026581
0.280487 0.096558 0.029358
0.334290 0.106415 0.032959
0.390656 0.115387 0.036224
0.445709 0.127167 0.038452
0.497192 0.142334 0.042572
0.541565 0.153992 0.044525
0.581482 0.165283 0.046509
0.613037 0.171448 0.048981
0.643188 0.174561 0.053558
0.670929 0.177856 0.057739
0.692596 0.181641 0.059845
0.709473 0.184601 0.060181
0.725739 0.185699 0.060242
0.740051 0.186279 0.059937
0.751892 0.187378 0.060516
0.760101 0.188568 0.060577
0.769592 0.189789 0.060913
0.777405 0.191254 0.060760
0.783295 0.192444 0.060730
0.010895 0.063293 0.015411
0.014984 0.063477 0.015167
0.020630 0.063690 0.014893
0.025543 0.064606 0.015015
0.031189 0.065735 0.014679
0.037811 0.067444 0.014587
0.048401 0.069550 0.014618
0.060547 0.072449 0.013947
0.079163 0.075012 0.012177
0.104828 0.079010 0.012695
0.144684 0.085358 0.016571
0.184692 0.092224 0.020508
0.230499 0.100677 0.026031
0.279114 0.109131 0.029327
0.331940 0.118195 0.031952
0.386597 0.127228 0.036987
0.440033 0.138641 0.039246
0.489227 0.154602 0.041473
0.535217 0.168152 0.043701
0.576233 0.180145 0.045685
0.607025 0.188568 0.048004
0.635986 0.194183 0.052979
0.663391 0.198792 0.057465
0.684082 0.203827 0.058472
0.700470 0.207672 0.058655
0.716034 0.210114 0.058411
0.730347 0.211090 0.057983
0.743103 0.211823 0.058472
0.752289 0.214172 0.058960
0.761261 0.215546 0.059662
0.769196 0.217224 0.059509
0.775665 0.218262 0.059662
0.011963 0.075409 0.016815
0.015503 0.076141 0.016541
0.020813 0.076233 0.016541
0.025604 0.076996 0.016602
0.030731 0.078522 0.016266
0.037140 0.080627 0.015961
0.046906 0.083618 0.016144
0.060883 0.086151 0.014984
0.076691 0.088104 0.013519
0.104095 0.092346 0.012207
0.142426 0.098816 0.016968
0.186462 0.106964 0.021088
0.233398 0.115936 0.026154
0.281525 0.123016 0.028503
0.331665 0.130798 0.031281
0.383057 0.140472 0.035217
0.434906 0.152313 0.039551
0.483459 0.166779 0.041626
0.527771 0.179688 0.043335
0.566956 0.191589 0.043396
0.597809 0.200897 0.045135
0.625549 0.208191 0.048370
0.652954 0.214355 0.053070
0.674316 0.219543 0.054932
0.690674 0.223633 0.055756
0.706085 0.227264 0.055878
0.720245 0.229889 0.055206
0.733368 0.231903 0.055389
0.743347 0.234985 0.055939
0.753967 0.238220 0.056580
0.762421 0.240448 0.056976
0.768677 0.241730 0.057556
0.012939 0.090363 0.018250
0.015991 0.091614 0.018097
0.019470 0.093048 0.017914
0.026306 0.092987 0.017670
0.030396 0.094727 0.017487
0.036438 0.097046 0.017365
0.046692 0.100433 0.017242
0.060516 0.103699 0.016418
0.077606 0.106476 0.013580
0.098541 0.109467 0.012909
0.138489 0.116699 0.016205
0.182526 0.124115 0.019958
0.232361 0.133209 0.025238
0.281738 0.140442 0.027435
0.333130 0.148651 0.029602
0.382324 0.158875 0.033203
0.430573 0.170105 0.036621
0.477661 0.181000 0.042145
0.520782 0.193207 0.043579
0.558105 0.205658 0.041779
0.588928 0.215546 0.041016
0.616516 0.223236 0.043060
0.643707 0.230499 0.046356
0.666595 0.236328 0.049377
0.682251 0.240265 0.051056
0.697205 0.243683 0.052032
0.710876 0.246765 0.051910
0.724640 0.249451 0.051331
0.734863 0.252899 0.051758
0.746399 0.256653 0.052185
0.756287 0.259766 0.052734
0.763763 0.262115 0.052948
0.012085 0.108307 0.019806
0.014557 0.109863 0.019653
0.019562 0.110840 0.019135
0.023865 0.112549 0.019165
0.029938 0.113922 0.018585
0.036774 0.116150 0.018646
0.046082 0.120361 0.018555
0.060028 0.124817 0.018005
0.077362 0.128937 0.017059
0.100983 0.132965 0.016296
0.131287 0.136383 0.015198
0.177521 0.144043 0.019531
0.228821 0.152100 0.023804
0.277618 0.161163 0.026459
0.330231 0.171326 0.028290
0.382019 0.182129 0.029633
0.429413 0.191040 0.033295
0.473969 0.200043 0.038208
0.514740 0.209961 0.041229
0.553345 0.223511 0.039032
0.583862 0.233307 0.037506
0.611389 0.240387 0.038940
0.636841 0.246704 0.042419
0.660522 0.252869 0.045380
0.677551 0.257904 0.047241
0.692078 0.261810 0.047882
0.705078 0.264984 0.048370
0.717804 0.267822 0.048309
0.727722 0.271271 0.048065
0.739166 0.275177 0.048584
0.749176 0.278778 0.048950
0.756866 0.281616 0.049103
0.012054 0.131042 0.021851
0.017029 0.131348 0.021851
0.020599 0.133057 0.021698
0.026459 0.134186 0.021515
0.032806 0.136017 0.021729
0.038330 0.139160 0.021484
0.047485 0.143677 0.021179
0.059967 0.148438 0.021179
0.076538 0.152405 0.020691
0.101685 0.156860 0.020416
0.132050 0.159576 0.016571
0.170135 0.164978 0.018555
0.223877 0.174133 0.023529
0.276733 0.185822 0.025116
0.331360 0.196930 0.026611
0.382233 0.206177 0.028015
0.431610 0.214539 0.030731
0.477264 0.223236 0.036377
0.516235 0.233551 0.037628
0.552887 0.244354 0.036743
0.582916 0.252655 0.035767
0.609222 0.258972 0.036591
0.633911 0.264832 0.039185
0.655762 0.270905 0.041840
0.672394 0.275635 0.043091
0.687317 0.280212 0.043915
0.700043 0.284332 0.044464
0.712311 0.287689 0.044556
0.721771 0.290649 0.044189
0.732605 0.294006 0.044312
0.742920 0.297577 0.044830
0.751373 0.300232 0.045776
0.016968 0.156677 0.025360
0.019257 0.158813 0.025635
0.025970 0.159729 0.025055
0.030792 0.161499 0.025513
0.036285 0.163788 0.025391
0.043304 0.166534 0.024658
0.052917 0.170471 0.024078
0.064545 0.174500 0.023804
0.078644 0.178833 0.023926
0.101105 0.183014 0.022552
0.133423 0.186768 0.020172
0.171661 0.189728 0.020294
0.219604 0.198883 0.023468
0.277344 0.212616 0.025055
0.340668 0.225525 0.027405
0.390808 0.233795 0.029236
0.436493 0.240875 0.030945
0.480896 0.248962 0.033936
0.519745 0.259460 0.034698
0.554962 0.268646 0.033905
0.583435 0.275543 0.033264
0.608154 0.281433 0.033630
0.630951 0.287048 0.035980
0.651550 0.292938 0.038391
0.667786 0.297577 0.039673
0.682251 0.301392 0.040466
0.694885 0.304810 0.040192
0.707245 0.308685 0.040009
0.716125 0.311188 0.040039
0.726440 0.314392 0.039948
0.736115 0.317139 0.040283
0.744141 0.319397 0.040649
0.020447 0.186279 0.029846
0.024170 0.187836 0.029785
0.029816 0.189331 0.029846
0.035431 0.191040 0.029205
0.041443 0.193298 0.028778
0.048462 0.196198 0.028198
0.058380 0.199554 0.026794
0.068695 0.204071 0.026489
0.081573 0.209045 0.025848
0.103668 0.212799 0.025085
0.135559 0.216064 0.023926
0.174438 0.219391 0.022400
0.222412 0.228729 0.024109
0.279663 0.243042 0.026245
0.353882 0.257294 0.028931
0.402313 0.264221 0.030304
0.443848 0.269012 0.031647
0.485016 0.275879 0.032532
0.521759 0.284668 0.032745
0.557098 0.293762 0.032318
0.585175 0.300934 0.031860
0.608490 0.307556 0.032104
0.629456 0.313507 0.032562
0.648376 0.318329 0.034515
0.663116 0.322266 0.034668
0.676819 0.325562 0.035126
0.689087 0.328522 0.034790
0.701111 0.331451 0.034851
0.710297 0.333832 0.035187
0.720734 0.336487 0.035767
0.730072 0.338715 0.036194
0.737244 0.340668 0.036407
0.023224 0.214355 0.032898
0.027588 0.216675 0.032654
0.032867 0.219086 0.032684
0.038269 0.221985 0.032776
0.044922 0.224976 0.032715
0.051727 0.228271 0.031891
0.060211 0.232849 0.030457
0.070648 0.237457 0.029663
0.084900 0.241638 0.028442
0.107361 0.244934 0.026825
0.139832 0.248627 0.023712
0.178680 0.254303 0.020233
0.222534 0.262543 0.023499
0.284637 0.274231 0.026154
0.353241 0.288849 0.027740
0.410980 0.296875 0.028687
0.450409 0.299988 0.029297
0.488800 0.305267 0.029968
0.523834 0.311707 0.030762
0.557831 0.320496 0.030945
0.584015 0.327606 0.030609
0.606873 0.334198 0.030853
0.627106 0.340057 0.030182
0.644836 0.344635 0.029419
0.658630 0.347351 0.029724
0.672150 0.350342 0.029877
0.684631 0.353424 0.030029
0.696991 0.356506 0.030090
0.706268 0.358459 0.030396
0.716553 0.361023 0.030762
0.725220 0.363342 0.030914
0.731934 0.365173 0.031250
0.025574 0.244232 0.036621
0.029694 0.246307 0.037323
0.035370 0.248840 0.037689
0.041626 0.251495 0.037231
0.048309 0.254913 0.037109
0.054901 0.258057 0.036224
0.062500 0.262909 0.034332
0.072998 0.267273 0.031982
0.087402 0.271057 0.030731
0.108276 0.274963 0.027771
0.142029 0.278778 0.022644
0.180450 0.282867 0.018860
0.219788 0.291046 0.021271
0.280792 0.300385 0.023651
0.345551 0.312775 0.025391
0.405457 0.323456 0.026672
0.455353 0.330200 0.026306
0.491394 0.334808 0.027039
0.525452 0.340118 0.027679
0.557343 0.345581 0.028320
0.581451 0.353394 0.027069
0.604034 0.360229 0.026337
0.624878 0.366913 0.025269
0.642609 0.371704 0.024353
0.656464 0.374451 0.024567
0.670013 0.376984 0.025177
0.682617 0.379639 0.025238
0.694672 0.382324 0.025513
0.703644 0.384033 0.025452
0.713531 0.385986 0.026031
0.721771 0.388306 0.025970
0.728516 0.390137 0.026001
0.029816 0.275146 0.044037
0.033234 0.277802 0.043823
0.039429 0.280151 0.043365
0.044952 0.283325 0.042450
0.052277 0.286774 0.040527
0.057129 0.289825 0.039612
0.066559 0.293243 0.036835
0.075592 0.297607 0.033905
0.087555 0.301025 0.031952
0.109283 0.304565 0.028168
0.143738 0.308899 0.022552
0.183319 0.312592 0.017609
0.220215 0.319580 0.019562
0.272522 0.326538 0.019348
0.337311 0.335205 0.022278
0.396149 0.345398 0.024231
0.450500 0.358002 0.022583
0.491882 0.364655 0.022675
0.525055 0.369720 0.023285
0.555328 0.374817 0.022980
0.579498 0.380768 0.022003
0.602234 0.387390 0.020935
0.623169 0.394501 0.019409
0.640564 0.398956 0.019043
0.654510 0.401917 0.018799
0.667603 0.404083 0.019440
0.679688 0.406219 0.019470
0.691498 0.408417 0.019836
0.700165 0.409943 0.020203
0.710022 0.411804 0.020081
0.718231 0.413513 0.020477
0.724609 0.415100 0.020691
0.032654 0.308868 0.049011
0.038452 0.310516 0.047668
0.043396 0.313965 0.047302
0.049225 0.315918 0.045197
0.055298 0.319061 0.042786
0.062347 0.320953 0.040741
0.071381 0.323914 0.038635
0.081024 0.327301 0.036194
0.091888 0.331268 0.032898
0.113800 0.335358 0.028717
0.149353 0.340302 0.022369
0.190918 0.344727 0.016846
0.225952 0.350739 0.016205
0.270874 0.355621 0.015076
0.336334 0.361664 0.018951
0.393768 0.372833 0.019806
0.443298 0.383575 0.018555
0.488159 0.392883 0.018036
0.523987 0.399414 0.018127
0.553284 0.403992 0.017578
0.576965 0.409332 0.017822
0.599121 0.414734 0.018097
0.620300 0.420197 0.018402
0.637085 0.424561 0.018616
0.650208 0.427643 0.018860
0.662994 0.430176 0.019073
0.674591 0.432129 0.019287
0.685730 0.434143 0.019470
0.694733 0.435791 0.019653
0.704712 0.437592 0.019836
0.713257 0.439148 0.020020
0.720001 0.440277 0.020142
0.037018 0.338715 0.050476
0.041962 0.340271 0.049500
0.047882 0.342316 0.048584
0.052979 0.344421 0.046570
0.059448 0.346619 0.043854
0.066193 0.349823 0.042450
0.075165 0.353424 0.040314
0.084137 0.357544 0.038025
0.096283 0.361664 0.034088
0.120636 0.366547 0.028046
0.159668 0.369995 0.021240
0.202271 0.375366 0.015411
0.234741 0.381958 0.013336
0.279358 0.386505 0.013885
0.337891 0.389099 0.015167
0.394745 0.399078 0.015625
0.441193 0.408783 0.016266
0.483734 0.416992 0.016907
0.518433 0.422333 0.017395
0.549835 0.428467 0.017761
0.573456 0.433655 0.018097
0.595428 0.438843 0.018402
0.615387 0.443695 0.018677
0.632019 0.447784 0.018890
0.645630 0.451080 0.019073
0.657959 0.453491 0.019318
0.669312 0.455597 0.019501
0.680542 0.457733 0.019684
0.689514 0.459503 0.019867
0.699677 0.461517 0.020081
0.708496 0.463226 0.020233
0.715363 0.464569 0.020386
0.041016 0.364716 0.050812
0.045837 0.366577 0.050598
0.051025 0.369263 0.049438
0.056305 0.372253 0.047913
0.062195 0.375702 0.046021
0.068909 0.379211 0.044403
0.077728 0.384186 0.042206
0.089935 0.388580 0.039154
0.105865 0.392731 0.033356
0.131897 0.397125 0.026459
0.171722 0.400360 0.019562
0.211670 0.406525 0.014587
0.245422 0.412018 0.014099
0.288269 0.415558 0.014587
0.340149 0.416656 0.015259
0.394531 0.423492 0.015991
0.439667 0.433136 0.016693
0.481262 0.441132 0.017273
0.515320 0.446106 0.017731
0.542725 0.449677 0.018005
0.569183 0.456818 0.018402
0.591797 0.462372 0.018768
0.611298 0.467072 0.019012
0.627716 0.471375 0.019226
0.640930 0.474701 0.019409
0.653534 0.477264 0.019592
0.664978 0.479340 0.019745
0.675690 0.481293 0.019897
0.684418 0.482727 0.020050
0.694550 0.484833 0.020264
0.703247 0.486572 0.020386
0.710266 0.487946 0.020569
0.044739 0.388672 0.052460
0.048553 0.391174 0.051697
0.054352 0.393768 0.050659
0.059174 0.397339 0.048981
0.064667 0.401398 0.047028
0.070099 0.405670 0.045868
0.082581 0.410583 0.042877
0.096130 0.415314 0.038940
0.113739 0.419281 0.032501
0.141693 0.423645 0.025116
0.181305 0.427582 0.018524
0.218323 0.431854 0.014771
0.252258 0.436127 0.014709
0.294800 0.437927 0.015137
0.342102 0.438446 0.015503
0.396545 0.446960 0.016449
0.444275 0.459198 0.017242
0.484161 0.466553 0.017792
0.515228 0.470581 0.018127
0.542236 0.473267 0.018433
0.563446 0.476044 0.018707
0.587646 0.483398 0.019073
0.607483 0.489075 0.019318
0.623779 0.493378 0.019531
0.637390 0.496826 0.019745
0.649902 0.499298 0.019867
0.661041 0.501404 0.020050
0.672180 0.503265 0.020172
0.680389 0.504242 0.020233
0.689941 0.505493 0.020416
0.698303 0.506592 0.020538
0.705200 0.508026 0.020630
0.047577 0.411835 0.054138
0.052307 0.413910 0.052551
0.055756 0.417603 0.051208
0.061035 0.421295 0.049805
0.066864 0.425781 0.047424
0.072998 0.429138 0.046448
0.085449 0.434052 0.043091
0.100708 0.438812 0.038300
0.119232 0.442810 0.031189
0.149963 0.447296 0.023590
0.189148 0.451569 0.017120
0.222839 0.454895 0.015320
0.257812 0.457275 0.015167
0.301392 0.458099 0.015533
0.345062 0.459534 0.015930
0.398132 0.469757 0.016846
0.447876 0.483582 0.017761
0.486908 0.491333 0.018280
0.515808 0.494354 0.018616
0.541687 0.496765 0.018860
0.563629 0.499115 0.019104
0.581635 0.501343 0.019257
0.603363 0.508667 0.019623
0.621582 0.514343 0.019897
0.635162 0.517853 0.020081
0.647919 0.520325 0.020264
0.658813 0.522247 0.020386
0.669220 0.523987 0.020477
0.677032 0.524323 0.020508
0.686127 0.524963 0.020569
0.694244 0.525696 0.020660
0.700745 0.526489 0.020782
0.050293 0.433563 0.054474
0.054504 0.436432 0.052673
0.058685 0.440399 0.051086
0.063263 0.444183 0.049744
0.069458 0.448456 0.047882
0.075226 0.452087 0.045624
0.088013 0.455902 0.042511
0.104675 0.460449 0.036957
0.125519 0.464355 0.030518
0.158539 0.469177 0.022064
0.195526 0.473114 0.016235
0.226562 0.474915 0.015808
0.263184 0.476746 0.015686
0.308411 0.477325 0.016113
0.351105 0.480896 0.016510
0.399078 0.492035 0.017273
0.449249 0.505463 0.018158
0.487488 0.513367 0.018677
0.516510 0.516968 0.018982
0.541412 0.519562 0.019257
0.563202 0.521637 0.019470
0.582214 0.523560 0.019714
0.598724 0.525696 0.019867
0.617584 0.531738 0.020142
0.633148 0.536896 0.020416
0.646118 0.539856 0.020599
0.656952 0.541748 0.020721
0.666779 0.543213 0.020721
0.674500 0.543304 0.020782
0.683105 0.543396 0.020782
0.690674 0.543488 0.020844
0.696716 0.543854 0.020874
0.052612 0.454865 0.054596
0.055756 0.457855 0.053619
0.061005 0.460938 0.051727
0.065735 0.464691 0.049896
0.070953 0.469269 0.047882
0.078156 0.471863 0.045166
0.090057 0.475952 0.041443
0.110382 0.479889 0.035736
0.135040 0.483826 0.028564
0.164429 0.488098 0.020966
0.199371 0.491241 0.016663
0.229919 0.493042 0.016296
0.268494 0.494415 0.016174
0.314270 0.495178 0.016663
0.356293 0.499603 0.017029
0.399323 0.510834 0.017609
0.448547 0.523682 0.018463
0.486481 0.532440 0.018951
0.515900 0.537048 0.019287
0.540588 0.539856 0.019562
0.561523 0.541718 0.019806
0.581177 0.543457 0.020050
0.598694 0.545319 0.020233
0.614014 0.546753 0.020325
0.629456 0.551880 0.020599
0.643280 0.555939 0.020782
0.654724 0.558472 0.020905
0.664642 0.560211 0.021027
0.672302 0.560394 0.021027
0.680908 0.560455 0.021057
0.688263 0.560455 0.021088
0.694153 0.560425 0.021088
0.054260 0.472870 0.055969
0.058655 0.475281 0.054047
0.063171 0.478729 0.051941
0.067993 0.481689 0.049469
0.073456 0.485657 0.046814
0.080231 0.488434 0.044281
0.095673 0.492401 0.040619
0.117889 0.496460 0.034393
0.143311 0.500244 0.026550
0.171051 0.504120 0.019196
0.201813 0.506104 0.017090
0.232574 0.508026 0.016602
0.273346 0.509247 0.016663
0.319763 0.509979 0.017120
0.360535 0.515167 0.017487
0.398987 0.526031 0.017822
0.448181 0.538269 0.018646
0.485565 0.547577 0.019135
0.514282 0.552704 0.019470
0.538971 0.556030 0.019775
0.559845 0.558014 0.020050
0.579437 0.559631 0.020264
0.597809 0.561249 0.020508
0.613739 0.562714 0.020630
0.626556 0.564087 0.020752
0.640320 0.568085 0.020935
0.652039 0.571350 0.021088
0.662689 0.573975 0.021179
0.670471 0.574432 0.021240
0.679230 0.574615 0.021271
0.686523 0.574738 0.021271
0.692383 0.574738 0.021301
0.057129 0.489197 0.056610
0.060486 0.491455 0.054993
0.065277 0.494598 0.052856
0.070099 0.497528 0.049194
0.075531 0.501038 0.046173
0.081604 0.503906 0.043335
0.100800 0.508087 0.039551
0.123993 0.512329 0.032684
0.149567 0.516144 0.025330
0.177521 0.519897 0.017822
0.207092 0.521454 0.017426
0.236420 0.523468 0.017029
0.278809 0.523834 0.017212
0.325287 0.524536 0.017548
0.363861 0.529510 0.017853
0.401215 0.539734 0.018188
0.446411 0.551086 0.018768
0.483612 0.560486 0.019318
0.512238 0.566345 0.019623
0.536713 0.570160 0.019958
0.557587 0.572449 0.020203
0.577240 0.574280 0.020447
0.595673 0.575836 0.020691
0.612732 0.576904 0.020905
0.625732 0.578186 0.020996
0.637512 0.579681 0.021088
0.649261 0.583099 0.021240
0.660187 0.586395 0.021362
0.668732 0.588593 0.021423
0.677582 0.589172 0.021484
0.685028 0.589417 0.021515
0.690857 0.589478 0.021515
0.058746 0.504517 0.058075
0.062653 0.506348 0.055542
0.066833 0.509125 0.053650
0.071472 0.511780 0.049896
0.076447 0.515320 0.046265
0.084076 0.517853 0.042725
0.103485 0.521820 0.038940
0.129303 0.526520 0.031128
0.154419 0.530884 0.023712
0.182373 0.534302 0.018250
0.212189 0.535950 0.017914
0.241394 0.537628 0.017517
0.285370 0.537537 0.017731
0.330017 0.538269 0.018036
0.366821 0.542969 0.018188
0.402771 0.551849 0.018463
0.443848 0.562439 0.018921
0.481079 0.571594 0.019409
0.509735 0.577728 0.019714
0.534424 0.582153 0.020142
0.555756 0.585083 0.020386
0.575256 0.586945 0.020630
0.593384 0.588684 0.020813
0.610748 0.589661 0.021027
0.624390 0.590790 0.021179
0.636230 0.592285 0.021271
0.646515 0.593903 0.021301
0.657654 0.597504 0.021515
0.666351 0.599823 0.021606
0.675903 0.602203 0.021667
0.683563 0.602966 0.021729
0.689514 0.603180 0.021759
0.060822 0.519653 0.059692
0.064301 0.521423 0.057465
0.068695 0.523743 0.053741
0.073364 0.525909 0.050385
0.078796 0.528717 0.045502
0.086731 0.531708 0.042389
0.106110 0.536224 0.038116
0.131958 0.540924 0.030029
0.157776 0.545166 0.021912
0.188293 0.548218 0.018585
0.217682 0.550018 0.018280
0.247650 0.550995 0.017975
0.292542 0.551086 0.018250
0.334656 0.552002 0.018463
0.370148 0.556183 0.018555
0.404907 0.563995 0.018768
0.441040 0.573517 0.019012
