滤镜资源/Professional Luts Collection/Triune-Digital-Cinematic-LUTs/3D LUTs (CUBE)/REDLOGFILM/Indiana Jones - REDlogFilm.cube
#Created by Benjamin (IWLTBAP) : http://luts.iwltbap.com
#Copyright: (C) Copyright 2016 Triune Films and IWLTBAP
TITLE "Blockbuster LUTs Pack (REDlogFilm)"
#LUT size
LUT_3D_SIZE 8
#LUT data points
DOMAIN_MIN 0.000000 0.000000 0.000000
DOMAIN_MAX 0.903226 0.903226 0.903226
0.008209 0.012512 0.009857
0.029694 0.015961 0.011047
0.088806 0.022156 0.012299
0.266479 0.045532 0.029297
0.481110 0.077179 0.037476
0.640442 0.100952 0.050537
0.722504 0.113708 0.056213
0.766541 0.118591 0.061890
0.009308 0.035004 0.012299
0.029602 0.037262 0.012238
0.083710 0.045227 0.012451
0.239227 0.067383 0.027222
0.460114 0.107758 0.039825
0.622955 0.136902 0.045502
0.722443 0.146912 0.058075
0.770630 0.153656 0.063202
0.011963 0.075409 0.016815
0.030731 0.078522 0.016266
0.076691 0.088104 0.013519
0.233398 0.115936 0.026154
0.434906 0.152313 0.039551
0.597809 0.200897 0.045135
0.690674 0.223633 0.055756
0.743347 0.234985 0.055939
0.016968 0.156677 0.025360
0.036285 0.163788 0.025391
0.078644 0.178833 0.023926
0.219604 0.198883 0.023468
0.436493 0.240875 0.030945
0.583435 0.275543 0.033264
0.667786 0.297577 0.039673
0.716125 0.311188 0.040039
0.029816 0.275146 0.044037
0.052277 0.286774 0.040527
0.087555 0.301025 0.031952
0.220215 0.319580 0.019562
0.450500 0.358002 0.022583
0.579498 0.380768 0.022003
0.654510 0.401917 0.018799
0.700165 0.409943 0.020203
0.044739 0.388672 0.052460
0.064667 0.401398 0.047028
0.113739 0.419281 0.032501
0.252258 0.436127 0.014709
0.444275 0.459198 0.017242
0.563446 0.476044 0.018707
0.637390 0.496826 0.019745
0.680389 0.504242 0.020233
0.054260 0.472870 0.055969
0.073456 0.485657 0.046814
0.143311 0.500244 0.026550
0.273346 0.509247 0.016663
0.448181 0.538269 0.018646
0.559845 0.558014 0.020050
0.626556 0.564087 0.020752
0.670471 0.574432 0.021240
0.062500 0.530945 0.060181
0.079468 0.540619 0.046234
0.160919 0.556213 0.021057
0.294586 0.562256 0.018616
0.438660 0.582123 0.019073
0.552216 0.606018 0.020630
0.620453 0.613159 0.021423
0.661621 0.619812 0.021759
0.010406 0.013947 0.027191
0.030792 0.015381 0.028564
0.087830 0.022034 0.030762
0.277191 0.045593 0.050446
0.484985 0.074280 0.062317
0.636292 0.094513 0.079010
0.713684 0.106537 0.092773
0.755432 0.112457 0.099884
0.011078 0.034576 0.028595
0.034607 0.040314 0.032410
0.099762 0.050995 0.032227
0.316742 0.086975 0.058075
0.527283 0.120911 0.071381
0.664734 0.145294 0.084442
0.746246 0.156281 0.088928
0.787872 0.165741 0.097473
0.013855 0.075470 0.034241
0.034027 0.084442 0.036713
0.086761 0.094574 0.029907
0.272430 0.125183 0.047699
0.473724 0.172089 0.068695
0.636993 0.217041 0.078979
0.717957 0.234467 0.083649
0.765808 0.239471 0.086700
0.017212 0.156219 0.045746
0.040680 0.175201 0.048920
0.084656 0.186798 0.043701
0.245087 0.206757 0.040253
0.466278 0.250702 0.053009
0.605591 0.288116 0.056030
0.684570 0.304840 0.062256
0.736328 0.319977 0.066345
0.029205 0.275848 0.067108
0.054871 0.300171 0.063721
0.094177 0.309326 0.054260
0.240234 0.327393 0.034027
0.470490 0.365845 0.038940
0.596771 0.392151 0.037811
0.671539 0.410248 0.038757
0.717834 0.418976 0.040558
0.045349 0.388611 0.077332
0.066101 0.411987 0.071136
0.130524 0.425385 0.052490
0.272766 0.439056 0.022644
0.470062 0.473907 0.021332
0.580109 0.489960 0.020721
0.649170 0.503479 0.021484
0.692383 0.509583 0.022003
0.055969 0.468597 0.082794
0.075806 0.494995 0.070251
0.165283 0.510681 0.048248
0.304047 0.518799 0.019012
0.462860 0.545746 0.020325
0.574127 0.564514 0.021729
0.638611 0.572845 0.022461
0.682159 0.582855 0.022888
0.063324 0.529297 0.086792
0.103271 0.556366 0.064972
0.199860 0.570557 0.039429
0.322723 0.574341 0.020782
0.449371 0.591125 0.020782
0.566406 0.612335 0.022217
0.632080 0.623108 0.023041
0.672729 0.631500 0.023468
0.016693 0.020294 0.068573
0.037628 0.017334 0.069824
0.077118 0.020660 0.073090
0.241699 0.040619 0.090912
0.467163 0.069183 0.119446
0.619232 0.089752 0.132019
0.695465 0.099609 0.148651
0.735443 0.103119 0.154358
0.019165 0.040619 0.068542
0.042664 0.047424 0.080536
0.093719 0.047455 0.087006
0.314941 0.085480 0.113098
0.531921 0.110687 0.135864
0.667938 0.131592 0.149811
0.741669 0.139984 0.157501
0.779419 0.144775 0.156799
0.018036 0.078583 0.071564
0.038513 0.088654 0.081055
0.103760 0.113525 0.102203
0.326019 0.164856 0.128357
0.555450 0.222351 0.161194
0.685883 0.242859 0.164459
0.761749 0.255829 0.160461
0.807220 0.274963 0.171600
0.022064 0.159821 0.089355
0.044525 0.174347 0.099884
0.095520 0.217316 0.114105
0.271088 0.230316 0.084747
0.497009 0.286713 0.111511
0.639160 0.332367 0.121826
0.719666 0.344727 0.121368
0.771027 0.356018 0.122498
0.032288 0.274292 0.108734
0.057251 0.304260 0.113159
0.103607 0.340332 0.103821
0.269348 0.339294 0.065460
0.495483 0.373932 0.074219
0.610229 0.406952 0.076111
0.688080 0.434448 0.079407
0.739288 0.442047 0.082611
0.046783 0.387360 0.122589
0.071014 0.411560 0.121582
0.140442 0.445831 0.103882
0.295959 0.456543 0.059204
0.488800 0.483063 0.055481
0.596405 0.500031 0.052734
0.669373 0.516907 0.046906
0.718445 0.525665 0.048523
0.055267 0.464508 0.124969
0.079224 0.491302 0.119598
0.193787 0.527435 0.089905
0.336304 0.532440 0.056641
0.482544 0.553101 0.033661
0.591400 0.571289 0.030334
0.655457 0.583191 0.026886
0.703796 0.597412 0.025787
0.063690 0.524689 0.131622
0.083374 0.550903 0.122314
0.222504 0.586121 0.084564
0.354279 0.585571 0.049683
0.473755 0.602692 0.023407
0.586029 0.626038 0.025085
0.652740 0.640717 0.025909
0.691925 0.648132 0.026276
0.027863 0.031067 0.148590
0.045197 0.025787 0.149414
0.080566 0.028778 0.153503
0.189484 0.028412 0.143982
0.413788 0.052338 0.177551
0.580139 0.075287 0.198700
0.648376 0.082581 0.204712
0.674805 0.083649 0.205078
0.031189 0.058899 0.150208
0.054352 0.065491 0.183105
0.095428 0.056458 0.195160
0.251862 0.055603 0.180084
0.481628 0.089325 0.210144
0.637024 0.112610 0.226624
0.713684 0.123291 0.241638
0.752686 0.127563 0.245483
0.035278 0.100037 0.156616
0.057373 0.118622 0.184753
0.107208 0.147705 0.240295
0.331970 0.143036 0.243713
0.562378 0.203583 0.276306
0.707947 0.226837 0.284271
0.781830 0.228058 0.287048
0.825653 0.247864 0.295197
0.041382 0.170746 0.172028
0.063385 0.190063 0.193939
0.108795 0.241486 0.241150
0.327087 0.329498 0.312378
0.575928 0.388824 0.326233
0.717102 0.422852 0.344971
0.790527 0.434784 0.325775
0.836884 0.446014 0.321625
0.061340 0.298950 0.221588
0.081787 0.326172 0.244873
0.119110 0.369537 0.271454
0.313660 0.455170 0.300720
0.520569 0.452393 0.211639
0.656433 0.498932 0.246490
0.742096 0.515900 0.242859
0.789429 0.514771 0.227173
0.067047 0.399414 0.226837
0.083405 0.419952 0.238647
0.120178 0.465088 0.253876
0.295898 0.549652 0.258759
0.477051 0.537872 0.152039
0.625977 0.564697 0.156830
0.710663 0.588501 0.177277
0.761230 0.589722 0.168152
0.070679 0.474152 0.237946
0.089935 0.497284 0.246552
0.123566 0.551422 0.241791
0.314240 0.625031 0.253418
0.475464 0.610107 0.130829
0.604980 0.623596 0.115265
0.687897 0.642944 0.119324
0.741486 0.651550 0.125702
0.073120 0.509827 0.226257
0.092529 0.546448 0.231628
0.128113 0.603149 0.230804
0.304047 0.670227 0.238586
0.483490 0.649109 0.111847
0.591644 0.662079 0.082458
0.674805 0.679626 0.079681
0.725891 0.693573 0.093292
0.048157 0.036407 0.231384
0.062012 0.033203 0.229065
0.091492 0.030823 0.241119
0.176575 0.034668 0.259979
0.385681 0.041565 0.256012
0.564148 0.067505 0.282379
0.629120 0.075256 0.290649
0.657257 0.076782 0.293335
0.052948 0.065277 0.240906
0.077057 0.075867 0.278412
0.104584 0.065979 0.292389
0.194031 0.058167 0.282288
0.414795 0.065765 0.270569
0.587921 0.093994 0.297974
0.667328 0.106415 0.314575
0.709320 0.111633 0.323212
0.061646 0.116364 0.261383
0.083405 0.140900 0.295074
0.135529 0.174347 0.387604
0.296967 0.134857 0.371857
0.533691 0.134247 0.343109
0.679169 0.160553 0.362488
0.750641 0.174866 0.374573
0.795227 0.192444 0.385284
0.070251 0.195190 0.283447
0.091736 0.220245 0.315613
0.133423 0.282013 0.374603
0.323212 0.375610 0.464020
0.594177 0.373932 0.457214
0.733948 0.420074 0.472046
0.817078 0.443237 0.471588
0.861877 0.456390 0.467773
0.083496 0.308014 0.321869
0.101349 0.330292 0.342957
0.137878 0.379822 0.384277
0.282806 0.477234 0.455963
0.584320 0.566864 0.514740
0.735107 0.606262 0.523926
0.823578 0.618073 0.511322
0.870850 0.625702 0.512787
0.101715 0.428375 0.372681
0.119415 0.450592 0.391479
0.155365 0.502777 0.427765
0.266998 0.594574 0.478668
0.551727 0.671661 0.518616
0.696320 0.671356 0.461823
0.791382 0.690613 0.460754
0.839966 0.691498 0.447479
0.112762 0.514343 0.400299
0.130219 0.539337 0.417114
0.161987 0.592529 0.448029
0.249207 0.671539 0.482300
0.526886 0.751312 0.527893
0.666718 0.740540 0.420135
0.764069 0.746521 0.416229
0.819153 0.751556 0.416809
0.119629 0.567688 0.416779
0.136475 0.595825 0.433655
0.165009 0.645660 0.453735
0.242340 0.728516 0.490265
0.516541 0.805725 0.551208
0.673462 0.792603 0.433777
0.744934 0.787079 0.393158
0.805298 0.795502 0.409058
0.064850 0.037262 0.290375
0.074524 0.034607 0.283539
0.099792 0.033875 0.289917
0.164948 0.046021 0.352631
0.429810 0.052490 0.375580
0.578430 0.071472 0.369202
0.636902 0.076447 0.375580
0.664337 0.077271 0.379272
0.071594 0.068146 0.308136
0.090546 0.075592 0.337036
0.112579 0.068573 0.340515
0.177795 0.070374 0.368103
0.442566 0.074463 0.383728
0.583771 0.091644 0.375671
0.649536 0.096802 0.386993
0.679840 0.098572 0.390076
0.081055 0.128052 0.341431
0.102722 0.149689 0.375244
0.150330 0.168915 0.467163
0.234833 0.126862 0.437408
0.492859 0.116547 0.423340
0.631744 0.134216 0.407806
0.709137 0.144867 0.425171
0.757874 0.156403 0.442902
0.091217 0.210419 0.368042
0.113861 0.245148 0.406036
0.156403 0.308075 0.473450
0.316406 0.400391 0.576782
0.580414 0.336578 0.559753
0.732056 0.357147 0.540497
0.811401 0.389130 0.546051
0.853668 0.417389 0.552551
0.105438 0.326080 0.406647
0.124634 0.352478 0.433014
0.159210 0.399811 0.478668
0.288086 0.509308 0.562256
0.568146 0.598267 0.623627
0.748444 0.600708 0.620605
0.842285 0.627014 0.626312
0.888733 0.636078 0.627167
0.120758 0.437500 0.448639
0.137482 0.456818 0.467285
0.167389 0.493195 0.496674
0.270416 0.585388 0.557892
0.543213 0.686829 0.622375
0.756256 0.747650 0.662506
0.853973 0.763702 0.672058
0.900696 0.773651 0.669373
0.135437 0.529114 0.486786
0.151062 0.546265 0.502899
0.180542 0.588776 0.537384
0.264893 0.678558 0.590790
0.511230 0.767731 0.641541
0.753510 0.820312 0.677612
0.830017 0.817078 0.635406
0.881378 0.818207 0.629974
0.144104 0.588135 0.512787
0.159943 0.605743 0.529938
0.190277 0.656433 0.563110
0.253632 0.737518 0.611145
0.505859 0.822540 0.657135
0.751709 0.873627 0.697693
0.825653 0.868408 0.648590
0.872528 0.861755 0.631104
0.074554 0.033691 0.326263
0.081787 0.030853 0.316589
0.104492 0.033508 0.322571
0.161835 0.044189 0.390869
0.414307 0.052734 0.437103
0.597290 0.070343 0.441345
0.647217 0.074646 0.437225
0.672302 0.075378 0.436066
0.080048 0.064392 0.344696
0.096283 0.071594 0.364746
0.116669 0.064392 0.365875
0.169159 0.067932 0.405487
0.425110 0.072632 0.440308
0.605133 0.091278 0.442566
0.649658 0.093658 0.440552
0.676727 0.094696 0.442200
0.095032 0.132446 0.394958
0.113525 0.150421 0.420837
0.158722 0.172211 0.509216
0.216553 0.127808 0.488037
0.466400 0.113739 0.476868
0.639984 0.130341 0.470459
0.688507 0.134155 0.467957
0.737579 0.144531 0.484711
0.107452 0.226074 0.429810
0.126587 0.257233 0.461670
0.168060 0.314606 0.528503
0.288574 0.400085 0.639465
0.557190 0.296173 0.616180
0.725067 0.278351 0.581360
0.787201 0.305389 0.581268
0.836395 0.346741 0.596558
0.120972 0.338440 0.466766
0.138367 0.364471 0.491821
0.176575 0.419708 0.546234
0.279694 0.522705 0.633881
0.564941 0.613403 0.696106
0.741547 0.595398 0.698761
0.847717 0.618195 0.686615
0.890442 0.642914 0.696533
0.134766 0.443970 0.504425
0.149506 0.461273 0.520294
0.183502 0.508728 0.562164
0.271881 0.603668 0.631348
0.537781 0.702362 0.699158
0.771637 0.775238 0.743835
0.856628 0.774323 0.741150
0.909912 0.786438 0.751099
0.146790 0.530334 0.535492
0.161621 0.546509 0.551819
0.191956 0.583862 0.585266
0.270477 0.668030 0.639008
0.501007 0.767365 0.702576
0.743561 0.826263 0.746033
0.878693 0.867371 0.772095
0.924957 0.872681 0.776611
0.156555 0.591675 0.564453
0.171906 0.607422 0.579376
0.201660 0.652313 0.612701
0.264038 0.730164 0.663391
0.482819 0.825317 0.723511
0.750336 0.880829 0.762054
0.883820 0.910248 0.786346
0.912598 0.903046 0.753082
0.078674 0.031097 0.345398
0.085785 0.027496 0.335571
0.108429 0.032135 0.343628
0.163422 0.041565 0.409271
0.400391 0.052948 0.462006
0.602539 0.070221 0.469696
0.651855 0.073914 0.469086
0.677643 0.074524 0.469330
0.085388 0.062256 0.366028
0.105713 0.073700 0.402222
0.125061 0.067963 0.400696
0.171722 0.067078 0.431427
0.401886 0.073029 0.464813
0.606262 0.090118 0.470947
0.653534 0.093048 0.470795
0.681183 0.094208 0.472107
0.099579 0.126556 0.412659
0.117462 0.145477 0.440826
0.163910 0.173309 0.532715
0.216736 0.128662 0.517303
0.452301 0.115601 0.509491
0.640472 0.129883 0.502106
0.698120 0.137024 0.503204
0.734375 0.142456 0.512909
0.115692 0.234253 0.464020
0.135284 0.264191 0.496704
0.176636 0.322449 0.565125
0.283264 0.414154 0.681030
0.543549 0.302460 0.657410
0.720856 0.261871 0.616760
0.789703 0.291718 0.615234
0.827850 0.318329 0.626862
0.133881 0.356903 0.514313
0.152313 0.383759 0.540558
0.187103 0.432861 0.589447
0.280273 0.534607 0.681763
0.562378 0.634735 0.742340
0.742676 0.614380 0.742706
0.853119 0.628571 0.734253
0.891449 0.637970 0.733002
0.144562 0.451782 0.542786
0.159943 0.471619 0.561798
0.195038 0.520660 0.607147
0.271881 0.613800 0.681519
0.529938 0.716919 0.745239
0.776276 0.788483 0.789490
0.863739 0.793610 0.788177
0.910583 0.796997 0.789642
0.155731 0.534515 0.571503
0.170532 0.550903 0.587433
0.201935 0.592987 0.625610
0.272095 0.678528 0.687378
0.510742 0.780243 0.750916
0.764557 0.843170 0.794067
0.892212 0.881927 0.819275
0.929230 0.881500 0.819733
0.165131 0.592285 0.594727
0.179779 0.608551 0.610352
0.207886 0.647736 0.641479
0.273499 0.727020 0.696838
0.487579 0.825439 0.759949
0.748352 0.883850 0.798737
0.886444 0.914307 0.818665
0.937836 0.928833 0.828552
