滤镜资源/Professional Luts Collection/Triune-Digital-Cinematic-LUTs/3D LUTs (CUBE)/REDLOGFILM/Indiana Jones - REDlogFilm.cube
#Created by Benjamin (IWLTBAP) : http://luts.iwltbap.com
#Copyright: (C) Copyright 2016 Triune Films and IWLTBAP
TITLE "Blockbuster LUTs Pack (REDlogFilm)"
#LUT size
LUT_3D_SIZE 5
#LUT data points
DOMAIN_MIN 0.000000 0.000000 0.000000
DOMAIN_MAX 0.903226 0.903226 0.903226
0.008209 0.012512 0.009857
0.069702 0.020081 0.013245
0.385529 0.062653 0.032623
0.666138 0.104889 0.050385
0.766541 0.118591 0.061890
0.010895 0.063293 0.015411
0.060547 0.072449 0.013947
0.331940 0.118195 0.031952
0.635986 0.194183 0.052979
0.752289 0.214172 0.058960
0.023224 0.214355 0.032898
0.070648 0.237457 0.029663
0.353241 0.288849 0.027740
0.606873 0.334198 0.030853
0.706268 0.358459 0.030396
0.047577 0.411835 0.054138
0.100708 0.438812 0.038300
0.345062 0.459534 0.015930
0.581635 0.501343 0.019257
0.677032 0.524323 0.020508
0.062500 0.530945 0.060181
0.135162 0.552216 0.028473
0.372620 0.566711 0.018829
0.572205 0.608521 0.020874
0.661621 0.619812 0.021759
0.015045 0.018066 0.055634
0.062714 0.019073 0.059418
0.374664 0.057983 0.093292
0.647949 0.093658 0.120636
0.740356 0.105408 0.136871
0.016846 0.064240 0.057098
0.077820 0.087433 0.076874
0.450867 0.164429 0.120422
0.704803 0.214783 0.136749
0.803589 0.243042 0.148651
0.026001 0.212097 0.084656
0.078522 0.267242 0.090424
0.392334 0.294952 0.069031
0.637848 0.361786 0.081146
0.749146 0.389221 0.085236
0.048523 0.410950 0.107819
0.128113 0.459015 0.091003
0.394684 0.480896 0.039185
0.608032 0.517914 0.034515
0.705780 0.538147 0.028290
0.063232 0.527222 0.117340
0.196472 0.578766 0.078888
0.411865 0.590057 0.023071
0.600739 0.627289 0.024536
0.686493 0.643829 0.025421
0.035217 0.034607 0.194550
0.072815 0.027679 0.196716
0.275696 0.030273 0.192383
0.597382 0.074890 0.244690
0.664368 0.079285 0.248260
0.045593 0.096375 0.210358
0.107300 0.133179 0.306915
0.420990 0.106781 0.282654
0.697052 0.159576 0.310272
0.792542 0.178680 0.328796
0.062042 0.238953 0.247253
0.109375 0.296295 0.304260
0.475830 0.459045 0.420227
0.754883 0.529144 0.434296
0.852448 0.542084 0.422058
0.088043 0.444672 0.314758
0.130676 0.498718 0.351257
0.409515 0.642029 0.411591
0.680084 0.643433 0.304169
0.791046 0.662201 0.303497
0.097015 0.544586 0.326263
0.136169 0.604980 0.350800
0.385803 0.744354 0.408264
0.634216 0.723694 0.225555
0.762360 0.748199 0.252808
0.068970 0.036377 0.302155
0.093201 0.034424 0.296509
0.273865 0.049561 0.386536
0.601288 0.073364 0.390869
0.667145 0.076477 0.397552
0.083405 0.115631 0.352386
0.138336 0.140259 0.451019
0.329102 0.103455 0.429932
0.633392 0.120422 0.411682
0.723938 0.131622 0.435516
0.103424 0.271210 0.405792
0.150909 0.343597 0.478790
0.445892 0.513245 0.626465
0.771057 0.497040 0.604126
0.873505 0.539581 0.611969
0.128632 0.464020 0.473755
0.165253 0.505829 0.510681
0.394653 0.667969 0.619598
0.794281 0.786316 0.693420
0.906738 0.801208 0.700043
0.148010 0.590027 0.529053
0.184998 0.639130 0.569000
0.352051 0.783203 0.650909
0.794281 0.884521 0.723236
0.883881 0.873505 0.667145
0.078674 0.031097 0.345398
0.101379 0.031067 0.341156
0.231171 0.052094 0.438263
0.623383 0.072845 0.469421
0.677643 0.074524 0.469330
0.095123 0.109467 0.400696
0.146423 0.136566 0.490875
0.283691 0.107208 0.481201
0.648804 0.120026 0.488617
0.715424 0.125732 0.497772
0.125671 0.297821 0.492188
0.170868 0.365356 0.561646
0.400787 0.533691 0.714752
0.771149 0.453522 0.690674
0.868256 0.498352 0.687469
0.147125 0.473969 0.550232
0.185333 0.522552 0.595764
0.378052 0.685364 0.717926
0.813782 0.818085 0.798981
0.916046 0.823242 0.798523
0.165131 0.592285 0.594727
0.199280 0.634216 0.631500
0.370056 0.781860 0.733307
0.795776 0.893677 0.802612
0.937836 0.928833 0.828552
