滤镜资源/Professional Luts Collection/Triune-Digital-Cinematic-LUTs/3D LUTs (CUBE)/REDLOGFILM/Mission Impossible - REDlogFilm.cube
#Created by Benjamin (IWLTBAP) : http://luts.iwltbap.com
#Copyright: (C) Copyright 2016 Triune Films and IWLTBAP
TITLE "Blockbuster LUTs Pack (REDlogFilm)"
#LUT size
LUT_3D_SIZE 8
#LUT data points
DOMAIN_MIN 0.000000 0.000000 0.000000
DOMAIN_MAX 0.903226 0.903226 0.903226
0.006775 0.005463 0.012207
0.040558 0.009155 0.014740
0.135406 0.023010 0.021942
0.291809 0.043488 0.039917
0.486816 0.070740 0.071289
0.666626 0.104828 0.098663
0.786926 0.127563 0.113495
0.856567 0.139374 0.121155
0.007721 0.048065 0.013000
0.040436 0.050415 0.014069
0.133667 0.059753 0.019775
0.294434 0.080292 0.037506
0.490417 0.108612 0.069855
0.667908 0.140350 0.098053
0.787720 0.162689 0.113159
0.858917 0.175201 0.121521
0.012604 0.132874 0.019165
0.045013 0.136536 0.019470
0.128784 0.135864 0.022034
0.298401 0.151886 0.033203
0.491455 0.184479 0.061890
0.680634 0.219238 0.095856
0.802887 0.240906 0.113586
0.873291 0.253601 0.125885
0.020752 0.269623 0.033203
0.052277 0.270691 0.033203
0.112000 0.279053 0.030457
0.300842 0.287140 0.039001
0.508240 0.308899 0.062469
0.695312 0.345428 0.092773
0.822357 0.369690 0.110077
0.892670 0.384491 0.123413
0.032562 0.437103 0.057129
0.064697 0.438904 0.056458
0.124969 0.445648 0.053650
0.288300 0.463013 0.055023
0.527405 0.493408 0.077332
0.720795 0.513947 0.098083
0.847015 0.536133 0.114502
0.913940 0.546967 0.131805
0.048157 0.592560 0.091034
0.079865 0.593323 0.090363
0.140411 0.600372 0.088379
0.268890 0.624878 0.075592
0.544525 0.663513 0.095215
0.736847 0.703613 0.112518
0.859283 0.701508 0.137848
0.930328 0.703217 0.150146
0.063690 0.700012 0.113678
0.096558 0.702881 0.113129
0.156647 0.708069 0.110260
0.276703 0.733215 0.105530
0.544830 0.777924 0.113220
0.742676 0.818970 0.133606
0.860413 0.829803 0.152222
0.937469 0.826294 0.161560
0.076050 0.775299 0.119720
0.108215 0.776886 0.118469
0.169556 0.786102 0.115326
0.288483 0.813416 0.118622
0.543274 0.860809 0.126404
0.741150 0.886322 0.151276
0.859711 0.895935 0.159882
0.933960 0.903259 0.165985
0.008484 0.011200 0.059052
0.043030 0.011780 0.062317
0.147644 0.024963 0.065735
0.297760 0.043030 0.078583
0.494019 0.073395 0.109253
0.672211 0.107147 0.135834
0.790466 0.129517 0.149567
0.859009 0.141388 0.157867
0.009399 0.053711 0.061829
0.041138 0.053833 0.063110
0.138031 0.063446 0.065765
0.299255 0.083618 0.080597
0.497192 0.110779 0.111145
0.676422 0.145172 0.137756
0.794891 0.167419 0.151489
0.863556 0.178986 0.160217
0.013763 0.138092 0.067932
0.045685 0.140167 0.066864
0.122742 0.143402 0.068604
0.303314 0.157410 0.076843
0.500732 0.187164 0.106171
0.685028 0.222015 0.137909
0.805786 0.244171 0.155243
0.874573 0.256409 0.167969
0.021332 0.273956 0.079681
0.052734 0.274261 0.076538
0.111267 0.277924 0.072754
0.301331 0.290527 0.075775
0.516357 0.315216 0.102112
0.705902 0.352844 0.132660
0.829407 0.376007 0.150269
0.896027 0.388916 0.168091
0.034119 0.442902 0.103058
0.066101 0.443848 0.101135
0.124207 0.444763 0.096222
0.281525 0.470459 0.092590
0.528748 0.497925 0.111572
0.725861 0.519562 0.134491
0.851379 0.542511 0.155518
0.912659 0.549652 0.174744
0.050079 0.598145 0.134094
0.081757 0.598419 0.132568
0.139771 0.599213 0.129730
0.253632 0.620178 0.120636
0.543671 0.666870 0.132629
0.737793 0.707001 0.149841
0.859467 0.703308 0.176727
0.929688 0.704590 0.187469
0.064819 0.702606 0.154114
0.097504 0.704987 0.153168
0.157410 0.710205 0.151367
0.268280 0.728088 0.148163
0.543640 0.781494 0.150391
0.741730 0.820190 0.173676
0.860687 0.831604 0.189087
0.938263 0.827728 0.195404
0.078125 0.780823 0.160034
0.110168 0.782135 0.158569
0.169098 0.785034 0.154816
0.281250 0.811798 0.153931
0.540161 0.865356 0.164520
0.740753 0.887573 0.189331
0.860382 0.897858 0.197937
0.934601 0.904144 0.199524
0.012054 0.026245 0.146057
0.044464 0.026917 0.149536
0.148651 0.030609 0.154419
0.313690 0.047302 0.156525
0.507172 0.078918 0.179749
0.678436 0.109589 0.202698
0.794708 0.131805 0.216034
0.862091 0.143677 0.223633
0.012817 0.070984 0.149292
0.044678 0.070770 0.151093
0.132324 0.069275 0.158691
0.315002 0.085815 0.156250
0.509705 0.115265 0.181274
0.683014 0.148376 0.205780
0.798920 0.170471 0.219727
0.868317 0.183105 0.229340
0.015137 0.148346 0.154968
0.046600 0.149017 0.156616
0.115234 0.152252 0.161957
0.303101 0.165833 0.164795
0.507446 0.194122 0.189270
0.692230 0.229553 0.215485
0.808197 0.249512 0.231750
0.873596 0.260681 0.246033
0.023193 0.290588 0.178314
0.055389 0.291046 0.175140
0.112640 0.289307 0.170319
0.278870 0.296265 0.166260
0.526733 0.328400 0.188049
0.719666 0.363770 0.209198
0.833832 0.384094 0.236359
0.895233 0.394135 0.256073
0.038025 0.456665 0.194702
0.069885 0.458160 0.192657
0.127563 0.458527 0.186798
0.237976 0.475220 0.175842
0.529633 0.509583 0.183716
0.738190 0.534088 0.210938
0.851959 0.550385 0.240631
0.915405 0.558990 0.255615
0.055664 0.612457 0.217438
0.087555 0.612854 0.215698
0.145508 0.612946 0.212219
0.248962 0.619995 0.208496
0.525238 0.672150 0.205200
0.738037 0.712830 0.232269
0.860168 0.707458 0.253052
0.932465 0.710999 0.261475
0.070007 0.715546 0.231964
0.102020 0.716400 0.229919
0.160187 0.717377 0.227478
0.264923 0.730438 0.227966
0.539154 0.795441 0.229706
0.741364 0.825073 0.252350
0.860229 0.835419 0.261108
0.938721 0.831696 0.264099
0.083282 0.794891 0.236664
0.114929 0.795258 0.235016
0.173340 0.797089 0.232239
0.280365 0.812378 0.233490
0.533661 0.872894 0.237610
0.740387 0.891510 0.262390
0.861816 0.902527 0.269836
0.936493 0.907837 0.269775
0.015198 0.051422 0.280182
0.047516 0.050751 0.286438
0.117065 0.051056 0.290802
0.313080 0.063538 0.295105
0.512390 0.084442 0.301392
0.697723 0.121277 0.323730
0.806915 0.141724 0.335175
0.870087 0.151978 0.342377
0.012115 0.100555 0.287140
0.043518 0.100922 0.288635
0.107758 0.091858 0.293640
0.299225 0.100098 0.301666
0.516602 0.123840 0.304413
0.699860 0.158844 0.325775
0.808533 0.178955 0.337036
0.874451 0.190521 0.347717
0.015015 0.174500 0.293884
0.046661 0.175537 0.294525
0.104248 0.176727 0.297302
0.283905 0.168457 0.316620
0.516693 0.201538 0.313080
0.699341 0.237671 0.337067
0.812286 0.259033 0.355560
0.878571 0.269562 0.365540
0.023163 0.303131 0.311646
0.055267 0.304810 0.312500
0.114075 0.307190 0.313599
0.232208 0.315308 0.325226
0.512726 0.345581 0.345428
0.704956 0.378784 0.371765
0.826660 0.396881 0.386566
0.893707 0.405609 0.395752
0.048981 0.484680 0.346710
0.081635 0.488556 0.347717
0.140594 0.493652 0.349457
0.238373 0.493317 0.344025
0.490509 0.511292 0.345367
0.730499 0.556702 0.380890
0.854340 0.573792 0.393219
0.922119 0.583527 0.404236
0.069153 0.646057 0.369904
0.100861 0.646118 0.367767
0.158722 0.644562 0.361633
0.255615 0.640961 0.351135
0.477661 0.675537 0.361572
0.734161 0.726685 0.375305
0.863312 0.725830 0.394379
0.940948 0.730438 0.399780
0.083954 0.751770 0.374207
0.115051 0.750610 0.369476
0.172180 0.749329 0.363892
0.270111 0.751587 0.359833
0.477692 0.793030 0.363220
0.737091 0.837555 0.390228
0.865387 0.850250 0.395508
0.942688 0.844635 0.398834
0.094666 0.825012 0.373810
0.126373 0.825439 0.371552
0.184082 0.825104 0.367554
0.284637 0.829803 0.366608
0.478516 0.867737 0.358032
0.737335 0.903381 0.392975
0.867096 0.916779 0.402222
0.941559 0.920166 0.401611
0.024689 0.080078 0.446259
0.057770 0.079865 0.458710
0.118103 0.077942 0.467743
0.262634 0.082123 0.474121
0.509521 0.102356 0.469696
0.702911 0.135437 0.479889
0.816528 0.156586 0.494080
0.881226 0.165497 0.502136
0.023560 0.129425 0.454895
0.058624 0.127808 0.460236
0.117523 0.120544 0.468079
0.256409 0.119843 0.479706
0.507263 0.140167 0.476196
0.703644 0.175049 0.484558
0.819336 0.194763 0.499237
0.883575 0.202728 0.504333
0.024597 0.204773 0.462128
0.056030 0.205780 0.463776
0.115723 0.205719 0.467316
0.239899 0.199219 0.490234
0.509308 0.215668 0.491730
0.706116 0.252319 0.498077
0.821716 0.270233 0.509796
0.892761 0.282104 0.518951
0.038818 0.333160 0.480469
0.070923 0.334869 0.482239
0.129364 0.337677 0.485168
0.229858 0.342010 0.495392
0.490112 0.349579 0.521637
0.709412 0.385712 0.525787
0.832092 0.402313 0.535675
0.897156 0.409271 0.540100
0.056488 0.503143 0.510254
0.088623 0.505035 0.511322
0.147766 0.509521 0.514160
0.246368 0.514099 0.518860
0.443329 0.541870 0.551422
0.727234 0.579254 0.574219
0.858734 0.600281 0.595459
0.926758 0.608856 0.605164
0.080994 0.669678 0.550018
0.113647 0.672821 0.551178
0.173065 0.677887 0.552979
0.272583 0.685577 0.556946
0.429321 0.708740 0.569214
0.720795 0.735962 0.580505
0.873016 0.758331 0.604767
0.947845 0.767487 0.615143
0.100037 0.793304 0.579224
0.132294 0.795074 0.579498
0.191589 0.798920 0.579803
0.290955 0.805603 0.580719
0.427460 0.814911 0.570343
0.718842 0.856476 0.584808
0.866211 0.874023 0.597260
0.946716 0.871552 0.599915
0.112305 0.868896 0.596558
0.144623 0.870544 0.595703
0.204193 0.874237 0.593842
0.302246 0.876434 0.584656
0.440887 0.886749 0.575409
0.719116 0.927582 0.570892
0.867706 0.939453 0.599792
0.945435 0.942108 0.603760
0.035065 0.104553 0.600830
0.067993 0.104980 0.611176
0.130890 0.103058 0.627136
0.243439 0.108276 0.632050
0.496063 0.127228 0.632080
0.714142 0.154388 0.635498
0.828979 0.172119 0.650574
0.894073 0.177948 0.657104
0.035767 0.149933 0.610107
0.069244 0.149933 0.618103
0.129639 0.143707 0.627197
0.236847 0.145599 0.640350
0.494202 0.165680 0.637299
0.714111 0.192627 0.640747
0.828827 0.211121 0.655914
0.894196 0.217896 0.662903
0.041199 0.230164 0.620056
0.072205 0.229156 0.622040
0.129333 0.226746 0.627136
0.234863 0.223785 0.640167
0.493652 0.237518 0.655365
0.712463 0.265778 0.653534
0.828430 0.284485 0.668274
0.895142 0.290894 0.673737
0.051666 0.360291 0.636322
0.083679 0.361786 0.638733
0.141571 0.363037 0.641998
0.240601 0.364105 0.650452
0.458313 0.367554 0.685272
0.713379 0.393280 0.687012
0.832611 0.411285 0.696167
0.900391 0.416779 0.699799
0.067749 0.522705 0.667877
0.100250 0.524872 0.670013
0.159576 0.528534 0.673828
0.258881 0.533661 0.678925
0.433411 0.555969 0.703522
0.717255 0.575867 0.739960
0.857330 0.594788 0.749115
0.923767 0.601501 0.746887
0.089050 0.679688 0.702209
0.121796 0.681763 0.703644
0.182007 0.686157 0.706970
0.282654 0.692841 0.711945
0.426605 0.713562 0.729034
0.670227 0.755188 0.766785
0.887665 0.780884 0.793243
0.953888 0.789459 0.801208
0.108795 0.799469 0.733948
0.141754 0.802063 0.735352
0.201874 0.806152 0.736053
0.301605 0.812592 0.739532
0.430084 0.827332 0.750397
0.649109 0.873627 0.780060
0.864410 0.892731 0.795319
0.957336 0.898468 0.803925
0.119141 0.869141 0.749023
0.151672 0.871063 0.749695
0.211456 0.874817 0.750793
0.310638 0.881134 0.753174
0.436157 0.891327 0.760559
0.649445 0.938324 0.785553
0.866302 0.955994 0.785889
0.958954 0.960205 0.805634
0.042023 0.122681 0.711090
0.076416 0.122742 0.720703
0.145142 0.124603 0.740021
0.254822 0.132050 0.747742
0.492310 0.144714 0.756317
0.711487 0.176025 0.763397
0.832550 0.187042 0.771851
0.899414 0.194153 0.780182
0.043610 0.167114 0.719635
0.079620 0.169708 0.726257
0.146271 0.165466 0.740082
0.254303 0.168945 0.750793
0.486572 0.181885 0.762024
0.710510 0.212616 0.767609
0.833099 0.223480 0.776184
0.900421 0.231018 0.784271
0.051514 0.248138 0.733917
0.082672 0.247040 0.735199
0.141876 0.246460 0.736664
0.251648 0.241791 0.751221
0.469360 0.253632 0.775085
0.706451 0.280243 0.777374
0.834076 0.292633 0.786987
0.902313 0.300842 0.794983
0.059906 0.376831 0.747833
0.092194 0.378296 0.749512
0.151031 0.379852 0.752899
0.253265 0.380341 0.761902
0.450623 0.384583 0.796936
0.708252 0.395020 0.806152
0.835602 0.410156 0.809937
0.908661 0.420380 0.818604
0.076385 0.535706 0.775909
0.109009 0.537903 0.777039
0.169220 0.542206 0.781067
0.269653 0.546112 0.786285
0.432983 0.564270 0.807068
0.687927 0.574371 0.856964
0.856476 0.590881 0.859283
0.926544 0.598969 0.861938
0.097839 0.688599 0.808807
0.130463 0.690369 0.809814
0.190857 0.694244 0.813660
0.292267 0.702087 0.820099
0.424988 0.717590 0.835419
0.663727 0.761597 0.875031
0.878845 0.783234 0.906158
0.950684 0.783661 0.907593
0.114319 0.800446 0.832672
0.147064 0.802704 0.833893
0.207336 0.806580 0.837463
0.307251 0.814545 0.843628
0.435211 0.830017 0.857117
0.666901 0.874817 0.888062
0.885284 0.901581 0.918640
0.959747 0.908142 0.919617
0.123077 0.866241 0.847260
0.155396 0.867920 0.848236
0.214874 0.871124 0.849915
0.313660 0.877380 0.855499
0.439850 0.888977 0.864716
0.668427 0.934479 0.892395
0.899231 0.965637 0.919159
0.962250 0.966644 0.920502
0.046661 0.134552 0.776581
0.083466 0.134369 0.787598
0.154449 0.139221 0.805267
0.259857 0.143524 0.812805
0.468994 0.155121 0.825104
0.705292 0.181580 0.830688
0.830719 0.190521 0.839630
0.900665 0.195831 0.848297
0.050018 0.179352 0.784973
0.087311 0.181976 0.791351
0.151306 0.179871 0.801758
0.259094 0.180359 0.813629
0.466278 0.193390 0.829956
0.705292 0.216614 0.835541
0.831116 0.226257 0.844208
0.902710 0.232056 0.853851
0.057281 0.259827 0.800568
0.089661 0.259430 0.801849
0.148743 0.257721 0.803192
0.256317 0.252899 0.812408
0.459381 0.265045 0.838562
0.705566 0.281586 0.848724
0.832611 0.293121 0.855469
0.905121 0.299927 0.863586
0.065491 0.387268 0.812286
0.098053 0.388214 0.813934
0.158020 0.390228 0.817841
0.260590 0.389008 0.825134
0.443115 0.396271 0.858246
0.699158 0.396851 0.878784
0.834137 0.408600 0.879425
0.909729 0.417480 0.885376
0.083191 0.545807 0.840363
0.115814 0.547607 0.841736
0.175659 0.550476 0.844666
0.275665 0.553497 0.848328
0.430603 0.568024 0.866821
0.669830 0.571320 0.917816
0.854645 0.590149 0.927002
0.926056 0.594818 0.924011
0.102692 0.693512 0.869568
0.135254 0.695221 0.870941
0.195343 0.698944 0.874023
0.295990 0.705627 0.880127
0.425293 0.717957 0.892334
0.656586 0.760925 0.929199
0.883667 0.781952 0.959991
0.951538 0.779022 0.960846
0.118103 0.804871 0.893127
0.150543 0.806244 0.894073
0.210663 0.810364 0.897156
0.310028 0.817657 0.902771
0.439423 0.833801 0.915741
0.663391 0.872101 0.941223
0.891785 0.901733 0.968903
0.959595 0.908112 0.969604
0.124512 0.865509 0.901062
0.156708 0.867096 0.901917
0.216003 0.869781 0.904083
0.314850 0.876526 0.908661
0.444672 0.892059 0.919891
0.663940 0.929626 0.944031
0.904480 0.963348 0.971466
0.962982 0.967834 0.972443
