滤镜资源/Professional Luts Collection/Triune-Digital-Cinematic-LUTs/3D LUTs (CUBE)/REDLOGFILM/Mission Impossible - REDlogFilm.cube
#Created by Benjamin (IWLTBAP) : http://luts.iwltbap.com
#Copyright: (C) Copyright 2016 Triune Films and IWLTBAP
TITLE "Blockbuster LUTs Pack (REDlogFilm)"
#LUT size
LUT_3D_SIZE 5
#LUT data points
DOMAIN_MIN 0.000000 0.000000 0.000000
DOMAIN_MAX 0.903226 0.903226 0.903226
0.006775 0.005463 0.012207
0.105438 0.017090 0.017120
0.387268 0.055115 0.054169
0.702972 0.111847 0.103607
0.856567 0.139374 0.121155
0.011017 0.108276 0.016602
0.100830 0.111023 0.019287
0.392151 0.145569 0.046295
0.713287 0.203186 0.102936
0.869202 0.230804 0.125427
0.025055 0.352814 0.043549
0.098633 0.358551 0.040070
0.411407 0.387909 0.057159
0.744720 0.432739 0.098328
0.903198 0.464874 0.125183
0.051849 0.623444 0.097961
0.126343 0.628845 0.095306
0.412842 0.669617 0.089996
0.774200 0.742798 0.125702
0.932861 0.737976 0.152954
0.076050 0.775299 0.119720
0.150940 0.782104 0.116333
0.394257 0.841949 0.114685
0.776703 0.888397 0.154053
0.933960 0.903259 0.165985
0.011169 0.022583 0.121368
0.117798 0.024445 0.127838
0.405396 0.060120 0.144653
0.709106 0.114105 0.186707
0.861084 0.142792 0.204254
0.013550 0.120056 0.127502
0.093689 0.122040 0.132080
0.401825 0.152466 0.149231
0.722961 0.210358 0.195038
0.871582 0.235535 0.218079
0.028534 0.367798 0.155426
0.100403 0.367432 0.147980
0.411285 0.396912 0.142487
0.763031 0.450378 0.190399
0.905212 0.476593 0.230408
0.057739 0.637970 0.196899
0.130920 0.639008 0.193207
0.372864 0.675476 0.185364
0.773285 0.746094 0.221191
0.934418 0.743378 0.241394
0.081726 0.790649 0.213928
0.154510 0.791931 0.209656
0.363312 0.831879 0.197021
0.775879 0.892578 0.242828
0.936523 0.906830 0.248047
0.018585 0.066437 0.362915
0.094299 0.064697 0.376587
0.406982 0.082764 0.384521
0.726013 0.133484 0.403168
0.877167 0.158722 0.421387
0.018158 0.168060 0.374054
0.090210 0.169312 0.377258
0.393188 0.168579 0.401642
0.740387 0.229309 0.418121
0.883850 0.251068 0.433258
0.041077 0.401581 0.408661
0.114685 0.406525 0.411133
0.330048 0.421295 0.435883
0.750366 0.482147 0.474121
0.907196 0.501282 0.493591
0.084045 0.701141 0.474121
0.157562 0.704163 0.472839
0.331848 0.701508 0.456940
0.768707 0.772827 0.472931
0.945709 0.777008 0.498260
0.104462 0.850769 0.485687
0.176910 0.850189 0.474945
0.358398 0.856110 0.466339
0.770538 0.920135 0.488373
0.944275 0.930603 0.496979
0.037079 0.109955 0.632538
0.116089 0.108429 0.657867
0.357544 0.119232 0.664795
0.750061 0.164734 0.673889
0.895630 0.182739 0.691132
0.041534 0.210693 0.651276
0.114075 0.208466 0.655853
0.345154 0.210144 0.683624
0.749176 0.254700 0.689606
0.896179 0.273010 0.706024
0.061096 0.444458 0.682068
0.135132 0.449036 0.687286
0.320892 0.460968 0.704498
0.752045 0.482910 0.745972
0.912262 0.506165 0.757568
0.097137 0.715973 0.741974
0.172516 0.721130 0.745026
0.353638 0.733063 0.754547
0.728180 0.799225 0.814941
0.957458 0.824158 0.838745
0.120667 0.868134 0.779541
0.195099 0.872711 0.780792
0.373718 0.884827 0.788147
0.704041 0.944092 0.826233
0.961060 0.962830 0.844025
0.046661 0.134552 0.776581
0.133362 0.135529 0.800812
0.360504 0.152496 0.816376
0.742065 0.185150 0.834290
0.900665 0.195831 0.848297
0.057526 0.237091 0.799225
0.130188 0.235260 0.799438
0.350800 0.240448 0.830750
0.743530 0.266541 0.845856
0.905243 0.279968 0.860718
0.073578 0.465363 0.824615
0.148193 0.468750 0.828888
0.331940 0.473267 0.840546
0.736267 0.480164 0.903320
0.914642 0.500153 0.902771
0.107147 0.725525 0.876617
0.181732 0.729279 0.879761
0.362793 0.743164 0.892181
0.723877 0.804047 0.944427
0.955658 0.818634 0.963898
0.124512 0.865509 0.901062
0.198456 0.868896 0.903320
0.376648 0.880493 0.912079
0.745941 0.941650 0.956665
0.962982 0.967834 0.972443
