滤镜资源/Professional Luts Collection/Triune-Digital-Cinematic-LUTs/3D LUTs (CUBE)/REDLOGFILM/Mission Impossible - REDlogFilm.cube
#Created by Benjamin (IWLTBAP) : http://luts.iwltbap.com
#Copyright: (C) Copyright 2016 Triune Films and IWLTBAP
TITLE "Blockbuster LUTs Pack (REDlogFilm)"
#LUT size
LUT_3D_SIZE 32
#LUT data points
0.006775 0.005463 0.012207
0.012939 0.005737 0.012848
0.021149 0.006104 0.013763
0.029694 0.006958 0.014191
0.040558 0.009155 0.014740
0.053314 0.010376 0.015594
0.078033 0.012787 0.015015
0.105438 0.017090 0.017120
0.135406 0.023010 0.021942
0.169678 0.028839 0.026978
0.207458 0.034058 0.031342
0.247833 0.038849 0.035583
0.291809 0.043488 0.039917
0.338531 0.048706 0.045959
0.387268 0.055115 0.054169
0.435486 0.062195 0.062653
0.486816 0.070740 0.071289
0.536835 0.080078 0.079285
0.581940 0.088348 0.086426
0.626526 0.097260 0.093353
0.666626 0.104828 0.098663
0.702972 0.111847 0.103607
0.735474 0.118011 0.107666
0.763672 0.123260 0.110748
0.786926 0.127563 0.113495
0.808075 0.131073 0.115417
0.826111 0.134277 0.117432
0.844238 0.137360 0.119629
0.856567 0.139374 0.121155
0.870453 0.141632 0.122925
0.882721 0.143799 0.124756
0.891083 0.145142 0.125824
0.006836 0.012024 0.012177
0.012817 0.012665 0.012451
0.021027 0.013489 0.013428
0.029541 0.014221 0.014130
0.040405 0.016479 0.014709
0.053162 0.017578 0.014984
0.077179 0.020050 0.014771
0.104706 0.024170 0.016998
0.134888 0.030029 0.021881
0.169495 0.035980 0.027069
0.207703 0.041107 0.031311
0.248718 0.045868 0.035492
0.292755 0.050323 0.039337
0.339569 0.055634 0.045532
0.388062 0.062134 0.053772
0.436035 0.069092 0.062408
0.487061 0.077271 0.071167
0.536621 0.086304 0.078979
0.581818 0.094635 0.086212
0.626343 0.103638 0.093292
0.666626 0.111298 0.098694
0.703125 0.118286 0.103485
0.735687 0.124481 0.107666
0.763916 0.129730 0.110779
0.787109 0.133972 0.113525
0.808319 0.137543 0.115540
0.826294 0.140564 0.117340
0.844513 0.143890 0.119629
0.856873 0.145996 0.121155
0.871002 0.148254 0.123108
0.883392 0.150482 0.124969
0.892029 0.151917 0.126129
0.007050 0.022552 0.012268
0.013000 0.023102 0.012512
0.020996 0.023560 0.012848
0.029419 0.024292 0.013702
0.040070 0.025574 0.014221
0.053253 0.027100 0.014313
0.077087 0.029663 0.014587
0.104584 0.033661 0.017120
0.135010 0.038788 0.021515
0.169495 0.044617 0.026611
0.208191 0.050293 0.031006
0.249603 0.055298 0.035217
0.294128 0.059906 0.038971
0.341095 0.065247 0.044617
0.389832 0.071747 0.052917
0.437164 0.078461 0.062012
0.487396 0.086121 0.070801
0.536469 0.094696 0.078583
0.581482 0.102966 0.085815
0.625977 0.112061 0.093048
0.666595 0.119995 0.098602
0.703094 0.126862 0.103180
0.735657 0.133087 0.107483
0.764252 0.138489 0.110840
0.787201 0.142609 0.113464
0.808685 0.146271 0.115631
0.826691 0.149200 0.117340
0.845123 0.152710 0.119629
0.857330 0.154785 0.121155
0.871765 0.157227 0.123230
0.884033 0.159485 0.125214
0.892853 0.160980 0.126404
0.007233 0.033752 0.012787
0.013184 0.033966 0.012909
0.021149 0.034302 0.013062
0.029419 0.034760 0.013245
0.039948 0.035736 0.013824
0.052368 0.036804 0.013885
0.077759 0.039581 0.014313
0.104584 0.043518 0.016876
0.134155 0.047821 0.020966
0.169128 0.053680 0.026215
0.207764 0.059052 0.030762
0.249603 0.064453 0.034973
0.294006 0.069153 0.038513
0.341583 0.074951 0.043732
0.391235 0.081726 0.052338
0.438416 0.088318 0.061340
0.487518 0.095154 0.070190
0.536713 0.103577 0.078369
0.582001 0.112183 0.085510
0.626404 0.121155 0.092865
0.666931 0.128937 0.098389
0.703430 0.135803 0.102905
0.735596 0.141907 0.107269
0.764771 0.147461 0.110901
0.787323 0.151428 0.113281
0.808868 0.155121 0.115692
0.827026 0.158081 0.117371
0.845856 0.161713 0.119720
0.857971 0.163910 0.121246
0.872650 0.166534 0.123596
0.884796 0.168671 0.125458
0.893646 0.170227 0.126740
0.007721 0.048065 0.013000
0.013580 0.048248 0.013031
0.021484 0.048828 0.013336
0.029846 0.049622 0.014069
0.040436 0.050415 0.014069
0.052155 0.050568 0.013702
0.079193 0.051880 0.013550
0.105042 0.055145 0.015503
0.133667 0.059753 0.019775
0.168976 0.065277 0.025513
0.207581 0.070709 0.029907
0.249664 0.075745 0.034332
0.294434 0.080292 0.037506
0.342377 0.086609 0.043182
0.392792 0.094360 0.051392
0.440125 0.101166 0.060547
0.490417 0.108612 0.069855
0.538849 0.116302 0.077972
0.583374 0.124146 0.085449
0.627930 0.132751 0.092590
0.667908 0.140350 0.098053
0.703918 0.147003 0.102661
0.735962 0.153320 0.107208
0.765564 0.159027 0.110870
0.787720 0.162689 0.113159
0.809509 0.166443 0.115601
0.827850 0.169312 0.117676
0.846771 0.173004 0.120178
0.858917 0.175201 0.121521
0.873871 0.177917 0.124115
0.886108 0.180176 0.126129
0.894928 0.181702 0.127441
0.008514 0.064148 0.013916
0.014374 0.064392 0.014008
0.022247 0.064697 0.013885
0.030426 0.065033 0.013580
0.040894 0.065826 0.014343
0.052521 0.066254 0.014069
0.077148 0.066406 0.014435
0.106110 0.068634 0.014679
0.135345 0.072632 0.018097
0.169708 0.077789 0.023529
0.208649 0.083099 0.028961
0.250092 0.088074 0.033234
0.294159 0.092468 0.036621
0.341583 0.098663 0.041656
0.391785 0.106140 0.050201
0.441071 0.114594 0.059631
0.492157 0.123047 0.068542
0.541779 0.131042 0.077667
0.585815 0.138214 0.085114
0.629913 0.146393 0.092590
0.669678 0.153931 0.098175
0.705383 0.160461 0.102875
0.737518 0.166504 0.107239
0.766418 0.171722 0.110779
0.788971 0.175323 0.113220
0.810638 0.178925 0.115784
0.829254 0.181763 0.117950
0.848328 0.185303 0.120728
0.860779 0.187439 0.122009
0.875641 0.190338 0.124847
0.887543 0.192413 0.126740
0.896301 0.194000 0.128143
0.009705 0.085602 0.014740
0.015747 0.086304 0.014893
0.023682 0.086853 0.015411
0.031921 0.087646 0.015594
0.042145 0.088043 0.015045
0.053314 0.088043 0.014404
0.074005 0.088043 0.015198
0.105164 0.087982 0.015594
0.136841 0.091095 0.018494
0.172150 0.095734 0.022705
0.210083 0.100616 0.027130
0.250763 0.105713 0.031616
0.294708 0.110840 0.035400
0.341492 0.117096 0.040283
0.391449 0.124359 0.047821
0.441132 0.132660 0.057373
0.491882 0.140717 0.066345
0.543610 0.149719 0.076202
0.590118 0.158691 0.085419
0.634430 0.167542 0.092773
0.674194 0.174927 0.098877
0.709351 0.181488 0.103973
0.741302 0.187134 0.108337
0.769653 0.191711 0.111816
0.792358 0.195221 0.114197
0.813873 0.198486 0.116852
0.832184 0.201202 0.119141
0.851562 0.204834 0.122253
0.863586 0.206757 0.123383
0.878571 0.209717 0.126221
0.890320 0.211853 0.128296
0.898834 0.213104 0.129822
0.011017 0.108276 0.016602
0.017059 0.109375 0.017120
0.025208 0.110779 0.017914
0.033417 0.111389 0.018158
0.043457 0.111511 0.017090
0.054321 0.111572 0.016937
0.073639 0.112183 0.017487
0.100830 0.111023 0.019287
0.135162 0.112457 0.018433
0.171936 0.115967 0.021423
0.211639 0.120361 0.025848
0.253113 0.125214 0.030121
0.296448 0.131104 0.034821
0.342163 0.138214 0.039307
0.392151 0.145569 0.046295
0.441010 0.153442 0.054840
0.493011 0.162231 0.064026
0.545197 0.170898 0.073792
0.593140 0.179993 0.083466
0.638062 0.188904 0.091644
0.677856 0.196381 0.097443
0.713287 0.203186 0.102936
0.745636 0.208740 0.107819
0.774109 0.213593 0.111603
0.797943 0.218170 0.114838
0.819458 0.221680 0.117981
0.838013 0.225189 0.120850
0.856689 0.228516 0.122955
0.869202 0.230804 0.125427
0.883606 0.233398 0.128174
0.895599 0.235443 0.130707
0.903900 0.236786 0.132538
0.012604 0.132874 0.019165
0.018585 0.133545 0.019257
0.026764 0.134857 0.019562
0.035034 0.135986 0.020111
0.045013 0.136536 0.019470
0.055725 0.136627 0.019196
0.070923 0.137299 0.019104
0.099823 0.137115 0.020508
0.128784 0.135864 0.022034
0.170013 0.139313 0.022552
0.211517 0.142426 0.025116
0.255096 0.147034 0.029327
0.298401 0.151886 0.033203
0.344788 0.159149 0.038666
0.393066 0.167145 0.045959
0.441681 0.176086 0.053772
0.491455 0.184479 0.061890
0.546051 0.193848 0.072296
0.595123 0.202606 0.080139
0.640381 0.211304 0.089630
0.680634 0.219238 0.095856
0.717010 0.225861 0.101410
0.749359 0.231537 0.106293
0.779297 0.236725 0.110260
0.802887 0.240906 0.113586
0.824799 0.244751 0.116852
0.843109 0.247986 0.119751
0.861420 0.251648 0.123108
0.873291 0.253601 0.125885
0.887390 0.256226 0.128723
0.899597 0.258636 0.131195
0.908325 0.260315 0.133240
0.014801 0.163147 0.022430
0.020813 0.163574 0.022491
0.028778 0.164459 0.022339
0.037109 0.165802 0.022797
0.047424 0.167419 0.023163
0.057831 0.167267 0.022430
0.072357 0.167603 0.022064
0.096466 0.168365 0.022186
0.127686 0.166565 0.023926
0.163116 0.166809 0.025269
0.208954 0.171234 0.026978
0.255371 0.175079 0.028442
0.300354 0.179382 0.032623
0.347015 0.185608 0.038727
0.395691 0.193604 0.045441
0.443909 0.202026 0.053101
0.493378 0.211182 0.060822
0.546600 0.220551 0.070496
0.595306 0.228912 0.078979
0.642365 0.238342 0.086823
0.682861 0.246277 0.093384
0.719971 0.252747 0.098663
0.754364 0.259430 0.104340
0.784332 0.264893 0.108765
0.808441 0.269043 0.112335
0.830353 0.273041 0.115906
0.849243 0.276672 0.119080
0.866974 0.279755 0.122650
0.878632 0.281799 0.125031
0.892670 0.284088 0.128143
0.904236 0.286133 0.130768
0.912201 0.287384 0.132843
0.016937 0.195374 0.025208
0.022827 0.195740 0.025085
0.030792 0.196411 0.024963
0.039062 0.197479 0.025116
0.049194 0.198761 0.025391
0.060120 0.200378 0.025818
0.074615 0.201294 0.024902
0.092957 0.201630 0.024567
0.122162 0.202118 0.025482
0.160828 0.199829 0.027222
0.204254 0.203125 0.029144
0.252441 0.207123 0.030731
0.301758 0.211090 0.033478
0.350433 0.215759 0.039185
0.399200 0.222687 0.045868
0.448792 0.232239 0.053497
0.497925 0.240814 0.061218
0.549438 0.249786 0.070007
0.597382 0.259064 0.078430
0.644409 0.269012 0.086151
0.686401 0.277008 0.092041
0.724823 0.283936 0.097778
0.759460 0.289948 0.102844
0.789001 0.295074 0.106995
0.812469 0.299347 0.110474
0.835236 0.303284 0.113678
0.853485 0.306946 0.117462
0.871155 0.309875 0.121124
0.883575 0.312347 0.123688
0.898010 0.315247 0.126953
0.908997 0.317078 0.129913
0.916809 0.318298 0.132324
0.018829 0.230408 0.029083
0.024689 0.230743 0.029205
0.032593 0.231293 0.029419
0.040710 0.232025 0.029297
0.050720 0.233032 0.029053
0.061554 0.234589 0.028717
0.076416 0.237061 0.028015
0.092560 0.238129 0.027557
0.116119 0.239655 0.027252
0.154114 0.239105 0.028748
0.201874 0.237244 0.031738
0.251556 0.243744 0.033386
0.299866 0.246307 0.036072
0.352203 0.251282 0.040955
0.403992 0.255951 0.047119
0.453186 0.264404 0.054199
0.503418 0.273407 0.061890
0.553406 0.282104 0.069885
0.602081 0.291779 0.078827
0.649109 0.301392 0.086700
0.691254 0.310150 0.092773
0.729187 0.317413 0.098053
0.763519 0.324158 0.102631
0.793335 0.329712 0.106293
0.816895 0.333435 0.109375
0.839294 0.337341 0.112610
0.857910 0.340881 0.116333
0.876251 0.344696 0.120148
0.888397 0.346649 0.123077
0.901947 0.349152 0.126953
0.913269 0.351532 0.130310
0.921722 0.353302 0.132538
0.020752 0.269623 0.033203
0.026581 0.269714 0.032990
0.034424 0.270050 0.033264
0.042450 0.270355 0.033386
0.052277 0.270691 0.033203
0.062988 0.271790 0.032654
0.077606 0.273590 0.031769
0.094299 0.277039 0.031311
0.112000 0.279053 0.030457
0.145630 0.280548 0.029938
0.193390 0.279510 0.033356
0.250824 0.281799 0.035522
0.300842 0.287140 0.039001
0.352448 0.289307 0.043671
0.407501 0.294495 0.049774
0.458191 0.301422 0.055908
0.508240 0.308899 0.062469
0.559479 0.317780 0.070404
0.608002 0.327698 0.078888
0.654480 0.337402 0.086548
0.695312 0.345428 0.092773
0.734070 0.353302 0.098389
0.768250 0.359985 0.102936
0.798157 0.365753 0.106903
0.822357 0.369690 0.110077
0.843597 0.373901 0.113220
0.862213 0.378113 0.117126
0.880066 0.381775 0.120758
0.892670 0.384491 0.123413
0.906433 0.387665 0.126953
0.918152 0.390320 0.130493
0.926514 0.392059 0.133026
0.022430 0.309662 0.037781
0.028381 0.310028 0.037750
0.036255 0.310547 0.037689
0.044312 0.310852 0.037292
0.054260 0.311432 0.037018
0.064850 0.312103 0.036865
0.079559 0.313934 0.036713
0.096161 0.316925 0.035736
0.114044 0.320282 0.034302
0.140503 0.323029 0.033539
0.184204 0.325256 0.034790
0.239166 0.324158 0.038727
0.301422 0.329865 0.041473
0.353241 0.335266 0.046967
0.409515 0.338745 0.053314
0.463226 0.344421 0.059296
0.514801 0.349579 0.065033
0.565857 0.357758 0.071869
0.614441 0.366882 0.079742
0.660339 0.376251 0.086761
0.702209 0.384613 0.093292
0.739197 0.391724 0.098328
0.773804 0.398285 0.102753
0.803711 0.404022 0.107147
0.827148 0.408417 0.109924
0.849091 0.413055 0.113617
0.867554 0.417053 0.117126
0.885681 0.421326 0.121033
0.897552 0.424011 0.124207
0.911896 0.427094 0.128021
0.922974 0.429535 0.130676
0.930511 0.431000 0.133362
0.025055 0.352814 0.043549
0.030914 0.353058 0.043304
0.038757 0.353302 0.042908
0.046753 0.353394 0.042542
0.056641 0.353821 0.042297
0.067169 0.354095 0.041962
0.081879 0.355713 0.041077
0.098633 0.358551 0.040070
0.117004 0.362610 0.039154
0.140686 0.366547 0.037994
0.178833 0.371033 0.038483
0.234680 0.371368 0.041687
0.293182 0.374481 0.045837
0.357483 0.381165 0.050720
0.411407 0.387909 0.057159
0.466431 0.390625 0.063202
0.519684 0.395416 0.068878
0.571991 0.401337 0.075043
0.621826 0.409821 0.082031
0.666840 0.417847 0.087921
0.707672 0.425995 0.093658
0.744720 0.432739 0.098328
0.779419 0.439178 0.103241
0.810028 0.445435 0.107513
0.833893 0.450623 0.110901
0.855499 0.454865 0.114471
0.874573 0.459503 0.118164
0.891907 0.462921 0.122162
0.903198 0.464874 0.125183
0.916931 0.467834 0.128998
0.927887 0.469971 0.132202
0.935760 0.470825 0.134644
0.028351 0.394226 0.049683
0.034271 0.394440 0.049438
0.042084 0.394501 0.048981
0.050140 0.394745 0.048737
0.059998 0.394989 0.048431
0.070587 0.395294 0.047882
0.085297 0.396393 0.047272
0.102325 0.399292 0.046906
0.120697 0.403107 0.045715
0.144531 0.408905 0.044067
0.176544 0.413879 0.043457
0.230865 0.415619 0.045685
0.291260 0.418152 0.050079
0.354736 0.424835 0.053833
0.415955 0.431976 0.059967
0.468414 0.438324 0.066803
0.524475 0.441742 0.073273
0.579224 0.447662 0.079590
0.627502 0.453278 0.084930
0.674011 0.460632 0.090546
0.715118 0.467865 0.095856
0.751740 0.474976 0.100311
0.786560 0.481689 0.104523
0.816772 0.487579 0.108704
0.840485 0.492767 0.112152
0.861664 0.496796 0.116302
0.879883 0.500061 0.119934
0.897247 0.503326 0.124268
0.908691 0.505310 0.127838
0.921814 0.507416 0.131775
0.932587 0.509155 0.135071
0.940613 0.510437 0.137695
0.032562 0.437103 0.057129
0.038513 0.437408 0.056976
0.046478 0.437836 0.056763
0.054688 0.438263 0.056580
0.064697 0.438904 0.056458
0.075378 0.439392 0.056335
0.089752 0.439575 0.055817
0.106506 0.441742 0.054810
0.124969 0.445648 0.053650
0.148254 0.452179 0.051788
0.179779 0.458801 0.049469
0.219208 0.461334 0.049744
0.288300 0.463013 0.055023
0.350922 0.469360 0.059784
0.418213 0.479675 0.063599
0.472778 0.486053 0.069580
0.527405 0.493408 0.077332
0.585693 0.497833 0.084442
0.634369 0.502899 0.089142
0.679718 0.507904 0.093567
0.720795 0.513947 0.098083
0.758850 0.519958 0.102234
0.793060 0.526123 0.106567
0.823212 0.531616 0.110626
0.847015 0.536133 0.114502
0.868378 0.540039 0.119263
0.886444 0.542938 0.123169
0.902985 0.545166 0.128143
0.913940 0.546967 0.131805
0.926880 0.548187 0.135742
0.937775 0.549561 0.138977
0.945709 0.550751 0.141266
0.037079 0.480682 0.066406
0.042877 0.480621 0.065948
0.050873 0.481049 0.065582
0.059082 0.481720 0.065155
0.069244 0.482605 0.064850
0.079956 0.483337 0.064850
0.094391 0.483643 0.064545
0.110809 0.484894 0.063782
0.129242 0.488708 0.062561
0.152130 0.494324 0.060699
0.181030 0.501373 0.058990
0.218231 0.507324 0.056854
0.281921 0.507629 0.059052
0.348358 0.510803 0.064758
0.416626 0.522461 0.069580
0.478424 0.533264 0.073242
0.531616 0.542114 0.079620
0.588470 0.550385 0.087738
0.641876 0.554474 0.093262
0.686005 0.559906 0.096985
0.726379 0.563538 0.100647
0.764252 0.568237 0.105194
0.798920 0.573242 0.109863
0.829620 0.577637 0.114441
0.853180 0.580597 0.118347
0.873993 0.583496 0.124176
0.891693 0.586090 0.128601
0.907166 0.587372 0.133972
0.918396 0.588440 0.137695
0.931641 0.589478 0.141052
0.942719 0.590698 0.143585
0.951111 0.591888 0.145294
0.040955 0.519714 0.074493
0.046875 0.519836 0.074219
0.054749 0.520081 0.073883
0.062866 0.520538 0.073608
0.072937 0.521149 0.073517
0.083527 0.521637 0.073547
0.098083 0.522278 0.073242
0.114563 0.523590 0.072052
0.133179 0.527832 0.071014
0.156189 0.533447 0.069153
0.182404 0.538757 0.067719
0.217285 0.544617 0.066559
0.265198 0.550964 0.063171
0.347809 0.551422 0.070221
0.415527 0.560822 0.076355
0.480530 0.573975 0.078552
0.539429 0.586487 0.082611
0.592926 0.597961 0.089691
0.644073 0.604736 0.095612
0.692627 0.607391 0.100372
0.730652 0.609924 0.103729
0.769073 0.613983 0.108917
0.803894 0.617554 0.113953
0.833191 0.621368 0.119171
0.856842 0.623383 0.123901
0.876617 0.623596 0.129761
0.894409 0.625031 0.134094
0.911438 0.625671 0.138062
0.923096 0.626709 0.141022
0.936829 0.627655 0.144287
0.948395 0.628693 0.146515
0.956451 0.629883 0.148102
0.044617 0.557922 0.083527
0.050568 0.558167 0.083191
0.058502 0.558502 0.082794
0.066589 0.558899 0.082611
0.076538 0.559357 0.082550
0.087097 0.559631 0.081909
0.101746 0.560608 0.081177
0.118011 0.561523 0.080139
0.136475 0.565430 0.079529
0.159851 0.572052 0.078400
0.185364 0.576080 0.076630
0.218872 0.581299 0.073944
0.266754 0.590363 0.070282
0.344482 0.593506 0.074554
0.417358 0.600281 0.081757
0.481262 0.612762 0.086548
0.542542 0.627319 0.087433
0.598969 0.640778 0.091370
0.647125 0.651398 0.097443
0.693512 0.657074 0.103241
0.737061 0.658264 0.107971
0.772522 0.659973 0.112396
0.805450 0.662933 0.118622
0.835266 0.663116 0.126190
0.857971 0.664276 0.131042
0.878998 0.664612 0.136810
0.897003 0.664307 0.140289
0.914398 0.665802 0.143372
0.926880 0.666260 0.145721
0.941071 0.666870 0.148163
0.953186 0.667328 0.150146
0.960632 0.667786 0.151398
0.048157 0.592560 0.091034
0.053986 0.592621 0.090790
0.061798 0.592621 0.090485
0.069885 0.592896 0.090240
0.079865 0.593323 0.090363
0.090393 0.593414 0.089874
0.105103 0.594421 0.089386
0.121796 0.596344 0.088654
0.140411 0.600372 0.088379
0.163818 0.606659 0.087006
0.189850 0.610504 0.085114
0.223999 0.616852 0.079163
0.268890 0.624878 0.075592
0.330872 0.629089 0.077332
0.417023 0.635681 0.086578
0.481628 0.648407 0.091919
0.544525 0.663513 0.095215
0.604370 0.678375 0.095459
0.651306 0.688293 0.099609
0.698090 0.699982 0.106750
0.736847 0.703613 0.112518
0.776947 0.704956 0.118317
0.809235 0.703400 0.126465
0.836700 0.701294 0.132996
0.859283 0.701508 0.137848
0.880249 0.702026 0.142151
0.899261 0.702118 0.145813
0.917572 0.702606 0.148376
0.930328 0.703217 0.150146
0.944458 0.703918 0.152008
0.955505 0.704437 0.153473
0.962585 0.704590 0.154419
0.051849 0.623444 0.097961
0.057739 0.623383 0.097565
0.065613 0.623535 0.097198
0.073730 0.623779 0.096893
0.083771 0.624176 0.096588
0.094635 0.625061 0.096344
0.109497 0.626434 0.096191
0.126343 0.628845 0.095306
0.144989 0.632996 0.094513
0.168121 0.637909 0.094177
0.195557 0.642181 0.092407
0.230591 0.648315 0.083527
0.273224 0.656708 0.080444
0.323242 0.662354 0.081207
0.412842 0.669617 0.089996
0.482300 0.681519 0.096771
0.544495 0.695770 0.101807
0.607300 0.711243 0.102417
0.657959 0.723297 0.103668
0.698975 0.731445 0.109955
0.740479 0.742004 0.117767
0.774200 0.742798 0.125702
0.809723 0.740173 0.133484
0.839478 0.739227 0.138641
0.861847 0.737976 0.142731
0.883392 0.737701 0.146118
0.901855 0.737457 0.148651
0.919983 0.737518 0.151306
0.932861 0.737976 0.152954
0.946564 0.738129 0.154449
0.956268 0.738220 0.155518
0.963715 0.738434 0.156342
0.056305 0.652924 0.104431
0.062286 0.653076 0.104187
0.070312 0.653473 0.103699
0.078522 0.653809 0.103058
0.088715 0.654541 0.102570
0.099548 0.655243 0.102600
0.114624 0.656952 0.102783
0.131531 0.659424 0.102417
0.149811 0.662415 0.101349
0.172455 0.665558 0.100586
0.198975 0.668976 0.099060
0.233734 0.675720 0.093567
0.275146 0.685730 0.087402
0.322723 0.691864 0.086426
0.404633 0.699493 0.093140
0.478516 0.711334 0.101044
0.545349 0.725281 0.105957
0.607819 0.740021 0.108063
0.658691 0.753235 0.110352
0.703491 0.763550 0.114410
0.739624 0.769562 0.122864
0.776154 0.776245 0.133698
0.807129 0.775391 0.139832
0.839142 0.774078 0.143585
0.864014 0.772888 0.147034
0.885040 0.771484 0.149811
0.904083 0.770844 0.152405
0.922119 0.770325 0.154724
0.933960 0.770355 0.156067
0.946686 0.770599 0.157349
0.956757 0.771118 0.158386
0.964172 0.771301 0.159149
0.060547 0.679138 0.109558
0.066589 0.679504 0.109375
0.074677 0.680054 0.109253
0.082916 0.680511 0.108978
0.093109 0.681213 0.108643
0.104004 0.681946 0.108398
0.118896 0.683289 0.107971
0.135742 0.685577 0.107513
0.153534 0.687256 0.106628
0.176208 0.690155 0.106018
0.203888 0.694061 0.105194
0.236267 0.699738 0.102081
0.276215 0.711060 0.097412
0.326294 0.722137 0.092010
0.390442 0.726349 0.095032
0.473358 0.738739 0.104065
0.545410 0.753601 0.109833
0.607788 0.767059 0.114258
0.659454 0.781189 0.117371
0.704102 0.792480 0.121918
0.741211 0.797333 0.128601
0.774200 0.800415 0.139374
0.809052 0.805664 0.144348
0.836243 0.805695 0.146759
0.862152 0.804932 0.150085
0.887299 0.803192 0.153534
0.906372 0.802063 0.155853
0.924194 0.801056 0.157990
0.935516 0.800690 0.159119
0.947327 0.800385 0.160004
0.956787 0.800659 0.160797
0.964203 0.801208 0.161560
0.063690 0.700012 0.113678
0.069824 0.700623 0.113831
0.078003 0.701477 0.113953
0.086304 0.701996 0.113770
0.096558 0.702881 0.113129
0.107452 0.703766 0.112549
0.122223 0.704620 0.112000
0.139008 0.706573 0.111359
0.156647 0.708069 0.110260
0.179474 0.711304 0.109406
0.206482 0.715424 0.107971
0.238037 0.722504 0.107666
0.276703 0.733215 0.105530
0.328644 0.748596 0.098419
0.385895 0.753693 0.097137
0.471985 0.765564 0.107086
0.544830 0.777924 0.113220
0.609161 0.791199 0.117859
0.658966 0.803436 0.123413
0.703918 0.814545 0.129303
0.742676 0.818970 0.133606
0.775360 0.821960 0.142090
0.808807 0.826691 0.147125
0.838287 0.829895 0.150848
0.860413 0.829803 0.152222
0.883820 0.828674 0.155090
0.906464 0.828064 0.157990
0.926239 0.826843 0.160431
0.937469 0.826294 0.161560
0.949158 0.825867 0.162415
0.958984 0.825775 0.163239
0.965820 0.825562 0.163727
0.067200 0.721069 0.116272
0.073242 0.721497 0.115997
0.081299 0.722076 0.115784
0.089630 0.722687 0.115326
0.099915 0.723724 0.115082
0.110809 0.724762 0.114685
0.125763 0.726318 0.113770
0.142761 0.728912 0.112732
0.160980 0.731995 0.111786
0.183929 0.736420 0.111176
0.209961 0.741119 0.109741
0.241211 0.746399 0.109863
0.278137 0.755035 0.111664
0.331390 0.773407 0.104370
0.384857 0.781067 0.100525
0.469116 0.790863 0.109406
0.543488 0.802673 0.117767
0.608704 0.814392 0.121948
0.659302 0.825623 0.127441
0.703461 0.834412 0.135468
0.742249 0.839478 0.139801
0.776978 0.842194 0.144135
0.808014 0.845337 0.149780
0.838135 0.850098 0.151978
0.861481 0.852203 0.154999
0.882416 0.852051 0.156891
0.902435 0.850616 0.158783
0.925659 0.850525 0.162018
0.939056 0.849792 0.163666
0.951019 0.849121 0.164581
0.960815 0.849121 0.165436
0.967926 0.848877 0.165985
0.070251 0.740540 0.117615
0.076172 0.740692 0.117371
0.084076 0.740936 0.116882
0.092316 0.741333 0.116516
0.102570 0.742432 0.116089
0.113678 0.743988 0.115845
0.128723 0.745758 0.115021
0.145630 0.748352 0.114532
0.164612 0.753326 0.113525
0.187805 0.758514 0.112396
0.213959 0.763733 0.111237
0.244293 0.768524 0.112061
0.280518 0.775604 0.114166
0.333710 0.795227 0.109619
0.389954 0.805725 0.106476
0.470245 0.815155 0.113373
0.542145 0.824432 0.120697
0.608948 0.834381 0.125275
0.659119 0.845154 0.130951
0.703339 0.852478 0.139099
0.741791 0.857056 0.145630
0.777710 0.859589 0.147003
0.809082 0.862305 0.151459
0.836884 0.865936 0.154816
0.862122 0.869629 0.155853
0.883118 0.871124 0.158478
0.901642 0.871124 0.160156
0.921570 0.870239 0.162384
0.938080 0.870026 0.164856
0.952332 0.868805 0.166351
0.961792 0.868927 0.167084
0.968994 0.869110 0.167725
0.073364 0.760193 0.118591
0.079254 0.760284 0.118378
0.087341 0.760864 0.118195
0.095642 0.761597 0.118042
0.105804 0.762482 0.117798
0.116638 0.763336 0.117188
0.131592 0.764954 0.116455
0.148743 0.768066 0.115784
0.167419 0.772369 0.114685
0.191437 0.779663 0.113342
0.217560 0.785370 0.112061
0.247772 0.790314 0.113525
0.284607 0.797241 0.116699
0.336548 0.815186 0.114166
0.394135 0.828979 0.112000
0.467377 0.837463 0.115570
0.542664 0.846344 0.124207
