滤镜资源/Professional Luts Collection/Triune-Digital-Cinematic-LUTs/3D LUTs (CUBE)/REDLOGFILM/Prometheus - REDlogFilm.cube
#Created by Benjamin (IWLTBAP) : http://luts.iwltbap.com
#Copyright: (C) Copyright 2016 Triune Films and IWLTBAP
TITLE "Blockbuster LUTs Pack (REDlogFilm)"
#LUT size
LUT_3D_SIZE 32
#LUT data points
0.000000 0.000000 0.000000
0.001282 0.000000 0.000000
0.002869 0.000000 0.000000
0.033325 0.000000 0.000000
0.069794 0.000000 0.000000
0.097229 0.000000 0.000000
0.130219 0.000000 0.000000
0.161987 0.000000 0.000000
0.194000 0.010315 0.000000
0.230377 0.020630 0.000000
0.268707 0.031250 0.009888
0.307190 0.043152 0.020142
0.343994 0.055603 0.031799
0.381805 0.068787 0.044464
0.419861 0.081604 0.057068
0.455688 0.093231 0.068512
0.493103 0.105591 0.080109
0.531403 0.118683 0.091705
0.565857 0.130615 0.101746
0.599518 0.142426 0.111847
0.630676 0.152832 0.120575
0.660797 0.162903 0.128906
0.689972 0.173004 0.136780
0.717072 0.182770 0.143585
0.738831 0.191071 0.149048
0.758240 0.198700 0.154114
0.775330 0.205109 0.158508
0.791443 0.211243 0.162964
0.803589 0.215637 0.166229
0.817505 0.220490 0.169800
0.829132 0.225098 0.172882
0.838287 0.228363 0.175385
0.000000 0.001282 0.000000
0.001282 0.001282 0.000000
0.002869 0.001282 0.000000
0.034058 0.001282 0.000000
0.071381 0.001282 0.000000
0.100220 0.001282 0.000000
0.136322 0.002441 0.000000
0.169495 0.012665 0.000000
0.198761 0.022705 0.000000
0.235718 0.032013 0.000000
0.273743 0.042084 0.009888
0.311737 0.053192 0.020233
0.348663 0.065399 0.032715
0.386688 0.078491 0.045715
0.414642 0.092896 0.053864
0.445892 0.103516 0.063751
0.478363 0.114746 0.073639
0.511841 0.126617 0.083679
0.542603 0.137695 0.092896
0.573425 0.149078 0.101868
0.602295 0.159882 0.109894
0.630219 0.170013 0.117279
0.657074 0.179932 0.124847
0.682373 0.188721 0.131683
0.740875 0.198303 0.149445
0.760406 0.205811 0.154541
0.777527 0.212341 0.159027
0.793793 0.218384 0.163391
0.806244 0.222626 0.166412
0.820007 0.227478 0.170074
0.831604 0.231781 0.173187
0.840576 0.235260 0.175690
0.000000 0.002869 0.000000
0.001282 0.002869 0.000000
0.002869 0.002869 0.000000
0.034882 0.007538 0.000000
0.049988 0.014069 0.000000
0.094513 0.015686 0.000000
0.134827 0.018921 0.000000
0.169159 0.024750 0.000000
0.202362 0.031555 0.000000
0.239624 0.041107 0.000000
0.277039 0.052063 0.009583
0.313049 0.063232 0.019348
0.346954 0.074921 0.030304
0.380676 0.087402 0.042084
0.414368 0.099060 0.053223
0.445740 0.109833 0.063171
0.478241 0.121002 0.073120
0.511627 0.132690 0.083130
0.542145 0.143646 0.092316
0.572601 0.154663 0.101196
0.601624 0.165405 0.109131
0.629211 0.175507 0.116669
0.655640 0.185120 0.123871
0.680969 0.193939 0.130646
0.702271 0.201385 0.136444
0.722595 0.208801 0.141632
0.741150 0.215698 0.146637
0.758789 0.222260 0.151062
0.771637 0.227264 0.154236
0.786102 0.233032 0.158020
0.798248 0.237976 0.161285
0.807892 0.241730 0.163727
0.000000 0.014740 0.000000
0.001282 0.018036 0.000000
0.002869 0.023529 0.000000
0.004486 0.028320 0.008179
0.038544 0.032349 0.001007
0.086304 0.035675 0.000000
0.132080 0.038544 0.000000
0.169891 0.041107 0.000000
0.204010 0.045837 0.000000
0.241486 0.052856 0.000977
0.278351 0.062927 0.010803
0.313599 0.073303 0.020599
0.347809 0.083618 0.030396
0.381714 0.095245 0.041962
0.415192 0.106598 0.052673
0.446320 0.117126 0.062531
0.478729 0.127960 0.072693
0.511993 0.139343 0.082703
0.542389 0.150116 0.091919
0.572266 0.160736 0.100677
0.600861 0.171265 0.108429
0.628540 0.181244 0.115936
0.654846 0.190704 0.123169
0.679901 0.199371 0.129974
0.701080 0.206573 0.135742
0.721313 0.213928 0.140900
0.739960 0.220642 0.145660
0.757599 0.227203 0.150146
0.770844 0.232208 0.153625
0.785065 0.238007 0.157410
0.797577 0.242676 0.160614
0.807281 0.246460 0.163025
0.000000 0.037994 0.002045
0.001282 0.040558 0.000000
0.002869 0.044434 0.000000
0.004486 0.049377 0.017639
0.026825 0.049744 0.013336
0.074127 0.055054 0.007965
0.124054 0.059448 0.005096
0.167297 0.062775 0.003113
0.203705 0.066101 0.006409
0.242462 0.070923 0.010254
0.279510 0.078125 0.015900
0.314728 0.086365 0.023407
0.348846 0.095734 0.032135
0.383057 0.105591 0.042328
0.416748 0.116394 0.052765
0.447571 0.126007 0.062317
0.480011 0.136536 0.072479
0.512848 0.147644 0.082397
0.542694 0.158142 0.091431
0.571899 0.168427 0.099762
0.600342 0.178528 0.107880
0.627655 0.188232 0.115143
0.654327 0.197632 0.122498
0.679108 0.205994 0.129120
0.700256 0.213318 0.134705
0.720276 0.220154 0.140137
0.738617 0.226715 0.144867
0.756378 0.233429 0.149353
0.769714 0.238251 0.152863
0.784332 0.243896 0.156464
0.796631 0.248566 0.159943
0.806488 0.252228 0.162598
0.000000 0.063446 0.015869
0.001282 0.063171 0.014038
0.002869 0.064636 0.011871
0.004486 0.069946 0.028442
0.020813 0.069275 0.024628
0.057678 0.070831 0.019653
0.114929 0.077881 0.017273
0.161346 0.082703 0.016815
0.201965 0.086487 0.016113
0.243164 0.091095 0.017822
0.281158 0.098206 0.023560
0.317413 0.106506 0.030548
0.352539 0.114868 0.038666
0.387939 0.123627 0.046661
0.421722 0.132660 0.056274
0.452332 0.142181 0.065979
0.483978 0.151581 0.075195
0.516388 0.161438 0.083618
0.545837 0.170532 0.092102
0.574646 0.179565 0.100403
0.602081 0.188171 0.107819
0.628815 0.197205 0.114960
0.655304 0.206207 0.121979
0.679382 0.214050 0.128418
0.700134 0.220856 0.134125
0.720062 0.227844 0.139282
0.738373 0.234131 0.144135
0.756104 0.240479 0.148804
0.769348 0.245209 0.151978
0.783813 0.250549 0.155853
0.796417 0.255432 0.159302
0.806213 0.258972 0.162048
0.000000 0.093170 0.028534
0.001282 0.093018 0.028473
0.002869 0.092194 0.026703
0.004486 0.098969 0.040741
0.013367 0.094788 0.037384
0.042389 0.093994 0.033264
0.094910 0.098572 0.027588
0.153290 0.104919 0.026520
0.198181 0.109283 0.025696
0.242188 0.114868 0.026520
0.282074 0.121643 0.030731
0.319702 0.130066 0.036682
0.355988 0.138855 0.045898
0.391418 0.147491 0.054047
0.425354 0.156769 0.063873
0.456879 0.165314 0.071716
0.489410 0.173828 0.079681
0.521881 0.182312 0.087158
0.551025 0.190186 0.094574
0.579712 0.198059 0.102600
0.607239 0.205811 0.109680
0.632965 0.212860 0.116333
0.658630 0.220947 0.122894
0.682312 0.228180 0.128906
0.702179 0.234009 0.134216
0.721954 0.239990 0.139130
0.740265 0.246033 0.143982
0.757751 0.251556 0.148773
0.770874 0.256165 0.151917
0.785156 0.260956 0.155853
0.797729 0.265625 0.159180
0.807800 0.268982 0.162079
0.000000 0.122528 0.040833
0.001282 0.123169 0.040344
0.002869 0.130524 0.053436
0.004486 0.127747 0.052063
0.010468 0.123901 0.050171
0.031464 0.120422 0.046875
0.073029 0.120453 0.041687
0.134460 0.129242 0.037506
0.191589 0.134644 0.037506
0.240082 0.137939 0.035858
0.281158 0.144226 0.037384
0.319794 0.152588 0.043793
0.357513 0.162659 0.051147
0.393463 0.172180 0.059723
0.428223 0.182037 0.069244
0.460724 0.190887 0.077515
0.493774 0.199402 0.085541
0.526428 0.207855 0.093781
0.555969 0.215668 0.100800
0.585419 0.222992 0.107635
0.613800 0.229523 0.113373
0.639771 0.235535 0.119263
0.664551 0.241364 0.125336
0.687683 0.247528 0.130890
0.707001 0.252289 0.135956
0.725952 0.257446 0.140625
0.744415 0.262360 0.145111
0.761505 0.267670 0.149780
0.774536 0.271484 0.153198
0.788879 0.276001 0.157166
0.801453 0.279907 0.160339
0.811523 0.283325 0.163055
0.000000 0.151520 0.052216
0.001282 0.152313 0.051422
0.002869 0.157928 0.063690
0.004486 0.155884 0.062164
0.010498 0.153076 0.060150
0.028076 0.148773 0.058289
0.058258 0.143982 0.054932
0.111511 0.150177 0.049286
0.173645 0.161682 0.048248
0.235260 0.166656 0.048401
0.281860 0.170441 0.047943
0.321869 0.177490 0.051239
0.359314 0.187012 0.057312
0.395447 0.196350 0.065002
0.430450 0.205841 0.073212
0.463135 0.214752 0.081482
0.496277 0.223877 0.090363
0.529266 0.232483 0.098938
0.559662 0.240326 0.106201
0.590149 0.247894 0.113068
0.618561 0.254242 0.119141
0.644745 0.259918 0.124939
0.669464 0.264709 0.129852
0.692535 0.269806 0.134613
0.711578 0.274139 0.139069
0.730530 0.278442 0.143219
0.748016 0.282623 0.147552
0.765656 0.286896 0.152100
0.779022 0.290466 0.155670
0.793884 0.294586 0.159790
0.806763 0.298279 0.163147
0.816956 0.301361 0.166046
0.000000 0.183960 0.064636
0.001282 0.188568 0.075836
0.002869 0.187286 0.074158
0.004486 0.186127 0.072754
0.014221 0.184204 0.070740
0.027802 0.180756 0.069244
0.048370 0.175323 0.067627
0.089447 0.172607 0.062225
0.146973 0.184204 0.058533
0.218597 0.201019 0.061493
0.278534 0.205750 0.063477
0.324219 0.209076 0.063812
0.363220 0.215546 0.067352
0.400116 0.224182 0.073120
0.435425 0.233429 0.079834
0.468262 0.242004 0.086792
0.500519 0.250397 0.094849
0.532898 0.258636 0.103271
0.563416 0.266174 0.110748
0.594208 0.273499 0.118134
0.622925 0.280060 0.124939
0.649963 0.286102 0.130615
0.675232 0.291290 0.135956
0.698090 0.295837 0.140564
0.717590 0.299835 0.144836
0.736328 0.303772 0.148804
0.753204 0.307434 0.152679
0.770630 0.311066 0.156403
0.783997 0.314087 0.160004
0.799408 0.317352 0.163757
0.812256 0.320923 0.167206
0.822723 0.323700 0.170135
0.000000 0.219116 0.087860
0.001282 0.218719 0.086853
0.006653 0.217682 0.085052
0.014069 0.216217 0.083252
0.021881 0.214630 0.081238
0.031616 0.212341 0.080322
0.045776 0.208862 0.079254
0.078247 0.201843 0.075256
0.125061 0.204926 0.069672
0.190857 0.225616 0.069946
0.266144 0.242859 0.077881
0.322174 0.246277 0.080627
0.365662 0.248383 0.080780
0.403778 0.254608 0.084351
0.439972 0.262604 0.089233
0.473450 0.271271 0.094879
0.506897 0.279755 0.101471
0.539215 0.287079 0.108856
0.569458 0.293610 0.116364
0.599609 0.299469 0.123169
0.627411 0.305115 0.129608
0.654449 0.310822 0.135376
0.679718 0.316071 0.140869
0.703278 0.320862 0.145844
0.723145 0.324921 0.150116
0.742279 0.328796 0.154175
0.759766 0.332428 0.157806
0.776764 0.335938 0.161743
0.789795 0.338684 0.164612
0.804565 0.341614 0.168182
0.817657 0.344666 0.171661
0.828033 0.347076 0.174286
0.005768 0.250641 0.100769
0.011200 0.250244 0.099243
0.016937 0.249207 0.097290
0.022675 0.248138 0.095306
0.030029 0.246613 0.093109
0.038483 0.244873 0.091949
0.049805 0.242249 0.091217
0.071686 0.236511 0.088165
0.108521 0.233215 0.083069
0.168823 0.242950 0.077789
0.240417 0.269104 0.085510
0.312622 0.283447 0.096405
0.364380 0.286682 0.099701
0.406036 0.288544 0.100342
0.442749 0.293915 0.101959
0.477020 0.300873 0.105804
0.511017 0.308685 0.111115
0.544312 0.315765 0.116913
0.575287 0.322266 0.123016
0.605347 0.327423 0.129547
0.633087 0.332062 0.135071
0.659698 0.336731 0.140778
0.685059 0.341614 0.145782
0.708801 0.346191 0.150970
0.728729 0.350067 0.155151
0.747833 0.353790 0.159027
0.765015 0.357147 0.162628
0.782471 0.360657 0.166504
0.795258 0.363281 0.169708
0.809723 0.366180 0.172882
0.822571 0.368835 0.176056
0.832794 0.371185 0.178802
0.017578 0.283081 0.114227
0.022095 0.282684 0.112701
0.027679 0.281952 0.110870
0.032898 0.281097 0.109344
0.039520 0.280151 0.106964
0.046875 0.279053 0.105255
0.057068 0.277405 0.104218
0.071136 0.274261 0.103027
0.096680 0.269012 0.099060
0.153198 0.270325 0.091675
0.219513 0.287903 0.091431
0.294189 0.313324 0.105865
0.357941 0.323334 0.116882
0.405853 0.326080 0.120148
0.444916 0.327362 0.119202
0.479980 0.331268 0.119110
0.514435 0.337463 0.122925
0.548096 0.344299 0.127380
0.579437 0.350525 0.132416
0.610809 0.356659 0.137787
0.639069 0.361572 0.142731
0.665924 0.365570 0.147339
0.691742 0.369720 0.151886
0.715637 0.373810 0.156921
0.735748 0.377502 0.161041
0.754974 0.380981 0.164948
0.771973 0.383850 0.168427
0.789368 0.386963 0.172211
0.802307 0.389587 0.175110
0.816833 0.392334 0.178406
0.829132 0.395081 0.181274
0.838837 0.397308 0.183868
0.029846 0.316742 0.128021
0.034210 0.316528 0.127045
0.039307 0.316223 0.125519
0.044403 0.315613 0.124115
0.050568 0.314972 0.122009
0.057129 0.314270 0.119751
0.065918 0.313232 0.118073
0.078094 0.312164 0.117554
0.095917 0.309021 0.116669
0.137848 0.303894 0.108185
0.206207 0.313171 0.104431
0.277039 0.336273 0.113190
0.345337 0.355164 0.128448
0.401093 0.361359 0.137207
0.445862 0.363434 0.139099
0.482452 0.364197 0.136414
0.517700 0.368073 0.136536
0.551331 0.373840 0.139557
0.582886 0.379700 0.143768
0.614746 0.385559 0.148010
0.644501 0.390991 0.151917
0.672211 0.396027 0.155853
0.698700 0.400330 0.160004
0.723480 0.404175 0.164490
0.743622 0.407257 0.168030
0.763245 0.410309 0.171844
0.780365 0.413025 0.175018
0.797180 0.415833 0.178497
0.809845 0.418060 0.181427
0.824402 0.421082 0.184845
0.836639 0.423828 0.187897
0.846252 0.426117 0.190735
0.041718 0.350403 0.141571
0.045868 0.350403 0.140869
0.051117 0.350372 0.139740
0.056030 0.350189 0.138672
0.061829 0.349487 0.136841
0.067993 0.348907 0.134613
0.076080 0.348175 0.132141
0.086304 0.347687 0.130310
0.101013 0.347229 0.130310
0.131470 0.344269 0.127075
0.189911 0.343384 0.118774
0.266632 0.360840 0.124237
0.333435 0.382416 0.137421
0.392426 0.393097 0.148041
0.441956 0.397797 0.155273
0.482758 0.399567 0.156219
0.519867 0.400665 0.153931
0.554199 0.404480 0.154327
0.585907 0.409637 0.156799
0.618164 0.415039 0.159790
0.649139 0.420258 0.162506
0.678223 0.425079 0.164825
0.705261 0.429657 0.168488
0.730316 0.433960 0.172974
0.751740 0.437683 0.175934
0.771362 0.441010 0.179474
0.788910 0.443970 0.182678
0.805481 0.446838 0.185791
0.818176 0.449371 0.188904
0.832550 0.452179 0.192108
0.844818 0.455139 0.195343
0.854675 0.457611 0.198029
0.052765 0.381897 0.154388
0.056824 0.381989 0.153748
0.061737 0.382050 0.152893
0.066437 0.381897 0.151642
0.072235 0.381317 0.149811
0.078033 0.380615 0.147705
0.086182 0.380096 0.145294
0.095001 0.379456 0.142761
0.107147 0.380188 0.141632
0.131927 0.381042 0.142792
0.177002 0.378510 0.136139
0.252808 0.386780 0.135986
0.323639 0.405243 0.145508
0.383881 0.422668 0.158691
0.433990 0.428009 0.165588
0.479370 0.432617 0.171051
0.519623 0.434235 0.172638
0.555847 0.435638 0.170929
0.588409 0.438873 0.170746
0.621918 0.443787 0.171387
0.652802 0.448364 0.173218
0.682526 0.453003 0.175049
0.711395 0.457458 0.177094
0.737427 0.462158 0.180939
0.759247 0.466400 0.184235
0.779755 0.471100 0.187744
0.797455 0.475067 0.191193
0.814697 0.478973 0.194641
0.827850 0.482086 0.197449
0.841888 0.485352 0.200623
0.853882 0.488037 0.203552
0.863586 0.490631 0.206146
0.064240 0.414764 0.168060
0.067993 0.414551 0.167023
0.072601 0.414368 0.166046
0.077271 0.413879 0.164490
0.082520 0.413269 0.162537
0.088226 0.412109 0.160248
0.095917 0.411499 0.157806
0.104584 0.410797 0.155548
0.114960 0.411285 0.153595
0.133179 0.413574 0.153839
0.169708 0.415436 0.155029
0.231781 0.416473 0.147003
0.310364 0.430084 0.154419
0.374756 0.448608 0.166992
0.427826 0.460388 0.178009
0.472168 0.463562 0.182892
0.517029 0.467896 0.187653
0.556335 0.469940 0.189545
0.590118 0.470825 0.187622
0.625092 0.474030 0.185547
0.657379 0.478333 0.185425
0.687775 0.482635 0.186493
0.717651 0.487518 0.187592
0.744720 0.492523 0.190521
0.766907 0.497345 0.193848
0.788055 0.502289 0.197540
0.806427 0.506927 0.201050
0.823944 0.511292 0.204285
0.837097 0.515076 0.207367
0.851898 0.519501 0.210632
0.864197 0.523193 0.213684
0.873810 0.526001 0.216309
0.076202 0.448273 0.182373
0.079803 0.447845 0.181000
0.084198 0.447205 0.179596
0.088562 0.446655 0.178192
0.093597 0.445404 0.175598
0.098694 0.444092 0.172882
0.105713 0.442627 0.169891
0.114471 0.441803 0.167511
0.124298 0.441864 0.165771
0.138031 0.442932 0.163788
0.163361 0.446594 0.165131
0.210938 0.449951 0.163269
0.287231 0.455536 0.160583
0.360657 0.471344 0.172241
0.419006 0.488495 0.186829
0.465240 0.496490 0.195618
0.510559 0.499298 0.200165
0.554932 0.503601 0.205048
0.592102 0.505768 0.205841
0.627563 0.506378 0.202454
0.662140 0.508972 0.199158
0.693481 0.513855 0.199432
0.723785 0.518646 0.199493
0.751740 0.524048 0.201324
0.774384 0.529022 0.204346
0.795532 0.534241 0.208160
0.814728 0.539215 0.211548
0.832947 0.543854 0.215057
0.846008 0.547852 0.217896
0.860779 0.552216 0.221344
0.873413 0.556427 0.224335
0.883301 0.559692 0.227203
0.087677 0.478394 0.196014
0.091187 0.477905 0.194763
0.095490 0.477356 0.193024
0.099762 0.476807 0.191284
0.104736 0.475525 0.188812
0.109528 0.473846 0.185699
0.116119 0.471924 0.182037
0.123871 0.470490 0.178833
0.133148 0.469971 0.176514
0.145996 0.470642 0.174530
0.163940 0.472260 0.173187
0.198334 0.478973 0.176788
0.260284 0.484344 0.174164
0.339874 0.493225 0.175934
0.405396 0.508514 0.189331
0.456665 0.522797 0.203613
0.503693 0.529938 0.212250
0.548798 0.532898 0.217163
0.590698 0.537140 0.220093
0.630280 0.539612 0.219574
0.665192 0.540344 0.215729
0.698669 0.543213 0.212402
0.729065 0.547821 0.212067
0.757660 0.553101 0.212769
0.781128 0.558380 0.215302
0.802673 0.563629 0.218414
0.821991 0.568573 0.221741
0.840393 0.573578 0.225067
0.853699 0.577789 0.228088
0.868439 0.582550 0.231567
0.880981 0.586761 0.234650
0.890991 0.590271 0.237366
0.099060 0.508148 0.210938
0.102600 0.507721 0.209351
0.106873 0.507263 0.207367
0.111115 0.506836 0.205566
0.116089 0.505646 0.203156
0.121002 0.504517 0.200226
0.127502 0.502655 0.196716
0.134644 0.500549 0.192719
0.142578 0.498993 0.189331
0.154144 0.498108 0.186401
0.170105 0.498749 0.184235
0.193115 0.502991 0.185425
0.236145 0.512054 0.188995
0.309784 0.519226 0.187103
0.385742 0.530212 0.192444
0.443909 0.544067 0.205994
0.495056 0.557159 0.219940
0.542908 0.564392 0.229156
0.584778 0.567413 0.233337
0.628937 0.571686 0.234894
0.668213 0.574432 0.233398
0.702637 0.575470 0.229462
0.734955 0.578400 0.226135
0.763947 0.582764 0.225677
0.787811 0.587830 0.227203
0.810181 0.593079 0.229736
0.829773 0.598114 0.232391
0.848358 0.603271 0.235809
0.861816 0.607880 0.239105
0.876617 0.612976 0.242279
0.889069 0.617615 0.245636
0.898926 0.621277 0.248352
0.109833 0.535828 0.224670
0.113312 0.535248 0.223083
0.117615 0.534760 0.220947
0.121887 0.534393 0.219086
0.126923 0.533600 0.216736
0.131989 0.532654 0.214325
0.138550 0.531219 0.211182
0.145721 0.529205 0.207123
0.153412 0.527374 0.203522
0.163147 0.525055 0.199219
0.176727 0.523987 0.195953
0.197479 0.526672 0.195892
0.226044 0.533539 0.198883
0.277649 0.543121 0.199432
0.356873 0.552185 0.199860
0.426483 0.564728 0.208313
0.484833 0.578552 0.222992
0.535889 0.591034 0.236542
0.580139 0.597839 0.244995
0.623108 0.600830 0.248352
0.667236 0.605072 0.248077
0.706299 0.607117 0.244446
0.739532 0.608887 0.240570
0.769836 0.611969 0.238953
0.794495 0.615875 0.238861
0.816833 0.620850 0.240540
0.836731 0.625977 0.243286
0.855682 0.631165 0.246246
0.869446 0.635773 0.249512
0.884155 0.641174 0.253143
0.896698 0.646088 0.256744
0.906342 0.649994 0.259521
0.120880 0.562653 0.238312
0.124359 0.562195 0.236633
0.128662 0.561859 0.234589
0.132965 0.561493 0.232574
0.137970 0.560760 0.230408
0.142944 0.559875 0.228088
0.149536 0.558655 0.225281
0.156372 0.556519 0.221069
0.164124 0.554810 0.217468
0.173401 0.552185 0.212830
0.185089 0.550201 0.209198
0.202545 0.549835 0.206635
0.228210 0.555939 0.209839
0.263550 0.564941 0.212158
0.324310 0.574677 0.210938
0.399261 0.585144 0.213776
0.468811 0.598877 0.224701
0.526581 0.612640 0.240234
0.573669 0.623657 0.252228
0.619720 0.630096 0.259674
0.663239 0.633484 0.261566
0.707001 0.636688 0.257782
0.744293 0.638428 0.252869
0.774750 0.640961 0.251190
0.799530 0.643677 0.251007
0.822754 0.647614 0.251862
0.842804 0.652100 0.254120
0.862305 0.657684 0.257080
0.875641 0.662323 0.260132
0.890259 0.667999 0.264008
0.902344 0.672791 0.267822
0.911957 0.676910 0.271088
0.131805 0.588318 0.251617
0.135254 0.588287 0.250031
0.139496 0.588196 0.248169
0.143799 0.588074 0.246307
0.148773 0.587433 0.244171
0.153687 0.586578 0.241852
0.160248 0.585388 0.238953
0.166901 0.583252 0.234528
0.174194 0.581085 0.230408
0.182800 0.578064 0.225433
0.194153 0.576050 0.221741
0.209229 0.574341 0.217957
0.230743 0.577332 0.218994
0.261017 0.585815 0.223755
0.304230 0.595917 0.223877
0.371002 0.606293 0.222595
0.443817 0.618805 0.228546
0.513580 0.633392 0.242126
0.565216 0.645020 0.255829
0.613892 0.656128 0.267151
0.660889 0.661438 0.272522
0.704468 0.664246 0.270355
0.746490 0.666748 0.264221
0.780334 0.668671 0.260803
0.804932 0.671204 0.261139
0.827209 0.674347 0.262939
0.847778 0.678497 0.265259
0.867065 0.682709 0.267609
0.880310 0.687592 0.271088
0.894928 0.693146 0.275238
0.906952 0.698273 0.279358
0.916138 0.702240 0.283203
0.141205 0.612274 0.263672
0.144684 0.612366 0.262238
0.148926 0.612457 0.260376
0.153564 0.612549 0.258789
0.158264 0.612122 0.256592
0.163330 0.611450 0.254395
0.169739 0.610565 0.251404
0.176422 0.608459 0.247192
0.183594 0.606171 0.243134
0.191925 0.602814 0.237640
0.202393 0.600403 0.233521
0.216217 0.598328 0.229370
0.234924 0.598511 0.227631
0.260010 0.603973 0.231049
0.296936 0.615051 0.235565
0.350403 0.625397 0.233185
0.420258 0.637512 0.235382
0.492493 0.651825 0.243835
0.554810 0.664825 0.257599
0.606964 0.676270 0.270538
0.656769 0.685974 0.278687
0.703552 0.689667 0.279327
0.745972 0.692535 0.275055
0.783264 0.694550 0.270569
0.810333 0.696930 0.269318
0.832916 0.700043 0.271362
0.852051 0.703308 0.274689
0.871735 0.707733 0.277710
0.884979 0.711334 0.281097
0.899139 0.715912 0.285400
0.910614 0.721130 0.290375
0.919617 0.725403 0.294464
0.149078 0.631866 0.272156
0.152679 0.632568 0.271271
0.157196 0.633179 0.270294
0.161926 0.633545 0.268890
0.166687 0.633148 0.266846
0.171509 0.632690 0.264709
0.178009 0.631805 0.261780
0.184784 0.630066 0.257904
0.191925 0.628021 0.253937
0.200165 0.624908 0.248718
0.210083 0.622314 0.244415
0.222839 0.619232 0.239685
0.240570 0.618408 0.236816
0.262573 0.621185 0.237793
0.293945 0.630188 0.242920
0.338776 0.641876 0.244934
0.404816 0.652802 0.242401
0.475464 0.667664 0.249023
0.542023 0.681213 0.259216
0.602020 0.693756 0.273132
0.653259 0.704376 0.282196
0.701752 0.710052 0.284210
0.746429 0.714081 0.283081
0.784119 0.716492 0.279541
0.813477 0.718628 0.277405
0.837646 0.721771 0.278412
0.856750 0.725220 0.282013
0.874817 0.728851 0.286346
0.887238 0.732422 0.290863
0.901031 0.736755 0.295990
0.911285 0.740906 0.302155
0.919708 0.744934 0.306763
0.155884 0.650085 0.279327
0.159668 0.651154 0.279144
0.164520 0.652222 0.278656
0.169220 0.653046 0.277588
0.174347 0.653046 0.276031
0.179291 0.652710 0.273834
0.185883 0.651978 0.271179
0.192688 0.650604 0.267609
0.199982 0.649231 0.264221
0.208374 0.646576 0.259552
0.218201 0.644043 0.255463
0.230316 0.640747 0.250824
0.246735 0.638794 0.247192
0.268097 0.640839 0.247284
0.294678 0.646576 0.250854
0.330811 0.656830 0.254913
0.391876 0.668243 0.252441
0.462769 0.681641 0.252655
0.530060 0.696503 0.261414
0.594330 0.710236 0.274750
0.650909 0.722076 0.285889
0.700958 0.730408 0.288849
0.747192 0.734772 0.290466
0.785919 0.737823 0.288513
0.814972 0.740509 0.287292
0.840302 0.743103 0.287598
0.859894 0.746735 0.290833
0.877838 0.750732 0.295471
0.889404 0.753937 0.301056
0.901825 0.757690 0.307434
0.910553 0.761627 0.315186
0.918427 0.765076 0.320465
0.162109 0.666473 0.286133
0.165894 0.667603 0.285919
0.170807 0.668732 0.285339
0.175598 0.669800 0.285004
0.180847 0.670319 0.283661
0.185913 0.670044 0.281677
0.192535 0.669708 0.279175
0.199371 0.668365 0.275665
0.206665 0.667175 0.272522
0.215454 0.665558 0.268829
0.225372 0.663483 0.265015
0.237091 0.660461 0.260590
0.252686 0.657593 0.256470
0.272980 0.658478 0.255798
0.298553 0.663391 0.259094
0.329407 0.671600 0.263428
0.380981 0.682831 0.264038
0.452148 0.694885 0.258850
0.519714 0.709290 0.262787
0.585754 0.724274 0.275482
0.648376 0.737915 0.288635
0.701080 0.748108 0.292694
0.746460 0.753265 0.294647
0.787109 0.757538 0.296509
0.816803 0.760529 0.296448
0.841705 0.763550 0.297974
0.861267 0.766724 0.301422
0.879028 0.770660 0.305725
0.890717 0.774048 0.310974
0.902283 0.778076 0.318695
0.910675 0.782288 0.326996
0.917450 0.785461 0.333679
0.168579 0.683411 0.293610
0.172363 0.684387 0.293213
0.177246 0.685669 0.292999
0.182037 0.687073 0.292816
0.187317 0.687500 0.291718
0.192352 0.687653 0.290100
0.199005 0.687622 0.287903
0.205902 0.686859 0.285004
0.213165 0.685516 0.281586
0.221954 0.684052 0.278198
0.231873 0.682343 0.274750
0.243805 0.680115 0.271027
0.258759 0.677032 0.266541
0.277740 0.676300 0.264801
0.302704 0.680084 0.267395
0.331238 0.687347 0.272034
0.373718 0.697235 0.274109
