滤镜资源/Professional Luts Collection/Triune-Digital-Cinematic-LUTs/3D LUTs (CUBE)/REDLOGFILM/Prometheus - REDlogFilm.cube
#Created by Benjamin (IWLTBAP) : http://luts.iwltbap.com
#Copyright: (C) Copyright 2016 Triune Films and IWLTBAP
TITLE "Blockbuster LUTs Pack (REDlogFilm)"
#LUT size
LUT_3D_SIZE 5
#LUT data points
DOMAIN_MIN 0.000000 0.000000 0.000000
DOMAIN_MAX 0.903226 0.903226 0.903226
0.000000 0.000000 0.000000
0.161987 0.000000 0.000000
0.419861 0.081604 0.057068
0.660797 0.162903 0.128906
0.803589 0.215637 0.166229
0.000000 0.122528 0.040833
0.134460 0.129242 0.037506
0.428223 0.182037 0.069244
0.639771 0.235535 0.119263
0.774536 0.271484 0.153198
0.041718 0.350403 0.141571
0.086304 0.347687 0.130310
0.441956 0.397797 0.155273
0.678223 0.425079 0.164825
0.818176 0.449371 0.188904
0.120880 0.562653 0.238312
0.156372 0.556519 0.221069
0.324310 0.574677 0.210938
0.707001 0.636688 0.257782
0.875641 0.662323 0.260132
0.173401 0.696075 0.299103
0.210968 0.700684 0.291748
0.305969 0.693420 0.274200
0.702759 0.777039 0.299438
0.889221 0.810181 0.335815
0.000000 0.008545 0.148438
0.143219 0.029022 0.160126
0.410065 0.070404 0.112701
0.629913 0.149017 0.163971
0.773010 0.211365 0.202301
0.000000 0.148254 0.173645
0.092010 0.152771 0.175842
0.419434 0.165497 0.137573
0.632568 0.218292 0.171478
0.773010 0.265564 0.203827
0.051697 0.368622 0.241272
0.097198 0.370178 0.240448
0.417450 0.409424 0.253204
0.682739 0.433350 0.237030
0.830017 0.447327 0.241669
0.130402 0.580658 0.328217
0.169708 0.581146 0.312561
0.291443 0.584503 0.291107
0.700134 0.652252 0.336487
0.884460 0.681244 0.331726
0.181854 0.713593 0.384094
0.223389 0.729797 0.382538
0.312744 0.718201 0.352966
0.696747 0.796234 0.379486
0.886230 0.842133 0.441467
0.000000 0.067413 0.371277
0.105042 0.080536 0.364441
0.397369 0.094513 0.351196
0.640320 0.152771 0.312500
0.782654 0.210358 0.323303
0.005890 0.194183 0.387909
0.084290 0.192596 0.364166
0.390320 0.210144 0.389374
0.634888 0.225891 0.325470
0.776947 0.270081 0.338104
0.066010 0.396606 0.407593
0.110443 0.397980 0.416260
0.330902 0.423950 0.453583
0.676331 0.433472 0.383392
0.826202 0.436951 0.363953
0.145447 0.605377 0.478943
0.185577 0.609650 0.478577
0.298492 0.620361 0.463501
0.698669 0.686066 0.495422
0.884521 0.723022 0.504333
0.198151 0.744141 0.530151
0.240265 0.763245 0.538757
0.337677 0.771637 0.524597
0.704071 0.835175 0.541046
0.900543 0.887360 0.609039
0.039642 0.097351 0.617065
0.105194 0.101532 0.550476
0.328339 0.085571 0.577606
0.609680 0.148499 0.547943
0.762695 0.192444 0.526611
0.037140 0.224976 0.621490
0.086029 0.224060 0.553223
0.303680 0.223633 0.601318
0.594727 0.223816 0.577393
0.748535 0.251831 0.555817
0.087555 0.425934 0.584747
0.127686 0.423737 0.594238
0.279572 0.433228 0.624634
0.629272 0.452301 0.659973
0.779480 0.424927 0.617554
0.163513 0.632111 0.648346
0.206909 0.641052 0.661469
0.323639 0.660126 0.682983
0.656982 0.737885 0.746185
0.886536 0.769806 0.743988
0.214905 0.777008 0.696594
0.259155 0.798035 0.715179
0.383667 0.827057 0.741638
0.641083 0.876312 0.777466
0.891815 0.918671 0.806335
0.062164 0.127899 0.744843
0.111389 0.123779 0.666443
0.308014 0.108337 0.688110
0.589508 0.147278 0.683136
0.728943 0.178711 0.679352
0.057526 0.245514 0.745880
0.093872 0.242249 0.672333
0.283478 0.227112 0.701080
0.575012 0.230042 0.715118
0.718567 0.242920 0.700623
0.103363 0.444458 0.698151
0.140686 0.440582 0.709930
0.267609 0.435120 0.731598
0.591370 0.421112 0.788300
0.757294 0.431549 0.767670
0.176422 0.651215 0.756927
0.218109 0.660522 0.773285
0.334778 0.679596 0.798523
0.654327 0.757385 0.880432
0.868256 0.785065 0.899017
0.222137 0.790894 0.798340
0.269714 0.809723 0.819977
0.414093 0.852386 0.862030
0.710114 0.908844 0.918976
0.916107 0.948669 0.949249
