滤镜资源/Professional Luts Collection/Triune-Digital-Cinematic-LUTs/3D LUTs (CUBE)/REDLOGFILM/Prometheus - REDlogFilm.cube
#Created by Benjamin (IWLTBAP) : http://luts.iwltbap.com
#Copyright: (C) Copyright 2016 Triune Films and IWLTBAP
TITLE "Blockbuster LUTs Pack (REDlogFilm)"
#LUT size
LUT_3D_SIZE 8
#LUT data points
DOMAIN_MIN 0.000000 0.000000 0.000000
DOMAIN_MAX 0.903226 0.903226 0.903226
0.000000 0.000000 0.000000
0.069794 0.000000 0.000000
0.194000 0.010315 0.000000
0.343994 0.055603 0.031799
0.493103 0.105591 0.080109
0.630676 0.152832 0.120575
0.738831 0.191071 0.149048
0.803589 0.215637 0.166229
0.000000 0.037994 0.002045
0.026825 0.049744 0.013336
0.203705 0.066101 0.006409
0.348846 0.095734 0.032135
0.480011 0.136536 0.072479
0.600342 0.178528 0.107880
0.700256 0.213318 0.134705
0.769714 0.238251 0.152863
0.000000 0.151520 0.052216
0.010498 0.153076 0.060150
0.173645 0.161682 0.048248
0.359314 0.187012 0.057312
0.496277 0.223877 0.090363
0.618561 0.254242 0.119141
0.711578 0.274139 0.139069
0.779022 0.290466 0.155670
0.017578 0.283081 0.114227
0.039520 0.280151 0.106964
0.096680 0.269012 0.099060
0.357941 0.323334 0.116882
0.514435 0.337463 0.122925
0.639069 0.361572 0.142731
0.735748 0.377502 0.161041
0.802307 0.389587 0.175110
0.064240 0.414764 0.168060
0.082520 0.413269 0.162537
0.114960 0.411285 0.153595
0.310364 0.430084 0.154419
0.517029 0.467896 0.187653
0.657379 0.478333 0.185425
0.766907 0.497345 0.193848
0.837097 0.515076 0.207367
0.109833 0.535828 0.224670
0.126923 0.533600 0.216736
0.153412 0.527374 0.203522
0.226044 0.533539 0.198883
0.484833 0.578552 0.222992
0.667236 0.605072 0.248077
0.794495 0.615875 0.238861
0.869446 0.635773 0.249512
0.149078 0.631866 0.272156
0.166687 0.633148 0.266846
0.191925 0.628021 0.253937
0.240570 0.618408 0.236816
0.404816 0.652802 0.242401
0.653259 0.704376 0.282196
0.813477 0.718628 0.277405
0.887238 0.732422 0.290863
0.173401 0.696075 0.299103
0.192017 0.700806 0.297791
0.218262 0.699768 0.288849
0.263458 0.692139 0.274536
0.372833 0.709747 0.282318
0.641327 0.763245 0.291748
0.818970 0.795624 0.314819
0.889221 0.810181 0.335815
0.000000 0.000000 0.064545
0.042816 0.000000 0.067505
0.195953 0.000000 0.039001
0.340576 0.052826 0.060394
0.472321 0.099762 0.096802
0.599915 0.146637 0.131653
0.701324 0.186279 0.159485
0.772003 0.214783 0.176819
0.000000 0.052185 0.081787
0.015289 0.061493 0.087402
0.195740 0.058716 0.055756
0.344330 0.086365 0.064240
0.472839 0.124847 0.096344
0.595032 0.167938 0.129822
0.696747 0.205292 0.156250
0.767517 0.232605 0.174164
0.000000 0.165436 0.116760
0.010498 0.170563 0.122559
0.155609 0.171204 0.112396
0.359253 0.189240 0.098969
0.498596 0.216431 0.116180
0.617371 0.243530 0.140533
0.709930 0.266052 0.161652
0.777863 0.285034 0.178772
0.023804 0.294708 0.166992
0.046387 0.294708 0.166077
0.093353 0.287384 0.158020
0.342987 0.328033 0.165100
0.509827 0.342804 0.165253
0.643005 0.363434 0.173584
0.742279 0.377350 0.185913
0.808319 0.387970 0.198547
0.068604 0.422974 0.213959
0.087952 0.424103 0.211365
0.120239 0.421539 0.201355
0.277313 0.425415 0.195587
0.507965 0.473755 0.233521
0.657593 0.483063 0.222015
0.770966 0.500610 0.221436
0.841858 0.516785 0.231995
0.114380 0.545013 0.268433
0.133057 0.545044 0.260590
0.160095 0.538544 0.244934
0.223541 0.537994 0.233795
0.471344 0.579102 0.252625
0.663574 0.611420 0.283936
0.799133 0.623383 0.271240
0.874908 0.643768 0.279968
0.153320 0.640564 0.315369
0.172852 0.645630 0.311005
0.199097 0.642548 0.296692
0.244476 0.629639 0.273865
0.385986 0.657135 0.280945
0.648071 0.710602 0.316162
0.812714 0.729523 0.317200
0.886230 0.744202 0.333466
0.177277 0.704498 0.338470
0.197388 0.712891 0.339325
0.225128 0.716156 0.332916
0.269012 0.707336 0.315552
0.369781 0.717804 0.319092
0.635345 0.771515 0.327026
0.814240 0.808990 0.361420
0.883942 0.826080 0.388702
0.000000 0.017975 0.176483
0.029938 0.033447 0.179474
0.182434 0.036926 0.183533
0.348969 0.046387 0.123383
0.475983 0.091278 0.140503
0.602448 0.136902 0.169464
0.706635 0.180908 0.196075
0.774841 0.210144 0.212555
0.000000 0.083405 0.185150
0.020905 0.092255 0.183044
0.159607 0.095795 0.188049
0.350037 0.083893 0.131714
0.478607 0.123291 0.149506
0.600739 0.162933 0.174500
0.700134 0.202362 0.197693
0.767212 0.228668 0.212036
0.000000 0.181915 0.207397
0.018372 0.185608 0.204132
0.119751 0.186066 0.208893
0.347961 0.187988 0.173645
0.489441 0.206970 0.168304
0.612030 0.233459 0.183258
0.707062 0.261383 0.202942
0.775879 0.282593 0.218353
0.031891 0.309845 0.240295
0.054474 0.310059 0.241821
0.096344 0.315155 0.243469
0.315613 0.339508 0.254852
0.505798 0.354706 0.243042
0.644806 0.365173 0.226257
0.746490 0.373230 0.224121
0.810760 0.381256 0.234863
0.075348 0.436035 0.282745
0.094238 0.436523 0.283112
0.126984 0.435974 0.278717
0.236389 0.431213 0.272491
0.497528 0.483704 0.300385
0.656433 0.493500 0.287354
0.777679 0.507233 0.269043
0.848907 0.517334 0.272919
0.121368 0.557343 0.333099
0.138855 0.557343 0.328033
0.168152 0.554626 0.313568
0.227661 0.550659 0.293884
0.443085 0.581543 0.307343
0.658691 0.621674 0.341370
0.804016 0.634979 0.324677
0.881470 0.655731 0.330841
0.159393 0.652039 0.375275
0.179169 0.657959 0.375549
0.208496 0.661194 0.364990
0.254333 0.651672 0.339539
0.366974 0.666107 0.340118
0.643982 0.719116 0.364380
0.808075 0.745728 0.381561
0.880646 0.763824 0.403839
0.183838 0.717468 0.401123
0.203857 0.726593 0.402710
0.233337 0.735413 0.398041
0.278381 0.730499 0.380768
0.371582 0.732147 0.373169
0.633209 0.784210 0.380524
0.814606 0.829803 0.431061
0.888092 0.847931 0.460358
0.000000 0.053467 0.300934
0.028015 0.061279 0.287964
0.147156 0.071655 0.301697
0.332123 0.077301 0.292572
0.488251 0.098480 0.256439
0.607697 0.139008 0.247223
0.710480 0.180817 0.265228
0.783173 0.211426 0.279816
0.000000 0.113037 0.307281
0.028015 0.120789 0.290863
0.128082 0.129272 0.308472
0.326019 0.126923 0.303314
0.488892 0.136230 0.267365
0.604980 0.165070 0.252075
0.706696 0.205078 0.270447
0.778839 0.233643 0.285065
0.002808 0.207458 0.326569
0.029358 0.209625 0.308289
0.109894 0.208466 0.318176
0.300079 0.223907 0.335083
0.487610 0.220917 0.286407
0.606201 0.242218 0.272400
0.704285 0.265930 0.282745
0.774414 0.286102 0.294189
0.040771 0.325134 0.336365
0.062653 0.325684 0.340759
0.102173 0.329529 0.347107
0.256104 0.340454 0.374664
0.497559 0.361267 0.343048
0.635345 0.357849 0.302612
0.735229 0.363892 0.294769
0.804688 0.373901 0.300842
0.083557 0.452240 0.376526
0.102570 0.452606 0.378601
0.134247 0.451416 0.378326
0.223053 0.467865 0.387970
0.474396 0.498352 0.401550
0.655365 0.512421 0.384308
0.788910 0.516266 0.348236
0.859711 0.522583 0.343048
0.130157 0.571442 0.418854
0.148712 0.573090 0.418182
0.176544 0.571259 0.412048
0.238098 0.574402 0.397583
0.388153 0.592834 0.402802
0.656891 0.639282 0.429749
0.804291 0.655090 0.415863
0.884827 0.675293 0.418030
0.168060 0.667053 0.458649
0.188751 0.674683 0.462097
0.217712 0.678284 0.458130
0.266693 0.676819 0.437500
0.362579 0.683655 0.422577
0.638824 0.732758 0.440308
0.807312 0.769470 0.476044
0.885071 0.791565 0.499969
0.192993 0.734131 0.481812
0.213348 0.744843 0.486206
0.242371 0.753235 0.485352
0.289948 0.756042 0.471405
0.380280 0.757996 0.458527
0.635498 0.805115 0.469360
0.826508 0.857330 0.525604
0.896851 0.874512 0.555237
0.014526 0.075104 0.442902
0.041077 0.085388 0.399017
0.133026 0.086212 0.430237
0.300140 0.078247 0.432617
0.460419 0.109680 0.406830
0.607086 0.136658 0.376404
0.714813 0.181091 0.377747
0.781952 0.205139 0.374481
0.014191 0.133423 0.450256
0.041809 0.143524 0.403748
0.123383 0.138184 0.423767
0.285522 0.144379 0.445496
0.455872 0.149536 0.420502
0.601471 0.164001 0.386200
0.708282 0.205566 0.384491
0.776581 0.228485 0.381775
0.019348 0.231812 0.414307
0.042755 0.230743 0.419434
0.107330 0.225983 0.426697
0.252686 0.240356 0.461792
0.456787 0.244507 0.457245
0.604950 0.244720 0.414886
0.703766 0.264313 0.397003
0.774231 0.286255 0.395264
0.053711 0.343903 0.442841
0.074677 0.344635 0.449005
0.110565 0.343445 0.455627
0.236053 0.354095 0.478638
0.447235 0.373901 0.493591
0.620514 0.366241 0.446259
0.716675 0.368805 0.417999
0.786530 0.379242 0.419067
0.091217 0.464722 0.476929
0.110321 0.465729 0.481903
0.142639 0.465881 0.486481
0.220856 0.478485 0.503540
0.408417 0.506989 0.532867
0.652557 0.524231 0.498383
0.774963 0.516479 0.458954
0.847931 0.518799 0.451691
0.139496 0.586121 0.519836
0.158508 0.588593 0.523041
0.187592 0.589050 0.523224
0.242920 0.590118 0.522369
0.370850 0.620300 0.535065
0.644745 0.666595 0.555542
0.805420 0.691345 0.553314
0.884033 0.708588 0.555450
0.178802 0.685181 0.556610
0.200500 0.695496 0.564270
0.230774 0.701141 0.566376
0.279297 0.700623 0.558411
0.379456 0.720947 0.555878
0.601929 0.753143 0.563538
0.809235 0.799072 0.596680
0.892181 0.822418 0.621246
0.203369 0.754364 0.580200
0.224365 0.766632 0.588104
0.254272 0.775848 0.591492
0.302887 0.779999 0.587799
0.407043 0.800262 0.591187
0.600006 0.827362 0.593903
0.827850 0.882294 0.639496
0.902313 0.897522 0.662140
0.035614 0.091705 0.587524
0.055664 0.102539 0.511078
0.128998 0.101196 0.535553
0.254944 0.088135 0.553558
0.439178 0.106567 0.544495
0.584412 0.141907 0.521667
0.695862 0.169495 0.504181
0.773102 0.200470 0.503296
0.029114 0.148956 0.589569
0.050232 0.160858 0.516144
0.123291 0.147980 0.526398
0.244720 0.156403 0.562927
0.428528 0.151947 0.563019
0.575226 0.170654 0.532074
0.686890 0.193481 0.517639
0.765533 0.220337 0.510925
0.034271 0.251495 0.524261
0.055634 0.249176 0.529541
0.104187 0.243073 0.534668
0.233337 0.236633 0.560730
0.408722 0.249146 0.589935
0.568909 0.243561 0.560791
0.679108 0.253021 0.543365
0.759430 0.273956 0.529053
0.065826 0.360687 0.547577
0.084991 0.359528 0.553131
0.118042 0.356018 0.559937
0.214539 0.363220 0.576447
0.383026 0.370026 0.611847
0.585907 0.375549 0.609222
0.688812 0.349670 0.577667
0.775208 0.369690 0.560272
0.104279 0.481750 0.579041
0.123352 0.482452 0.584473
0.153900 0.481659 0.589325
0.217926 0.483704 0.602448
0.368042 0.511475 0.634644
0.607605 0.538452 0.659943
0.746613 0.517120 0.634033
0.821106 0.523743 0.607880
0.149750 0.600525 0.617188
0.169708 0.604004 0.623718
0.200439 0.606445 0.629486
0.258087 0.611603 0.638336
0.378967 0.646118 0.666321
0.603027 0.692383 0.703217
0.802277 0.717957 0.700409
0.882904 0.728485 0.692902
0.189270 0.703369 0.652802
0.211517 0.715332 0.663666
0.243286 0.723846 0.671204
0.298065 0.729675 0.675842
0.402527 0.753418 0.694580
0.563568 0.786560 0.716156
0.794464 0.829926 0.740112
0.890015 0.847900 0.751862
0.213318 0.773804 0.675903
0.234497 0.786652 0.686890
0.265717 0.796600 0.694702
0.322784 0.807892 0.703796
0.438812 0.836975 0.729156
0.582214 0.862091 0.741821
0.796295 0.893738 0.758362
0.894592 0.913666 0.778107
0.051239 0.114014 0.687256
0.064423 0.119080 0.602692
0.127014 0.113068 0.616882
0.248108 0.108704 0.634766
0.400299 0.103424 0.638519
0.568481 0.138336 0.623840
0.671692 0.163330 0.616760
0.743866 0.184723 0.615601
0.041290 0.166534 0.683197
0.054810 0.175537 0.606049
0.126190 0.163055 0.613647
0.231110 0.164673 0.639252
0.381195 0.145813 0.650970
0.560822 0.174469 0.638824
0.663025 0.189392 0.625488
0.734100 0.208405 0.627563
0.045715 0.265137 0.612000
0.065186 0.260681 0.617218
0.107025 0.255157 0.621765
0.221252 0.237396 0.635223
0.367920 0.245148 0.671661
0.556274 0.248840 0.668121
0.657074 0.251007 0.647522
0.730682 0.265198 0.647980
0.076782 0.375732 0.631958
0.094543 0.372742 0.637939
0.124634 0.365540 0.643585
0.202881 0.363342 0.654236
0.353271 0.354889 0.681274
0.560638 0.363983 0.709869
0.672882 0.356384 0.685089
0.745331 0.360291 0.681763
0.115662 0.494110 0.658936
0.134369 0.494537 0.664978
0.163269 0.493073 0.670624
0.220276 0.490875 0.681396
0.346039 0.509979 0.709045
0.568939 0.532166 0.755035
0.723267 0.526917 0.749695
0.792358 0.520050 0.744080
0.160522 0.614655 0.696075
0.180573 0.619080 0.703796
0.211578 0.621979 0.710999
0.268219 0.626709 0.720154
0.377533 0.655090 0.747894
0.560760 0.697601 0.798096
0.773499 0.731995 0.823120
0.864868 0.730560 0.825104
0.195923 0.715637 0.727234
0.217621 0.726288 0.739014
0.251160 0.735626 0.750092
0.313782 0.747528 0.762939
0.428040 0.778290 0.790253
0.582275 0.815552 0.827728
0.796112 0.856476 0.858185
0.891724 0.867462 0.861725
0.219055 0.785461 0.750031
0.239960 0.796661 0.761108
0.274323 0.808075 0.773071
0.342743 0.826294 0.790955
0.469818 0.862732 0.824677
0.624359 0.890167 0.854218
0.804413 0.917023 0.868500
0.898804 0.935089 0.883148
0.062164 0.127899 0.744843
0.069489 0.131500 0.661560
0.129272 0.123077 0.669556
0.243103 0.122681 0.687225
0.378937 0.108093 0.689453
0.559509 0.142365 0.686584
0.660309 0.160339 0.677704
0.728943 0.178711 0.679352
0.049530 0.180786 0.740143
0.059448 0.185852 0.662933
0.126038 0.173309 0.668518
0.225281 0.172150 0.688812
0.367126 0.155273 0.700500
0.547821 0.179260 0.701141
0.653534 0.190552 0.688232
0.720612 0.203125 0.687286
0.053802 0.274994 0.667847
0.072418 0.270630 0.673370
0.111206 0.264374 0.677124
0.216278 0.244873 0.686401
0.355072 0.249298 0.716461
0.534790 0.242401 0.727081
0.653717 0.255096 0.710052
0.719482 0.259857 0.706177
0.084595 0.385101 0.686096
0.101410 0.382111 0.692810
0.129852 0.373688 0.698761
0.205414 0.370026 0.707336
0.343109 0.353180 0.728546
0.541840 0.350311 0.763153
0.671173 0.357147 0.745819
0.736328 0.357849 0.739624
0.123718 0.502563 0.712830
0.142578 0.503815 0.720795
0.170471 0.501862 0.726868
0.225433 0.498932 0.736450
0.347198 0.516541 0.763763
0.551544 0.516327 0.820251
0.717133 0.518188 0.815491
0.795837 0.537201 0.811829
0.166321 0.623016 0.747772
0.185883 0.627747 0.756592
0.216278 0.630676 0.764862
0.273132 0.635956 0.776093
0.386719 0.667267 0.807007
0.580414 0.711243 0.862183
0.772736 0.738647 0.879944
0.859711 0.747375 0.888000
0.200775 0.724121 0.779053
0.221497 0.733276 0.790558
0.255615 0.741852 0.802185
0.319214 0.754364 0.816467
0.434875 0.786438 0.846252
0.607697 0.828369 0.890533
0.806763 0.864929 0.916901
0.890228 0.876862 0.926392
0.222137 0.790894 0.798340
0.243744 0.800842 0.809875
0.280304 0.812500 0.823273
0.353821 0.834015 0.844788
0.482269 0.869965 0.878876
0.658752 0.901398 0.913849
0.828522 0.931915 0.934082
0.916107 0.948669 0.949249
