滤镜资源/Professional Luts Collection/Triune-Digital-Cinematic-LUTs/3D LUTs (CUBE)/REDLOGFILM/Skyfall - REDlogFilm.cube
#Created by Benjamin (IWLTBAP) : http://luts.iwltbap.com
#Copyright: (C) Copyright 2016 Triune Films and IWLTBAP
TITLE "Blockbuster LUTs Pack (REDlogFilm)"
#LUT size
LUT_3D_SIZE 8
#LUT data points
DOMAIN_MIN 0.000000 0.000000 0.000000
DOMAIN_MAX 0.903226 0.903226 0.903226
0.009430 0.011505 0.014374
0.037140 0.012726 0.014771
0.119080 0.025269 0.018005
0.295227 0.055878 0.030457
0.495728 0.102539 0.048431
0.646576 0.152069 0.064148
0.739655 0.174133 0.075836
0.794159 0.184113 0.082397
0.010254 0.038483 0.014862
0.038696 0.041229 0.015259
0.123413 0.055542 0.018524
0.306915 0.089294 0.032928
0.512024 0.143341 0.050415
0.660095 0.188568 0.066437
0.751587 0.209869 0.078644
0.805237 0.222992 0.085846
0.023102 0.097809 0.019073
0.053650 0.100861 0.018616
0.127197 0.114288 0.021759
0.331238 0.155243 0.038757
0.538971 0.216888 0.054230
0.682220 0.254303 0.070923
0.773438 0.277649 0.083801
0.825897 0.291168 0.094513
0.029449 0.232147 0.051727
0.063232 0.240417 0.051666
0.172516 0.252380 0.047119
0.380127 0.303650 0.056244
0.586334 0.344086 0.069946
0.718781 0.368744 0.082336
0.804474 0.389435 0.096680
0.850159 0.400452 0.108734
0.080902 0.444672 0.134369
0.141846 0.457153 0.135590
0.271912 0.472992 0.125732
0.445282 0.497009 0.119232
0.626587 0.508240 0.103241
0.757904 0.519348 0.102448
0.832397 0.532593 0.119415
0.872498 0.545685 0.147614
0.130737 0.594177 0.213409
0.186462 0.601501 0.214752
0.321564 0.611664 0.193726
0.490997 0.622681 0.143982
0.667786 0.635986 0.101562
0.776825 0.639069 0.115265
0.842987 0.656769 0.168518
0.877350 0.675446 0.225372
0.162323 0.691895 0.256561
0.215240 0.698578 0.261322
0.351440 0.711884 0.255951
0.548431 0.719452 0.181946
0.700470 0.725952 0.115509
0.788696 0.738739 0.162231
0.842255 0.758820 0.248566
0.880615 0.772217 0.291290
0.199982 0.756073 0.286835
0.266693 0.764008 0.291809
0.401062 0.776886 0.285828
0.571594 0.781769 0.228485
0.712524 0.779877 0.156189
0.788147 0.801758 0.244385
0.846069 0.814941 0.291840
0.884369 0.823761 0.322418
0.009399 0.011383 0.038361
0.036530 0.011871 0.038849
0.115234 0.023590 0.043427
0.286438 0.051849 0.053894
0.488495 0.097534 0.072235
0.642090 0.152008 0.091431
0.736969 0.173676 0.102417
0.791870 0.182587 0.108551
0.010986 0.039062 0.040619
0.039673 0.042542 0.041046
0.121338 0.054810 0.044220
0.302277 0.086975 0.057159
0.508636 0.141388 0.074799
0.658905 0.190979 0.094574
0.750702 0.211060 0.106750
0.804688 0.221558 0.113495
0.022949 0.100189 0.046844
0.053528 0.102844 0.047546
0.126740 0.116180 0.048126
0.327820 0.153412 0.064911
0.537872 0.216583 0.080170
0.682587 0.256012 0.098785
0.773102 0.277222 0.112061
0.825104 0.289642 0.121857
0.026062 0.233856 0.084015
0.058655 0.242920 0.087067
0.169464 0.250824 0.082489
0.378082 0.305786 0.088684
0.584106 0.345734 0.100281
0.720490 0.371338 0.108948
0.805939 0.391876 0.125000
0.850739 0.403412 0.139709
0.070770 0.444000 0.168518
0.116974 0.459351 0.180725
0.251587 0.474670 0.172974
0.438812 0.498535 0.162140
0.621368 0.515137 0.151764
0.757599 0.523224 0.134918
0.832428 0.537781 0.156464
0.870667 0.555237 0.199646
0.124115 0.594940 0.247772
0.169342 0.601746 0.251282
0.304169 0.613739 0.239624
0.478546 0.627289 0.200104
0.661865 0.640717 0.147430
0.775726 0.643585 0.150848
0.839752 0.665924 0.221954
0.875519 0.683563 0.273743
0.150116 0.688477 0.281982
0.196808 0.696533 0.289551
0.312897 0.710571 0.295807
0.532837 0.725220 0.245544
0.695557 0.729492 0.159515
0.784790 0.745819 0.217072
0.841248 0.764557 0.290497
0.880768 0.777161 0.328949
0.177124 0.752350 0.312592
0.237091 0.760559 0.319977
0.358276 0.774414 0.327576
0.558960 0.788605 0.295685
0.702362 0.787750 0.227631
0.784393 0.807770 0.297089
0.845459 0.819916 0.331543
0.883942 0.827148 0.356537
0.014069 0.014679 0.082672
0.041901 0.015015 0.083160
0.110321 0.023254 0.088257
0.283783 0.047638 0.096008
0.482269 0.094879 0.118500
0.633331 0.150757 0.145996
0.730927 0.172485 0.151459
0.787201 0.181671 0.155396
0.015930 0.045990 0.088165
0.044586 0.047729 0.088867
0.112457 0.054443 0.092255
0.293182 0.080536 0.099518
0.498138 0.135651 0.121918
0.649109 0.190308 0.148987
0.743896 0.209503 0.155914
0.799957 0.219543 0.160645
0.017975 0.108795 0.101013
0.046814 0.111328 0.104614
0.123535 0.121124 0.108673
0.319275 0.149780 0.113098
0.532684 0.220245 0.135315
0.680969 0.259613 0.152222
0.771973 0.278503 0.163086
0.823151 0.288239 0.170563
0.019440 0.247498 0.144470
0.049500 0.250488 0.147705
0.168457 0.255493 0.150848
0.370178 0.310883 0.153412
0.577637 0.349823 0.161896
0.722351 0.376221 0.159912
0.807129 0.395294 0.177277
0.849609 0.409088 0.200256
0.058167 0.438324 0.217957
0.099701 0.456421 0.238190
0.185699 0.477844 0.257660
0.416931 0.500214 0.241272
0.606293 0.524536 0.239288
0.753662 0.533142 0.212189
0.828979 0.550964 0.239319
0.866913 0.569397 0.282837
0.111023 0.590851 0.294312
0.149872 0.601013 0.305695
0.244659 0.614960 0.313599
0.456696 0.634949 0.294525
0.640228 0.654480 0.277466
0.762360 0.662140 0.269073
0.834839 0.681854 0.314270
0.875122 0.696350 0.349213
0.132874 0.682129 0.323029
0.173126 0.692566 0.335022
0.265289 0.707916 0.348846
0.490204 0.729950 0.337891
0.668121 0.743408 0.299103
0.773773 0.759338 0.321503
0.839569 0.773773 0.365631
0.880219 0.784576 0.395355
0.154236 0.744446 0.351532
0.200745 0.754669 0.362152
0.313324 0.770233 0.375885
0.526276 0.793030 0.376617
0.682526 0.800842 0.346985
0.779602 0.817017 0.378418
0.843536 0.826721 0.400421
0.882599 0.832336 0.419556
0.015991 0.029144 0.180359
0.042480 0.031647 0.181458
0.096832 0.037659 0.189972
0.261993 0.054657 0.202087
0.460388 0.095428 0.220642
0.618103 0.152985 0.248138
0.717529 0.177795 0.256256
0.775391 0.190552 0.263916
0.015930 0.064758 0.190033
0.043365 0.067383 0.191406
0.098694 0.074860 0.198090
0.272064 0.095062 0.211304
0.476898 0.140015 0.233459
0.630249 0.193085 0.255157
0.728851 0.217346 0.265656
0.787170 0.231262 0.274811
0.015106 0.137756 0.210022
0.042328 0.139038 0.212555
0.108704 0.149078 0.219513
0.296539 0.170349 0.233124
0.508392 0.223022 0.252136
0.657104 0.263519 0.267578
0.752289 0.288025 0.287781
0.808014 0.298035 0.293518
0.018524 0.274384 0.255249
0.044952 0.280914 0.259644
0.098755 0.290527 0.273315
0.340179 0.323822 0.289795
0.560333 0.364685 0.290588
0.703491 0.390076 0.299408
0.791046 0.414032 0.328369
0.836548 0.429962 0.350861
0.050598 0.445526 0.324646
0.085266 0.454468 0.332825
0.154785 0.472137 0.347198
0.350708 0.492737 0.356293
0.586884 0.530701 0.356415
0.736847 0.554077 0.370789
0.819336 0.574677 0.393646
0.862274 0.589935 0.418671
0.092468 0.584595 0.374695
0.129639 0.595154 0.383606
0.195984 0.610321 0.396851
0.364349 0.635681 0.417084
0.612518 0.663361 0.412109
0.744965 0.684082 0.428986
0.829224 0.701050 0.448608
0.872253 0.712280 0.466095
0.113007 0.678009 0.401154
0.151276 0.688293 0.410187
0.229675 0.705994 0.426208
0.427582 0.733124 0.445831
0.641327 0.759216 0.447052
0.760529 0.777710 0.463348
0.833984 0.785980 0.478851
0.876740 0.792786 0.495605
0.132050 0.738831 0.424286
0.168549 0.746613 0.431183
0.274506 0.766632 0.449860
0.492432 0.795410 0.471100
0.662231 0.814117 0.473969
0.771271 0.828705 0.492920
0.838043 0.835297 0.501770
0.879608 0.838928 0.514374
0.019470 0.049591 0.305939
0.045532 0.050690 0.310425
0.096802 0.056763 0.328156
0.225189 0.055878 0.340515
0.415039 0.088440 0.347473
0.573578 0.130707 0.364075
0.691742 0.171295 0.394196
0.756104 0.192566 0.409088
0.019867 0.092255 0.324005
0.048096 0.091431 0.324066
0.099854 0.095459 0.337097
0.236603 0.100800 0.355164
0.429840 0.129578 0.360168
0.587067 0.171692 0.377014
0.704834 0.216095 0.407959
0.767548 0.234772 0.420197
0.016296 0.175507 0.352356
0.043365 0.171722 0.355164
0.109528 0.169983 0.364380
0.245117 0.189545 0.384338
0.460388 0.213806 0.397430
0.616638 0.251160 0.405975
0.729279 0.292542 0.430206
0.788971 0.308014 0.440887
0.024200 0.311005 0.406952
0.050140 0.312958 0.412842
0.099976 0.320007 0.425781
0.264954 0.327911 0.444946
0.513245 0.364136 0.450439
0.675293 0.399261 0.454468
0.772217 0.425323 0.474457
0.824707 0.441803 0.493805
0.048309 0.460358 0.461853
0.079224 0.464417 0.467621
0.136383 0.477264 0.477783
0.257477 0.503540 0.491943
0.554718 0.537750 0.501312
0.721954 0.571106 0.515137
0.808990 0.593658 0.540283
0.855713 0.604248 0.556183
0.082825 0.590240 0.496338
0.114624 0.595795 0.499695
0.174225 0.610901 0.506989
0.309357 0.634705 0.521637
0.569275 0.665131 0.535065
0.730255 0.694885 0.553589
0.820587 0.712067 0.574371
0.867676 0.720825 0.584961
0.099152 0.681671 0.514526
0.132904 0.688080 0.518158
0.193481 0.703278 0.527954
0.361725 0.730408 0.548553
0.604736 0.764374 0.571167
0.748108 0.783752 0.582825
0.826050 0.792145 0.595886
0.872650 0.797974 0.604919
0.116364 0.741150 0.532349
0.149811 0.747559 0.536102
0.217285 0.761658 0.545349
0.431610 0.792664 0.573029
0.642792 0.819763 0.588562
0.762146 0.833191 0.601013
0.833130 0.840057 0.610321
0.875671 0.842773 0.618225
0.022766 0.061249 0.436676
0.049805 0.061920 0.437805
0.103455 0.068146 0.451721
0.220947 0.063293 0.459686
0.368774 0.074036 0.467651
0.528625 0.108429 0.486237
0.643860 0.143188 0.505524
0.712494 0.164673 0.517212
0.023987 0.107391 0.457428
0.053223 0.105316 0.456512
0.106354 0.108154 0.464142
0.231506 0.111481 0.480255
0.381073 0.114807 0.484436
0.543671 0.150024 0.499695
0.656952 0.185181 0.517212
0.725189 0.206848 0.528656
0.022522 0.198975 0.489227
0.048157 0.196625 0.491455
0.107391 0.188599 0.493958
0.239838 0.197968 0.511719
0.407318 0.193970 0.518219
0.574677 0.231934 0.524963
0.682159 0.264893 0.539551
0.749786 0.282532 0.549805
0.032257 0.339142 0.539215
0.057648 0.339569 0.543091
0.112000 0.344177 0.550293
0.258240 0.342651 0.559235
0.457672 0.363129 0.570679
0.630066 0.385498 0.573761
0.729034 0.400085 0.580170
0.805939 0.434937 0.599396
0.056976 0.478302 0.574219
0.085602 0.481476 0.577637
0.138733 0.493195 0.586151
0.242401 0.517334 0.601807
0.513824 0.547913 0.621002
0.693146 0.571686 0.629486
0.796295 0.596130 0.646210
0.846466 0.604889 0.654572
0.080902 0.601257 0.601746
0.112335 0.605957 0.604828
0.167450 0.617279 0.611847
0.269043 0.640533 0.625458
0.529236 0.674164 0.646729
0.715454 0.700867 0.659363
0.815155 0.717712 0.672150
0.863892 0.726532 0.681824
0.097260 0.691101 0.620300
0.129425 0.696106 0.623352
0.184692 0.707367 0.629700
0.310822 0.730743 0.641937
0.573792 0.764313 0.665009
0.733673 0.784943 0.675446
0.820984 0.796082 0.687103
0.870331 0.801575 0.696075
0.113586 0.748718 0.634003
0.145477 0.754181 0.637177
0.204742 0.765808 0.642975
0.396149 0.792236 0.658325
0.616455 0.819427 0.679779
0.752289 0.836487 0.690796
0.828888 0.843140 0.699707
0.873413 0.846313 0.705658
0.031219 0.082916 0.533936
0.061188 0.081940 0.534851
0.115173 0.085571 0.544373
0.230957 0.079681 0.550049
0.363556 0.081360 0.551208
0.507080 0.101654 0.560089
0.626556 0.132080 0.575867
0.699097 0.158508 0.592285
0.030121 0.135193 0.553375
0.060364 0.128815 0.551941
0.116241 0.127899 0.556641
0.240570 0.129974 0.567780
0.377411 0.122467 0.566925
0.520721 0.141968 0.572601
0.637878 0.173828 0.587677
0.710663 0.203552 0.604919
0.029053 0.230530 0.584869
0.056519 0.228180 0.585480
0.115265 0.216797 0.585297
0.244690 0.216858 0.595673
0.407745 0.202362 0.598267
0.549927 0.220520 0.598328
0.661835 0.253113 0.612793
0.734497 0.283325 0.628876
0.038086 0.357422 0.622223
0.064697 0.359619 0.625366
0.121124 0.367218 0.632294
0.269501 0.362000 0.640900
0.449219 0.364288 0.657623
0.605682 0.368103 0.648071
0.714935 0.406525 0.659729
0.785950 0.432648 0.673615
0.060181 0.490601 0.651245
0.088654 0.494843 0.654541
0.140930 0.506561 0.661377
0.236694 0.529816 0.675659
0.503326 0.559204 0.696198
0.666687 0.572815 0.699097
0.773590 0.591919 0.715790
0.832611 0.601013 0.722168
0.080750 0.609344 0.674530
0.111755 0.614166 0.677429
0.165161 0.625122 0.684082
0.265167 0.648346 0.698364
0.513733 0.682312 0.722626
0.705170 0.705017 0.734161
0.804169 0.717438 0.742401
0.857880 0.727112 0.750519
0.098816 0.699829 0.692932
0.129425 0.705048 0.695648
0.182770 0.715118 0.701752
0.309265 0.737305 0.714752
0.563477 0.768768 0.738220
0.728729 0.788574 0.749390
0.815765 0.798615 0.759674
0.868561 0.803467 0.765015
0.115601 0.757904 0.705688
0.145813 0.762817 0.708130
0.205139 0.773407 0.714417
0.390137 0.796478 0.729462
0.606873 0.821930 0.747223
0.744629 0.837677 0.759155
0.822968 0.845215 0.765656
0.871124 0.848572 0.771332
0.038574 0.099457 0.591583
0.069794 0.096558 0.591400
0.123444 0.098114 0.598236
0.238251 0.092438 0.604279
0.369293 0.089783 0.604431
0.509735 0.108276 0.614349
0.617157 0.125458 0.620117
0.689240 0.152100 0.637604
0.034210 0.155609 0.609650
0.065216 0.146454 0.607574
0.122681 0.141846 0.610718
0.247345 0.144501 0.621063
0.383057 0.130524 0.619324
0.519104 0.147186 0.626038
0.625244 0.164948 0.630981
0.698425 0.193848 0.648743
0.034760 0.246765 0.640900
0.065125 0.244720 0.641785
0.125061 0.234039 0.640808
0.248718 0.230591 0.649048
0.411682 0.212555 0.649323
0.544189 0.223633 0.650238
0.647034 0.241638 0.653839
0.719360 0.270508 0.671387
0.044220 0.369751 0.672485
0.071930 0.373932 0.675659
0.127289 0.380768 0.682007
0.275208 0.377197 0.693207
0.446625 0.373047 0.708038
0.595245 0.364258 0.701935
0.695007 0.388123 0.702087
0.767761 0.423370 0.716095
0.061462 0.498993 0.700043
0.089508 0.503632 0.703125
0.141022 0.515564 0.709900
0.237854 0.538086 0.723724
0.499146 0.569031 0.749115
0.660980 0.581146 0.753113
0.755890 0.584717 0.756042
0.820099 0.598755 0.765778
0.081848 0.615509 0.722992
0.111481 0.620453 0.725769
0.162720 0.630951 0.732422
0.261200 0.652283 0.745300
0.516418 0.688812 0.773163
0.702148 0.710938 0.785980
0.789642 0.717133 0.789703
0.848083 0.726929 0.796967
0.103271 0.706818 0.742004
0.133972 0.712311 0.745148
0.191162 0.722992 0.752075
0.353485 0.746338 0.765564
0.575775 0.774017 0.789459
0.724823 0.792145 0.800262
0.813232 0.800873 0.807312
0.865692 0.805298 0.811310
0.122925 0.765594 0.754852
0.155609 0.770752 0.757690
0.227966 0.781342 0.763702
0.410461 0.802399 0.778717
0.604736 0.824615 0.795685
0.739014 0.839478 0.804138
0.821381 0.847626 0.812469
0.869812 0.851440 0.815765
