滤镜资源/Professional Luts Collection/Triune-Digital-Cinematic-LUTs/3D LUTs (CUBE)/REDLOGFILM/Skyfall - REDlogFilm.cube
#Created by Benjamin (IWLTBAP) : http://luts.iwltbap.com
#Copyright: (C) Copyright 2016 Triune Films and IWLTBAP
TITLE "Blockbuster LUTs Pack (REDlogFilm)"
#LUT size
LUT_3D_SIZE 5
#LUT data points
DOMAIN_MIN 0.000000 0.000000 0.000000
DOMAIN_MAX 0.903226 0.903226 0.903226
0.009430 0.011505 0.014374
0.089142 0.020081 0.016357
0.398163 0.077271 0.040131
0.675201 0.159454 0.067535
0.794159 0.184113 0.082397
0.020081 0.079803 0.016754
0.095764 0.090149 0.018433
0.431915 0.163269 0.045959
0.702637 0.240204 0.073273
0.819977 0.270630 0.091888
0.038696 0.344360 0.089172
0.183258 0.365509 0.089020
0.509338 0.417969 0.098083
0.763824 0.447083 0.093964
0.863220 0.474976 0.124512
0.139221 0.620758 0.224731
0.283844 0.636200 0.221893
0.607666 0.654358 0.109283
0.800659 0.669128 0.132294
0.877655 0.703278 0.245117
0.199982 0.756073 0.286835
0.362579 0.773590 0.290375
0.653534 0.778137 0.162964
0.803528 0.806366 0.261658
0.884369 0.823761 0.322418
0.012390 0.013062 0.069061
0.083801 0.018005 0.070892
0.387573 0.069550 0.093140
0.664734 0.158173 0.131897
0.787994 0.180908 0.140686
0.018341 0.086090 0.078918
0.095886 0.094604 0.083679
0.423889 0.158691 0.103912
0.701660 0.244171 0.138062
0.818207 0.268768 0.153198
0.032410 0.347992 0.161407
0.157257 0.372314 0.181885
0.500519 0.424835 0.182281
0.766174 0.454590 0.160370
0.862274 0.487579 0.215027
0.121704 0.618683 0.290283
0.232574 0.637665 0.305725
0.574188 0.668793 0.262604
0.791260 0.688141 0.255768
0.876678 0.718262 0.340057
0.160645 0.746887 0.340393
0.290131 0.767273 0.359222
0.620575 0.794983 0.332794
0.799347 0.817963 0.364075
0.883087 0.830933 0.401733
0.017456 0.039886 0.240021
0.078369 0.050201 0.254486
0.339203 0.072998 0.271606
0.635834 0.158142 0.319885
0.764648 0.192261 0.340057
0.015594 0.134399 0.269379
0.086243 0.138611 0.279236
0.382843 0.175385 0.308899
0.663666 0.252777 0.343964
0.792206 0.286407 0.365692
0.030212 0.377106 0.364929
0.096527 0.389740 0.379822
0.446655 0.435516 0.405731
0.739594 0.487823 0.416656
0.848297 0.522949 0.459625
0.092468 0.612823 0.440582
0.171936 0.632324 0.453705
0.480591 0.679474 0.485443
0.767029 0.720459 0.506500
0.871094 0.741547 0.537323
0.121948 0.738373 0.474762
0.211212 0.758026 0.490387
0.574554 0.808472 0.529816
0.786560 0.834106 0.553436
0.876984 0.841339 0.567871
0.024048 0.065857 0.464142
0.088501 0.070312 0.473907
0.290070 0.066833 0.486511
0.555298 0.114227 0.511902
0.709229 0.163940 0.540100
0.023407 0.177582 0.505676
0.089935 0.170013 0.510284
0.323761 0.170105 0.530548
0.591034 0.212708 0.542419
0.738556 0.262024 0.567322
0.043732 0.415009 0.581573
0.107758 0.424377 0.590759
0.375916 0.449982 0.615936
0.689758 0.490875 0.630890
0.827484 0.527008 0.652863
0.085938 0.629150 0.628143
0.156494 0.641724 0.635620
0.391479 0.684021 0.659424
0.746490 0.731628 0.688812
0.865387 0.749786 0.705750
0.114136 0.751434 0.654358
0.185852 0.763977 0.661591
0.516968 0.809174 0.691406
0.773193 0.839142 0.712158
0.872833 0.847626 0.724152
0.038574 0.099457 0.591583
0.107361 0.097931 0.596008
0.301483 0.084076 0.600525
0.540192 0.112549 0.615784
0.689240 0.152100 0.637604
0.033630 0.222168 0.632843
0.102356 0.209503 0.630157
0.336823 0.201324 0.645264
0.565918 0.204803 0.643280
0.711914 0.246704 0.664124
0.054871 0.434296 0.686676
0.117676 0.447632 0.694672
0.382019 0.474487 0.724030
0.662323 0.482361 0.731049
0.796417 0.515259 0.741241
0.086823 0.640961 0.727997
0.153137 0.653259 0.735291
0.400116 0.695343 0.761993
0.736298 0.738770 0.793213
0.854034 0.749481 0.801910
0.122925 0.765594 0.754852
0.204102 0.778015 0.761688
0.514832 0.814728 0.789612
0.763458 0.841888 0.806000
0.869812 0.851440 0.815765
