滤镜资源/Professional Luts Collection/Triune-Digital-Cinematic-LUTs/3D LUTs (CUBE)/REDLOGFILM/Skyfall - REDlogFilm.cube
#Created by Benjamin (IWLTBAP) : http://luts.iwltbap.com
#Copyright: (C) Copyright 2016 Triune Films and IWLTBAP
TITLE "Blockbuster LUTs Pack (REDlogFilm)"
#LUT size
LUT_3D_SIZE 32
#LUT data points
0.009430 0.011505 0.014374
0.014587 0.011688 0.014435
0.020966 0.011932 0.014496
0.028229 0.012238 0.014618
0.037140 0.012726 0.014771
0.047607 0.013611 0.014893
0.065063 0.016083 0.015350
0.089142 0.020081 0.016357
0.119080 0.025269 0.018005
0.153687 0.029999 0.020111
0.196930 0.037506 0.022736
0.246307 0.046234 0.026581
0.295227 0.055878 0.030457
0.346954 0.066711 0.035065
0.398163 0.077271 0.040131
0.446472 0.089142 0.045044
0.495728 0.102539 0.048431
0.541168 0.118195 0.052307
0.578949 0.132019 0.056274
0.614899 0.143036 0.060516
0.646576 0.152069 0.064148
0.675201 0.159454 0.067535
0.700531 0.164825 0.070465
0.721985 0.169891 0.073151
0.739655 0.174133 0.075836
0.756500 0.177002 0.077393
0.770813 0.179810 0.079254
0.784393 0.182373 0.080902
0.794159 0.184113 0.082397
0.804932 0.186066 0.084076
0.813385 0.186951 0.084930
0.820221 0.187653 0.085724
0.009552 0.016510 0.014465
0.014618 0.016815 0.014465
0.020996 0.017029 0.014526
0.028442 0.017365 0.014648
0.037292 0.017853 0.014771
0.047882 0.018768 0.014923
0.065521 0.021515 0.015411
0.090027 0.026306 0.016418
0.119781 0.031464 0.018097
0.155151 0.036346 0.020325
0.198608 0.043915 0.022888
0.248260 0.052856 0.027069
0.297943 0.062408 0.031219
0.349426 0.073364 0.035736
0.401093 0.084320 0.040741
0.449280 0.096466 0.045471
0.498901 0.110535 0.048676
0.543884 0.126221 0.052643
0.581360 0.139526 0.056549
0.617493 0.150696 0.061066
0.649445 0.159668 0.064697
0.678009 0.166840 0.068085
0.702850 0.171997 0.071228
0.724304 0.177124 0.073975
0.741943 0.181274 0.076569
0.758820 0.184174 0.078125
0.773010 0.186981 0.079865
0.786499 0.189911 0.081635
0.796326 0.191681 0.083191
0.807068 0.193726 0.085052
0.815826 0.195038 0.086273
0.822601 0.195801 0.087067
0.009705 0.022675 0.014526
0.014801 0.023102 0.014587
0.021271 0.023621 0.014679
0.028625 0.024048 0.014709
0.037506 0.024719 0.014862
0.048309 0.025909 0.014984
0.066315 0.028778 0.015503
0.091003 0.033691 0.016541
0.120972 0.039032 0.018219
0.157074 0.044067 0.020538
0.200745 0.051697 0.023163
0.250854 0.061066 0.027344
0.300934 0.070526 0.031982
0.352814 0.081543 0.036530
0.404694 0.093170 0.041351
0.453033 0.105713 0.046021
0.503021 0.120728 0.049194
0.547119 0.135986 0.053162
0.584656 0.149017 0.056885
0.620911 0.160156 0.061646
0.652954 0.168945 0.065277
0.681000 0.175537 0.068604
0.705688 0.180695 0.071991
0.727173 0.185944 0.074921
0.744873 0.190002 0.077576
0.761688 0.193085 0.079102
0.775787 0.196106 0.080627
0.789337 0.199463 0.082397
0.799103 0.201324 0.084076
0.809814 0.203461 0.085938
0.818878 0.205292 0.087433
0.825623 0.205902 0.088257
0.009949 0.029816 0.014709
0.015015 0.030182 0.014740
0.021729 0.030792 0.014801
0.028992 0.031433 0.014923
0.037842 0.032135 0.015015
0.048767 0.033356 0.015106
0.066895 0.036285 0.015594
0.091949 0.041626 0.016663
0.122559 0.046478 0.018402
0.159058 0.051971 0.020844
0.203125 0.059875 0.023651
0.253784 0.069519 0.027588
0.303772 0.078949 0.032318
0.356140 0.090302 0.037048
0.408508 0.102509 0.041870
0.457062 0.115662 0.046478
0.507141 0.130951 0.049805
0.550720 0.146088 0.053528
0.588074 0.158813 0.057404
0.624451 0.170044 0.062317
0.656250 0.177948 0.065857
0.683990 0.184357 0.069122
0.708618 0.189789 0.072723
0.730103 0.195038 0.076019
0.747833 0.199036 0.078186
0.764618 0.202393 0.079651
0.778687 0.205505 0.081207
0.792053 0.208893 0.083191
0.801941 0.211243 0.084930
0.812561 0.213409 0.086853
0.821808 0.215454 0.088348
0.828796 0.216553 0.089325
0.010254 0.038483 0.014862
0.015503 0.038910 0.014923
0.022522 0.039581 0.015015
0.029877 0.040314 0.015137
0.038696 0.041229 0.015259
0.049591 0.042786 0.015320
0.067657 0.045929 0.015656
0.092499 0.050598 0.016693
0.123413 0.055542 0.018524
0.160309 0.061340 0.021301
0.205536 0.069641 0.024506
0.256744 0.079468 0.027802
0.306915 0.089294 0.032928
0.359741 0.100250 0.037628
0.412842 0.113739 0.042603
0.461609 0.127106 0.047089
0.512024 0.143341 0.050415
0.554840 0.158173 0.054047
0.592102 0.170471 0.058014
0.628418 0.181030 0.062714
0.660095 0.188568 0.066437
0.687744 0.195007 0.069763
0.712128 0.200592 0.073517
0.733917 0.205811 0.076416
0.751587 0.209869 0.078644
0.768036 0.213257 0.080231
0.782074 0.216522 0.081787
0.795319 0.220123 0.083984
0.805237 0.222992 0.085846
0.815826 0.225311 0.087830
0.825104 0.227417 0.089508
0.832458 0.229065 0.090820
0.012299 0.048859 0.015076
0.018066 0.049469 0.015106
0.025391 0.050293 0.015228
0.032745 0.051178 0.015289
0.041534 0.052124 0.015381
0.051880 0.053436 0.015503
0.069427 0.056183 0.015839
0.093597 0.060181 0.016876
0.124390 0.065338 0.018677
0.162567 0.072205 0.021759
0.208710 0.080261 0.025391
0.260376 0.090271 0.028717
0.310852 0.100769 0.033661
0.364471 0.111969 0.038635
0.418030 0.126038 0.043365
0.466705 0.139709 0.047821
0.517120 0.156982 0.050934
0.559113 0.171173 0.054657
0.596954 0.183167 0.058807
0.632629 0.192810 0.063171
0.664032 0.200043 0.067108
0.691559 0.206421 0.070587
0.716064 0.212494 0.074371
0.737915 0.217346 0.076965
0.755585 0.221405 0.079010
0.771759 0.225159 0.080872
0.785675 0.228394 0.082520
0.798859 0.232391 0.085175
0.808716 0.235352 0.087189
0.819672 0.238037 0.089661
0.828918 0.240173 0.091370
0.836151 0.241974 0.092712
0.016418 0.063324 0.015381
0.022339 0.064056 0.015472
0.029633 0.064911 0.015594
0.037079 0.065796 0.015625
0.046021 0.067139 0.015747
0.056091 0.068359 0.015900
0.072174 0.070160 0.016296
0.094452 0.074402 0.017120
0.125397 0.079712 0.019104
0.165253 0.086792 0.022247
0.213226 0.095123 0.026398
0.264862 0.104889 0.029633
0.316681 0.116150 0.035187
0.370697 0.128571 0.040344
0.424408 0.143127 0.044312
0.473236 0.157654 0.048767
0.523315 0.174988 0.051666
0.565613 0.188477 0.055542
0.603455 0.199982 0.059998
0.638275 0.208954 0.064423
0.669128 0.215973 0.068237
0.696625 0.222137 0.071930
0.721222 0.228607 0.075592
0.743286 0.233582 0.078064
0.760986 0.237915 0.080109
0.776917 0.242065 0.082275
0.790558 0.245239 0.084351
0.804108 0.249115 0.087402
0.814056 0.251892 0.089478
0.824738 0.254913 0.091949
0.833771 0.257446 0.093872
0.840851 0.259247 0.095306
0.020081 0.079803 0.016754
0.026093 0.080322 0.016724
0.033203 0.081146 0.016907
0.040497 0.082031 0.017059
0.049500 0.083191 0.016937
0.059692 0.084534 0.016998
0.076172 0.086853 0.017426
0.095764 0.090149 0.018433
0.125946 0.095581 0.020355
0.167755 0.103638 0.023407
0.217163 0.111969 0.027191
0.270050 0.121979 0.031158
0.322632 0.133545 0.036774
0.378357 0.148560 0.041992
0.431915 0.163269 0.045959
0.480988 0.178131 0.049530
0.530701 0.194641 0.052490
0.573090 0.207764 0.056732
0.610718 0.218842 0.061279
0.644989 0.226929 0.065674
0.675201 0.234314 0.069519
0.702637 0.240204 0.073273
0.727203 0.246643 0.076660
0.749451 0.252014 0.079285
0.767303 0.257172 0.081543
0.782806 0.261261 0.083984
0.796448 0.264648 0.086823
0.809937 0.268127 0.089905
0.819977 0.270630 0.091888
0.830231 0.273376 0.093994
0.838806 0.276123 0.095734
0.845306 0.278229 0.097198
0.023102 0.097809 0.019073
0.028992 0.098328 0.018982
0.036316 0.098969 0.018860
0.044098 0.099792 0.018768
0.053650 0.100861 0.018616
0.064667 0.102570 0.019012
0.082153 0.105865 0.019714
0.102325 0.109955 0.020966
0.127197 0.114288 0.021759
0.170197 0.122101 0.025055
0.221802 0.132080 0.029236
0.276337 0.141541 0.033264
0.331238 0.155243 0.038757
0.387451 0.169861 0.043274
0.441711 0.185486 0.046997
0.490967 0.201050 0.050507
0.538971 0.216888 0.054230
0.581879 0.229156 0.058777
0.618805 0.239288 0.063446
0.652466 0.246918 0.067413
0.682220 0.254303 0.070923
0.708954 0.260376 0.074951
0.733490 0.266663 0.078461
0.755707 0.272827 0.081421
0.773438 0.277649 0.083801
0.789154 0.281616 0.086823
0.802612 0.285126 0.089996
0.815887 0.288513 0.092773
0.825897 0.291168 0.094513
0.835754 0.293884 0.096558
0.843781 0.296417 0.098267
0.850220 0.298401 0.099518
0.025482 0.120789 0.022522
0.031372 0.120941 0.022400
0.038879 0.121338 0.022247
0.047333 0.122314 0.022156
0.057770 0.123505 0.022003
0.069702 0.125580 0.022400
0.088013 0.129028 0.023163
0.109436 0.133545 0.024017
0.134644 0.138275 0.025055
0.171173 0.146210 0.027100
0.226288 0.158081 0.031708
0.284424 0.168549 0.035950
0.342072 0.182098 0.041016
0.400543 0.196625 0.044464
0.454681 0.213074 0.048065
0.502869 0.228790 0.051788
0.548981 0.242889 0.056213
0.591431 0.254669 0.061005
0.628082 0.264191 0.065308
0.661560 0.271393 0.069092
0.690460 0.278656 0.073151
0.716919 0.284973 0.077087
0.741028 0.291565 0.080933
0.763306 0.298035 0.084076
0.780792 0.302612 0.087067
0.796570 0.306305 0.090027
0.809784 0.309479 0.093048
0.822784 0.312683 0.095306
0.831696 0.314880 0.096924
0.841156 0.317413 0.098663
0.849121 0.319763 0.100250
0.855530 0.321777 0.101562
0.028198 0.149109 0.028656
0.034088 0.149475 0.028564
0.042328 0.150116 0.028076
0.051422 0.150665 0.027527
0.061920 0.151733 0.027252
0.074860 0.153076 0.027252
0.092194 0.156494 0.028137
0.115967 0.160858 0.027985
0.143738 0.167114 0.028992
0.182800 0.179108 0.031860
0.231049 0.192017 0.034851
0.294373 0.201233 0.038696
0.357117 0.214722 0.043213
0.416016 0.231110 0.047211
0.469543 0.246429 0.050720
0.515778 0.260376 0.055115
0.561096 0.272797 0.058746
0.601654 0.282928 0.063354
0.637695 0.291473 0.067871
0.670776 0.299194 0.072144
0.699249 0.305695 0.076172
0.725311 0.312347 0.079742
0.749268 0.318420 0.082947
0.771332 0.324646 0.086823
0.788452 0.329071 0.090240
0.803894 0.332581 0.093262
0.817383 0.335724 0.095490
0.829102 0.338440 0.097900
0.837799 0.340515 0.099487
0.846924 0.343170 0.101685
0.854675 0.345795 0.103821
0.860809 0.347961 0.105957
0.031647 0.184296 0.036926
0.038513 0.185242 0.036926
0.046387 0.186829 0.036774
0.054230 0.188232 0.036713
0.064026 0.190125 0.036743
0.076630 0.190918 0.036377
0.094879 0.193024 0.036621
0.123901 0.197235 0.036377
0.155304 0.204315 0.036072
0.195099 0.216461 0.037384
0.245361 0.234802 0.040741
0.304504 0.244415 0.042084
0.371490 0.255890 0.047150
0.430084 0.270477 0.051971
0.482635 0.284821 0.057739
0.528748 0.296844 0.060364
0.573517 0.306488 0.062347
0.614014 0.315521 0.067230
0.648956 0.322693 0.071045
0.681030 0.329651 0.074493
0.708923 0.336182 0.078400
0.734619 0.342499 0.082703
0.758514 0.348358 0.086487
0.779724 0.353851 0.090454
0.796539 0.358063 0.093567
0.811951 0.361633 0.096161
0.823883 0.364471 0.098480
0.835571 0.367249 0.101196
0.844208 0.369171 0.103119
0.853149 0.371704 0.105927
0.860565 0.374237 0.108734
0.866547 0.376373 0.111053
0.029449 0.232147 0.051727
0.035889 0.233795 0.051361
0.043549 0.236267 0.051208
0.051422 0.238464 0.051361
0.063232 0.240417 0.051666
0.076721 0.242493 0.051697
0.101532 0.243622 0.050140
0.134186 0.245758 0.047913
0.172516 0.252380 0.047119
0.219177 0.265076 0.047729
0.266266 0.280212 0.049988
0.321869 0.296661 0.053345
0.380127 0.303650 0.056244
0.440643 0.315399 0.061829
0.494781 0.327423 0.068207
0.541748 0.336334 0.069550
0.586334 0.344086 0.069946
0.626678 0.350739 0.071320
0.660461 0.356842 0.074249
0.691376 0.363129 0.078735
0.718781 0.368744 0.082336
0.744202 0.374878 0.086182
0.767761 0.380493 0.090057
0.788269 0.385681 0.093750
0.804474 0.389435 0.096680
0.818512 0.392792 0.099762
0.830597 0.395294 0.102448
0.841858 0.398102 0.105530
0.850159 0.400452 0.108734
0.858948 0.403168 0.112305
0.866364 0.405701 0.115173
0.872253 0.407715 0.117554
0.029785 0.288788 0.070007
0.036041 0.290314 0.069855
0.043854 0.292725 0.070343
0.052826 0.295532 0.070984
0.065186 0.298889 0.070740
0.084747 0.300262 0.070709
0.116425 0.302673 0.069977
0.156189 0.305359 0.065460
0.199097 0.309692 0.060394
0.244873 0.318176 0.061615
0.291504 0.330017 0.064789
0.345367 0.345520 0.068878
0.394012 0.356079 0.072601
0.446442 0.362366 0.077026
0.503357 0.371948 0.081665
0.553680 0.378998 0.080750
0.598969 0.384521 0.077972
0.638397 0.389099 0.077118
0.671265 0.393768 0.079590
0.701752 0.398804 0.083069
0.729187 0.404510 0.086334
0.754211 0.409515 0.089691
0.777130 0.415009 0.093323
0.796814 0.419830 0.097168
0.811829 0.423401 0.100494
0.825043 0.426727 0.103729
0.836853 0.429474 0.107086
0.848236 0.432404 0.110931
0.856354 0.435211 0.115723
0.865051 0.438141 0.120056
0.872467 0.440918 0.123657
0.878326 0.443207 0.126740
0.038696 0.344360 0.089172
0.045837 0.346344 0.089630
0.055267 0.349030 0.090973
0.065674 0.351624 0.091919
0.079193 0.354279 0.092865
0.098602 0.358337 0.094482
0.139038 0.362427 0.093048
0.183258 0.365509 0.089020
0.225464 0.369019 0.084930
0.269867 0.373718 0.081177
0.318787 0.382477 0.081299
0.367889 0.393372 0.084503
0.414673 0.405670 0.090332
0.459930 0.413818 0.094574
0.509338 0.417969 0.098083
0.564240 0.423035 0.093903
0.609650 0.426239 0.087036
0.649567 0.429871 0.085205
0.682068 0.432922 0.085510
0.711792 0.436981 0.087402
0.738739 0.442017 0.091034
0.763824 0.447083 0.093964
0.786469 0.452637 0.098053
0.805817 0.457733 0.101837
0.819977 0.461517 0.105408
0.833282 0.465210 0.109619
0.844788 0.468079 0.113312
0.855591 0.471680 0.117950
0.863220 0.474976 0.124512
0.871429 0.478027 0.130737
0.878571 0.480408 0.134918
0.884003 0.482697 0.139557
0.055206 0.392761 0.108795
0.063141 0.394897 0.110046
0.074585 0.398041 0.111877
0.086517 0.401001 0.113831
0.104156 0.404968 0.115234
0.130585 0.409729 0.115509
0.166718 0.414459 0.114044
0.207977 0.418945 0.110291
0.249146 0.423035 0.106415
0.293121 0.427643 0.102448
0.338348 0.433228 0.099365
0.385132 0.440460 0.100586
0.431335 0.450623 0.104858
0.476837 0.459717 0.110474
0.520813 0.463562 0.111908
0.571960 0.464203 0.105804
0.619080 0.467194 0.096252
0.659668 0.470490 0.092529
0.692871 0.474670 0.093567
0.723267 0.478760 0.093994
0.749664 0.482483 0.096619
0.773590 0.486237 0.100250
0.795410 0.490753 0.103668
0.813538 0.494263 0.106628
0.827606 0.497253 0.110107
0.840240 0.500610 0.115936
0.851166 0.503357 0.120880
0.861053 0.506805 0.127808
0.868134 0.509613 0.134338
0.876068 0.512665 0.141205
0.882874 0.514923 0.145905
0.888092 0.517303 0.151550
0.080902 0.444672 0.134369
0.089783 0.447083 0.135834
0.103180 0.450500 0.137146
0.119171 0.453735 0.136688
0.141846 0.457153 0.135590
0.168060 0.460449 0.134155
0.200684 0.464386 0.131073
0.236938 0.468475 0.128174
0.271912 0.472992 0.125732
0.313599 0.478027 0.122711
0.356873 0.483276 0.120056
0.399902 0.488861 0.117950
0.445282 0.497009 0.119232
0.492035 0.504822 0.121399
0.538666 0.508026 0.117767
0.583771 0.507690 0.107941
0.626587 0.508240 0.103241
0.668152 0.510590 0.098877
0.701660 0.512726 0.097321
0.731049 0.516479 0.100159
0.757904 0.519348 0.102448
0.781006 0.522369 0.104645
0.802155 0.526031 0.107208
0.819092 0.529816 0.113861
0.832397 0.532593 0.119415
0.844696 0.536041 0.126923
0.855896 0.539062 0.132843
0.865601 0.542908 0.141205
0.872498 0.545685 0.147614
0.880127 0.548859 0.155243
0.886383 0.552094 0.163422
0.891357 0.554718 0.170197
0.102325 0.494873 0.162903
0.114807 0.496674 0.162079
0.129822 0.498749 0.161011
0.145905 0.500946 0.160034
0.169830 0.503418 0.157806
0.195099 0.505524 0.154541
0.226105 0.508545 0.149536
0.257080 0.511963 0.145172
0.290344 0.515686 0.140869
0.329254 0.520905 0.138367
0.370117 0.526733 0.136292
0.412750 0.532776 0.134521
0.457336 0.538177 0.131073
0.505402 0.542999 0.127441
0.556732 0.545105 0.116760
0.597443 0.545654 0.108521
0.636078 0.544556 0.101746
0.674255 0.545441 0.100708
0.707611 0.547852 0.101349
0.738068 0.550140 0.102264
0.763916 0.553253 0.105408
0.787140 0.556488 0.108215
0.806946 0.560699 0.115631
0.823059 0.564728 0.124451
0.836395 0.567810 0.130981
0.848419 0.571747 0.140686
0.859222 0.574951 0.148254
0.868408 0.578796 0.158325
0.874817 0.582306 0.168152
0.881989 0.586060 0.178436
0.888275 0.589355 0.187347
0.893250 0.592133 0.194855
0.116119 0.532898 0.182983
0.126801 0.534393 0.182343
0.141815 0.536041 0.181244
0.158905 0.537628 0.179504
0.182556 0.539490 0.175812
0.210510 0.541443 0.172089
0.241730 0.544037 0.166779
0.273193 0.546783 0.160950
0.305756 0.549713 0.154877
0.343170 0.553497 0.147644
0.382324 0.558197 0.143127
0.423462 0.563049 0.139252
0.468170 0.568390 0.135254
0.515747 0.573547 0.131073
0.570251 0.575531 0.115814
0.610138 0.576782 0.104797
0.646698 0.576599 0.099609
0.681152 0.576599 0.100067
0.712708 0.578247 0.102539
0.743286 0.580444 0.104309
0.769318 0.583130 0.107178
0.791901 0.586731 0.113892
0.811035 0.590820 0.122192
0.826813 0.595795 0.133392
0.839508 0.599609 0.142731
0.850891 0.603729 0.154785
0.860657 0.607910 0.167511
0.869385 0.612732 0.180908
0.875854 0.616516 0.191254
0.883057 0.620514 0.202118
0.889313 0.623779 0.210876
0.894257 0.626465 0.218140
0.122620 0.565186 0.200073
0.132751 0.566620 0.199738
0.145813 0.568390 0.199219
0.164429 0.570038 0.197876
0.187378 0.571960 0.195801
0.213318 0.573975 0.192963
0.248230 0.576782 0.187531
0.283203 0.579712 0.180725
0.316528 0.582306 0.172791
0.354736 0.585022 0.163116
0.393250 0.587463 0.153107
0.434143 0.591583 0.145264
0.478363 0.596497 0.139252
0.531952 0.601074 0.127930
0.584869 0.604279 0.110870
0.622620 0.606934 0.103760
0.657196 0.608154 0.101135
0.690491 0.608215 0.101013
0.719086 0.607697 0.102875
0.748199 0.609497 0.105835
0.773346 0.612427 0.111023
0.795807 0.616058 0.118774
0.813934 0.620300 0.128845
0.829742 0.624969 0.141174
0.842133 0.629272 0.153656
0.852631 0.634583 0.170044
0.861969 0.639374 0.184998
0.870605 0.644012 0.198761
0.876831 0.647522 0.209320
0.883911 0.651428 0.220825
0.890259 0.654633 0.229858
0.895355 0.657196 0.237183
0.130737 0.594177 0.213409
0.140106 0.595581 0.214294
0.152130 0.597351 0.215149
0.165588 0.599182 0.215485
0.186462 0.601501 0.214752
0.210541 0.604004 0.213287
0.246033 0.606567 0.208588
0.284851 0.609100 0.202179
0.321564 0.611664 0.193726
0.361847 0.614197 0.183136
0.402618 0.616699 0.170990
0.446228 0.619263 0.155792
0.490997 0.622681 0.143982
0.549530 0.626190 0.124725
0.597015 0.629791 0.109406
0.634155 0.633759 0.104309
0.667786 0.635986 0.101562
0.699493 0.636017 0.102112
0.727020 0.635712 0.104065
0.752594 0.636292 0.108246
0.776825 0.639069 0.115265
0.798920 0.642914 0.123932
0.816589 0.647400 0.137115
0.831635 0.651886 0.151550
0.842987 0.656769 0.168518
0.853149 0.662231 0.185699
0.862274 0.667175 0.200958
0.871033 0.671875 0.214661
0.877350 0.675446 0.225372
0.884460 0.679565 0.237885
0.890808 0.682617 0.246948
0.896118 0.684845 0.253021
0.139221 0.620758 0.224731
0.147247 0.622345 0.226196
0.157837 0.624176 0.227509
0.170959 0.625916 0.228058
0.187439 0.628021 0.228668
0.205933 0.630371 0.229034
0.241943 0.633362 0.226837
0.283844 0.636200 0.221893
0.323486 0.639160 0.214294
0.368011 0.642334 0.203705
0.413086 0.645294 0.190857
0.460876 0.647827 0.172363
0.507721 0.648499 0.147919
0.561890 0.650665 0.124817
0.607666 0.654358 0.109283
0.645721 0.658905 0.103699
0.678345 0.661285 0.103180
0.707703 0.662537 0.104828
0.734314 0.663147 0.108398
0.759064 0.663788 0.113007
0.780762 0.664978 0.120605
0.800659 0.669128 0.132294
0.817780 0.674255 0.149384
0.831787 0.680115 0.170380
0.843262 0.685120 0.187286
0.853363 0.690460 0.204895
0.862335 0.695129 0.220215
0.871155 0.699921 0.234985
0.877655 0.703278 0.245117
0.885437 0.706818 0.254761
0.892212 0.709564 0.261963
0.897644 0.711761 0.267609
0.145660 0.645721 0.235321
0.153534 0.647369 0.236755
0.164581 0.649139 0.237671
0.176239 0.650970 0.238617
0.191620 0.653168 0.239929
0.213593 0.655579 0.240479
0.246674 0.658813 0.239746
0.285217 0.662415 0.237701
0.327484 0.665710 0.231018
0.376923 0.669891 0.222229
0.426178 0.673431 0.209656
0.474731 0.675598 0.190186
0.526093 0.674713 0.156433
0.575714 0.674866 0.126190
0.618835 0.678864 0.110565
0.654633 0.682526 0.106506
0.687378 0.685974 0.107086
0.716064 0.687744 0.109161
0.741180 0.689026 0.113464
0.764832 0.690063 0.119598
0.784943 0.691864 0.130096
0.802002 0.694855 0.145264
0.817780 0.701324 0.169067
0.831573 0.707764 0.191803
0.843231 0.712738 0.208221
0.853455 0.718170 0.225830
0.862305 0.723083 0.241852
0.871307 0.727478 0.255371
0.878326 0.730347 0.263397
0.886414 0.733582 0.271851
0.893433 0.736389 0.278564
0.899078 0.738403 0.283661
0.154205 0.671082 0.246582
0.162537 0.672577 0.247894
0.173157 0.674347 0.249420
0.186920 0.675903 0.250427
0.204315 0.678040 0.251831
0.225922 0.680206 0.252197
0.255646 0.683807 0.252869
0.294983 0.687561 0.250549
0.337372 0.690948 0.246216
0.387146 0.695282 0.237671
0.438751 0.699341 0.225555
0.489166 0.700409 0.204010
0.540039 0.698547 0.166290
0.587036 0.698639 0.133240
0.628540 0.701965 0.116547
0.663269 0.704803 0.111786
0.694855 0.708252 0.111359
0.724213 0.710632 0.114349
0.748260 0.712402 0.118835
0.770477 0.713928 0.126465
0.787537 0.717621 0.145081
0.802673 0.722290 0.167664
0.817657 0.727570 0.190796
0.831146 0.733917 0.214325
0.842651 0.738739 0.231781
0.853271 0.743622 0.247742
0.862854 0.747742 0.260864
0.872650 0.751495 0.271606
0.879791 0.754150 0.279175
0.888000 0.757080 0.286926
0.895172 0.759521 0.293030
0.900848 0.761414 0.297852
0.162323 0.691895 0.256561
0.171753 0.693359 0.257751
0.184509 0.694977 0.258972
0.198151 0.696533 0.260071
0.215240 0.698578 0.261322
0.238312 0.701355 0.261902
0.267822 0.704987 0.262634
0.308807 0.708496 0.260223
0.351440 0.711884 0.255951
0.397339 0.715607 0.247803
0.447998 0.719574 0.236633
0.501587 0.720581 0.212189
0.548431 0.719452 0.181946
0.594910 0.719177 0.144867
0.636597 0.720856 0.121063
0.669891 0.723206 0.115540
0.700470 0.725952 0.115509
0.729279 0.728271 0.119415
0.752655 0.730652 0.126343
0.773010 0.733734 0.138336
0.788696 0.738739 0.162231
0.803009 0.744080 0.187225
0.817261 0.748932 0.210754
0.830811 0.753815 0.230652
0.842255 0.758820 0.248566
0.853455 0.763397 0.263794
0.863708 0.767090 0.274841
0.873444 0.770111 0.284515
0.880615 0.772217 0.291290
0.888947 0.774628 0.297974
0.896179 0.776672 0.303223
0.901947 0.778412 0.307739
0.171661 0.710724 0.264893
0.181793 0.712219 0.266052
0.194061 0.714020 0.267487
0.207245 0.715851 0.269012
0.227112 0.718262 0.270203
0.249664 0.721008 0.270752
0.280670 0.724792 0.271851
0.323334 0.728058 0.268768
0.364410 0.731598 0.264954
0.409210 0.735077 0.257050
0.456909 0.738342 0.245514
0.513123 0.739197 0.220276
0.554596 0.738739 0.195648
0.600006 0.737762 0.157410
0.642365 0.738129 0.127441
0.675232 0.739960 0.120270
0.704681 0.742249 0.121460
0.732483 0.744720 0.128418
0.754333 0.748199 0.141418
0.773651 0.752533 0.157898
0.789032 0.757416 0.182800
0.803284 0.762970 0.206909
0.817566 0.767517 0.228271
0.831146 0.771667 0.246063
0.842560 0.775391 0.260956
0.853973 0.779327 0.275055
0.864227 0.782654 0.285797
0.874115 0.785522 0.294891
0.881470 0.787720 0.301788
0.889832 0.789948 0.308075
0.897003 0.791809 0.313110
0.902740 0.793243 0.316620
0.180176 0.728180 0.272369
0.189789 0.729431 0.273560
0.203033 0.731171 0.275085
0.217896 0.732788 0.276642
0.238556 0.735229 0.277740
0.262054 0.738129 0.278656
0.294708 0.741882 0.279388
0.335815 0.745483 0.276733
0.375519 0.748871 0.272430
0.420654 0.752289 0.265015
0.468903 0.754822 0.250763
0.519043 0.755707 0.229492
0.559387 0.755310 0.206482
0.603546 0.754303 0.171417
0.646088 0.753845 0.138794
0.678802 0.754150 0.127197
0.707947 0.755646 0.128571
0.734619 0.758667 0.137421
0.755646 0.762878 0.153137
0.773804 0.768127 0.175690
0.789032 0.773376 0.202271
0.803345 0.778778 0.224670
0.817841 0.783325 0.243958
0.831879 0.786926 0.259216
0.843872 0.789978 0.271423
0.855011 0.793152 0.283569
0.865295 0.796326 0.294434
0.875275 0.799255 0.303528
0.882629 0.801392 0.310059
0.890930 0.803284 0.315582
0.898071 0.804718 0.319550
0.903778 0.805969 0.322845
0.189636 0.744080 0.280640
0.202148 0.745758 0.281891
0.217407 0.747681 0.283356
0.232697 0.749420 0.284821
0.254242 0.751801 0.285645
0.277863 0.754395 0.286743
0.311279 0.757935 0.286743
0.350555 0.761597 0.284607
0.389557 0.764923 0.280273
0.435486 0.768433 0.272675
0.486847 0.770660 0.255249
0.527679 0.771179 0.239288
0.566193 0.770782 0.218719
0.608368 0.769196 0.186584
0.650482 0.767670 0.151703
0.683075 0.767059 0.135925
0.711273 0.768951 0.140594
