滤镜资源/Professional Luts Collection/Triune-Digital-Cinematic-LUTs/3D LUTs (CUBE)/REDLOGFILM/Star Wars The Force Awakens - REDlogFilm.cube
#Created by Benjamin (IWLTBAP) : http://luts.iwltbap.com
#Copyright: (C) Copyright 2016 Triune Films and IWLTBAP
TITLE "Blockbuster LUTs Pack (REDlogFilm)"
#LUT size
LUT_3D_SIZE 32
#LUT data points
0.011169 0.003052 0.002136
0.017242 0.004303 0.002716
0.027588 0.004669 0.004242
0.035736 0.006744 0.004639
0.049255 0.010742 0.006042
0.061218 0.013824 0.007050
0.078766 0.016327 0.009308
0.097046 0.022644 0.011444
0.118591 0.028778 0.014343
0.144806 0.035217 0.017548
0.175293 0.041443 0.021820
0.210327 0.044403 0.023804
0.248718 0.044678 0.023987
0.289062 0.046631 0.027374
0.331055 0.056427 0.035583
0.380951 0.069366 0.045105
0.437714 0.085175 0.056549
0.489349 0.101257 0.067444
0.532379 0.114746 0.075897
0.573578 0.128174 0.084534
0.609192 0.139801 0.090942
0.638824 0.148254 0.095123
0.665161 0.155762 0.098145
0.688416 0.162811 0.101135
0.707123 0.169281 0.103729
0.724182 0.175781 0.106262
0.740173 0.181732 0.108826
0.757416 0.189087 0.111206
0.771210 0.195312 0.113251
0.787354 0.203522 0.115662
0.801025 0.210480 0.117584
0.809692 0.214355 0.118896
0.011871 0.009735 0.002716
0.017639 0.010162 0.004395
0.026123 0.011841 0.005280
0.035553 0.014130 0.006073
0.046417 0.017548 0.006500
0.059052 0.019897 0.007385
0.073944 0.023987 0.009064
0.092041 0.027557 0.011749
0.116425 0.035522 0.014771
0.144745 0.041687 0.017914
0.175018 0.047882 0.022217
0.209900 0.051514 0.024078
0.248596 0.051727 0.024536
0.289093 0.052917 0.027008
0.331390 0.061310 0.035492
0.380920 0.074829 0.045319
0.437225 0.090302 0.056671
0.489349 0.106781 0.067688
0.532135 0.119995 0.075928
0.573212 0.133423 0.084290
0.609741 0.145508 0.091217
0.640503 0.154755 0.095581
0.666412 0.162476 0.098541
0.689301 0.169464 0.101379
0.707764 0.175873 0.103973
0.724487 0.182251 0.106506
0.740265 0.188385 0.108887
0.756592 0.195099 0.111511
0.770447 0.201416 0.113647
0.786469 0.209564 0.115967
0.800262 0.216461 0.117920
0.808807 0.220459 0.119202
0.011292 0.019318 0.003693
0.017975 0.019348 0.004944
0.025116 0.021057 0.006256
0.034698 0.022491 0.007263
0.048157 0.025940 0.007599
0.059662 0.029053 0.007355
0.074310 0.032379 0.010284
0.092712 0.036285 0.012451
0.109924 0.042053 0.016174
0.136078 0.050415 0.020630
0.171875 0.056305 0.023743
0.210022 0.059601 0.024780
0.248413 0.060913 0.025360
0.288055 0.061249 0.026550
0.331116 0.067719 0.034851
0.381104 0.080780 0.045837
0.436676 0.096649 0.056793
0.489258 0.113464 0.067688
0.531616 0.126556 0.075989
0.572815 0.139923 0.084473
0.610352 0.152649 0.091583
0.642120 0.162994 0.095947
0.668213 0.170959 0.099243
0.690979 0.177948 0.102020
0.708801 0.184143 0.104431
0.725189 0.190430 0.106934
0.740631 0.196686 0.109344
0.756805 0.203278 0.111877
0.769379 0.208954 0.113892
0.785553 0.217255 0.116241
0.799133 0.224304 0.118103
0.807739 0.228088 0.119415
0.012604 0.032318 0.005493
0.017731 0.031952 0.006042
0.025421 0.031982 0.006653
0.033112 0.033203 0.008514
0.047363 0.035461 0.009338
0.060669 0.038330 0.009308
0.078003 0.040863 0.009155
0.092651 0.045074 0.013062
0.111755 0.050201 0.017365
0.135345 0.056732 0.021759
0.163513 0.064392 0.027100
0.203125 0.069427 0.029999
0.248138 0.069763 0.025940
0.287567 0.069580 0.026917
0.330933 0.075073 0.035034
0.380859 0.087830 0.045868
0.436249 0.103485 0.057007
0.488403 0.120422 0.067688
0.531342 0.133606 0.076080
0.572479 0.146729 0.084351
0.610565 0.160004 0.091705
0.643097 0.170746 0.096405
0.670013 0.179688 0.099640
0.692230 0.187103 0.102509
0.709686 0.193054 0.104858
0.726013 0.199646 0.107330
0.740814 0.205536 0.109680
0.756775 0.212311 0.112061
0.769073 0.217682 0.114258
0.785461 0.225525 0.116486
0.799316 0.232544 0.118530
0.808228 0.236450 0.119904
0.015442 0.044525 0.007599
0.019806 0.045532 0.008240
0.027039 0.045990 0.008331
0.034973 0.046326 0.009613
0.045532 0.046936 0.010803
0.059937 0.049561 0.011353
0.078735 0.051727 0.008942
0.097046 0.055664 0.011230
0.113464 0.059875 0.016998
0.135712 0.065643 0.022675
0.164612 0.073242 0.027557
0.195953 0.079132 0.033569
0.238129 0.084045 0.034973
0.284882 0.081268 0.029541
0.330078 0.085388 0.035736
0.380859 0.096985 0.046173
0.435333 0.112091 0.056976
0.487549 0.128326 0.067627
0.530914 0.142365 0.076263
0.572479 0.155792 0.084686
0.610596 0.169403 0.091949
0.643066 0.181274 0.096802
0.670349 0.190613 0.100128
0.693054 0.198639 0.102966
0.710480 0.204651 0.105347
0.727173 0.211212 0.107910
0.741821 0.217346 0.110077
0.756592 0.223297 0.112457
0.768951 0.228851 0.114410
0.785736 0.235809 0.116974
0.799500 0.242645 0.118988
0.808380 0.246399 0.120361
0.016418 0.058044 0.010132
0.022003 0.058746 0.010223
0.027679 0.059937 0.010925
0.035583 0.060730 0.011108
0.046417 0.061432 0.012115
0.058716 0.062042 0.011719
0.078094 0.063843 0.010834
0.097961 0.066223 0.011444
0.119232 0.070740 0.015167
0.140045 0.076233 0.022186
0.164917 0.082367 0.029053
0.201172 0.088562 0.032776
0.232605 0.094360 0.037842
0.272675 0.098633 0.039032
0.320099 0.098969 0.039124
0.376373 0.107605 0.047180
0.433594 0.121796 0.057159
0.486542 0.137299 0.067596
0.530426 0.152496 0.076294
0.573395 0.166229 0.085083
0.610657 0.179962 0.092133
0.643005 0.192871 0.097107
0.670593 0.202454 0.100555
0.693451 0.210846 0.103455
0.711548 0.217346 0.105957
0.728271 0.223969 0.108521
0.743256 0.229980 0.110748
0.757507 0.235992 0.112946
0.769135 0.240936 0.114624
0.785797 0.247925 0.117157
0.800079 0.253937 0.119415
0.808777 0.257202 0.120819
0.019714 0.074890 0.012939
0.023438 0.075928 0.013306
0.030579 0.076233 0.013306
0.037720 0.077789 0.013489
0.046326 0.079956 0.014404
0.059204 0.080078 0.013763
0.076324 0.080078 0.013062
0.098480 0.081879 0.013794
0.119995 0.085205 0.015625
0.146790 0.090759 0.019348
0.173676 0.096222 0.027008
0.198669 0.101898 0.035553
0.240692 0.106873 0.035736
0.269318 0.113251 0.040863
0.305573 0.119202 0.043823
0.352539 0.124329 0.050690
0.420837 0.134888 0.059387
0.482391 0.150787 0.067078
0.528198 0.166016 0.075989
0.572998 0.180237 0.085175
0.610168 0.194550 0.092316
0.642029 0.207458 0.097412
0.670441 0.218597 0.100983
0.694427 0.227570 0.104126
0.712708 0.234344 0.106537
0.729858 0.240814 0.109161
0.746643 0.246490 0.111664
0.763306 0.251923 0.113861
0.775146 0.256927 0.115723
0.790253 0.264282 0.118500
0.804535 0.270294 0.120667
0.812256 0.273193 0.121979
0.021820 0.094208 0.016510
0.027222 0.094543 0.016388
0.033783 0.095154 0.016632
0.040588 0.095764 0.016510
0.049194 0.096802 0.016174
0.060333 0.097473 0.016052
0.077271 0.097961 0.015259
0.096710 0.098541 0.014435
0.120850 0.101746 0.016266
0.147369 0.106598 0.020172
0.179779 0.110992 0.023926
0.211761 0.116638 0.028931
0.237579 0.122803 0.039215
0.274109 0.128204 0.040466
0.308929 0.135040 0.043762
0.339935 0.143524 0.051880
0.388947 0.152283 0.059601
0.451233 0.164185 0.069641
0.515320 0.180725 0.079102
0.571381 0.196747 0.085358
0.608002 0.212158 0.092438
0.639954 0.224670 0.097870
0.669891 0.236877 0.101624
0.694916 0.246765 0.104767
0.714447 0.254181 0.107361
0.731628 0.260406 0.109894
0.749359 0.265869 0.112335
0.768860 0.270752 0.114929
0.782562 0.276001 0.117126
0.797485 0.283508 0.120026
0.810211 0.290039 0.122284
0.817352 0.292694 0.123718
0.025726 0.115662 0.021149
0.031158 0.115936 0.020996
0.037811 0.116547 0.021301
0.044800 0.117035 0.020996
0.052399 0.118134 0.020721
0.060150 0.119080 0.019501
0.075500 0.119568 0.018524
0.097198 0.116241 0.016418
0.119415 0.119873 0.017059
0.146881 0.125580 0.020599
0.179688 0.129272 0.024292
0.215729 0.133728 0.026428
0.249603 0.138092 0.029480
0.275116 0.144806 0.041199
0.307648 0.153046 0.045868
0.351044 0.162872 0.050842
0.385040 0.172516 0.059998
0.428375 0.183868 0.069122
0.480103 0.196625 0.077789
0.535919 0.213959 0.088104
0.591705 0.231445 0.097321
0.635193 0.244781 0.102417
0.667328 0.255737 0.102631
0.698883 0.267120 0.105774
0.720276 0.274933 0.108673
0.741547 0.281647 0.111969
0.760162 0.287659 0.114227
0.779205 0.293457 0.116486
0.792053 0.299744 0.118988
0.805206 0.308655 0.122681
0.817413 0.314972 0.125031
0.824066 0.317596 0.126465
0.030487 0.142517 0.027283
0.036469 0.142487 0.027374
0.042664 0.143280 0.027313
0.049713 0.143829 0.027283
0.056580 0.145721 0.027130
0.064941 0.147156 0.025909
0.076233 0.148224 0.023102
0.095581 0.145905 0.020630
0.119019 0.141235 0.019043
0.146973 0.148712 0.021790
0.176117 0.154541 0.025116
0.215973 0.157623 0.027283
0.252136 0.159760 0.027618
0.286438 0.167480 0.029694
0.316711 0.175049 0.045227
0.346771 0.184692 0.055725
0.394897 0.197357 0.062073
0.441284 0.209839 0.070038
0.476074 0.221497 0.078278
0.516022 0.234192 0.087158
0.562592 0.249115 0.096252
0.609222 0.264862 0.104889
0.654144 0.278625 0.111389
0.695038 0.291534 0.115601
0.724640 0.300507 0.117859
0.751251 0.310822 0.120392
0.771484 0.317505 0.120422
0.787659 0.323151 0.119537
0.801331 0.330109 0.122650
0.815552 0.338867 0.126373
0.826569 0.345612 0.129120
0.833862 0.347839 0.130981
0.033783 0.172150 0.033661
0.039429 0.172424 0.033478
0.046265 0.172943 0.033356
0.052643 0.173615 0.033661
0.060059 0.175354 0.033325
0.067596 0.177216 0.031555
0.077240 0.180450 0.028931
0.093597 0.181030 0.025177
0.118683 0.177094 0.024323
0.147797 0.172241 0.024536
0.177643 0.180237 0.025665
0.212494 0.186920 0.028412
0.254150 0.188629 0.028748
0.289276 0.192627 0.030914
0.326202 0.203491 0.037750
0.362946 0.212830 0.052032
0.399750 0.223541 0.065399
0.443207 0.236481 0.075012
0.494476 0.251434 0.081665
0.540131 0.265015 0.090302
0.574829 0.277222 0.099030
0.610443 0.289795 0.106567
0.647186 0.302124 0.114075
0.685669 0.313232 0.118073
0.712982 0.324890 0.123077
0.739044 0.336670 0.127777
0.760925 0.348114 0.131744
0.780945 0.361267 0.139038
0.796906 0.371796 0.144073
0.815399 0.382019 0.151611
0.829132 0.390106 0.158691
0.839813 0.395111 0.164215
0.034210 0.204895 0.038849
0.039032 0.205658 0.039032
0.046173 0.205933 0.038361
0.053345 0.206604 0.038208
0.060394 0.208252 0.037018
0.067474 0.210541 0.035461
0.076416 0.213867 0.032257
0.087555 0.217377 0.027985
0.109497 0.216797 0.027008
0.147614 0.209076 0.027740
0.183563 0.209320 0.028564
0.216095 0.215942 0.029114
0.256531 0.221619 0.030182
0.294159 0.222656 0.031708
0.331848 0.231415 0.039764
0.372742 0.242981 0.047638
0.418304 0.254852 0.058014
0.466431 0.268860 0.076904
0.502380 0.280365 0.087128
0.545593 0.292786 0.096680
0.594360 0.306244 0.103882
0.639954 0.318756 0.109619
0.673645 0.330017 0.114868
0.699371 0.341980 0.120270
0.719238 0.353973 0.125397
0.738678 0.364838 0.129578
0.754883 0.376648 0.135284
0.772980 0.389160 0.141205
0.787170 0.398621 0.148285
0.803436 0.408997 0.157379
0.816284 0.417938 0.167450
0.826080 0.424530 0.177185
0.029327 0.240082 0.042175
0.036133 0.240021 0.041229
0.042145 0.241028 0.040894
0.049011 0.242126 0.039642
0.057587 0.243591 0.038116
0.065491 0.246124 0.036011
0.076141 0.249756 0.032471
0.086914 0.254425 0.027527
0.104523 0.255646 0.027100
0.134796 0.252167 0.028564
0.182007 0.244476 0.029266
0.224731 0.248840 0.030090
0.261169 0.253876 0.031952
0.304321 0.258911 0.035675
0.341858 0.263885 0.041992
0.382812 0.273560 0.050232
0.429443 0.285797 0.058960
0.477631 0.297546 0.067627
0.527435 0.310028 0.083252
0.570862 0.324829 0.099640
0.604706 0.337524 0.108582
0.638184 0.349396 0.114899
0.679688 0.362061 0.119659
0.716095 0.375763 0.123932
0.744598 0.389038 0.127319
0.763580 0.402344 0.133118
0.777893 0.413696 0.141785
0.791229 0.424408 0.150818
0.801178 0.432678 0.157440
0.811981 0.441681 0.166443
0.820160 0.448792 0.177094
0.826080 0.454346 0.186554
0.024811 0.277008 0.044739
0.029938 0.277222 0.044067
0.037659 0.277649 0.042938
0.046539 0.277893 0.040924
0.054260 0.280334 0.038513
0.063507 0.282928 0.036163
0.074585 0.287354 0.032043
0.087128 0.291382 0.027496
0.108002 0.294464 0.026733
0.134766 0.293640 0.027557
0.169739 0.289764 0.028839
0.227020 0.288025 0.029449
0.269440 0.294159 0.031494
0.313660 0.296234 0.038452
0.355835 0.300598 0.045471
0.396515 0.307861 0.052795
0.443207 0.319305 0.061401
0.491028 0.330170 0.070709
0.536957 0.340607 0.079346
0.579834 0.352142 0.087830
0.628571 0.367676 0.101807
0.669983 0.384674 0.114441
0.698181 0.399994 0.122559
0.719086 0.414520 0.129059
0.735779 0.426422 0.134979
0.756866 0.439270 0.142944
0.777557 0.451141 0.150452
0.799866 0.461487 0.162262
0.809418 0.467529 0.172455
0.827057 0.476196 0.179504
0.836639 0.481262 0.188019
0.842102 0.486084 0.197784
0.023438 0.315247 0.051605
0.028381 0.315277 0.050812
0.036560 0.315277 0.049500
0.044159 0.315643 0.048157
0.053894 0.317078 0.045410
0.063568 0.319427 0.041626
0.075775 0.324219 0.037964
0.089111 0.329437 0.031250
0.111359 0.330811 0.030273
0.141907 0.332886 0.031464
0.177490 0.332947 0.032593
0.223328 0.333313 0.034058
0.276489 0.333130 0.035126
0.320892 0.339142 0.039337
0.372437 0.340729 0.049591
0.414154 0.346832 0.056702
0.459076 0.354980 0.064362
0.506073 0.365295 0.073547
0.549164 0.374908 0.081879
0.590057 0.385559 0.090118
0.628967 0.398071 0.096832
0.667206 0.411896 0.102020
0.704803 0.427612 0.108887
0.741180 0.450775 0.125305
0.760559 0.466278 0.135376
0.776672 0.479095 0.149872
0.789612 0.490326 0.162537
0.800446 0.499481 0.176270
0.807220 0.505005 0.188843
0.816406 0.511536 0.202148
0.824280 0.515625 0.212341
0.831451 0.518616 0.220978
0.027649 0.353149 0.061920
0.031555 0.353516 0.061371
0.040344 0.353088 0.060333
0.049103 0.353058 0.058960
0.058289 0.354431 0.057495
0.067780 0.355835 0.055237
0.083099 0.360840 0.048065
0.097168 0.368622 0.040619
0.116699 0.372467 0.036957
0.144409 0.367371 0.035736
0.180725 0.369537 0.037201
0.228394 0.374359 0.040344
0.280579 0.374207 0.040955
0.327667 0.378479 0.043762
0.383606 0.385345 0.051819
0.433685 0.386688 0.061096
0.476929 0.392548 0.068542
0.519501 0.400116 0.076263
0.559845 0.409515 0.083740
0.601166 0.422333 0.092224
0.640259 0.435638 0.098663
0.677368 0.448059 0.103302
0.710388 0.461243 0.107880
0.738770 0.475555 0.112427
0.764465 0.489258 0.116272
0.787689 0.504089 0.124420
0.807373 0.521515 0.146179
0.818329 0.530792 0.172546
0.825684 0.536438 0.189392
0.831818 0.540466 0.207367
0.837341 0.544006 0.221191
0.841858 0.546844 0.230377
0.035736 0.393280 0.074646
0.043427 0.393433 0.073822
0.051575 0.393524 0.072632
0.058685 0.394379 0.071655
0.068237 0.395844 0.070404
0.078430 0.396912 0.068817
0.091736 0.399445 0.066254
0.108246 0.405548 0.059601
0.124054 0.416199 0.047302
0.150696 0.417969 0.044403
0.188324 0.405212 0.041870
0.231659 0.408295 0.044128
0.287476 0.410767 0.046387
0.343597 0.419159 0.049866
0.392212 0.428467 0.053223
0.447693 0.433777 0.063873
0.494507 0.435699 0.072723
0.536285 0.443390 0.080505
0.575500 0.452362 0.087769
0.614777 0.462646 0.094818
0.652588 0.474670 0.099792
0.688110 0.486755 0.103973
0.720856 0.501068 0.108765
0.751556 0.517487 0.114105
0.777374 0.534760 0.117706
0.800873 0.546417 0.125977
0.821472 0.558197 0.133301
0.836395 0.564423 0.142731
0.848328 0.569366 0.148407
0.858398 0.571716 0.153595
0.858307 0.569458 0.175293
0.856750 0.567535 0.194336
0.054077 0.437592 0.088928
0.060059 0.437561 0.088257
0.066711 0.438477 0.087677
0.074371 0.439484 0.086609
0.082672 0.440308 0.085175
0.091705 0.440918 0.083496
0.104401 0.442993 0.081299
0.118469 0.445953 0.077728
0.134033 0.450775 0.071655
0.157104 0.468872 0.053894
0.200409 0.457123 0.050598
0.244293 0.445190 0.049377
0.293213 0.446289 0.051605
0.358246 0.455231 0.054779
0.408661 0.467834 0.058258
0.452332 0.477692 0.064209
0.502167 0.481598 0.073639
0.549805 0.486542 0.083832
0.590057 0.496490 0.091400
0.629578 0.506409 0.097321
0.667023 0.516541 0.101044
0.702301 0.529022 0.105652
0.735535 0.547516 0.109955
0.765381 0.562439 0.116302
0.790100 0.577637 0.121246
0.811707 0.586212 0.130981
0.829163 0.593048 0.140198
0.841003 0.596527 0.152405
0.851013 0.599670 0.160126
0.860687 0.601837 0.165253
0.867096 0.602020 0.168884
0.871948 0.602020 0.172058
0.067322 0.480927 0.103638
0.072083 0.481781 0.103241
0.079498 0.482635 0.102264
0.086670 0.483521 0.101654
0.095001 0.484680 0.100494
0.104156 0.486176 0.099274
0.116974 0.488068 0.096313
0.131470 0.492157 0.091522
0.147369 0.499542 0.080078
0.164093 0.507904 0.065063
0.212463 0.507812 0.059692
0.259277 0.490906 0.057251
0.307739 0.483917 0.057709
0.372681 0.490936 0.060120
0.421692 0.502228 0.062805
0.460602 0.510803 0.065277
0.505493 0.523010 0.073730
0.555786 0.527893 0.084381
0.599854 0.534790 0.092957
0.641663 0.545990 0.097626
0.681702 0.559387 0.101044
0.715302 0.576141 0.105682
0.747070 0.591156 0.110962
0.775604 0.604370 0.118835
0.798767 0.614044 0.126617
0.817932 0.620972 0.138855
0.833496 0.625977 0.149170
0.843231 0.626007 0.164429
0.851440 0.626648 0.174561
0.860382 0.627777 0.180969
0.867065 0.627930 0.184326
0.872131 0.628021 0.187164
0.078247 0.523376 0.119171
0.083466 0.523682 0.118622
0.089935 0.524902 0.117920
0.096985 0.525909 0.117188
0.105988 0.527557 0.116486
0.115509 0.529572 0.115509
0.128967 0.534943 0.109222
0.144257 0.540863 0.100403
0.157959 0.548065 0.083221
0.174194 0.554230 0.070221
0.213043 0.551941 0.066711
0.272400 0.538269 0.064758
0.320343 0.526886 0.064972
0.386078 0.527252 0.065765
0.431854 0.535004 0.067139
0.472015 0.545227 0.069519
0.511749 0.555359 0.073914
0.558594 0.571564 0.082245
0.607635 0.580505 0.090820
0.656036 0.592590 0.094849
0.692871 0.607605 0.099579
0.724518 0.624390 0.105560
0.756744 0.635071 0.114258
0.783997 0.644104 0.124512
0.805389 0.649750 0.134644
0.820557 0.651276 0.152679
0.835114 0.655609 0.163544
0.845490 0.655731 0.177765
0.852814 0.654968 0.189087
0.861267 0.654999 0.196472
0.868530 0.655640 0.198120
0.874237 0.656067 0.199921
0.085938 0.560669 0.132904
0.091125 0.560791 0.132294
0.097504 0.561066 0.131317
0.104218 0.562012 0.130737
0.113007 0.563782 0.129456
0.122223 0.566193 0.128296
0.135925 0.570496 0.125519
0.153229 0.579132 0.114380
0.170532 0.588318 0.093658
0.189667 0.596710 0.072266
0.226227 0.596100 0.070312
0.277557 0.582489 0.069519
0.329407 0.568207 0.071289
0.387726 0.565216 0.070465
0.440155 0.567780 0.070648
0.481934 0.576904 0.072571
0.522522 0.590363 0.074799
0.565002 0.605988 0.079376
0.613220 0.629395 0.085083
0.663757 0.642609 0.090363
0.701172 0.657074 0.098877
0.734467 0.665497 0.109283
0.764893 0.675323 0.120392
0.788208 0.676727 0.137604
0.808777 0.680939 0.150360
0.822510 0.678345 0.170349
0.834808 0.678894 0.182465
0.847992 0.681213 0.191040
0.855499 0.680542 0.201599
0.864075 0.680786 0.208160
0.871643 0.681488 0.209686
0.877502 0.682007 0.211151
0.094299 0.593903 0.145386
0.099182 0.594086 0.144806
0.105713 0.594299 0.143890
0.112610 0.595032 0.143402
0.121582 0.596619 0.141937
0.131683 0.598938 0.140167
0.145630 0.602936 0.137085
0.163147 0.609253 0.131592
0.183777 0.619965 0.113647
0.205292 0.630768 0.087433
0.238678 0.634094 0.077209
0.282471 0.626526 0.074158
0.334656 0.612152 0.073914
0.385529 0.605377 0.074432
0.447662 0.603943 0.074707
0.492004 0.610321 0.075745
0.533936 0.622650 0.077484
0.578552 0.643524 0.078735
0.622284 0.663818 0.081116
0.670593 0.691650 0.088287
0.707703 0.700562 0.102051
0.743988 0.707123 0.116486
0.769684 0.705780 0.137329
0.791138 0.705627 0.156464
0.808350 0.705322 0.172546
0.824341 0.704926 0.186493
0.835541 0.703308 0.200073
0.848938 0.705231 0.206787
0.858734 0.705627 0.212616
0.868530 0.706818 0.217072
0.875885 0.707520 0.218842
0.881744 0.708130 0.220642
0.103455 0.622803 0.155884
0.108551 0.623322 0.155365
0.115173 0.623962 0.154572
0.122498 0.624878 0.154419
0.131531 0.626251 0.152832
0.142761 0.627899 0.150574
0.157684 0.631256 0.147156
0.176208 0.637115 0.141418
0.196167 0.644806 0.135651
0.219055 0.658783 0.116211
0.250153 0.670227 0.094391
0.290161 0.669312 0.081177
0.336029 0.654327 0.077637
0.386749 0.646881 0.077209
0.446655 0.643890 0.076569
0.500885 0.647980 0.078369
0.546295 0.659515 0.079529
0.594116 0.679626 0.080566
0.638092 0.701111 0.081390
0.677094 0.720215 0.091309
0.714844 0.739410 0.109161
0.746674 0.740173 0.130402
0.771332 0.732635 0.159180
0.794983 0.730774 0.176636
0.810028 0.727875 0.195221
0.825653 0.729309 0.204254
0.838776 0.729553 0.212860
0.852081 0.731964 0.218719
0.862213 0.732697 0.223206
0.872437 0.734283 0.227234
0.879944 0.735260 0.228790
0.885712 0.735992 0.230713
0.113312 0.647614 0.164581
0.118164 0.647888 0.164337
0.125000 0.648438 0.164032
0.132263 0.649536 0.164032
0.141632 0.650787 0.163727
0.152924 0.652405 0.162170
0.169037 0.655029 0.159058
0.188263 0.660309 0.153839
0.209045 0.667816 0.149536
0.233154 0.678986 0.147827
0.262238 0.700775 0.130737
0.305969 0.713440 0.097961
0.348511 0.700867 0.082825
0.397827 0.691681 0.080200
0.455963 0.687286 0.080017
0.509644 0.687775 0.081299
0.557983 0.697510 0.082275
0.607819 0.714722 0.084015
0.651215 0.733582 0.086945
0.686127 0.751251 0.099396
0.717743 0.762878 0.118805
0.744751 0.766144 0.151428
0.771393 0.760437 0.174377
0.794586 0.756165 0.194733
0.813324 0.753418 0.209503
0.829376 0.755066 0.217712
0.842438 0.756714 0.223755
0.855377 0.758514 0.229248
0.865082 0.759491 0.233521
0.875336 0.761566 0.237122
0.882690 0.762604 0.238678
0.888550 0.763702 0.239838
0.126282 0.670654 0.172302
0.131592 0.670776 0.172119
0.138641 0.671509 0.171997
0.146210 0.672272 0.172211
0.156006 0.673553 0.172272
0.166779 0.675293 0.172272
0.181610 0.677582 0.172211
0.199768 0.681366 0.169495
0.219391 0.686584 0.168457
0.243286 0.694794 0.172638
0.273438 0.717255 0.157623
0.316437 0.739929 0.123322
0.362152 0.735291 0.102203
0.412292 0.730469 0.089539
0.467926 0.724701 0.084595
0.520081 0.725555 0.084381
0.569305 0.733124 0.085205
0.619110 0.745148 0.087646
0.659973 0.758484 0.093445
0.693512 0.776703 0.109985
0.721527 0.784271 0.129730
0.745850 0.784790 0.162262
0.770264 0.783295 0.188782
0.793549 0.776855 0.207031
0.814453 0.778046 0.217896
0.831482 0.778992 0.226501
0.844574 0.779938 0.232208
0.858154 0.781677 0.237518
0.867889 0.782562 0.241455
0.878021 0.784515 0.244751
0.885620 0.785553 0.246094
0.891846 0.786682 0.247131
0.140442 0.694885 0.180359
0.145599 0.695038 0.179962
0.152802 0.695435 0.179810
0.160187 0.696228 0.179932
0.169708 0.697357 0.179901
0.180054 0.698303 0.179749
0.193726 0.699921 0.180023
0.208679 0.702606 0.179291
0.227386 0.705353 0.180511
0.250214 0.711212 0.184479
0.280945 0.732727 0.171173
0.322906 0.761780 0.139587
0.372009 0.769348 0.117157
0.425659 0.765198 0.103241
0.480988 0.760254 0.093872
0.531708 0.762451 0.094025
0.579346 0.767334 0.095947
0.627136 0.774750 0.097870
0.666138 0.786224 0.106293
0.698761 0.797699 0.121368
0.723938 0.803528 0.147797
0.745514 0.799713 0.175262
0.769958 0.800720 0.201050
0.793793 0.801300 0.215302
0.813904 0.798553 0.225342
0.833496 0.801483 0.235596
0.847107 0.801331 0.239868
0.861694 0.802948 0.243042
0.871643 0.804016 0.247040
0.881958 0.805817 0.250122
0.889709 0.807037 0.251068
0.895935 0.808044 0.252625
0.149780 0.711517 0.185822
0.154968 0.711609 0.185608
0.161713 0.711731 0.185333
0.169250 0.712280 0.185303
0.178589 0.712860 0.185059
0.188629 0.714050 0.185181
0.202087 0.715820 0.185486
0.216766 0.718781 0.185791
0.233673 0.721954 0.189453
0.257385 0.727875 0.196716
0.290039 0.749084 0.187286
0.329529 0.780182 0.156097
0.377319 0.794373 0.133209
0.434448 0.795227 0.116974
0.492645 0.790253 0.105469
0.542664 0.792725 0.105865
0.588959 0.797516 0.109802
0.634247 0.800903 0.111511
0.671570 0.809418 0.120544
0.702606 0.816040 0.136383
0.725830 0.818237 0.162781
0.747559 0.815887 0.187164
0.769958 0.815613 0.207367
0.793884 0.819550 0.223358
0.813080 0.819489 0.233307
0.833771 0.819763 0.239746
0.850189 0.822205 0.246674
0.864288 0.822205 0.249268
0.874756 0.822784 0.251953
0.885559 0.824829 0.254272
0.893463 0.825867 0.255463
0.899689 0.826813 0.257629
0.155273 0.729248 0.191681
0.160492 0.729401 0.191345
0.167297 0.729675 0.191315
0.174805 0.730225 0.191254
0.184082 0.731537 0.191101
0.194153 0.733032 0.191895
0.207489 0.735474 0.193970
0.223175 0.738098 0.198669
0.240356 0.741669 0.203247
0.263580 0.746674 0.210388
0.297760 0.763123 0.205322
0.337891 0.795746 0.173187
0.383911 0.812134 0.150238
0.440918 0.818939 0.134583
0.503143 0.817230 0.126678
0.554047 0.818146 0.128601
0.597870 0.821838 0.133820
