滤镜资源/Professional Luts Collection/Triune-Digital-Cinematic-LUTs/3D LUTs (CUBE)/REDLOGFILM/Star Wars The Force Awakens - REDlogFilm.cube
#Created by Benjamin (IWLTBAP) : http://luts.iwltbap.com
#Copyright: (C) Copyright 2016 Triune Films and IWLTBAP
TITLE "Blockbuster LUTs Pack (REDlogFilm)"
#LUT size
LUT_3D_SIZE 5
#LUT data points
DOMAIN_MIN 0.000000 0.000000 0.000000
DOMAIN_MAX 0.903226 0.903226 0.903226
0.011169 0.003052 0.002136
0.097046 0.022644 0.011444
0.331055 0.056427 0.035583
0.638824 0.148254 0.095123
0.771210 0.195312 0.113251
0.021820 0.094208 0.016510
0.096710 0.098541 0.014435
0.308929 0.135040 0.043762
0.639954 0.224670 0.097870
0.782562 0.276001 0.117126
0.023438 0.315247 0.051605
0.089111 0.329437 0.031250
0.372437 0.340729 0.049591
0.667206 0.411896 0.102020
0.807220 0.505005 0.188843
0.094299 0.593903 0.145386
0.163147 0.609253 0.131592
0.447662 0.603943 0.074707
0.743988 0.707123 0.116486
0.858734 0.705627 0.212616
0.161743 0.745453 0.198029
0.228851 0.754425 0.207428
0.511139 0.840027 0.143402
0.751129 0.842743 0.207611
0.882507 0.857361 0.259277
0.023926 0.020020 0.077393
0.107666 0.026581 0.080292
0.344452 0.061218 0.097809
0.656525 0.152161 0.144318
0.774048 0.196411 0.162323
0.028748 0.106079 0.087219
0.094299 0.110626 0.100677
0.338898 0.125366 0.094482
0.655853 0.217194 0.146698
0.784882 0.277649 0.170349
0.027344 0.321350 0.123016
0.090515 0.332977 0.117432
0.381897 0.355652 0.109070
0.688599 0.451355 0.188324
0.792969 0.518036 0.294891
0.095306 0.591400 0.208618
0.156403 0.601929 0.206238
0.453491 0.635590 0.133972
0.733704 0.697388 0.201721
0.854248 0.703186 0.283661
0.165466 0.749084 0.255890
0.229889 0.756256 0.266205
0.492676 0.811035 0.264191
0.748688 0.835571 0.277008
0.881195 0.855133 0.326111
0.052246 0.098541 0.282013
0.119934 0.077240 0.289062
0.335846 0.082245 0.268951
0.684296 0.188385 0.297882
0.779602 0.246338 0.351379
0.043457 0.178040 0.278168
0.109680 0.183197 0.292999
0.347961 0.161682 0.274811
0.686493 0.272583 0.329773
0.794067 0.329742 0.374573
0.055328 0.353516 0.321350
0.113037 0.364807 0.326294
0.340729 0.381805 0.352875
0.705444 0.487610 0.425995
0.843079 0.533264 0.451752
0.137451 0.636963 0.400696
0.188843 0.636688 0.386749
0.407349 0.663788 0.421417
0.755676 0.724243 0.434418
0.880829 0.750092 0.477478
0.200409 0.783142 0.433838
0.258881 0.785217 0.434204
0.461212 0.817627 0.481720
0.772705 0.869812 0.466766
0.900909 0.882477 0.513306
0.125336 0.153290 0.527710
0.185791 0.116180 0.544403
0.343597 0.122101 0.525482
0.676941 0.255280 0.529266
0.818359 0.316193 0.593414
0.104431 0.251831 0.495575
0.174927 0.223145 0.541992
0.372681 0.198883 0.557159
0.680237 0.329041 0.550507
0.822815 0.385284 0.603973
0.131012 0.446381 0.534943
0.185760 0.455170 0.547607
0.381927 0.459625 0.594666
0.731171 0.524750 0.616455
0.871490 0.566498 0.645660
0.198761 0.687927 0.618988
0.261353 0.696808 0.622742
0.436584 0.725891 0.644775
0.772888 0.781860 0.692108
0.909790 0.826874 0.732056
0.280914 0.835419 0.679352
0.347870 0.844360 0.682312
0.502899 0.881073 0.712952
0.797150 0.922852 0.732910
0.929230 0.943573 0.739014
0.164062 0.195587 0.676697
0.229736 0.156860 0.703613
0.424744 0.183197 0.676514
0.738312 0.307892 0.688477
0.867523 0.355591 0.734619
0.154785 0.287323 0.658752
0.208435 0.275726 0.672424
0.437531 0.272888 0.697174
0.739014 0.375275 0.696136
0.870361 0.426300 0.745697
0.177551 0.506805 0.682068
0.238312 0.517090 0.692810
0.448486 0.527985 0.723541
0.765045 0.548187 0.749634
0.892731 0.609497 0.785614
0.260925 0.729523 0.747375
0.327179 0.737091 0.750824
0.484528 0.765076 0.771606
0.797150 0.822540 0.830109
0.934540 0.855225 0.851471
0.324188 0.864960 0.799438
0.385498 0.872772 0.804138
0.534729 0.905853 0.830139
0.800232 0.956909 0.879578
0.951324 0.970978 0.881866
