滤镜资源/Professional Luts Collection/Triune-Digital-Cinematic-LUTs/3D LUTs (CUBE)/REDLOGFILM/Star Wars The Force Awakens - REDlogFilm.cube
#Created by Benjamin (IWLTBAP) : http://luts.iwltbap.com
#Copyright: (C) Copyright 2016 Triune Films and IWLTBAP
TITLE "Blockbuster LUTs Pack (REDlogFilm)"
#LUT size
LUT_3D_SIZE 8
#LUT data points
DOMAIN_MIN 0.000000 0.000000 0.000000
DOMAIN_MAX 0.903226 0.903226 0.903226
0.011169 0.003052 0.002136
0.049255 0.010742 0.006042
0.118591 0.028778 0.014343
0.248718 0.044678 0.023987
0.437714 0.085175 0.056549
0.609192 0.139801 0.090942
0.707123 0.169281 0.103729
0.771210 0.195312 0.113251
0.015442 0.044525 0.007599
0.045532 0.046936 0.010803
0.113464 0.059875 0.016998
0.238129 0.084045 0.034973
0.435333 0.112091 0.056976
0.610596 0.169403 0.091949
0.710480 0.204651 0.105347
0.768951 0.228851 0.114410
0.025726 0.115662 0.021149
0.052399 0.118134 0.020721
0.119415 0.119873 0.017059
0.249603 0.138092 0.029480
0.385040 0.172516 0.059998
0.591705 0.231445 0.097321
0.720276 0.274933 0.108673
0.792053 0.299744 0.118988
0.029327 0.240082 0.042175
0.057587 0.243591 0.038116
0.104523 0.255646 0.027100
0.261169 0.253876 0.031952
0.429443 0.285797 0.058960
0.604706 0.337524 0.108582
0.744598 0.389038 0.127319
0.801178 0.432678 0.157440
0.035736 0.393280 0.074646
0.068237 0.395844 0.070404
0.124054 0.416199 0.047302
0.287476 0.410767 0.046387
0.494507 0.435699 0.072723
0.652588 0.474670 0.099792
0.777374 0.534760 0.117706
0.848328 0.569366 0.148407
0.085938 0.560669 0.132904
0.113007 0.563782 0.129456
0.170532 0.588318 0.093658
0.329407 0.568207 0.071289
0.522522 0.590363 0.074799
0.701172 0.657074 0.098877
0.808777 0.680939 0.150360
0.855499 0.680542 0.201599
0.126282 0.670654 0.172302
0.156006 0.673553 0.172272
0.219391 0.686584 0.168457
0.362152 0.735291 0.102203
0.569305 0.733124 0.085205
0.721527 0.784271 0.129730
0.814453 0.778046 0.217896
0.867889 0.782562 0.241455
0.161743 0.745453 0.198029
0.188416 0.747711 0.198120
0.246460 0.757019 0.213409
0.389465 0.823669 0.167175
0.606079 0.838745 0.149994
0.728455 0.842285 0.192230
0.814667 0.851379 0.243713
0.882507 0.857361 0.259277
0.015259 0.006409 0.033478
0.050354 0.012878 0.037170
0.124847 0.024353 0.042053
0.251495 0.044678 0.053436
0.440430 0.084595 0.080322
0.617920 0.141724 0.114288
0.709564 0.167816 0.125336
0.773560 0.191956 0.133942
0.017181 0.048370 0.036865
0.046204 0.046509 0.040466
0.121887 0.060394 0.042786
0.251923 0.077179 0.054108
0.438141 0.109650 0.080231
0.615662 0.169128 0.114990
0.715088 0.201630 0.127319
0.772034 0.226227 0.136292
0.027740 0.118225 0.050079
0.054901 0.122040 0.051178
0.118469 0.123871 0.050812
0.242004 0.138519 0.064850
0.387909 0.169556 0.084442
0.613281 0.229187 0.116333
0.725372 0.271851 0.130981
0.792450 0.298431 0.142242
0.029755 0.241943 0.070038
0.059357 0.244995 0.070770
0.101715 0.257965 0.060272
0.259918 0.257538 0.058960
0.441620 0.289978 0.087006
0.608368 0.340546 0.132599
0.738861 0.392944 0.151703
0.790894 0.437622 0.191437
0.038757 0.394501 0.104523
0.071716 0.399597 0.102295
0.128540 0.421936 0.080322
0.279297 0.427673 0.076508
0.508911 0.446259 0.101624
0.670197 0.485596 0.125488
0.779358 0.537872 0.146454
0.835358 0.564087 0.205231
0.086304 0.559631 0.160431
0.111969 0.561340 0.158783
0.165314 0.577423 0.147369
0.321350 0.585876 0.098145
0.534698 0.604736 0.102325
0.699890 0.659027 0.126129
0.803345 0.676666 0.190247
0.852692 0.678192 0.234924
0.128723 0.672424 0.199341
0.156830 0.674103 0.199432
0.216919 0.683777 0.198486
0.353058 0.740662 0.139252
0.573303 0.738556 0.112823
0.717224 0.780548 0.168518
0.812500 0.775208 0.249939
0.866852 0.781128 0.271820
0.163147 0.747040 0.224579
0.189240 0.748566 0.224976
0.247314 0.757935 0.240631
0.382416 0.800629 0.230469
0.605682 0.835968 0.189423
0.726532 0.837646 0.225861
0.813965 0.849426 0.273315
0.881500 0.855927 0.289581
0.027985 0.028442 0.097076
0.057098 0.023987 0.102173
0.131012 0.032288 0.098572
0.263031 0.047913 0.102448
0.458771 0.092712 0.125488
0.635437 0.146484 0.152283
0.716034 0.169495 0.162445
0.774506 0.199432 0.175262
0.029419 0.067474 0.097473
0.058197 0.060913 0.107117
0.130798 0.069946 0.104065
0.265991 0.073792 0.098480
0.458862 0.115479 0.125610
0.635406 0.173523 0.153595
0.723297 0.202820 0.165344
0.773376 0.230957 0.178894
0.034302 0.130646 0.109314
0.061279 0.133423 0.115082
0.114685 0.138245 0.126068
0.265228 0.139435 0.103729
0.449890 0.159241 0.123596
0.626129 0.221802 0.155273
0.733459 0.266418 0.169586
0.792175 0.301300 0.187775
0.033356 0.252625 0.135986
0.060730 0.253967 0.129333
0.101990 0.262573 0.123260
0.266998 0.261353 0.104736
0.456848 0.299133 0.156036
0.612854 0.359436 0.201660
0.712311 0.414429 0.249603
0.787445 0.453217 0.281586
0.043030 0.399323 0.164429
0.075317 0.402679 0.158508
0.129242 0.426544 0.153839
0.270660 0.463379 0.129242
0.521149 0.462799 0.147095
0.694672 0.506653 0.170135
0.774628 0.555878 0.263000
0.818024 0.580139 0.324768
0.084961 0.549255 0.211395
0.110657 0.558380 0.210022
0.160309 0.573578 0.208832
0.301422 0.607941 0.170227
0.558838 0.633911 0.146423
0.709778 0.672699 0.188904
0.794128 0.667969 0.260010
0.849091 0.677063 0.291595
0.128204 0.671051 0.246979
0.159363 0.677094 0.247192
0.216187 0.685211 0.249268
0.343964 0.726654 0.235077
0.584778 0.758392 0.165771
0.712799 0.771790 0.237518
0.810150 0.773254 0.303741
0.864929 0.781738 0.323669
0.166321 0.749786 0.269165
0.192566 0.751740 0.270874
0.248383 0.760101 0.286285
0.366058 0.783356 0.317627
0.602753 0.828918 0.257202
0.724854 0.831482 0.281769
0.814301 0.848267 0.322510
0.881256 0.855530 0.340790
0.049469 0.066711 0.213348
0.076965 0.055420 0.216431
0.131592 0.059509 0.218079
0.254578 0.058899 0.207916
0.471832 0.100525 0.203186
0.657349 0.154633 0.216156
0.727142 0.189575 0.239685
0.778625 0.226898 0.268982
0.049713 0.111359 0.212677
0.074585 0.100281 0.219177
0.125427 0.090515 0.229828
0.260712 0.087433 0.210297
0.492035 0.133301 0.206604
0.662567 0.192444 0.227570
0.734314 0.229156 0.249146
0.779541 0.258911 0.274414
0.046143 0.168518 0.211761
0.072968 0.172302 0.221008
0.116394 0.169617 0.241394
0.275055 0.170959 0.223999
0.492218 0.180908 0.214569
0.653534 0.254547 0.249512
0.748840 0.304840 0.275238
0.794708 0.330109 0.304962
0.038208 0.271545 0.240021
0.063416 0.275726 0.241486
0.107208 0.280640 0.253845
0.223083 0.287750 0.264069
0.495483 0.330261 0.268707
0.652557 0.370636 0.309967
0.754761 0.422729 0.334869
0.820923 0.451782 0.358032
0.066254 0.424622 0.291290
0.090790 0.425385 0.285919
0.132751 0.434265 0.278320
0.233185 0.465729 0.287109
0.527100 0.506287 0.244141
0.671173 0.550812 0.375916
0.765167 0.585358 0.410492
0.822784 0.603699 0.430969
0.102997 0.580475 0.316162
0.126953 0.582153 0.311066
0.168945 0.585754 0.305817
0.286072 0.610199 0.331360
0.560791 0.686981 0.284576
0.715820 0.671448 0.339905
0.803131 0.679932 0.368896
0.857910 0.694885 0.388428
0.147308 0.684235 0.337708
0.171967 0.683258 0.333954
0.213989 0.684021 0.328674
0.320465 0.717316 0.368713
0.571930 0.755341 0.342743
0.727295 0.783234 0.363434
0.816071 0.781372 0.389557
0.873688 0.794769 0.413116
0.180847 0.765228 0.359406
0.206360 0.764709 0.359772
0.251709 0.767090 0.364807
0.368988 0.800812 0.408081
0.588715 0.824524 0.386536
0.739044 0.844940 0.385742
0.821136 0.857910 0.411743
0.885986 0.864136 0.435150
0.070953 0.128174 0.348206
0.101654 0.086029 0.360779
0.150726 0.092834 0.358795
0.250580 0.098206 0.353790
0.414276 0.111816 0.327118
0.604584 0.181763 0.351074
0.727661 0.234772 0.388733
0.790131 0.267914 0.418152
0.062683 0.170044 0.342773
0.097137 0.159027 0.353088
0.153168 0.118744 0.372467
0.244019 0.125580 0.369019
0.422668 0.147797 0.330444
0.619354 0.218201 0.358337
0.739502 0.275238 0.404022
0.794678 0.300507 0.425659
0.058319 0.221497 0.344696
0.083679 0.224091 0.347931
0.139648 0.219238 0.365112
0.247833 0.170685 0.401276
0.450714 0.223694 0.340363
0.652710 0.288239 0.383301
0.763092 0.347565 0.432556
0.815582 0.370453 0.451569
0.063477 0.309814 0.362305
0.087769 0.312775 0.364838
0.130371 0.319427 0.371704
0.228333 0.318176 0.417847
0.493835 0.364166 0.411499
0.676392 0.405426 0.440277
0.779053 0.457458 0.476929
0.842651 0.481110 0.492676
0.097443 0.458771 0.407166
0.122162 0.464203 0.408539
0.165802 0.474426 0.415192
0.243835 0.491516 0.441925
0.502716 0.512909 0.462158
0.678864 0.576477 0.503693
0.799683 0.596039 0.530914
0.864746 0.617798 0.544373
0.147827 0.630371 0.462433
0.173370 0.633575 0.463684
0.220184 0.640869 0.467834
0.294495 0.649506 0.471069
0.511108 0.656830 0.499176
0.725403 0.714325 0.500366
0.817139 0.736969 0.559448
0.871918 0.764557 0.593994
0.194946 0.734039 0.502930
0.218628 0.732758 0.497711
0.260803 0.733948 0.491364
0.339294 0.745148 0.488800
0.574432 0.774017 0.522949
0.739532 0.811340 0.531189
0.838409 0.825195 0.544220
0.903870 0.840851 0.575348
0.226044 0.804077 0.522095
0.251465 0.804077 0.517212
0.297760 0.807648 0.510315
0.377747 0.815857 0.520660
0.589874 0.850342 0.551178
0.752350 0.883057 0.550171
0.843170 0.902222 0.570221
0.914490 0.903290 0.589050
0.115936 0.149933 0.493530
0.144012 0.116638 0.509186
0.190338 0.110748 0.508759
0.271515 0.114136 0.496277
0.420044 0.131836 0.474396
0.636688 0.230530 0.482849
0.743958 0.278168 0.534851
0.811523 0.306793 0.565216
0.106079 0.195526 0.478851
0.138885 0.179565 0.499054
0.189240 0.136200 0.521973
0.278503 0.141083 0.510651
0.429413 0.168304 0.484741
0.637115 0.263092 0.490387
0.745422 0.309784 0.541046
0.813385 0.338135 0.569550
0.094208 0.261017 0.465637
0.123138 0.255219 0.477661
0.179169 0.234955 0.514709
0.288422 0.192352 0.547546
0.461731 0.237823 0.509460
0.643005 0.321686 0.513000
0.752106 0.367584 0.555664
0.820007 0.393890 0.576752
0.108215 0.361206 0.485779
0.131958 0.361969 0.490692
0.172394 0.360687 0.502441
0.255676 0.349762 0.538879
0.508331 0.373993 0.564270
0.675232 0.435913 0.559723
0.769989 0.464783 0.577667
0.852722 0.497223 0.600098
0.133362 0.511200 0.527191
0.158112 0.516174 0.530579
0.201202 0.525330 0.539886
0.283752 0.541962 0.564514
0.524078 0.559692 0.609100
0.721924 0.610413 0.621552
0.823334 0.621674 0.638641
0.893890 0.644867 0.658905
0.176636 0.651489 0.579041
0.202942 0.654449 0.580750
0.250549 0.662903 0.586975
0.344910 0.682587 0.600586
0.530487 0.713745 0.642059
0.737427 0.738861 0.652649
0.828278 0.772278 0.679932
0.902771 0.793304 0.701691
0.230255 0.760925 0.626312
0.260162 0.764771 0.626190
0.313141 0.772522 0.628845
0.402435 0.787750 0.641235
0.549805 0.822144 0.674561
0.751678 0.833496 0.676758
0.848083 0.864471 0.686493
0.919556 0.879944 0.717743
0.273499 0.832245 0.655823
0.303833 0.835266 0.656525
0.355652 0.842987 0.660797
0.440430 0.860291 0.673676
0.578156 0.891663 0.689514
0.768555 0.912109 0.700256
0.864685 0.930969 0.701599
0.926971 0.936737 0.711853
0.146332 0.171906 0.607422
0.174957 0.150513 0.621552
0.220032 0.134430 0.626434
0.307800 0.132660 0.602051
0.492889 0.173615 0.592804
0.677063 0.266876 0.606445
0.781830 0.315826 0.641907
0.841522 0.338867 0.666199
0.139099 0.210938 0.596771
0.167511 0.202271 0.611603
0.217590 0.160583 0.636353
0.311432 0.164246 0.619690
0.493622 0.208588 0.601044
0.674988 0.298920 0.611084
0.782043 0.347321 0.645416
0.842072 0.369934 0.669556
0.129547 0.286896 0.578369
0.155487 0.273956 0.592499
0.204376 0.262787 0.619263
0.328461 0.240295 0.653290
0.511017 0.283936 0.622864
0.677002 0.355225 0.621948
0.784943 0.401093 0.654358
0.845337 0.423035 0.677856
0.144409 0.403198 0.593719
0.168304 0.402863 0.600616
0.208557 0.398193 0.613312
0.294952 0.396545 0.632080
0.544342 0.412018 0.673767
0.705627 0.459564 0.653076
0.799469 0.492676 0.678741
0.859528 0.514893 0.698242
0.165894 0.548798 0.631714
0.191803 0.553833 0.635895
0.240265 0.564209 0.644165
0.333832 0.579590 0.658386
0.546692 0.592804 0.701019
0.735962 0.606049 0.705048
0.829010 0.641113 0.723633
0.888458 0.662964 0.732697
0.214600 0.680725 0.676422
0.243530 0.684967 0.678741
0.295258 0.692963 0.683044
0.387177 0.704651 0.689209
0.558990 0.739838 0.728638
0.758911 0.768890 0.750946
0.853485 0.797852 0.769196
0.918121 0.817322 0.786224
0.264435 0.779114 0.711853
0.293488 0.781525 0.711304
0.345245 0.787781 0.712616
0.431610 0.803131 0.725281
0.575745 0.843750 0.763885
0.750916 0.876801 0.797333
0.863281 0.889404 0.794037
0.932159 0.904572 0.810822
0.301880 0.847412 0.740967
0.330933 0.850555 0.741669
0.381042 0.858521 0.745880
0.464417 0.878082 0.761719
0.583771 0.912140 0.790863
0.755737 0.943054 0.820648
0.875183 0.945953 0.813141
0.944092 0.957397 0.820374
0.164062 0.195587 0.676697
0.193756 0.184357 0.689423
0.242035 0.154907 0.704041
0.339294 0.160736 0.676849
0.546844 0.224457 0.673065
0.710815 0.295685 0.681702
0.805817 0.332581 0.708649
0.867523 0.355591 0.734619
0.157440 0.232880 0.666504
0.183228 0.229889 0.675140
0.244263 0.201477 0.705078
0.347504 0.203430 0.694244
0.548157 0.262177 0.680450
0.710419 0.326904 0.684845
0.806610 0.363831 0.712097
0.868683 0.387512 0.739380
0.156525 0.311859 0.659088
0.177948 0.300446 0.665314
0.222565 0.297363 0.673645
0.359070 0.280579 0.717346
0.552246 0.325500 0.698334
0.712372 0.379547 0.693054
0.808716 0.416046 0.720551
0.871490 0.442444 0.748566
0.167084 0.432434 0.666382
0.192352 0.432800 0.673553
0.238892 0.432953 0.682861
0.339203 0.436829 0.698059
0.564972 0.431824 0.749908
0.725861 0.468536 0.720093
0.819183 0.504883 0.741608
0.884247 0.535400 0.771240
0.197296 0.576813 0.702545
0.226074 0.582611 0.706116
0.277649 0.592499 0.711487
0.373688 0.602386 0.719818
0.570892 0.621460 0.767670
0.752502 0.620575 0.769897
0.844849 0.657104 0.783936
0.909180 0.684418 0.805939
0.248688 0.703339 0.738983
0.278503 0.706909 0.740967
0.330109 0.713440 0.744354
0.417725 0.726807 0.751007
0.575470 0.763123 0.789764
0.765167 0.785492 0.812286
0.864624 0.806122 0.830322
0.931274 0.827332 0.843140
0.294281 0.797333 0.771210
0.323822 0.801147 0.772766
0.373871 0.808624 0.776978
0.454773 0.824188 0.790619
0.592560 0.860321 0.820770
0.760437 0.893280 0.853149
0.875183 0.905579 0.859985
0.942810 0.916077 0.865417
0.324188 0.864960 0.799438
0.351898 0.868164 0.801453
0.399506 0.875214 0.805725
0.480591 0.892609 0.819092
0.601837 0.922455 0.843781
0.766479 0.953003 0.874420
0.882660 0.963501 0.885345
0.951324 0.970978 0.881866
