滤镜资源/Professional Luts Collection/Triune-Digital-Cinematic-LUTs/3D LUTs (CUBE)/REDLOGFILM/Suicide Squad - REDlogFilm.cube
#Created by Benjamin (IWLTBAP) : http://luts.iwltbap.com
#Copyright: (C) Copyright 2016 Triune Films and IWLTBAP
TITLE "Blockbuster LUTs Pack (REDlogFilm)"
#LUT size
LUT_3D_SIZE 8
#LUT data points
DOMAIN_MIN 0.000000 0.000000 0.000000
DOMAIN_MAX 0.903226 0.903226 0.903226
0.012268 0.022888 0.024628
0.016937 0.024475 0.025635
0.064209 0.042023 0.044128
0.225494 0.093750 0.083466
0.448212 0.150146 0.121552
0.622925 0.225494 0.193390
0.756042 0.288910 0.252350
0.858276 0.322784 0.281830
0.015320 0.058472 0.029266
0.019592 0.059784 0.033752
0.073608 0.074554 0.058502
0.236725 0.116516 0.091644
0.459625 0.170288 0.131805
0.633118 0.244904 0.202972
0.764496 0.305145 0.259583
0.871185 0.338562 0.288147
0.023285 0.144836 0.066406
0.031830 0.153534 0.071564
0.088409 0.152130 0.082977
0.274139 0.171234 0.097839
0.478912 0.230469 0.155914
0.658997 0.293488 0.223175
0.797150 0.346069 0.275482
0.905731 0.376923 0.303589
0.049744 0.285706 0.112610
0.065491 0.296661 0.114838
0.134094 0.300903 0.129608
0.304169 0.292389 0.155853
0.543213 0.323761 0.202820
0.724976 0.387207 0.270569
0.874176 0.436676 0.314514
0.943604 0.471527 0.340454
0.090668 0.449493 0.168671
0.108582 0.462860 0.170532
0.194885 0.473633 0.193237
0.357666 0.467316 0.235291
0.570374 0.504333 0.283722
0.778564 0.517639 0.326721
0.908630 0.556702 0.360870
0.939331 0.584351 0.378876
0.148193 0.619965 0.229584
0.180634 0.626007 0.238190
0.269379 0.630188 0.259796
0.405640 0.627167 0.297333
0.571960 0.678101 0.358795
0.750244 0.717682 0.403595
0.900543 0.706238 0.419952
0.925507 0.701813 0.425720
0.181519 0.712708 0.273102
0.217712 0.719543 0.281677
0.302673 0.724060 0.302185
0.428864 0.742126 0.344299
0.581604 0.788696 0.398376
0.758728 0.827820 0.458038
0.875214 0.857819 0.489044
0.913910 0.838593 0.487244
0.227020 0.826233 0.323242
0.262360 0.828339 0.330902
0.327850 0.830750 0.346100
0.442017 0.857452 0.384827
0.601013 0.885925 0.442719
0.767761 0.898499 0.490540
0.876190 0.920380 0.522461
0.909912 0.929474 0.533997
0.011536 0.025879 0.048431
0.017426 0.027313 0.053040
0.072723 0.046906 0.069275
0.230225 0.087616 0.097565
0.454041 0.150482 0.131256
0.626923 0.226868 0.201874
0.754486 0.289429 0.260651
0.859100 0.323853 0.289642
0.012695 0.056000 0.059052
0.017853 0.058685 0.061707
0.070129 0.075989 0.077026
0.237823 0.123444 0.111572
0.472382 0.180939 0.144470
0.642975 0.251282 0.212585
0.767822 0.308167 0.268524
0.874969 0.341278 0.296722
0.020721 0.146637 0.088104
0.027283 0.150024 0.090271
0.083618 0.151733 0.101959
0.269501 0.175079 0.122284
0.491760 0.233093 0.165253
0.663422 0.294678 0.229889
0.797821 0.346863 0.282379
0.906311 0.377350 0.310059
0.049957 0.284241 0.123596
0.065155 0.291046 0.129364
0.127838 0.304413 0.138458
0.306549 0.295166 0.163422
0.548553 0.327667 0.209686
0.723114 0.389496 0.274872
0.872253 0.438660 0.319183
0.941162 0.472961 0.344238
0.092773 0.447662 0.177429
0.109406 0.459106 0.178894
0.191986 0.480469 0.198456
0.358856 0.468536 0.243286
0.571411 0.508209 0.289581
0.782471 0.521973 0.332214
0.911346 0.560669 0.365784
0.939331 0.587189 0.382660
0.148285 0.619812 0.233795
0.178162 0.625885 0.241119
0.265076 0.631134 0.262604
0.404785 0.628357 0.303650
0.573425 0.681183 0.363220
0.751282 0.721130 0.408569
0.900818 0.708069 0.423798
0.925873 0.703613 0.429718
0.180939 0.712769 0.278656
0.216492 0.718475 0.285583
0.299591 0.724030 0.304749
0.427734 0.736481 0.348297
0.583130 0.792206 0.402985
0.760864 0.829590 0.462219
0.875153 0.856750 0.491577
0.914703 0.838348 0.490479
0.228851 0.837250 0.330231
0.264435 0.835938 0.336639
0.327606 0.837036 0.350922
0.438843 0.848907 0.383209
0.600494 0.886841 0.445953
0.768494 0.899078 0.494019
0.875427 0.918671 0.524536
0.910614 0.928406 0.536743
0.014099 0.055145 0.112762
0.019897 0.055939 0.113098
0.071808 0.066498 0.122040
0.253143 0.102844 0.141205
0.491180 0.163879 0.161285
0.647156 0.236725 0.224243
0.769409 0.295044 0.278992
0.871857 0.327118 0.304901
0.014679 0.081451 0.117218
0.020203 0.085785 0.122009
0.072540 0.094879 0.129395
0.259399 0.129242 0.149872
0.504181 0.186798 0.172333
0.658142 0.257477 0.235626
0.776855 0.311707 0.286499
0.880707 0.342499 0.312225
0.018707 0.141327 0.133331
0.023987 0.144073 0.136932
0.065399 0.149414 0.143677
0.251404 0.180573 0.166718
0.511719 0.232635 0.184845
0.667847 0.290955 0.247589
0.796906 0.345001 0.298126
0.907440 0.375946 0.324677
0.039215 0.298035 0.166260
0.050995 0.294525 0.162872
0.095764 0.302765 0.165833
0.300110 0.299347 0.191864
0.546967 0.335480 0.220612
0.710144 0.394165 0.281189
0.853485 0.438568 0.324524
0.932007 0.470337 0.349823
0.091248 0.446960 0.199707
0.104492 0.444397 0.198700
0.171204 0.492798 0.209045
0.356293 0.475403 0.263672
0.567261 0.520050 0.304626
0.776550 0.529724 0.341583
0.903900 0.566071 0.372864
0.939270 0.594269 0.392395
0.128876 0.571411 0.243134
0.154449 0.604187 0.252136
0.244141 0.635162 0.268494
0.399078 0.632568 0.319122
0.572357 0.685272 0.370758
0.750244 0.726196 0.417664
0.900269 0.709808 0.431244
0.926666 0.705597 0.437378
0.161255 0.695129 0.289459
0.194366 0.705841 0.298340
0.284637 0.728119 0.314667
0.424835 0.734802 0.360168
0.581512 0.791687 0.417480
0.764160 0.832428 0.470642
0.875610 0.854767 0.497253
0.915985 0.838013 0.497314
0.213898 0.809875 0.333130
0.236816 0.826233 0.337799
0.320374 0.874573 0.369171
0.436951 0.868225 0.394958
0.594421 0.884735 0.449860
0.767883 0.900543 0.500671
0.875488 0.917297 0.530579
0.911987 0.925537 0.542145
0.017059 0.090118 0.191101
0.022675 0.092926 0.192780
0.046143 0.100494 0.201721
0.260925 0.126740 0.213287
0.529846 0.196503 0.227783
0.700348 0.273682 0.288269
0.843414 0.319977 0.325226
0.928406 0.344849 0.341736
0.017120 0.117004 0.192139
0.023743 0.120758 0.195587
0.048553 0.128448 0.206329
0.264069 0.152740 0.220856
0.542938 0.220551 0.237823
0.710876 0.293304 0.298004
0.852234 0.336487 0.332306
0.934662 0.361328 0.350525
0.020569 0.164429 0.196228
0.026550 0.169708 0.202087
0.050232 0.179962 0.214539
0.254578 0.198822 0.237518
0.550232 0.263428 0.257233
0.714355 0.326172 0.312531
0.859650 0.367615 0.347382
0.944214 0.391846 0.367004
0.031281 0.272369 0.225861
0.044830 0.279083 0.231506
0.067444 0.287567 0.240356
0.164124 0.304077 0.270172
0.517395 0.351685 0.306793
0.706055 0.399963 0.343628
0.857147 0.434967 0.378510
0.940399 0.462799 0.401917
0.098602 0.497284 0.296417
0.106171 0.493835 0.292542
0.118439 0.482605 0.282227
0.257202 0.498230 0.295013
0.553284 0.536987 0.351562
0.754944 0.550110 0.391479
0.889648 0.590546 0.431580
0.944061 0.618500 0.454681
0.124298 0.612793 0.319580
0.129089 0.607269 0.315826
0.137634 0.597168 0.306427
0.353790 0.648651 0.345703
0.553925 0.675049 0.421173
0.744049 0.732910 0.461334
0.893951 0.718536 0.474060
0.930023 0.718170 0.475677
0.140289 0.682831 0.348175
0.144318 0.674286 0.342651
0.164154 0.687164 0.335602
0.392853 0.756744 0.386719
0.567291 0.777954 0.459869
0.755157 0.826477 0.517792
0.877167 0.855164 0.531372
0.918488 0.838898 0.513428
0.183197 0.820404 0.380005
0.201752 0.816101 0.377625
0.250336 0.813660 0.378510
0.406067 0.900940 0.430084
0.583435 0.884827 0.488220
0.759186 0.894562 0.552551
0.880524 0.914673 0.581238
0.916565 0.923065 0.569397
0.025848 0.140320 0.287598
0.038208 0.142212 0.289917
0.068604 0.146332 0.295197
0.167603 0.172180 0.332733
0.532959 0.232269 0.325867
0.737823 0.304138 0.363281
0.867249 0.342529 0.394806
0.944031 0.370636 0.416534
0.027802 0.165558 0.288239
0.043274 0.168640 0.291321
0.071533 0.172211 0.296356
0.158051 0.195892 0.334106
0.539703 0.256470 0.331909
0.742126 0.322784 0.370026
0.875153 0.361420 0.403259
0.948639 0.389008 0.426056
0.038177 0.210114 0.290588
0.054901 0.214386 0.295013
0.076782 0.223114 0.303864
0.141327 0.237671 0.334015
0.540527 0.298157 0.348694
0.743469 0.356232 0.384003
0.880035 0.396545 0.420563
0.953491 0.423981 0.446472
0.053864 0.296051 0.301514
0.072815 0.303009 0.309479
0.100311 0.312347 0.321472
0.157288 0.328735 0.352478
0.520538 0.373749 0.393402
0.736328 0.432831 0.426575
0.875061 0.468750 0.464569
0.945648 0.492462 0.487762
0.097748 0.445862 0.354553
0.110199 0.455994 0.365295
0.133881 0.466461 0.379822
0.181274 0.482910 0.407410
0.464386 0.518188 0.486694
0.678589 0.575165 0.533051
0.846771 0.607666 0.548462
0.931305 0.628235 0.562378
0.146454 0.650513 0.458801
0.158752 0.659393 0.464874
0.177765 0.667725 0.477722
0.208099 0.664398 0.471649
0.472809 0.666962 0.502533
0.719055 0.729065 0.555420
0.877686 0.740356 0.580872
0.945953 0.765198 0.597900
0.167267 0.769775 0.524597
0.173035 0.765656 0.507568
0.184998 0.755157 0.493591
0.221039 0.737732 0.481415
0.513824 0.788147 0.533234
0.724030 0.811554 0.595093
0.881683 0.858154 0.621552
0.945435 0.849182 0.624603
0.194031 0.850250 0.542145
0.201080 0.849396 0.531708
0.218353 0.850555 0.512054
0.253906 0.851685 0.500458
0.533844 0.904175 0.550751
0.749542 0.891022 0.614227
0.889069 0.911957 0.648438
0.945007 0.932587 0.654297
0.065948 0.185730 0.378479
0.079041 0.187317 0.380524
0.101959 0.188782 0.383484
0.158112 0.203888 0.410278
0.484833 0.250092 0.411957
0.740997 0.326630 0.424103
0.895111 0.371124 0.474487
0.948700 0.389130 0.492676
0.068878 0.208801 0.379761
0.082245 0.211945 0.383270
0.106018 0.213806 0.385620
0.161713 0.227722 0.411743
0.489136 0.274323 0.418640
0.746643 0.347656 0.432648
0.897095 0.390259 0.486389
0.950409 0.408081 0.504913
0.070435 0.249634 0.382172
0.087616 0.253357 0.388092
0.114288 0.259918 0.397552
0.168884 0.271851 0.417725
0.489563 0.314819 0.436005
0.744843 0.382385 0.454590
0.894562 0.422974 0.508636
0.949493 0.441620 0.529266
0.098206 0.328369 0.399994
0.113525 0.334595 0.408142
0.136658 0.340729 0.417938
0.183594 0.351044 0.439362
0.471222 0.388306 0.509796
0.720642 0.456024 0.521301
0.871735 0.494263 0.561951
0.933441 0.515045 0.582794
0.125061 0.456421 0.446808
0.138550 0.465332 0.458008
0.161224 0.476379 0.473755
0.206268 0.491699 0.500763
0.278809 0.531219 0.590607
0.670807 0.571686 0.603119
0.834717 0.625763 0.623535
0.924438 0.651764 0.638580
0.144531 0.610229 0.516022
0.153595 0.614502 0.521759
0.171967 0.621765 0.533173
0.210724 0.635101 0.556519
0.282837 0.668884 0.610352
0.666077 0.718170 0.637207
0.835724 0.757446 0.659851
0.927917 0.779846 0.671143
0.180237 0.730469 0.582153
0.187592 0.735901 0.587067
0.204193 0.745789 0.596497
0.241669 0.762512 0.614410
0.299469 0.787598 0.642303
0.658783 0.827881 0.648285
0.880676 0.856262 0.673828
0.960052 0.869690 0.685822
0.202637 0.819275 0.624603
0.211487 0.826202 0.630310
0.231964 0.837494 0.640778
0.264404 0.851166 0.654755
0.314270 0.861847 0.642334
0.681305 0.910339 0.645935
0.874847 0.908600 0.692963
0.959961 0.938995 0.698730
0.100098 0.216400 0.454773
0.113831 0.217957 0.456604
0.133972 0.219696 0.459473
0.182007 0.231567 0.479950
0.472351 0.278229 0.487549
0.703308 0.334961 0.488983
0.868347 0.379547 0.551147
0.937408 0.409668 0.601105
0.101288 0.240662 0.458130
0.115814 0.243378 0.461975
0.137085 0.245056 0.463776
0.184692 0.255341 0.482208
0.477966 0.301666 0.496277
0.702423 0.358978 0.507965
0.871094 0.403046 0.566315
0.939056 0.432404 0.616943
0.108154 0.281311 0.464081
0.122681 0.284454 0.469635
0.145142 0.289581 0.477631
0.190918 0.296509 0.490967
0.474182 0.336121 0.528442
0.690186 0.395355 0.547363
0.863129 0.440887 0.600616
0.939636 0.470947 0.645905
0.131104 0.354767 0.480652
0.144623 0.360413 0.488831
0.164124 0.363739 0.496216
0.206665 0.372650 0.516510
0.324799 0.400146 0.596924
0.663788 0.455170 0.605652
0.837524 0.503418 0.651337
0.929199 0.532715 0.685852
0.152924 0.481567 0.531067
0.164825 0.490295 0.542145
0.185150 0.499481 0.556366
0.222656 0.509430 0.574707
0.298431 0.537048 0.637848
0.624573 0.578949 0.692200
0.820831 0.617035 0.690979
0.930511 0.651733 0.703522
0.171509 0.613831 0.582153
0.181854 0.620575 0.589661
0.199829 0.628510 0.599457
0.234253 0.635529 0.611969
0.300507 0.658661 0.652100
0.596832 0.721283 0.712158
0.822357 0.747589 0.690369
0.935211 0.777832 0.702240
0.191010 0.719482 0.616943
0.197601 0.722748 0.620331
0.212402 0.729034 0.626984
0.248779 0.738007 0.639160
0.305328 0.755981 0.665436
0.583893 0.806488 0.724670
0.842407 0.850403 0.710480
0.934784 0.872345 0.725464
0.203339 0.789642 0.642822
0.209747 0.793610 0.646637
0.228851 0.800934 0.654297
0.265991 0.812439 0.667816
0.311737 0.831146 0.687927
0.532349 0.883453 0.750763
0.831970 0.925842 0.722321
0.951935 0.930969 0.738159
0.126251 0.238037 0.510956
0.138245 0.239532 0.512695
0.157013 0.241425 0.514557
0.199707 0.251038 0.531616
0.456360 0.292664 0.546509
0.659790 0.344635 0.573273
0.821411 0.389984 0.622040
0.914581 0.417419 0.661652
0.129028 0.262238 0.515411
0.141541 0.265015 0.519318
0.159515 0.266632 0.520966
0.202271 0.274475 0.534607
0.453339 0.315918 0.558838
0.658112 0.366913 0.588806
0.822754 0.412323 0.639099
0.919037 0.439911 0.676178
0.135620 0.303284 0.523560
0.147766 0.306274 0.528961
0.167267 0.310760 0.536469
0.206390 0.315582 0.544403
0.412659 0.353577 0.599884
0.653717 0.400635 0.614075
0.823730 0.448181 0.667297
0.925323 0.477173 0.700073
0.150421 0.373413 0.536041
0.161865 0.378815 0.544006
0.178680 0.380707 0.549744
0.219055 0.392426 0.573456
0.293671 0.414734 0.634918
0.645111 0.464294 0.685242
0.808411 0.503296 0.703949
0.915558 0.534760 0.728821
0.177643 0.500916 0.588104
0.190155 0.509613 0.598602
0.208893 0.518646 0.610840
0.241577 0.524292 0.623413
0.308075 0.543518 0.664032
0.563965 0.587402 0.746490
0.781982 0.617981 0.736877
0.908569 0.643341 0.742676
0.192017 0.626404 0.624054
0.200592 0.632568 0.629242
0.216675 0.639374 0.636566
0.248657 0.644836 0.646423
0.310242 0.661163 0.676727
0.527344 0.720062 0.766815
0.800110 0.756531 0.733978
0.912018 0.766113 0.736786
0.200806 0.718658 0.646118
0.207703 0.723206 0.650238
0.222412 0.729736 0.657196
0.259216 0.734497 0.666260
0.313263 0.745331 0.688690
0.523529 0.800964 0.772278
0.823181 0.851471 0.733551
0.934814 0.867554 0.738922
0.209259 0.784149 0.664246
0.218292 0.788818 0.668427
0.237152 0.795837 0.676025
0.271790 0.803192 0.686890
0.316986 0.812042 0.702545
0.482727 0.858826 0.779053
0.833008 0.905243 0.752747
0.949677 0.926056 0.756500
