滤镜资源/Professional Luts Collection/Triune-Digital-Cinematic-LUTs/3D LUTs (CUBE)/REDLOGFILM/Suicide Squad - REDlogFilm.cube
#Created by Benjamin (IWLTBAP) : http://luts.iwltbap.com
#Copyright: (C) Copyright 2016 Triune Films and IWLTBAP
TITLE "Blockbuster LUTs Pack (REDlogFilm)"
#LUT size
LUT_3D_SIZE 5
#LUT data points
DOMAIN_MIN 0.000000 0.000000 0.000000
DOMAIN_MAX 0.903226 0.903226 0.903226
0.012268 0.022888 0.024628
0.034668 0.029297 0.032684
0.340179 0.117004 0.091766
0.659851 0.244415 0.210663
0.858276 0.322784 0.281830
0.019257 0.118805 0.057861
0.058350 0.125763 0.068451
0.367157 0.182312 0.118256
0.686646 0.293762 0.232971
0.894501 0.363861 0.298340
0.080566 0.368622 0.142395
0.132629 0.386566 0.151154
0.444885 0.391327 0.213379
0.807220 0.461273 0.312103
0.948364 0.527679 0.361664
0.159760 0.647919 0.241821
0.252747 0.659454 0.266174
0.487915 0.681885 0.335419
0.791626 0.761902 0.428467
0.922668 0.738556 0.441376
0.227020 0.826233 0.323242
0.307892 0.829437 0.341248
0.518860 0.875519 0.413818
0.802368 0.902649 0.502533
0.909912 0.929474 0.533997
0.013794 0.044037 0.093567
0.043121 0.055420 0.101898
0.368500 0.124542 0.136475
0.673584 0.249786 0.233276
0.864655 0.324982 0.299835
0.016113 0.116791 0.115448
0.044708 0.122620 0.122192
0.384766 0.190277 0.154114
0.693573 0.295807 0.252899
0.898651 0.365814 0.316559
0.080078 0.370148 0.170197
0.120392 0.384674 0.179199
0.450012 0.401520 0.228638
0.803436 0.469238 0.323364
0.946991 0.534241 0.370911
0.144745 0.623657 0.253296
0.236053 0.659912 0.271881
0.486908 0.680328 0.352325
0.790466 0.764587 0.437897
0.923859 0.739624 0.449738
0.211975 0.814941 0.327271
0.303833 0.861328 0.358398
0.511658 0.866425 0.413544
0.803040 0.903351 0.510254
0.911591 0.926331 0.540405
0.018707 0.111511 0.238037
0.044159 0.118500 0.245056
0.390594 0.176575 0.271454
0.751312 0.301544 0.336548
0.938629 0.360565 0.382996
0.023346 0.171204 0.241821
0.052063 0.183105 0.253784
0.398102 0.232635 0.288513
0.765228 0.344116 0.354767
0.949188 0.400330 0.403168
0.071259 0.356903 0.284027
0.098846 0.373993 0.299561
0.322571 0.410278 0.373657
0.746826 0.497559 0.434052
0.931000 0.541901 0.482605
0.149200 0.682831 0.413513
0.156586 0.661560 0.393433
0.430817 0.686005 0.428040
0.776093 0.768951 0.536987
0.935669 0.759003 0.556763
0.192078 0.842316 0.443909
0.207092 0.839294 0.436707
0.465332 0.904785 0.485687
0.792847 0.893219 0.600067
0.929169 0.925140 0.617096
0.075287 0.194244 0.399567
0.103119 0.196869 0.403687
0.298157 0.234924 0.452332
0.780731 0.343414 0.453400
0.946655 0.393555 0.519928
0.077911 0.246216 0.403900
0.112518 0.253815 0.414490
0.264771 0.285461 0.477295
0.784027 0.387451 0.483429
0.949219 0.439636 0.553253
0.122467 0.396667 0.445862
0.150269 0.411346 0.466095
0.239624 0.437927 0.524872
0.722534 0.523590 0.602509
0.920013 0.580688 0.639435
0.162201 0.642273 0.551086
0.183411 0.651001 0.563507
0.251526 0.672974 0.597626
0.715942 0.758698 0.658203
0.927277 0.807159 0.687866
0.201294 0.807617 0.627319
0.223022 0.821686 0.639252
0.286682 0.849976 0.669006
0.726898 0.914886 0.669800
0.958679 0.936523 0.709442
0.126251 0.238037 0.510956
0.151459 0.240845 0.513977
0.237457 0.265900 0.557648
0.704132 0.357971 0.582733
0.914581 0.417419 0.661652
0.133881 0.291504 0.522125
0.159180 0.296967 0.530945
0.241516 0.314575 0.564087
0.698059 0.405792 0.621887
0.923706 0.466583 0.693756
0.164948 0.435699 0.563904
0.188690 0.448547 0.581329
0.258392 0.459351 0.611633
0.658081 0.527344 0.724243
0.911621 0.584625 0.737030
0.195862 0.652527 0.629730
0.214600 0.663361 0.640015
0.277283 0.672302 0.657410
0.613800 0.761292 0.758698
0.916840 0.794098 0.735718
0.209259 0.784149 0.664246
0.231171 0.793579 0.673676
0.293488 0.806335 0.692780
0.607666 0.873291 0.773132
0.949677 0.926056 0.756500
