滤镜资源/Professional Luts Collection/Triune-Digital-Cinematic-LUTs/3D LUTs (CUBE)/REDLOGFILM/Suicide Squad - REDlogFilm.cube
#Created by Benjamin (IWLTBAP) : http://luts.iwltbap.com
#Copyright: (C) Copyright 2016 Triune Films and IWLTBAP
TITLE "Blockbuster LUTs Pack (REDlogFilm)"
#LUT size
LUT_3D_SIZE 32
#LUT data points
0.012268 0.022888 0.024628
0.013153 0.023132 0.024811
0.014252 0.023468 0.025085
0.015442 0.023926 0.025299
0.016937 0.024475 0.025635
0.019714 0.025269 0.026337
0.023804 0.026733 0.027771
0.034668 0.029297 0.032684
0.064209 0.042023 0.044128
0.097229 0.055603 0.055878
0.133881 0.068604 0.067200
0.176788 0.082092 0.077667
0.225494 0.093750 0.083466
0.280365 0.103668 0.085480
0.340179 0.117004 0.091766
0.397156 0.133148 0.103607
0.448212 0.150146 0.121552
0.497986 0.168945 0.139648
0.543335 0.187195 0.156464
0.584869 0.206604 0.174835
0.622925 0.225494 0.193390
0.659851 0.244415 0.210663
0.694244 0.262085 0.226837
0.727478 0.277191 0.240906
0.756042 0.288910 0.252350
0.783325 0.299255 0.262360
0.809601 0.308044 0.269745
0.837311 0.316376 0.276459
0.858276 0.322784 0.281830
0.882080 0.330170 0.288116
0.901520 0.336151 0.293304
0.916046 0.340851 0.297607
0.012482 0.024872 0.024780
0.013306 0.024994 0.025055
0.014374 0.025299 0.025330
0.015594 0.025635 0.025604
0.017029 0.026337 0.026062
0.019623 0.027161 0.026764
0.023682 0.028625 0.028168
0.035645 0.036194 0.035126
0.065735 0.047668 0.046295
0.098633 0.060333 0.058044
0.135498 0.072784 0.069031
0.178650 0.085571 0.079346
0.227112 0.097504 0.085144
0.282257 0.108093 0.087097
0.342285 0.121429 0.093445
0.399017 0.137268 0.105682
0.449768 0.154114 0.123505
0.499542 0.172485 0.141266
0.544891 0.190704 0.158142
0.586487 0.210052 0.176727
0.624512 0.228943 0.195068
0.661499 0.247742 0.212341
0.695709 0.265350 0.228333
0.729004 0.280121 0.242157
0.757324 0.291870 0.253723
0.784943 0.302002 0.263489
0.811951 0.310852 0.270844
0.839722 0.319336 0.277618
0.860809 0.325775 0.282959
0.884277 0.332916 0.289185
0.903717 0.338867 0.294403
0.917450 0.343781 0.298767
0.013123 0.028656 0.026062
0.013947 0.028778 0.026276
0.014984 0.028961 0.026550
0.016205 0.029266 0.026794
0.017761 0.030670 0.027130
0.019989 0.032959 0.027649
0.023926 0.036957 0.028870
0.038025 0.046356 0.037994
0.067444 0.055695 0.050171
0.100220 0.066956 0.061157
0.137665 0.078613 0.071747
0.180939 0.090881 0.081573
0.229797 0.102386 0.087097
0.285278 0.113281 0.089050
0.345551 0.127228 0.095764
0.401794 0.142639 0.108429
0.452911 0.158997 0.126190
0.502380 0.176971 0.143433
0.547302 0.195343 0.160675
0.588776 0.214600 0.179199
0.626801 0.233398 0.197357
0.663818 0.252167 0.214508
0.697998 0.269623 0.230438
0.730865 0.283997 0.243927
0.758972 0.295563 0.255341
0.787628 0.305878 0.265076
0.814850 0.314636 0.272278
0.843079 0.323212 0.278992
0.863983 0.329559 0.284576
0.887146 0.336578 0.290588
0.906982 0.342560 0.296021
0.919434 0.347443 0.300354
0.013977 0.042297 0.027466
0.014801 0.042511 0.027740
0.015869 0.042908 0.028076
0.016998 0.043732 0.028351
0.018494 0.044220 0.028534
0.021027 0.044739 0.028748
0.024536 0.047333 0.030121
0.041107 0.056335 0.041229
0.069244 0.064484 0.054138
0.101868 0.075409 0.064911
0.139832 0.085907 0.075104
0.183533 0.097290 0.084229
0.232727 0.108276 0.089203
0.288422 0.119019 0.091003
0.349243 0.133148 0.098267
0.405731 0.148071 0.111389
0.455994 0.163757 0.128723
0.505402 0.182190 0.145935
0.549896 0.200623 0.163330
0.591370 0.219543 0.181915
0.629486 0.238373 0.199860
0.666656 0.257172 0.216919
0.700958 0.274231 0.232697
0.733459 0.288239 0.245911
0.761322 0.299774 0.257263
0.790680 0.310089 0.266571
0.818146 0.318787 0.273895
0.846008 0.327118 0.280518
0.867065 0.333557 0.286194
0.890594 0.340607 0.292297
0.910400 0.346436 0.297699
0.921295 0.351257 0.301971
0.015320 0.058472 0.029266
0.016083 0.058533 0.030273
0.017151 0.058868 0.031494
0.018250 0.059204 0.032471
0.019592 0.059784 0.033752
0.022064 0.059357 0.033905
0.025879 0.058899 0.034149
0.047668 0.067566 0.045715
0.073608 0.074554 0.058502
0.104401 0.085175 0.068909
0.142548 0.095734 0.079102
0.186981 0.106445 0.087494
0.236725 0.116516 0.091644
0.292725 0.126373 0.093506
0.353973 0.140015 0.101227
0.409882 0.154633 0.114960
0.459625 0.170288 0.131805
0.509491 0.188904 0.149139
0.553528 0.207520 0.166565
0.595123 0.226135 0.185303
0.633118 0.244904 0.202972
0.670105 0.263306 0.220032
0.704803 0.280029 0.235443
0.737579 0.293854 0.248505
0.764496 0.305145 0.259583
0.794586 0.315369 0.268677
0.822174 0.323975 0.275787
0.850372 0.332214 0.282562
0.871185 0.338562 0.288147
0.894775 0.345581 0.294250
0.913666 0.351471 0.299774
0.923798 0.356110 0.304047
0.016327 0.074249 0.036194
0.017029 0.074371 0.037689
0.018097 0.074615 0.038696
0.019165 0.074982 0.039764
0.020721 0.075439 0.041412
0.022675 0.075470 0.042480
0.027405 0.075684 0.043121
0.054626 0.079224 0.050598
0.079987 0.085297 0.062958
0.109436 0.094971 0.073151
0.146820 0.105835 0.083069
0.191467 0.116852 0.090271
0.241119 0.126526 0.093903
0.297455 0.136078 0.095734
0.359192 0.148438 0.103851
0.413971 0.162567 0.118958
0.463715 0.178284 0.135315
0.513550 0.196838 0.152771
0.557892 0.215088 0.170074
0.599487 0.233795 0.188965
0.636871 0.252136 0.206360
0.673035 0.270020 0.222900
0.708527 0.286377 0.238159
0.741547 0.300293 0.251282
0.769470 0.311646 0.262054
0.799377 0.321472 0.270966
0.827393 0.329956 0.277985
0.855286 0.338074 0.284851
0.876160 0.344269 0.290375
0.899536 0.351227 0.296539
0.916504 0.357086 0.302002
0.926422 0.361816 0.306213
0.017517 0.094696 0.046448
0.018188 0.094757 0.047516
0.019165 0.094849 0.048309
0.020233 0.096161 0.049835
0.021820 0.098114 0.051910
0.024963 0.098450 0.053162
0.030060 0.099335 0.055237
0.054657 0.099426 0.056244
0.086914 0.101135 0.068207
0.118164 0.108551 0.078796
0.156860 0.118927 0.087219
0.200806 0.129974 0.092896
0.248505 0.140717 0.095581
0.304077 0.150909 0.098206
0.364288 0.162933 0.109680
0.418427 0.176727 0.125336
0.468170 0.192291 0.140839
0.519287 0.209991 0.158234
0.564270 0.227051 0.174774
0.605499 0.245361 0.193726
0.643066 0.263580 0.211243
0.679169 0.280731 0.227509
0.715027 0.296356 0.242279
0.747894 0.309998 0.255371
0.776917 0.320801 0.265747
0.807129 0.330444 0.274414
0.835114 0.338654 0.281219
0.862854 0.346649 0.288361
0.883972 0.352844 0.293823
0.907501 0.359711 0.300049
0.920898 0.365417 0.305420
0.930298 0.370148 0.309265
0.019257 0.118805 0.057861
0.019958 0.119171 0.058746
0.021088 0.120331 0.059814
0.022980 0.122650 0.060974
0.025421 0.124878 0.062927
0.028412 0.125305 0.064117
0.041687 0.125702 0.066193
0.058350 0.125763 0.068451
0.086548 0.122467 0.073181
0.127594 0.125610 0.084778
0.168762 0.134399 0.090851
0.213013 0.144531 0.094849
0.261475 0.155121 0.095154
0.313873 0.167694 0.102081
0.367157 0.182312 0.118256
0.421326 0.195618 0.133575
0.473389 0.211945 0.148712
0.524353 0.228180 0.165253
0.571442 0.243134 0.180939
0.612518 0.260498 0.199371
0.650726 0.277832 0.217102
0.686646 0.293762 0.232971
0.723083 0.308624 0.247437
0.755676 0.321930 0.260284
0.786224 0.332275 0.270355
0.816803 0.341644 0.278534
0.845337 0.349731 0.285553
0.873169 0.357697 0.292786
0.894501 0.363861 0.298340
0.913910 0.370544 0.304413
0.926483 0.376526 0.309631
0.935699 0.381104 0.313416
0.023285 0.144836 0.066406
0.024323 0.145691 0.067566
0.025909 0.147766 0.068573
0.027740 0.150543 0.070068
0.031830 0.153534 0.071564
0.041107 0.154114 0.072998
0.053650 0.153625 0.074860
0.070770 0.153229 0.077576
0.088409 0.152130 0.082977
0.132324 0.149506 0.090759
0.178467 0.152863 0.094971
0.226349 0.161285 0.095978
0.274139 0.171234 0.097839
0.323456 0.185120 0.111450
0.377136 0.200012 0.127411
0.428436 0.214142 0.141876
0.478912 0.230469 0.155914
0.529480 0.247223 0.172424
0.576477 0.262146 0.188599
0.620514 0.278076 0.205811
0.658997 0.293488 0.223175
0.694794 0.308472 0.238831
0.731903 0.322968 0.252991
0.765869 0.335999 0.265747
0.797150 0.346069 0.275482
0.828827 0.355286 0.283691
0.857513 0.363281 0.290924
0.885010 0.370972 0.298035
0.905731 0.376923 0.303589
0.920593 0.383667 0.309540
0.932526 0.389496 0.314331
0.941681 0.394287 0.318146
0.027039 0.175964 0.078186
0.027985 0.177521 0.079285
0.029663 0.179840 0.080444
0.034882 0.182983 0.081360
0.041412 0.186615 0.082672
0.049591 0.186798 0.083710
0.061432 0.186401 0.085480
0.078308 0.185974 0.088440
0.100769 0.184296 0.095001
0.128265 0.180054 0.101990
0.184998 0.182312 0.101013
0.236938 0.183655 0.101013
0.284790 0.192169 0.107971
0.336243 0.205750 0.122833
0.390289 0.220490 0.138367
0.440460 0.234894 0.151306
0.490479 0.251312 0.165588
0.540344 0.267944 0.182098
0.587189 0.282288 0.197968
0.630188 0.296967 0.213837
0.668732 0.312500 0.230804
0.705994 0.328094 0.246338
0.742828 0.342987 0.260376
0.779877 0.355804 0.272736
0.812195 0.365448 0.282288
0.843872 0.374481 0.290894
0.872833 0.382416 0.298309
0.900452 0.390076 0.305420
0.914734 0.396118 0.310699
0.928833 0.402863 0.316376
0.940277 0.408600 0.321106
0.949005 0.413116 0.324799
0.035767 0.209717 0.090515
0.039459 0.211761 0.091736
0.043976 0.214325 0.092438
0.048218 0.217285 0.093140
0.053284 0.220825 0.094116
0.059082 0.222626 0.094818
0.068146 0.222382 0.095459
0.085388 0.222260 0.098633
0.110382 0.220154 0.105133
0.140350 0.213593 0.114563
0.176849 0.211975 0.121063
0.240967 0.214874 0.114014
0.293274 0.217163 0.120148
0.348938 0.228790 0.135132
0.402863 0.243469 0.149384
0.454620 0.257538 0.161865
0.506958 0.274231 0.177155
0.559326 0.289276 0.193909
0.605591 0.302521 0.209534
0.646637 0.318695 0.225769
0.683563 0.334625 0.241760
0.721222 0.349976 0.256348
0.758148 0.364349 0.270020
0.796021 0.376801 0.281525
0.828796 0.386780 0.290710
0.860962 0.396545 0.299835
0.889832 0.405060 0.307159
0.910370 0.413483 0.314209
0.923218 0.420227 0.319427
0.936615 0.427917 0.324951
0.947540 0.434204 0.329895
0.956024 0.439270 0.333527
0.045807 0.246063 0.102386
0.048462 0.248199 0.103027
0.051422 0.250885 0.103302
0.054596 0.253998 0.103638
0.058289 0.258026 0.103882
0.063293 0.262329 0.104248
0.075836 0.262543 0.105927
0.097809 0.261749 0.109680
0.122711 0.258545 0.117065
0.153198 0.251831 0.126526
0.187958 0.244965 0.135742
0.239716 0.252563 0.136688
0.300354 0.250305 0.136017
0.358429 0.255371 0.148041
0.415680 0.267975 0.160339
0.471497 0.283051 0.174347
0.526611 0.298401 0.189941
0.580780 0.312012 0.207001
0.624817 0.327271 0.222931
0.665100 0.343842 0.239716
0.703827 0.359467 0.255188
0.740875 0.374390 0.269531
0.781128 0.387695 0.282288
0.820190 0.399506 0.293152
0.852051 0.409943 0.302307
0.883484 0.419708 0.310608
0.905060 0.429016 0.317780
0.921753 0.438171 0.324524
0.933258 0.445312 0.329590
0.945923 0.453247 0.335175
0.955170 0.460510 0.340118
0.960480 0.466187 0.344391
0.049744 0.285706 0.112610
0.052002 0.287689 0.113007
0.054993 0.290131 0.113342
0.058105 0.292908 0.113770
0.065491 0.296661 0.114838
0.074249 0.301117 0.115967
0.089264 0.304596 0.118469
0.110107 0.304108 0.122681
0.134094 0.300903 0.129608
0.165680 0.293213 0.139069
0.199280 0.284576 0.149078
0.249207 0.284668 0.154816
0.304169 0.292389 0.155853
0.367126 0.290009 0.162354
0.425903 0.297089 0.172699
0.482697 0.309082 0.185913
0.543213 0.323761 0.202820
0.600128 0.338959 0.221344
0.645416 0.355316 0.238922
0.686249 0.371948 0.255646
0.724976 0.387207 0.270569
0.764404 0.401062 0.283966
0.805389 0.414062 0.295807
0.843353 0.425690 0.306274
0.874176 0.436676 0.314514
0.899048 0.446320 0.322021
0.916077 0.455444 0.328918
0.932373 0.464600 0.335632
0.943604 0.471527 0.340454
0.953644 0.479797 0.346466
0.960144 0.487000 0.351746
0.963959 0.491974 0.355133
0.062256 0.326385 0.126648
0.065552 0.327728 0.127014
0.070221 0.329895 0.127716
0.075562 0.332520 0.128571
0.082184 0.336456 0.129425
0.090210 0.340668 0.130615
0.104065 0.343536 0.133026
0.123291 0.345459 0.137604
0.145447 0.346375 0.144165
0.176392 0.340179 0.151855
0.213593 0.331177 0.161560
0.257935 0.326080 0.170654
0.318329 0.333771 0.173828
0.373566 0.336456 0.181183
0.437195 0.336243 0.189148
0.494720 0.342773 0.200775
0.555176 0.354919 0.217285
0.612030 0.367859 0.234894
0.658325 0.384857 0.253540
0.703308 0.402008 0.271332
0.745880 0.417419 0.286560
0.789276 0.430664 0.299194
0.829742 0.443542 0.309906
0.865784 0.455872 0.319458
0.891815 0.466278 0.326935
0.909912 0.475983 0.334290
0.925446 0.484344 0.340393
0.940857 0.493011 0.346893
0.948944 0.499756 0.351868
0.955200 0.506897 0.356873
0.958160 0.512054 0.359863
0.960266 0.516205 0.362122
0.080566 0.368622 0.142395
0.082977 0.368896 0.142609
0.086304 0.369965 0.142944
0.090607 0.373016 0.143433
0.096527 0.377228 0.143921
0.103973 0.381104 0.144684
0.116577 0.383911 0.147003
0.132629 0.386566 0.151154
0.156799 0.388519 0.157837
0.190155 0.390045 0.167542
0.229065 0.382721 0.177063
0.269623 0.374054 0.186554
0.329071 0.379822 0.194855
0.388794 0.387543 0.203918
0.444885 0.391327 0.213379
0.505371 0.390411 0.222046
0.566345 0.395050 0.235535
0.622864 0.403473 0.251373
0.669586 0.418365 0.268921
0.714233 0.433380 0.286163
0.760956 0.447540 0.300415
0.807220 0.461273 0.312103
0.848419 0.475067 0.323059
0.880646 0.486542 0.331543
0.901154 0.496613 0.339478
0.917694 0.505615 0.345673
0.932709 0.513702 0.351624
0.944031 0.521973 0.357971
0.948364 0.527679 0.361664
0.951447 0.533569 0.364899
0.954102 0.539154 0.367767
0.956177 0.543243 0.370056
0.086243 0.409851 0.155090
0.088470 0.410187 0.155304
0.091553 0.410736 0.155518
0.094604 0.412903 0.155731
0.098694 0.417816 0.155884
0.104401 0.421936 0.156799
0.117828 0.424927 0.159424
0.144073 0.427795 0.165466
0.171936 0.430084 0.173523
0.207672 0.432922 0.183868
0.248108 0.429260 0.195099
0.289642 0.421417 0.204071
0.339050 0.422394 0.216309
0.405945 0.433228 0.225311
0.460938 0.448029 0.239471
0.508179 0.444702 0.245239
0.575043 0.444153 0.257233
0.629883 0.448181 0.271637
0.676514 0.455902 0.285675
0.722656 0.467896 0.300568
0.772583 0.480835 0.313171
0.817261 0.492523 0.323914
0.856689 0.504089 0.333649
0.886169 0.516174 0.342560
0.906464 0.526001 0.350159
0.924103 0.535187 0.357025
0.936432 0.543274 0.362793
0.941101 0.549713 0.366913
0.944092 0.554810 0.369659
0.947540 0.560486 0.372894
0.950409 0.565704 0.375641
0.952515 0.570190 0.377991
0.090668 0.449493 0.168671
0.092621 0.450073 0.168915
0.095428 0.451508 0.169189
0.099609 0.456207 0.169556
0.108582 0.462860 0.170532
0.121338 0.465729 0.172943
0.143402 0.468628 0.177490
0.167206 0.471008 0.184875
0.194885 0.473633 0.193237
0.230865 0.476868 0.203583
0.272247 0.473907 0.214569
0.313507 0.467926 0.224182
0.357666 0.467316 0.235291
0.416504 0.479706 0.247772
0.471619 0.490906 0.258545
0.521545 0.509552 0.276093
0.570374 0.504333 0.283722
0.632172 0.502441 0.296417
0.680328 0.505951 0.306763
0.729492 0.511810 0.317535
0.778564 0.517639 0.326721
0.822144 0.527344 0.336273
0.861694 0.538208 0.345459
0.888397 0.548065 0.353943
0.908630 0.556702 0.360870
0.924591 0.565094 0.366913
0.931915 0.572205 0.371521
0.936218 0.579010 0.375671
0.939331 0.584351 0.378876
0.942932 0.590027 0.382172
0.946014 0.594971 0.384949
0.948303 0.599152 0.387421
0.113464 0.493805 0.183868
0.117462 0.496643 0.184479
0.122681 0.500854 0.185455
0.129486 0.505432 0.187500
0.139526 0.507294 0.189758
0.152313 0.509308 0.192780
0.169495 0.511261 0.198120
0.191895 0.513855 0.204712
0.217865 0.516815 0.212677
0.255615 0.519623 0.222717
0.296295 0.516235 0.233368
0.335602 0.511627 0.243042
0.377289 0.512421 0.253265
0.427429 0.524567 0.266510
0.479980 0.537628 0.281494
0.523193 0.550018 0.296082
0.572998 0.572540 0.315643
0.616821 0.562897 0.320038
0.678589 0.560760 0.328705
0.733490 0.563110 0.337372
0.781097 0.566193 0.345551
0.824188 0.569824 0.352661
0.862244 0.573730 0.358887
0.888519 0.583099 0.367035
0.908722 0.591644 0.373932
0.921448 0.598755 0.378937
0.926483 0.604065 0.382843
0.931305 0.609711 0.386841
0.934845 0.614197 0.389740
0.938721 0.619324 0.392975
0.942108 0.624207 0.396179
0.944641 0.628448 0.398743
0.131744 0.539429 0.199402
0.135529 0.541656 0.200684
0.141113 0.543457 0.202271
0.148132 0.544678 0.203979
0.158386 0.546844 0.206451
0.169189 0.548309 0.209930
0.185791 0.550690 0.215088
0.209564 0.553162 0.222168
0.239380 0.556519 0.229401
0.275970 0.557281 0.238739
0.313477 0.554565 0.248779
0.351685 0.551788 0.258514
0.389923 0.553253 0.268372
0.434082 0.563141 0.281219
0.482971 0.578552 0.298492
0.529297 0.591156 0.316772
0.567139 0.606049 0.330170
0.616028 0.626373 0.347504
0.656525 0.616760 0.349701
0.728821 0.613647 0.356476
0.783051 0.614624 0.363068
0.825836 0.616272 0.369934
0.861298 0.618073 0.376221
0.887390 0.620789 0.382080
0.907593 0.624573 0.387024
0.916656 0.629730 0.390900
0.921906 0.634918 0.394714
0.926849 0.640137 0.398438
0.930725 0.644043 0.401184
0.935150 0.648407 0.404694
0.938843 0.652191 0.407410
0.941772 0.655579 0.410095
0.140991 0.582642 0.215240
0.144928 0.583435 0.216370
0.150787 0.584717 0.217804
0.157288 0.586395 0.219543
0.167877 0.588684 0.222382
0.179901 0.590332 0.226135
0.198242 0.592743 0.231781
0.225433 0.596222 0.239166
0.255127 0.597290 0.245850
0.290070 0.595062 0.253906
0.326172 0.592957 0.263794
0.364288 0.590607 0.274048
0.399536 0.592255 0.283417
0.439453 0.601562 0.295654
0.483704 0.617798 0.311768
0.527985 0.629639 0.329193
0.569580 0.642151 0.347412
0.610931 0.660828 0.362366
0.658813 0.677856 0.376465
0.703674 0.668976 0.377411
0.771851 0.665283 0.382782
0.822968 0.664307 0.388702
0.859558 0.664215 0.394714
0.887939 0.665375 0.400146
0.904816 0.665527 0.403259
0.912018 0.665375 0.405121
0.918213 0.665344 0.406982
0.923737 0.669312 0.410522
0.927765 0.672485 0.412933
0.932220 0.677094 0.416565
0.936157 0.680298 0.419220
0.939117 0.683441 0.421570
0.148193 0.619965 0.229584
0.153595 0.620819 0.230896
0.160583 0.622314 0.232697
0.169373 0.624054 0.234924
0.180634 0.626007 0.238190
0.192627 0.627899 0.242096
0.214508 0.630371 0.247925
0.241119 0.630737 0.253876
0.269379 0.630188 0.259796
0.302765 0.629059 0.268036
0.335938 0.627625 0.277618
0.371613 0.627106 0.288086
0.405640 0.627167 0.297333
0.443481 0.636322 0.308868
0.484558 0.650421 0.322876
0.528687 0.666077 0.341583
0.571960 0.678101 0.358795
0.610443 0.688538 0.375153
0.657257 0.708801 0.390076
0.709229 0.723572 0.402039
0.750244 0.717682 0.403595
0.809906 0.712738 0.408356
0.852692 0.708557 0.412567
0.883270 0.707489 0.417145
0.900543 0.706238 0.419952
0.908081 0.704315 0.421448
0.914703 0.703247 0.422974
0.920990 0.702148 0.424622
0.925507 0.701813 0.425720
0.930298 0.703400 0.427887
0.934296 0.706757 0.430573
0.937317 0.709290 0.432861
0.159760 0.647919 0.241821
0.164978 0.648895 0.243195
0.172485 0.650482 0.245209
0.181335 0.652374 0.247589
0.191528 0.654266 0.251068
0.205719 0.656250 0.254822
0.227356 0.659241 0.260498
0.252747 0.659454 0.266174
0.278992 0.658752 0.271759
0.310883 0.657990 0.280487
0.344025 0.657562 0.290222
0.378296 0.658081 0.300751
0.411987 0.659485 0.310730
0.448578 0.668274 0.321899
0.487915 0.681885 0.335419
0.529633 0.697906 0.352509
0.573578 0.709747 0.369110
0.620087 0.723022 0.387909
0.655762 0.731232 0.400146
0.709167 0.752747 0.415833
0.754181 0.764221 0.425995
0.791626 0.761902 0.428467
0.840759 0.755890 0.432220
0.880829 0.750671 0.436310
0.896362 0.746948 0.438049
0.904297 0.743713 0.438843
0.911255 0.741608 0.439728
0.917877 0.739716 0.440704
0.922668 0.738556 0.441376
0.927948 0.737091 0.442413
0.932495 0.735992 0.443359
0.935913 0.735809 0.444489
0.168182 0.673126 0.252991
0.173492 0.674347 0.254364
0.180664 0.675995 0.256348
0.188690 0.677948 0.258789
0.200684 0.680054 0.262268
0.216431 0.682281 0.266266
0.237762 0.685333 0.271851
0.261261 0.685669 0.277161
0.287109 0.684998 0.282898
0.318542 0.684540 0.292084
0.350555 0.684784 0.301971
0.384674 0.685760 0.312622
0.418213 0.688354 0.323334
0.453979 0.697296 0.334442
0.493103 0.711395 0.347717
0.532135 0.725525 0.362762
0.576904 0.738983 0.379791
0.621887 0.750732 0.396454
0.670197 0.762634 0.415100
0.705780 0.770538 0.423889
0.754761 0.790680 0.438812
0.794830 0.801361 0.448212
0.825317 0.799377 0.451477
0.865387 0.793030 0.454559
0.891357 0.788635 0.456818
0.899963 0.783783 0.456543
0.907593 0.780365 0.456726
0.914673 0.777313 0.457031
0.919556 0.775757 0.457825
0.925201 0.773987 0.458588
0.929871 0.772552 0.459442
0.933624 0.771027 0.459991
0.175049 0.695038 0.263763
0.179901 0.696136 0.265106
0.187317 0.697540 0.266968
0.197235 0.699402 0.269440
0.210449 0.701721 0.272675
0.224976 0.703979 0.276276
0.244720 0.707275 0.281311
0.269592 0.707214 0.286682
0.294678 0.707092 0.293274
0.326202 0.707031 0.302460
0.358521 0.707825 0.312836
0.391327 0.710083 0.323700
0.424286 0.713226 0.334473
0.460144 0.722443 0.345795
0.499023 0.737030 0.358948
0.536591 0.750610 0.372772
0.579742 0.764099 0.389130
0.626312 0.776306 0.406281
0.673981 0.787231 0.423645
0.717987 0.797211 0.437866
0.749756 0.805054 0.445435
0.794006 0.823547 0.459747
0.828674 0.833954 0.469452
0.853882 0.832062 0.472168
0.881927 0.824951 0.473724
0.895813 0.821136 0.474335
0.903656 0.816650 0.473816
0.911041 0.813141 0.473755
0.916443 0.810486 0.473755
0.922363 0.807861 0.473969
0.927551 0.805725 0.474091
0.931549 0.804596 0.474487
0.181519 0.712708 0.273102
0.186432 0.713806 0.274384
0.195740 0.715820 0.276459
0.205750 0.717682 0.278748
0.217712 0.719543 0.281677
0.232117 0.721680 0.285065
0.252258 0.724243 0.289917
0.277466 0.723785 0.295441
0.302673 0.724060 0.302185
0.332886 0.727570 0.311707
0.363708 0.732178 0.321991
0.396271 0.736359 0.332947
0.428864 0.742126 0.344299
0.464722 0.751373 0.356079
0.503632 0.765961 0.369446
0.541077 0.778137 0.384033
0.581604 0.788696 0.398376
0.627991 0.799957 0.415009
0.675934 0.810028 0.431335
0.722748 0.820007 0.448853
0.758728 0.827820 0.458038
0.790558 0.836670 0.466156
0.827942 0.853729 0.479462
0.857422 0.860260 0.486938
0.875214 0.857819 0.489044
0.893250 0.849365 0.488495
0.901093 0.845093 0.487854
0.908447 0.840912 0.487213
0.913910 0.838593 0.487244
0.919983 0.836060 0.487274
0.925079 0.833771 0.487396
0.929199 0.831970 0.487457
0.187775 0.742767 0.284515
0.194366 0.744568 0.286102
0.203674 0.746582 0.288422
0.213837 0.749329 0.291229
0.225922 0.752258 0.294678
0.240356 0.755981 0.298767
0.259918 0.760529 0.304352
0.283020 0.762787 0.310211
0.307587 0.764557 0.316345
0.336090 0.768066 0.324341
0.366364 0.772400 0.333466
0.398438 0.777008 0.343323
0.432739 0.781830 0.354034
0.468811 0.785950 0.366547
0.508453 0.796906 0.382660
0.545929 0.807373 0.397156
0.587036 0.816803 0.410522
0.630646 0.824097 0.424316
0.677094 0.832184 0.439606
0.723602 0.840759 0.456116
0.765808 0.849579 0.470032
0.794098 0.855042 0.476074
0.824188 0.865356 0.485199
0.858154 0.880798 0.497375
0.878448 0.883423 0.502747
0.890503 0.880432 0.503784
0.898865 0.871735 0.501038
0.906403 0.867706 0.500702
0.912140 0.863922 0.500153
0.918335 0.861053 0.499969
0.923401 0.859131 0.500000
0.927460 0.857361 0.499969
0.198181 0.784515 0.301849
0.204834 0.786102 0.303558
0.215240 0.788208 0.306183
0.226746 0.790894 0.309235
0.238770 0.793915 0.312805
0.253021 0.797302 0.317017
0.273773 0.801575 0.322968
0.293579 0.803314 0.328003
0.316925 0.803802 0.333405
0.344177 0.803436 0.339539
0.373596 0.802094 0.346283
0.402740 0.802490 0.353912
0.434174 0.804993 0.362793
0.471436 0.816071 0.376526
0.512177 0.825531 0.394226
0.551453 0.834564 0.409698
0.592285 0.842682 0.422150
0.637451 0.848938 0.435211
0.680908 0.853668 0.448608
0.724487 0.860168 0.463470
0.766235 0.867218 0.478394
0.800842 0.874603 0.487274
0.823792 0.878174 0.491974
0.855499 0.890930 0.502533
0.879303 0.901031 0.512238
0.889801 0.901978 0.515045
0.897461 0.898834 0.515045
0.905121 0.890961 0.512634
0.910645 0.888428 0.512482
0.916870 0.884460 0.511902
0.922180 0.881348 0.511505
0.925934 0.879120 0.511353
0.219238 0.817322 0.318237
0.224915 0.818237 0.319641
0.234833 0.818695 0.321655
0.243256 0.818970 0.323486
0.253906 0.819489 0.325775
0.267761 0.819611 0.328583
0.283478 0.819550 0.332001
0.301544 0.819550 0.336029
0.323578 0.818939 0.340576
0.348938 0.817261 0.345978
0.375793 0.817535 0.352631
0.405701 0.825653 0.363403
0.438477 0.834442 0.375122
0.475494 0.844788 0.388794
0.515656 0.854492 0.404602
0.555695 0.860992 0.420685
0.596466 0.867828 0.433685
