滤镜资源/Professional Luts Collection/Triune-Digital-Cinematic-LUTs/3D LUTs (CUBE)/REDLOGFILM/The Book of Eli - REDlogFilm.cube
#Created by Benjamin (IWLTBAP) : http://luts.iwltbap.com
#Copyright: (C) Copyright 2016 Triune Films and IWLTBAP
TITLE "Blockbuster LUTs Pack (REDlogFilm)"
#LUT size
LUT_3D_SIZE 8
#LUT data points
DOMAIN_MIN 0.000000 0.000000 0.000000
DOMAIN_MAX 0.903226 0.903226 0.903226
0.031799 0.029999 0.027466
0.051239 0.033630 0.029694
0.083099 0.037445 0.033417
0.134460 0.045837 0.041077
0.204163 0.057739 0.051758
0.282379 0.075531 0.068726
0.351227 0.087311 0.077667
0.407166 0.100769 0.089264
0.049622 0.062012 0.040924
0.067932 0.062927 0.041718
0.101105 0.067261 0.046021
0.152496 0.075165 0.055725
0.221741 0.087738 0.065247
0.305267 0.102661 0.078400
0.384308 0.122894 0.097412
0.438751 0.136536 0.109375
0.068512 0.103607 0.054382
0.088562 0.109375 0.061279
0.119263 0.110809 0.065155
0.170685 0.120178 0.072754
0.244232 0.134735 0.084473
0.337128 0.154846 0.100555
0.422089 0.176300 0.123383
0.484344 0.188568 0.141052
0.091003 0.168121 0.077576
0.113373 0.173035 0.079163
0.148804 0.184357 0.089081
0.200775 0.196472 0.101074
0.298218 0.226288 0.125885
0.411621 0.260071 0.156281
0.510620 0.291901 0.181732
0.573761 0.314850 0.205627
0.127380 0.281830 0.121277
0.144897 0.291046 0.130493
0.179993 0.305634 0.142303
0.264709 0.338837 0.168335
0.385162 0.380829 0.200592
0.532288 0.439697 0.255920
0.642700 0.491058 0.310059
0.707062 0.523285 0.344666
0.154419 0.411926 0.175842
0.174133 0.416260 0.176941
0.228271 0.430756 0.192108
0.364929 0.494476 0.247253
0.513031 0.553101 0.313202
0.642639 0.602753 0.370697
0.726135 0.636932 0.416443
0.781860 0.668610 0.456635
0.205597 0.506165 0.221924
0.237305 0.511383 0.227783
0.300659 0.534302 0.252655
0.435822 0.592560 0.316681
0.605530 0.671844 0.412262
0.705170 0.704681 0.454407
0.778900 0.736237 0.498352
0.826202 0.757294 0.528656
0.258850 0.564789 0.262848
0.294037 0.575012 0.272186
0.353088 0.593140 0.296387
0.484161 0.652496 0.363678
0.656921 0.741699 0.476044
0.743591 0.769073 0.514587
0.812836 0.797394 0.551208
0.856873 0.818024 0.576935
0.031525 0.029724 0.038635
0.051788 0.034302 0.042145
0.085785 0.039581 0.048462
0.138367 0.049927 0.058380
0.208405 0.063782 0.072113
0.289215 0.081238 0.089020
0.360809 0.095612 0.100494
0.412720 0.108002 0.113861
0.048706 0.060455 0.055664
0.068756 0.063477 0.058685
0.102692 0.069458 0.063019
0.153931 0.075256 0.070923
0.225861 0.092346 0.086914
0.311401 0.106384 0.101257
0.391083 0.128204 0.116333
0.446045 0.137726 0.129761
0.067017 0.103241 0.071655
0.088196 0.107635 0.076447
0.122375 0.115875 0.084106
0.174561 0.124268 0.092682
0.250580 0.137970 0.109283
0.347809 0.161499 0.126709
0.431000 0.179199 0.146484
0.497223 0.198822 0.165985
0.094330 0.171936 0.098694
0.116882 0.177673 0.103333
0.151245 0.187073 0.111023
0.208710 0.203186 0.127289
0.306396 0.231018 0.152557
0.418976 0.263885 0.180511
0.517242 0.298218 0.212372
0.585266 0.324585 0.239380
0.127319 0.285461 0.145020
0.145905 0.292084 0.150299
0.181580 0.306885 0.159210
0.266815 0.342621 0.185486
0.390778 0.385712 0.225281
0.542114 0.447205 0.284302
0.648163 0.497131 0.338989
0.712646 0.529907 0.374298
0.152649 0.409729 0.194366
0.173859 0.414246 0.197479
0.226074 0.432465 0.211426
0.360443 0.493988 0.270752
0.522491 0.563782 0.346771
0.643951 0.604614 0.394257
0.729156 0.641235 0.442902
0.783813 0.670898 0.480743
0.201172 0.509003 0.244934
0.233337 0.513519 0.249268
0.295074 0.533112 0.274689
0.428406 0.589264 0.334961
0.610901 0.678680 0.441498
0.706543 0.707092 0.476898
0.778168 0.737305 0.519470
0.826019 0.759399 0.550110
0.257477 0.568939 0.289337
0.294250 0.578827 0.298431
0.356750 0.600128 0.322937
0.481567 0.654388 0.386475
0.658661 0.747192 0.498962
0.743713 0.772278 0.537048
0.811951 0.798431 0.569397
0.856293 0.819000 0.595764
0.034027 0.032623 0.066010
0.055542 0.038361 0.074341
0.096649 0.051086 0.089020
0.153717 0.064423 0.104828
0.223297 0.074615 0.113647
0.304291 0.088867 0.128601
0.381104 0.106018 0.138947
0.438507 0.120056 0.155853
0.048645 0.060486 0.084412
0.069183 0.065826 0.091553
0.108307 0.075287 0.101349
0.164673 0.088898 0.117706
0.241272 0.105286 0.132019
0.329041 0.123352 0.144440
0.413086 0.138672 0.161438
0.472656 0.156250 0.180328
0.067413 0.103790 0.103027
0.090179 0.110565 0.111115
0.127686 0.124146 0.128082
0.183838 0.131561 0.133453
0.261475 0.140656 0.145081
0.364899 0.173157 0.169037
0.457489 0.197083 0.198151
0.530304 0.219696 0.219574
0.097809 0.174866 0.130463
0.119904 0.182159 0.140167
0.159729 0.196716 0.152435
0.227509 0.222168 0.181763
0.322235 0.247894 0.204102
0.439362 0.276550 0.228516
0.541077 0.315399 0.260925
0.615784 0.349335 0.296021
0.131531 0.293396 0.183105
0.151031 0.297150 0.184814
0.184113 0.310242 0.194305
0.282959 0.358246 0.238098
0.421967 0.414093 0.289490
0.562714 0.468872 0.346130
0.663300 0.513245 0.393097
0.721375 0.541870 0.422546
0.150024 0.416534 0.233398
0.174133 0.425018 0.239746
0.224792 0.436554 0.251190
0.350830 0.489594 0.305359
0.536102 0.578033 0.400452
0.648315 0.612885 0.438751
0.732208 0.648499 0.484680
0.788177 0.677856 0.521942
0.198608 0.516754 0.295502
0.233154 0.524933 0.304718
0.295624 0.538849 0.319336
0.424316 0.590454 0.369507
0.615814 0.684631 0.480957
0.710449 0.714081 0.521576
0.778778 0.740417 0.553680
0.825745 0.762390 0.583221
0.258301 0.581573 0.337067
0.297516 0.591095 0.348999
0.361877 0.609528 0.371796
0.481537 0.657623 0.424438
0.653503 0.747742 0.532104
0.751984 0.782288 0.579010
0.813538 0.803009 0.605286
0.857635 0.822998 0.629395
0.044647 0.042694 0.128662
0.067719 0.050507 0.139954
0.118225 0.070831 0.164032
0.188019 0.095245 0.190552
0.265442 0.107452 0.204712
0.359772 0.128815 0.219360
0.433075 0.140747 0.233917
0.485962 0.148621 0.239868
0.060455 0.072083 0.148865
0.083466 0.079224 0.158051
0.127441 0.096252 0.177216
0.197693 0.119232 0.203278
0.280334 0.132294 0.216492
0.382782 0.155182 0.234589
0.462311 0.173431 0.252808
0.516235 0.184723 0.267120
0.076294 0.111053 0.168396
0.102386 0.120544 0.178711
0.139496 0.133148 0.187683
0.202698 0.148865 0.207855
0.298645 0.175751 0.235565
0.412567 0.204468 0.261993
0.501770 0.226013 0.287903
0.568573 0.250244 0.314117
0.106934 0.183533 0.192230
0.130188 0.193634 0.204895
0.176971 0.214996 0.230499
0.250244 0.246368 0.261353
0.348145 0.265869 0.278503
0.469818 0.301971 0.315796
0.584015 0.354095 0.361115
0.657593 0.386078 0.396240
0.143463 0.304810 0.251892
0.165314 0.315460 0.258453
0.195862 0.337585 0.279663
0.319794 0.399170 0.335236
0.473785 0.461334 0.399017
0.593475 0.498108 0.431641
0.684387 0.534912 0.471619
0.739868 0.558838 0.499939
0.160828 0.447418 0.324646
0.182617 0.451111 0.327881
0.237793 0.462463 0.337311
0.370422 0.516510 0.386292
0.568359 0.610016 0.491852
0.668610 0.635254 0.521088
0.747528 0.666046 0.558990
0.801971 0.696960 0.594788
0.219269 0.549622 0.389038
0.254730 0.555634 0.392456
0.314270 0.567017 0.402832
0.436188 0.610748 0.447357
0.621033 0.698639 0.550354
0.724152 0.734192 0.593262
0.788635 0.754242 0.617401
0.838409 0.779480 0.646698
0.291168 0.618195 0.435211
0.322968 0.623169 0.440460
0.381165 0.636200 0.456116
0.496887 0.678406 0.500641
0.650726 0.751923 0.585205
0.762421 0.798676 0.641235
0.824036 0.818176 0.661682
0.867950 0.836456 0.683533
0.059052 0.058167 0.208221
0.080688 0.065460 0.218262
0.129944 0.086975 0.246735
0.239288 0.143494 0.316437
0.357666 0.173859 0.347961
0.423523 0.169830 0.337250
0.516754 0.197205 0.368530
0.571594 0.210724 0.378937
0.078735 0.094330 0.234680
0.098938 0.099426 0.241180
0.144226 0.117615 0.267334
0.250092 0.168396 0.328003
0.376678 0.204865 0.368866
0.456818 0.210999 0.364929
0.548523 0.236786 0.395782
0.604645 0.249939 0.405029
0.104828 0.141571 0.262146
0.129883 0.151581 0.276459
0.172333 0.168793 0.297424
0.255585 0.201996 0.337280
0.400574 0.254547 0.390137
0.496246 0.266754 0.399750
0.594055 0.305573 0.442200
0.645020 0.321228 0.455444
0.132843 0.216095 0.298767
0.164948 0.233673 0.317078
0.216095 0.261688 0.346497
0.295624 0.291992 0.378571
0.426483 0.336731 0.415070
0.546356 0.371948 0.450836
0.638245 0.405457 0.485809
0.694031 0.428497 0.511688
0.160095 0.334991 0.351776
0.178589 0.351746 0.367310
0.234711 0.383667 0.395264
0.367462 0.444427 0.451965
0.512360 0.499420 0.503601
0.627716 0.534027 0.537231
0.704742 0.557159 0.563660
0.752777 0.579620 0.590088
0.184540 0.473663 0.420288
0.217529 0.484222 0.431183
0.284119 0.508423 0.458893
0.431854 0.572479 0.519135
0.605499 0.648956 0.598541
0.711060 0.684143 0.634796
0.768860 0.694061 0.650574
0.815033 0.716034 0.673523
0.256531 0.580597 0.488739
0.298157 0.591797 0.501251
0.375275 0.618286 0.528473
0.485962 0.655334 0.565643
0.634094 0.716278 0.629669
0.757629 0.773315 0.694275
0.812408 0.786652 0.706665
0.857513 0.802917 0.721771
0.331818 0.652954 0.542999
0.372833 0.666412 0.555084
0.437042 0.688721 0.577332
0.534210 0.718170 0.606659
0.660980 0.766724 0.658142
0.786957 0.827087 0.725494
0.848663 0.845154 0.742432
0.884003 0.855804 0.754578
0.079865 0.079010 0.289429
0.097443 0.084595 0.299530
0.137421 0.103119 0.324799
0.269989 0.168152 0.402466
0.437195 0.234039 0.478394
0.545685 0.254639 0.494598
0.574005 0.243225 0.478455
0.613525 0.249420 0.482727
0.099152 0.111481 0.318146
0.120422 0.119751 0.330048
0.159485 0.137207 0.352448
0.280426 0.191742 0.413849
0.461609 0.270355 0.500397
0.573364 0.297455 0.526825
0.609497 0.283356 0.508606
0.640594 0.286896 0.515686
0.137238 0.178925 0.370575
0.160797 0.187805 0.382141
0.206757 0.207672 0.405365
0.302582 0.241974 0.441010
0.493530 0.330688 0.528290
0.603455 0.361511 0.559479
0.653564 0.359497 0.557251
0.694214 0.371002 0.570465
0.179047 0.269836 0.419922
0.208282 0.287872 0.437500
0.268707 0.325867 0.470459
0.376678 0.369720 0.513458
0.513519 0.414734 0.554993
0.644348 0.466705 0.603363
0.699829 0.474213 0.612457
0.741302 0.486633 0.627838
0.185516 0.390747 0.468201
0.219452 0.411926 0.487091
0.314117 0.462891 0.534546
0.440704 0.516815 0.581085
0.556030 0.537231 0.600067
0.666870 0.575317 0.634796
0.740021 0.598480 0.662170
0.782593 0.613617 0.680542
0.209595 0.514587 0.520447
0.252228 0.526550 0.534424
0.349976 0.564484 0.571350
0.488647 0.620087 0.623016
0.627380 0.673157 0.677063
0.725037 0.700867 0.705505
0.787994 0.718964 0.725800
0.828003 0.730469 0.738953
0.292816 0.614258 0.581604
0.340210 0.627960 0.595673
0.412628 0.648865 0.614227
0.530823 0.693695 0.658661
0.658417 0.746277 0.714661
0.779907 0.798584 0.767578
0.842133 0.816498 0.784698
0.876160 0.824066 0.791473
0.366180 0.679260 0.620331
0.405853 0.692474 0.633972
0.467438 0.714417 0.656555
0.567413 0.750122 0.693359
0.686188 0.796082 0.742645
0.804993 0.847076 0.793427
0.873535 0.870758 0.815216
0.902649 0.876404 0.821991
0.092590 0.092804 0.350281
0.113098 0.101288 0.363098
0.153107 0.117065 0.385712
0.269257 0.173187 0.450104
0.470551 0.262390 0.549469
0.588074 0.296875 0.590637
0.647888 0.302277 0.593445
0.665741 0.291840 0.579956
0.117584 0.134491 0.383606
0.141388 0.145508 0.398712
0.178101 0.155975 0.416595
0.285431 0.201263 0.469208
0.490540 0.293335 0.568054
0.609955 0.332092 0.610565
0.673920 0.340332 0.614685
0.693451 0.334015 0.615143
0.162231 0.205231 0.438995
0.189758 0.217926 0.458435
0.240723 0.238312 0.484039
0.340240 0.268860 0.515198
0.526978 0.356750 0.602631
0.657196 0.407196 0.649170
0.713257 0.425476 0.669586
0.737335 0.417328 0.661652
0.223755 0.321320 0.510254
0.251923 0.338562 0.531403
0.319153 0.378601 0.568176
0.427032 0.414917 0.603882
0.548950 0.444672 0.626068
0.679230 0.503418 0.682861
0.744690 0.525757 0.702423
0.775635 0.526398 0.703583
0.226562 0.437439 0.550934
0.272186 0.462494 0.575470
0.369568 0.514099 0.620850
0.491486 0.560089 0.668274
0.605682 0.586517 0.688141
0.699402 0.609711 0.711975
0.771851 0.636658 0.738037
0.812836 0.649231 0.751068
0.272949 0.559448 0.607086
0.322571 0.582886 0.625458
0.413147 0.616760 0.659943
0.540619 0.666779 0.711578
0.653839 0.699738 0.741852
0.734283 0.712860 0.753815
0.801178 0.732422 0.775757
0.842163 0.746979 0.791595
0.328857 0.639709 0.646057
0.380646 0.656464 0.662323
0.453339 0.681885 0.685883
0.567383 0.727112 0.731445
0.683197 0.768860 0.774963
0.787903 0.806427 0.810120
0.850952 0.824585 0.826324
0.883881 0.832489 0.835480
0.396271 0.704803 0.685425
0.436920 0.716797 0.695770
0.496643 0.738403 0.718536
0.588287 0.772095 0.753723
0.706055 0.817902 0.798248
0.815979 0.858002 0.839020
0.882629 0.880646 0.857880
0.913208 0.886353 0.863037
0.105347 0.106842 0.393829
0.124237 0.114471 0.404968
0.164490 0.131287 0.428101
0.278168 0.180664 0.484406
0.484985 0.273621 0.584961
0.604767 0.307831 0.627136
0.670898 0.326569 0.650208
0.703918 0.331512 0.652191
0.129272 0.146271 0.425232
0.150543 0.153290 0.435852
0.192535 0.169006 0.463043
0.301208 0.214600 0.511322
0.504822 0.302246 0.607452
0.628387 0.346069 0.648987
0.692749 0.363647 0.669342
0.726105 0.370392 0.672577
0.180511 0.224976 0.492065
0.208740 0.236786 0.505859
0.260590 0.257904 0.531769
0.359985 0.288574 0.563599
0.534027 0.363983 0.636841
0.666748 0.418640 0.689423
0.727966 0.436890 0.706024
0.764435 0.444336 0.712616
0.253326 0.357941 0.576019
0.284332 0.379059 0.596802
0.361816 0.416382 0.630737
0.467285 0.448242 0.661804
0.562897 0.452911 0.665131
0.690857 0.513458 0.716156
0.769836 0.551636 0.752167
0.807770 0.562103 0.762573
0.260132 0.474915 0.605499
0.302551 0.498199 0.632629
0.403442 0.545074 0.676361
0.523682 0.589111 0.715515
0.629517 0.610809 0.735840
0.717255 0.628357 0.754028
0.786469 0.651215 0.777649
0.829651 0.668549 0.792511
0.301514 0.585480 0.660217
0.352661 0.605682 0.674835
0.442017 0.640442 0.711029
0.566833 0.690338 0.757141
0.671509 0.717194 0.784729
0.754272 0.732788 0.800018
0.813995 0.745422 0.811707
0.851990 0.757050 0.822968
0.365601 0.666626 0.694916
0.417633 0.685730 0.716370
0.484955 0.710571 0.739716
0.582184 0.745178 0.772491
0.704498 0.790466 0.819305
0.794312 0.813843 0.841400
0.849884 0.824097 0.849640
0.883667 0.830475 0.856934
0.410553 0.717834 0.720947
0.449219 0.730469 0.731903
0.513611 0.754547 0.757568
0.603943 0.788208 0.793091
0.723938 0.833466 0.836243
0.820526 0.862823 0.864502
0.882263 0.881195 0.879822
0.911896 0.887390 0.885590
