滤镜资源/Professional Luts Collection/Triune-Digital-Cinematic-LUTs/3D LUTs (CUBE)/REDLOGFILM/The Conjuring - REDlogFilm.cube
#Created by Benjamin (IWLTBAP) : http://luts.iwltbap.com
#Copyright: (C) Copyright 2016 Triune Films and IWLTBAP
TITLE "Blockbuster LUTs Pack (REDlogFilm)"
#LUT size
LUT_3D_SIZE 5
#LUT data points
DOMAIN_MIN 0.000000 0.000000 0.000000
DOMAIN_MAX 0.903226 0.903226 0.903226
0.006836 0.007782 0.010040
0.049622 0.011444 0.012512
0.220459 0.043091 0.031891
0.429504 0.082336 0.061096
0.540405 0.099091 0.072296
0.012726 0.071320 0.022583
0.065033 0.080444 0.023651
0.286102 0.119812 0.052734
0.499146 0.154816 0.075867
0.603088 0.180878 0.093170
0.058441 0.229248 0.047424
0.138702 0.245026 0.040009
0.355194 0.273041 0.059387
0.609833 0.333313 0.121704
0.711487 0.366547 0.146759
0.170959 0.437408 0.097961
0.282196 0.468994 0.099548
0.509766 0.516235 0.112885
0.714081 0.561279 0.167633
0.828033 0.601471 0.208496
0.258362 0.581573 0.143829
0.373779 0.619171 0.150085
0.591431 0.687042 0.161896
0.788208 0.714935 0.188812
0.871368 0.729462 0.218506
0.006683 0.007568 0.050476
0.052734 0.012634 0.062073
0.218018 0.042114 0.080933
0.414398 0.080719 0.107819
0.525574 0.099640 0.119537
0.013977 0.071625 0.082275
0.066132 0.084106 0.091827
0.280975 0.125793 0.113525
0.494598 0.169708 0.141998
0.601776 0.187836 0.153015
0.034607 0.226807 0.108887
0.134033 0.262512 0.124664
0.375427 0.296478 0.139526
0.626678 0.366272 0.199524
0.738922 0.406586 0.231293
0.122070 0.410614 0.145538
0.253632 0.473358 0.177185
0.518433 0.548340 0.192474
0.731323 0.600189 0.252930
0.842072 0.640961 0.305237
0.195526 0.547089 0.189117
0.337646 0.625000 0.235107
0.594818 0.709778 0.251831
0.800659 0.750946 0.267517
0.883209 0.764160 0.301788
0.010132 0.018951 0.160095
0.052429 0.024658 0.165894
0.193085 0.052124 0.192474
0.403229 0.087585 0.215668
0.514862 0.109100 0.228760
0.023346 0.086365 0.198029
0.067352 0.101074 0.213745
0.236298 0.128387 0.230103
0.471039 0.174927 0.257477
0.591431 0.201569 0.269562
0.047272 0.238129 0.266083
0.095917 0.258911 0.283569
0.301392 0.341492 0.349243
0.629852 0.430389 0.395203
0.743134 0.455078 0.410492
0.080017 0.418152 0.326904
0.147675 0.453583 0.347839
0.490784 0.602264 0.410736
0.743011 0.659821 0.469788
0.863495 0.712616 0.523865
0.115814 0.537964 0.357147
0.200836 0.576385 0.365692
0.573181 0.740906 0.458618
0.804565 0.799042 0.483978
0.901855 0.823792 0.532898
0.027069 0.051300 0.297516
0.065979 0.051239 0.294464
0.189697 0.080658 0.325287
0.364563 0.103424 0.341064
0.497498 0.123138 0.351471
0.040466 0.120880 0.337433
0.084564 0.136902 0.355103
0.205048 0.156921 0.371124
0.426941 0.191742 0.389374
0.578308 0.226074 0.407501
0.065369 0.264099 0.408813
0.116760 0.285522 0.429443
0.279572 0.362305 0.502563
0.561646 0.428467 0.524536
0.725128 0.463531 0.543457
0.103790 0.428833 0.478668
0.163177 0.458130 0.504425
0.354553 0.572357 0.599243
0.749146 0.718842 0.677917
0.871887 0.752106 0.709137
0.129822 0.533325 0.517059
0.191956 0.571350 0.546997
0.388977 0.700134 0.642731
0.812103 0.849518 0.712494
0.916412 0.872437 0.752838
0.037598 0.072845 0.378326
0.074707 0.069153 0.371399
0.187866 0.094818 0.396973
0.363037 0.133881 0.436249
0.464111 0.134613 0.428650
0.050262 0.141510 0.416840
0.093964 0.155823 0.433716
0.200043 0.172180 0.449402
0.390869 0.218811 0.487854
0.537109 0.232330 0.485626
0.079132 0.282318 0.489655
0.130737 0.303406 0.512726
0.278748 0.377716 0.585358
0.467133 0.422363 0.618622
0.674835 0.472687 0.629852
0.117706 0.442474 0.563416
0.175568 0.471039 0.591003
0.346466 0.572784 0.680084
0.709259 0.721405 0.771027
0.845215 0.751312 0.785370
0.143860 0.545837 0.607574
0.206818 0.584869 0.641083
0.383545 0.695282 0.729614
0.780426 0.852570 0.820801
0.913971 0.888519 0.857910
