滤镜资源/Professional Luts Collection/Triune-Digital-Cinematic-LUTs/3D LUTs (CUBE)/REDLOGFILM/The Matrix - REDlogFilm.cube
#Created by Benjamin (IWLTBAP) : http://luts.iwltbap.com
#Copyright: (C) Copyright 2016 Triune Films and IWLTBAP
TITLE "Blockbuster LUTs Pack (REDlogFilm)"
#LUT size
LUT_3D_SIZE 8
#LUT data points
DOMAIN_MIN 0.000000 0.000000 0.000000
DOMAIN_MAX 0.903226 0.903226 0.903226
0.003540 0.000000 0.007080
0.042114 0.000000 0.007080
0.099854 0.003540 0.017059
0.242340 0.017700 0.036377
0.476227 0.060577 0.064117
0.694061 0.108826 0.088440
0.825287 0.146271 0.114441
0.902527 0.166046 0.134216
0.003876 0.028290 0.010956
0.035370 0.028290 0.014160
0.092804 0.035370 0.027649
0.243011 0.049500 0.042816
0.483307 0.088867 0.063660
0.697601 0.140686 0.088440
0.827942 0.178101 0.114441
0.902710 0.201416 0.134216
0.020599 0.102783 0.034729
0.045349 0.106323 0.027649
0.106934 0.112762 0.034119
0.224640 0.139160 0.064056
0.459778 0.181030 0.087158
0.700958 0.215790 0.097595
0.831146 0.246124 0.121521
0.906219 0.266327 0.140656
0.083374 0.303497 0.083374
0.100739 0.307037 0.078827
0.147491 0.314117 0.071747
0.261047 0.325714 0.068207
0.442413 0.359497 0.131317
0.648071 0.397156 0.166443
0.789154 0.419189 0.185974
0.879242 0.429596 0.193024
0.166687 0.550049 0.148987
0.184479 0.553589 0.141998
0.222229 0.556519 0.131317
0.326660 0.564209 0.116608
0.518677 0.574829 0.131775
0.676819 0.591248 0.204773
0.785583 0.606201 0.241791
0.860077 0.613708 0.258453
0.245972 0.726685 0.214935
0.263336 0.729431 0.210266
0.304016 0.732971 0.200012
0.392609 0.738342 0.181274
0.563416 0.747131 0.164642
0.722351 0.754181 0.207062
0.823273 0.763336 0.260712
0.884216 0.768951 0.292572
0.306671 0.845276 0.267792
0.327209 0.846527 0.263885
0.365356 0.848816 0.253632
0.444427 0.855896 0.231415
0.593323 0.859863 0.213501
0.747925 0.866516 0.216217
0.858398 0.870026 0.282166
0.921631 0.872314 0.330841
0.360016 0.913300 0.314209
0.377533 0.913483 0.310120
0.422028 0.916840 0.300507
0.509186 0.918060 0.291565
0.654755 0.920563 0.292389
0.801025 0.924133 0.316345
0.901489 0.927643 0.350464
0.958923 0.934509 0.384369
0.000000 0.003540 0.034668
0.028290 0.003540 0.042450
0.082794 0.007446 0.049500
0.238434 0.015167 0.064667
0.476227 0.060577 0.092072
0.689728 0.112701 0.123016
0.821777 0.149811 0.146301
0.899139 0.172913 0.166046
0.000000 0.035370 0.045990
0.028290 0.031830 0.049866
0.110474 0.031219 0.053070
0.252960 0.046997 0.068237
0.483643 0.088867 0.095520
0.697601 0.143402 0.119446
0.827942 0.178101 0.145935
0.902710 0.201416 0.162506
0.020599 0.102783 0.066589
0.048553 0.106323 0.070129
0.107300 0.112762 0.066589
0.243683 0.131744 0.084290
0.488220 0.170074 0.101959
0.704681 0.212250 0.125549
0.832367 0.246124 0.149811
0.906586 0.266327 0.168610
0.083374 0.304504 0.107819
0.104248 0.307037 0.110687
0.144989 0.314117 0.097137
0.263580 0.325714 0.100037
0.452393 0.359497 0.152191
0.660736 0.393616 0.183777
0.803680 0.412781 0.199768
0.891235 0.422516 0.206848
0.167145 0.550049 0.170319
0.187988 0.550049 0.173767
0.222229 0.557129 0.159607
0.326660 0.564209 0.144440
0.518677 0.574829 0.156158
0.680359 0.588959 0.225647
0.789124 0.603912 0.259552
0.864136 0.613098 0.279327
0.245972 0.729431 0.238556
0.270416 0.729431 0.239716
0.304016 0.732971 0.228577
0.391815 0.740051 0.206726
0.565674 0.747131 0.196472
0.722717 0.754181 0.229126
0.825867 0.763336 0.281586
0.885010 0.768951 0.313446
0.306671 0.845276 0.292206
0.331085 0.846527 0.292572
0.364746 0.848816 0.280701
0.444427 0.855896 0.259705
0.593323 0.859863 0.243042
0.749176 0.866516 0.248047
0.861938 0.870026 0.306580
0.923065 0.872314 0.352295
0.360016 0.913300 0.338623
0.384766 0.913300 0.341980
0.421570 0.916840 0.328796
0.508148 0.918060 0.320557
0.654755 0.920563 0.324249
0.803741 0.924133 0.348175
0.901489 0.927643 0.383545
0.958923 0.934509 0.416199
0.000000 0.007080 0.069275
0.014771 0.007080 0.090851
0.079285 0.010620 0.103424
0.199493 0.032837 0.122742
0.450226 0.074097 0.146912
0.690338 0.115906 0.173950
0.820526 0.153351 0.200775
0.895630 0.176666 0.220551
0.002930 0.042450 0.087677
0.017334 0.035370 0.098267
0.098267 0.035370 0.114655
0.232117 0.053131 0.126251
0.480713 0.094971 0.146912
0.694061 0.147736 0.177521
0.821777 0.185181 0.204315
0.899139 0.208496 0.220551
0.000000 0.114014 0.124634
0.027679 0.116943 0.124634
0.099854 0.119843 0.131714
0.274597 0.120483 0.131714
0.507446 0.163361 0.150024
0.711121 0.212067 0.174164
0.837585 0.246124 0.200775
0.909790 0.266541 0.217010
0.085907 0.307037 0.155182
0.107452 0.307373 0.158112
0.154541 0.310547 0.168091
0.270020 0.325714 0.158112
0.488129 0.350525 0.191010
0.701782 0.377594 0.212616
0.839478 0.392761 0.227173
0.913300 0.408386 0.242981
0.167145 0.550049 0.214569
0.187988 0.553589 0.217651
0.232239 0.553589 0.224731
0.321198 0.564209 0.196411
0.519104 0.574829 0.210999
0.691162 0.588776 0.263458
0.804077 0.599579 0.297363
0.880859 0.606628 0.310059
0.249512 0.729431 0.280060
0.270416 0.729431 0.283417
0.314636 0.730255 0.287140
0.387238 0.740051 0.257233
0.563416 0.747131 0.251770
0.725891 0.754181 0.275726
0.832001 0.762054 0.322296
0.891663 0.768341 0.348297
0.306671 0.846527 0.333527
0.331085 0.846527 0.335541
0.375977 0.848816 0.339996
0.444427 0.855896 0.311676
0.593323 0.860657 0.296295
0.749176 0.866516 0.306091
0.861938 0.870026 0.355591
0.925171 0.872314 0.402649
0.360016 0.913300 0.379974
0.384766 0.913483 0.382874
0.435730 0.913483 0.389954
0.508148 0.917053 0.371857
0.658295 0.920563 0.379181
0.803925 0.924133 0.406250
0.901489 0.927643 0.441589
0.958923 0.934509 0.474274
0.000000 0.022247 0.133179
0.006378 0.022247 0.151215
0.044159 0.027649 0.190155
0.198883 0.044495 0.213043
0.379700 0.106995 0.244263
0.619690 0.149567 0.278412
0.778320 0.186188 0.305206
0.868622 0.205963 0.321472
0.000000 0.056580 0.151581
0.006378 0.054077 0.162170
0.041656 0.055969 0.200775
0.214386 0.071747 0.220459
0.398651 0.134949 0.248749
0.635345 0.180267 0.279419
0.789520 0.214508 0.305573
0.879608 0.231598 0.321472
0.000641 0.134613 0.196625
0.021851 0.135651 0.202057
0.082184 0.141083 0.209747
0.255249 0.133759 0.240692
0.470642 0.184937 0.259430
0.690186 0.229675 0.285492
0.830750 0.254852 0.304993
0.905609 0.278168 0.321045
0.069214 0.315125 0.266083
0.089081 0.317627 0.267090
0.133331 0.321198 0.270660
0.260010 0.331787 0.274170
0.550507 0.335327 0.270660
0.741852 0.358246 0.290039
0.860443 0.383820 0.309784
0.928467 0.400299 0.325012
0.170654 0.553589 0.308380
0.191528 0.553589 0.311493
0.235199 0.556519 0.318390
0.337708 0.560669 0.340820
0.536346 0.574829 0.319000
0.727722 0.580048 0.353149
0.851105 0.588531 0.368774
0.924500 0.592499 0.379120
0.253052 0.729431 0.367859
0.274292 0.729431 0.369904
0.318176 0.730255 0.376648
0.416565 0.734802 0.394318
0.558838 0.747925 0.353699
0.727722 0.754181 0.378448
0.844482 0.758545 0.410522
0.909149 0.764801 0.432831
0.310242 0.846527 0.415894
0.334656 0.848816 0.416473
0.378876 0.848816 0.423187
0.470215 0.850067 0.440887
0.583130 0.862946 0.394684
0.752930 0.866516 0.417603
0.865448 0.868805 0.463348
0.928925 0.870026 0.499359
0.363525 0.913483 0.462372
0.388977 0.913483 0.465912
0.439087 0.913483 0.473999
0.537292 0.913483 0.494202
0.662842 0.920563 0.480896
0.807495 0.923920 0.510681
0.901489 0.927643 0.544769
0.959106 0.934509 0.568268
0.000000 0.057037 0.223755
0.006378 0.053497 0.234711
0.016846 0.063019 0.271606
0.157593 0.075714 0.338989
0.394409 0.124237 0.376312
0.565918 0.186646 0.403351
0.712952 0.225342 0.430634
0.803040 0.251160 0.449951
0.000000 0.088867 0.238281
0.006378 0.088867 0.245697
0.016846 0.089233 0.279053
0.155060 0.106537 0.351898
0.405823 0.152985 0.383728
0.584778 0.211853 0.410431
0.729736 0.252838 0.434143
0.817078 0.276245 0.453827
0.000641 0.170441 0.285126
0.021851 0.173950 0.289703
0.070343 0.180420 0.306335
0.149902 0.179138 0.374359
0.439148 0.217468 0.397522
0.629150 0.268829 0.425018
0.757050 0.310883 0.447235
0.840881 0.334198 0.463470
0.000580 0.338867 0.382019
0.026794 0.341827 0.384949
0.087311 0.348267 0.391418
0.222687 0.359497 0.396027
0.532806 0.349487 0.443939
0.735809 0.367035 0.457306
0.850830 0.398193 0.469940
0.924316 0.411560 0.479309
0.128204 0.564209 0.468719
0.148651 0.564209 0.468719
0.185822 0.567108 0.472229
0.284210 0.571716 0.479309
0.504089 0.581909 0.482849
0.754181 0.578339 0.475800
0.885437 0.578339 0.482849
0.962830 0.578339 0.489929
0.255341 0.732971 0.509094
0.276215 0.732971 0.512543
0.314209 0.733765 0.516968
0.401398 0.737335 0.531555
0.558167 0.744843 0.552338
0.738800 0.754181 0.520966
0.870026 0.754181 0.536743
0.927826 0.758362 0.561493
0.316925 0.848816 0.547333
0.337799 0.848816 0.547760
0.375610 0.848816 0.551331
0.461670 0.852356 0.569122
0.605194 0.855896 0.593323
0.757507 0.865234 0.572327
0.878357 0.866516 0.610779
0.933075 0.870026 0.616425
0.361084 0.916840 0.580872
0.388092 0.916840 0.584412
0.436157 0.916840 0.593964
0.532715 0.916840 0.615601
0.679077 0.917480 0.619965
0.811005 0.924133 0.622894
0.904999 0.931000 0.650330
0.962616 0.937897 0.672394
0.000000 0.101746 0.317200
0.006378 0.104492 0.324646
0.016846 0.105316 0.348602
0.055084 0.123993 0.432434
0.381958 0.154816 0.504333
0.595001 0.200012 0.535706
0.703796 0.250092 0.548401
0.778717 0.278412 0.561066
0.000000 0.137482 0.331696
0.006378 0.139862 0.338776
0.016846 0.143951 0.359406
0.050781 0.155182 0.438812
0.385498 0.186676 0.511383
0.605988 0.228302 0.542786
0.717499 0.278046 0.555450
0.789856 0.306366 0.568512
0.000000 0.218536 0.372559
0.017975 0.219666 0.377258
0.070953 0.228668 0.390442
0.123627 0.239899 0.447784
0.390289 0.251160 0.531982
0.633301 0.286530 0.556305
0.743317 0.332916 0.568970
0.816986 0.357697 0.585205
0.000000 0.372406 0.467804
0.007080 0.373566 0.469971
0.070679 0.381378 0.479614
0.186768 0.400696 0.504181
0.401337 0.394073 0.576874
0.683746 0.412018 0.587250
0.808411 0.437134 0.612030
0.868347 0.458618 0.618073
0.087006 0.580627 0.583374
0.111328 0.581085 0.583740
0.156281 0.584625 0.589813
0.259430 0.591705 0.596710
0.487640 0.596039 0.594452
0.730682 0.591248 0.635162
0.874817 0.588959 0.652863
0.936188 0.598145 0.665771
0.197266 0.743561 0.655151
0.214600 0.743561 0.655518
0.248260 0.747131 0.658691
0.331482 0.750641 0.662231
0.504089 0.758545 0.669739
0.694885 0.764801 0.679901
0.885437 0.751465 0.672821
0.972626 0.750641 0.672821
0.284790 0.855072 0.686768
0.302124 0.855072 0.689056
0.339935 0.855896 0.695526
0.419006 0.859436 0.705261
0.558533 0.866516 0.719391
0.737549 0.870026 0.725250
0.879608 0.867981 0.726471
0.948059 0.870026 0.721497
0.357269 0.920380 0.715729
0.378754 0.920380 0.719238
0.423004 0.920380 0.729675
0.513947 0.920563 0.741058
0.657837 0.923920 0.742950
0.808075 0.927460 0.741486
0.908569 0.934509 0.749603
0.966187 0.941406 0.772919
0.000000 0.147522 0.387756
0.006378 0.149811 0.394836
0.016846 0.152710 0.415436
0.033142 0.164948 0.485291
0.330017 0.185638 0.596863
0.605652 0.216217 0.638062
0.729828 0.257172 0.655518
0.789520 0.287567 0.659088
0.000000 0.182892 0.402588
0.006378 0.185547 0.409302
0.016846 0.189972 0.426056
0.034180 0.197052 0.489838
0.330017 0.217102 0.604370
0.610657 0.248047 0.642853
0.740417 0.285126 0.662598
0.797821 0.317596 0.665253
0.000000 0.256744 0.441833
0.014771 0.260284 0.446625
0.075714 0.267365 0.458923
0.137787 0.280884 0.505859
0.328156 0.279022 0.629333
0.616241 0.313141 0.653656
0.756226 0.343506 0.674866
0.814087 0.372040 0.678833
0.000000 0.402771 0.528748
0.006378 0.403351 0.532257
0.064636 0.411743 0.541870
0.178680 0.431061 0.571198
0.360992 0.428925 0.650116
0.631866 0.443390 0.689178
0.783875 0.462097 0.697754
0.858582 0.475830 0.711639
0.078705 0.596832 0.650391
0.109283 0.597290 0.653900
0.157959 0.602478 0.657440
0.244507 0.614288 0.671600
0.450226 0.624329 0.679108
0.643372 0.617279 0.738800
0.849243 0.607483 0.751465
0.927216 0.607269 0.782043
0.157623 0.758331 0.739624
0.174957 0.761047 0.741913
0.209015 0.761841 0.745422
0.296753 0.768921 0.753754
0.486176 0.770416 0.755249
0.679321 0.773926 0.769409
0.864441 0.763336 0.787903
0.958679 0.758362 0.804077
0.227631 0.862946 0.788696
0.244965 0.862946 0.789917
0.279205 0.864227 0.789917
0.361816 0.866516 0.793488
0.521301 0.873566 0.804077
0.689728 0.880646 0.818237
0.861938 0.873566 0.821777
0.976776 0.867737 0.812408
0.285309 0.932251 0.816803
0.306183 0.932251 0.820312
0.353790 0.931000 0.822418
0.459900 0.931000 0.826965
0.592102 0.935974 0.834473
0.767395 0.939514 0.844910
0.901489 0.939514 0.848602
0.973267 0.944946 0.858856
0.000000 0.176666 0.436005
0.006378 0.179993 0.443085
0.016846 0.183533 0.460114
0.033142 0.188263 0.523102
0.290009 0.208954 0.652649
0.594421 0.235962 0.696747
0.738983 0.264252 0.725861
0.810547 0.293213 0.732941
0.000000 0.215393 0.450500
0.006378 0.215393 0.457581
0.016846 0.218903 0.471100
0.041779 0.226532 0.527679
0.283020 0.240112 0.663605
0.597137 0.267822 0.700836
0.743042 0.295532 0.733246
0.818146 0.321136 0.740326
0.000000 0.283600 0.487823
0.014771 0.284393 0.491333
0.082184 0.290680 0.501953
0.145264 0.305847 0.547058
0.275909 0.301300 0.684937
0.597534 0.329590 0.717529
0.747498 0.359741 0.741241
0.834869 0.376007 0.753967
0.000000 0.422516 0.570129
0.006378 0.426086 0.573639
0.063995 0.433167 0.584076
0.184753 0.450836 0.612366
0.354156 0.461395 0.689667
0.597321 0.456085 0.763245
0.766388 0.478119 0.766785
0.857727 0.485168 0.776184
0.071625 0.610016 0.692200
0.103455 0.610199 0.695435
0.157532 0.616638 0.701752
0.244263 0.627686 0.717316
0.409393 0.645386 0.759003
0.588776 0.621613 0.837036
0.804718 0.630798 0.828674
0.893097 0.634125 0.825317
0.127319 0.772491 0.788086
0.155304 0.772491 0.791626
0.199951 0.776031 0.795166
0.283783 0.783112 0.808502
0.419586 0.794159 0.831390
0.635437 0.797882 0.862610
0.836548 0.776215 0.865082
0.929749 0.776031 0.859436
0.160309 0.878998 0.850708
0.177460 0.882538 0.851227
0.215057 0.882538 0.855927
0.298462 0.889618 0.864868
0.433044 0.897949 0.883789
0.650238 0.898956 0.899597
0.858398 0.882751 0.889618
0.962616 0.877106 0.896667
0.223022 0.944946 0.884613
0.240570 0.944946 0.884613
0.281097 0.944946 0.887970
0.416992 0.941589 0.884827
0.584259 0.944946 0.895233
0.756744 0.947876 0.909393
0.877991 0.948669 0.921448
0.965973 0.948669 0.926880
