滤镜资源/Professional Luts Collection/Triune-Digital-Cinematic-LUTs/3D LUTs (CUBE)/REDLOGFILM/The Matrix - REDlogFilm.cube
#Created by Benjamin (IWLTBAP) : http://luts.iwltbap.com
#Copyright: (C) Copyright 2016 Triune Films and IWLTBAP
TITLE "Blockbuster LUTs Pack (REDlogFilm)"
#LUT size
LUT_3D_SIZE 32
#LUT data points
0.003540 0.000000 0.007080
0.010620 0.000000 0.007080
0.022369 0.000000 0.007080
0.031921 0.000000 0.007080
0.042114 0.000000 0.007080
0.050018 0.000000 0.007080
0.064392 0.000000 0.010620
0.080261 0.003143 0.013763
0.099854 0.003540 0.017059
0.124329 0.007080 0.021210
0.158417 0.009338 0.024780
0.196350 0.011871 0.029572
0.242340 0.017700 0.036377
0.293213 0.024780 0.043945
0.352417 0.034271 0.049530
0.409821 0.045471 0.056580
0.476227 0.060577 0.064117
0.538788 0.072052 0.070740
0.595398 0.083588 0.077820
0.646759 0.096710 0.081970
0.694061 0.108826 0.088440
0.732483 0.121033 0.096283
0.768707 0.129181 0.100891
0.799469 0.138824 0.108307
0.825287 0.146271 0.114441
0.847443 0.152039 0.120209
0.868805 0.157227 0.125366
0.886108 0.162262 0.130402
0.902527 0.166046 0.134216
0.917328 0.173828 0.138458
0.929871 0.177490 0.142120
0.939850 0.180389 0.145020
0.003540 0.007080 0.007080
0.010620 0.007080 0.009979
0.019470 0.007080 0.007080
0.028992 0.007080 0.007080
0.039551 0.007080 0.009979
0.048645 0.007080 0.009979
0.061523 0.007080 0.013519
0.077332 0.007324 0.013763
0.096985 0.010620 0.017059
0.124786 0.011230 0.021667
0.158417 0.013489 0.027008
0.197968 0.017670 0.031219
0.242340 0.022888 0.038300
0.294586 0.030457 0.043945
0.352417 0.041351 0.051971
0.412750 0.052551 0.056580
0.476227 0.064758 0.064117
0.541687 0.077576 0.070740
0.597137 0.089539 0.076019
0.649689 0.103210 0.081970
0.694061 0.115753 0.088257
0.732483 0.126007 0.096283
0.768707 0.136261 0.100891
0.801636 0.143707 0.108307
0.825287 0.150452 0.114441
0.847443 0.159149 0.120209
0.868805 0.164307 0.125366
0.889038 0.169342 0.130402
0.902527 0.173157 0.134216
0.917328 0.178009 0.138458
0.929871 0.182312 0.142120
0.939850 0.187500 0.145020
0.003540 0.012909 0.007080
0.007721 0.012909 0.007080
0.016418 0.012909 0.010620
0.025421 0.012909 0.010040
0.035950 0.012909 0.010956
0.045685 0.012909 0.013580
0.057922 0.013092 0.017120
0.076691 0.015839 0.017120
0.096924 0.015839 0.020630
0.124329 0.019409 0.024200
0.160645 0.019409 0.027710
0.199860 0.024780 0.033081
0.242340 0.031006 0.039917
0.295227 0.038574 0.045410
0.355408 0.047180 0.051971
0.413361 0.058380 0.056580
0.479187 0.070374 0.063660
0.542297 0.084381 0.070740
0.598907 0.098358 0.075378
0.650330 0.109589 0.081970
0.696808 0.121155 0.087616
0.735474 0.133362 0.096283
0.768707 0.145050 0.100891
0.801636 0.152466 0.108307
0.825287 0.158600 0.114441
0.850403 0.164886 0.120209
0.868805 0.173065 0.125366
0.889221 0.178101 0.130402
0.902710 0.181915 0.134216
0.917328 0.186157 0.138458
0.929871 0.189819 0.142120
0.939850 0.193268 0.145020
0.003540 0.018188 0.007080
0.007721 0.018188 0.007080
0.015839 0.021149 0.010040
0.024841 0.021301 0.010620
0.032288 0.021301 0.013702
0.043365 0.021301 0.015533
0.057343 0.021301 0.020782
0.073212 0.021729 0.020782
0.093231 0.024841 0.024323
0.121674 0.025696 0.027863
0.158417 0.028381 0.030548
0.199860 0.033203 0.034943
0.243378 0.039001 0.039917
0.296722 0.046082 0.045990
0.355988 0.055603 0.051971
0.416473 0.066772 0.056580
0.480194 0.078339 0.063660
0.545410 0.091583 0.068939
0.600891 0.105347 0.075378
0.652832 0.118011 0.081970
0.697174 0.130127 0.088013
0.736053 0.142334 0.096283
0.769958 0.152771 0.102142
0.801636 0.161469 0.108307
0.827179 0.167572 0.114441
0.850891 0.173340 0.120209
0.868805 0.178955 0.125366
0.889221 0.187073 0.130402
0.902710 0.190887 0.134216
0.917328 0.195160 0.138458
0.929871 0.198792 0.142120
0.939850 0.201691 0.145020
0.003876 0.028290 0.010956
0.010620 0.028290 0.010956
0.016418 0.028290 0.010956
0.024841 0.028290 0.010956
0.035370 0.028290 0.014160
0.042938 0.029297 0.017700
0.054169 0.031830 0.021423
0.073181 0.031830 0.024780
0.092804 0.035370 0.027649
0.120789 0.035828 0.028748
0.154541 0.039276 0.032166
0.195984 0.043701 0.036621
0.243011 0.049500 0.042816
0.296722 0.054565 0.046326
0.356323 0.066101 0.051971
0.417236 0.077301 0.056580
0.483307 0.088867 0.063660
0.545868 0.101685 0.070740
0.602478 0.114655 0.075378
0.653595 0.128571 0.081970
0.697601 0.140686 0.088440
0.736053 0.152863 0.096283
0.772247 0.161011 0.104431
0.801636 0.171967 0.108307
0.827942 0.178101 0.114441
0.850891 0.183899 0.120209
0.870392 0.189056 0.125366
0.889679 0.197174 0.130402
0.902710 0.201416 0.134216
0.917328 0.205658 0.138458
0.929871 0.209320 0.142120
0.939850 0.212250 0.145020
0.007080 0.039398 0.015533
0.011230 0.039398 0.014160
0.017792 0.039398 0.014160
0.024841 0.039398 0.014160
0.035370 0.039398 0.014496
0.046478 0.040771 0.015533
0.057343 0.042938 0.021423
0.074524 0.042938 0.024780
0.092804 0.045837 0.028290
0.120789 0.047852 0.032288
0.151337 0.052246 0.036743
0.191437 0.056152 0.040283
0.238464 0.062012 0.043823
0.295380 0.069061 0.047516
0.358154 0.077209 0.053070
0.420441 0.088440 0.057983
0.483734 0.100433 0.064117
0.549377 0.112854 0.072052
0.602478 0.126770 0.075653
0.654602 0.140411 0.081970
0.698944 0.153137 0.089783
0.736603 0.163971 0.096283
0.772247 0.173492 0.104431
0.804352 0.183075 0.111023
0.828857 0.189209 0.114441
0.850952 0.194977 0.120209
0.870392 0.201538 0.125366
0.889679 0.208282 0.130402
0.902710 0.212524 0.134216
0.917847 0.216766 0.138458
0.930603 0.220428 0.142120
0.939850 0.223328 0.145020
0.010620 0.053986 0.021423
0.014984 0.053986 0.018494
0.020172 0.053986 0.017853
0.028381 0.056915 0.017700
0.038757 0.057343 0.017853
0.046661 0.057526 0.019043
0.061066 0.057526 0.021423
0.076904 0.060486 0.027924
0.096344 0.061066 0.031219
0.120789 0.065063 0.036011
0.151337 0.070374 0.041351
0.187988 0.076477 0.046173
0.231537 0.083313 0.049896
0.285950 0.090881 0.054596
0.350983 0.098907 0.056793
0.416687 0.106750 0.060303
0.486816 0.118103 0.064117
0.549377 0.133148 0.072052
0.604858 0.144684 0.078003
0.656769 0.157593 0.085480
0.700317 0.169922 0.091156
0.739563 0.181915 0.096466
0.772247 0.190063 0.104431
0.805176 0.197479 0.111847
0.828857 0.203796 0.117981
0.854462 0.209564 0.120453
0.872345 0.218109 0.125580
0.892761 0.223145 0.130615
0.906219 0.226929 0.134216
0.920837 0.231384 0.138458
0.932953 0.235474 0.142120
0.940063 0.241272 0.145020
0.013763 0.076324 0.027924
0.017944 0.076324 0.024994
0.026489 0.076324 0.024353
0.031952 0.076324 0.021240
0.041687 0.079468 0.021179
0.050018 0.079468 0.024353
0.067566 0.079834 0.024780
0.083405 0.083008 0.027924
0.100098 0.083405 0.034119
0.123474 0.087372 0.042511
0.151337 0.093597 0.047852
0.184448 0.101929 0.052643
0.225067 0.108765 0.056213
0.277924 0.118378 0.061249
0.339081 0.127869 0.063293
0.406982 0.135559 0.066803
0.477448 0.146698 0.073486
0.544434 0.158600 0.078735
0.602478 0.169403 0.082458
0.656769 0.179504 0.088013
0.701141 0.192230 0.094696
0.739563 0.200897 0.099792
0.775757 0.209045 0.107574
0.805176 0.216461 0.112793
0.831146 0.222961 0.117981
0.854462 0.228760 0.123749
0.873901 0.237061 0.128937
0.892822 0.242096 0.133972
0.906219 0.245911 0.137543
0.920837 0.250153 0.141632
0.933411 0.254181 0.145264
0.943420 0.257111 0.148163
0.020599 0.102783 0.034729
0.024780 0.102783 0.034729
0.029968 0.102783 0.031799
0.038361 0.105896 0.031219
0.045349 0.106323 0.027649
0.056458 0.106323 0.027649
0.070862 0.106537 0.027649
0.086700 0.109863 0.027924
0.106934 0.112762 0.034119
0.127258 0.116943 0.042877
0.155548 0.122711 0.048889
0.184448 0.129425 0.057220
0.224640 0.139160 0.064056
0.271088 0.150299 0.069489
0.325378 0.161835 0.076569
0.389862 0.172394 0.080109
0.459778 0.181030 0.087158
0.530731 0.191895 0.089142
0.596008 0.199432 0.091339
0.654480 0.206573 0.094879
0.700958 0.215790 0.097595
0.739563 0.224457 0.103363
0.775757 0.232574 0.110870
0.806519 0.240021 0.118317
0.831146 0.246124 0.121521
0.854462 0.251923 0.126709
0.873901 0.257080 0.131836
0.893188 0.262115 0.136871
0.906219 0.266327 0.140656
0.920837 0.273712 0.144409
0.933411 0.277344 0.145660
0.943420 0.280273 0.148560
0.032715 0.142914 0.046448
0.036896 0.142914 0.043945
0.042084 0.142914 0.042877
0.047394 0.146027 0.040222
0.056702 0.146454 0.039368
0.064606 0.146454 0.038422
0.078827 0.149994 0.035797
0.094849 0.149994 0.035797
0.111572 0.152893 0.035797
0.135406 0.157074 0.042450
0.162384 0.160583 0.051788
0.191956 0.168915 0.061371
0.227631 0.178864 0.071167
0.270447 0.189941 0.079773
0.321686 0.201508 0.087769
0.374451 0.212708 0.095428
0.440399 0.224243 0.099915
0.510895 0.232208 0.104797
0.577484 0.239532 0.107422
0.635895 0.246094 0.110992
0.688812 0.252563 0.114075
0.732391 0.259613 0.118042
0.771790 0.264587 0.122559
0.804749 0.272003 0.126465
0.828400 0.278107 0.129486
0.850952 0.283447 0.134796
0.873474 0.288635 0.139954
0.893188 0.293671 0.141907
0.906219 0.297485 0.145264
0.920837 0.301697 0.148987
0.933411 0.305359 0.149628
0.943420 0.308258 0.152557
0.048218 0.191193 0.057556
0.051758 0.191193 0.055298
0.056274 0.193420 0.054596
0.061584 0.194305 0.054016
0.067810 0.195068 0.051788
0.077026 0.196960 0.049103
0.087891 0.198273 0.048218
0.103699 0.200500 0.046936
0.120422 0.201782 0.044708
0.144257 0.205353 0.044708
0.172546 0.208862 0.048218
0.203094 0.215942 0.059143
0.236481 0.224030 0.071747
0.276245 0.232880 0.082886
0.323944 0.243164 0.096649
0.374969 0.252106 0.104309
0.433777 0.263672 0.112335
0.496704 0.275177 0.121216
0.559052 0.284271 0.124756
0.618134 0.292114 0.128906
0.671082 0.297760 0.131805
0.714630 0.305145 0.136139
0.755463 0.311066 0.138885
0.792267 0.314972 0.142456
0.819519 0.318512 0.145966
0.848633 0.322052 0.147217
0.870392 0.324951 0.148865
0.890533 0.327759 0.150330
0.906219 0.330414 0.153046
0.920837 0.334503 0.154846
0.933411 0.337494 0.157898
0.943420 0.338776 0.157898
0.066193 0.247131 0.069733
0.069092 0.247131 0.069733
0.072571 0.250061 0.068451
0.077301 0.250641 0.066620
0.083527 0.251007 0.064941
0.090179 0.252014 0.061371
0.102112 0.254181 0.061371
0.116882 0.254181 0.059509
0.133575 0.257721 0.057861
0.156189 0.258972 0.054321
0.180908 0.263489 0.054321
0.214020 0.266052 0.055573
0.249664 0.271881 0.068207
0.287903 0.279175 0.083130
0.332397 0.288452 0.099213
0.379761 0.298401 0.112701
0.437317 0.309967 0.121979
0.496307 0.319183 0.133484
0.549408 0.331848 0.140320
0.603699 0.339691 0.146912
0.655365 0.347626 0.151093
0.699402 0.353241 0.155365
0.739746 0.358612 0.158752
0.776550 0.364777 0.161682
0.806366 0.367371 0.165222
0.831970 0.370911 0.168701
0.854980 0.374451 0.168762
0.877350 0.377533 0.171875
0.892914 0.377991 0.172302
0.909515 0.380798 0.173584
0.925079 0.382172 0.175842
0.935059 0.385040 0.175842
0.083374 0.303497 0.083374
0.087555 0.306396 0.082367
0.091736 0.307037 0.082367
0.094940 0.307037 0.080261
0.100739 0.307037 0.078827
0.107605 0.308380 0.075287
0.118500 0.310547 0.075287
0.131805 0.310547 0.071747
0.147491 0.314117 0.071747
0.168365 0.314545 0.068207
0.193573 0.317627 0.063446
0.224396 0.322449 0.061371
0.261047 0.325714 0.068207
0.302826 0.333282 0.079834
0.347473 0.340271 0.099365
0.393646 0.348969 0.116211
0.442413 0.359497 0.131317
0.499878 0.371002 0.143829
0.552917 0.378876 0.154114
0.604309 0.387970 0.160797
0.648071 0.397156 0.166443
0.686523 0.405823 0.175110
0.726257 0.410461 0.178894
0.761719 0.415649 0.182404
0.789154 0.419189 0.185974
0.818054 0.422668 0.188416
0.841064 0.424316 0.189484
0.862427 0.426270 0.192596
0.879242 0.429596 0.193024
0.895599 0.430328 0.196075
0.911194 0.433350 0.196564
0.921173 0.433350 0.196564
0.102051 0.367462 0.098541
0.106262 0.367462 0.097015
0.111420 0.367462 0.097015
0.116730 0.367462 0.095428
0.121429 0.368988 0.093475
0.127991 0.371033 0.090088
0.138000 0.371216 0.089966
0.148956 0.374542 0.086395
0.163666 0.374542 0.084991
0.185516 0.378082 0.082886
0.209442 0.380310 0.079315
0.239014 0.383118 0.075806
0.275696 0.388702 0.072266
0.321503 0.392242 0.079315
0.365662 0.399323 0.096863
0.410339 0.406403 0.115723
0.461121 0.413910 0.134857
0.510651 0.423859 0.151215
0.556854 0.434265 0.161804
0.607269 0.440857 0.171906
0.651611 0.446503 0.181091
0.690033 0.454407 0.186218
0.722717 0.459747 0.194397
0.753448 0.464996 0.198273
0.779327 0.468536 0.203125
0.804932 0.472076 0.206604
0.826416 0.473663 0.208252
0.848785 0.475616 0.211731
0.865631 0.478943 0.213531
0.883972 0.479126 0.215240
0.897156 0.481781 0.217926
0.910034 0.482697 0.218811
0.125153 0.432678 0.115631
0.126862 0.433167 0.115173
0.131531 0.433777 0.112091
0.136261 0.433777 0.112091
0.142487 0.433777 0.110657
0.149048 0.435150 0.108551
0.157562 0.437317 0.105011
0.170044 0.437317 0.101471
0.183197 0.440857 0.101013
0.203064 0.441315 0.097931
0.228058 0.444397 0.094604
0.255310 0.447937 0.090851
0.292206 0.451477 0.083801
0.336548 0.455017 0.083801
0.384277 0.460999 0.093323
0.432922 0.465607 0.113281
0.480225 0.472687 0.134857
0.529297 0.478668 0.154755
0.573273 0.485504 0.168488
0.613251 0.492096 0.179901
0.651611 0.498566 0.190186
0.690033 0.502075 0.200531
0.726257 0.505646 0.205902
0.755920 0.511353 0.213318
0.780518 0.515045 0.215912
0.801453 0.517273 0.221680
0.822815 0.519775 0.225281
0.843231 0.523315 0.228363
0.857605 0.524200 0.231262
0.874878 0.526855 0.232849
0.888550 0.528564 0.236511
0.898529 0.530365 0.238342
0.144012 0.494720 0.130371
0.148193 0.494720 0.130371
0.153381 0.494720 0.130371
0.158661 0.494720 0.126831
0.161865 0.494720 0.125977
0.168427 0.496094 0.123291
0.177094 0.498260 0.119751
0.189270 0.498260 0.116638
0.202545 0.501678 0.116211
0.221924 0.501770 0.112701
0.246338 0.504547 0.109131
0.274139 0.505341 0.105621
0.308014 0.509369 0.098541
0.351318 0.512909 0.095001
0.402069 0.516449 0.095001
0.451782 0.519989 0.108643
0.499542 0.523956 0.131775
0.545715 0.530609 0.154755
0.586700 0.534119 0.172028
0.627991 0.538788 0.187561
0.662537 0.544434 0.200012
0.695862 0.548279 0.208954
0.727448 0.551819 0.217133
0.757019 0.555359 0.224518
0.782867 0.558899 0.230652
0.804993 0.562408 0.232941
0.825867 0.564514 0.238068
0.843689 0.566010 0.243103
0.856720 0.569489 0.243530
0.874390 0.570526 0.247620
0.887451 0.573029 0.251251
0.897400 0.573547 0.253662
0.166687 0.550049 0.148987
0.168396 0.550049 0.146545
0.172943 0.550049 0.145905
0.178253 0.550049 0.145477
0.184479 0.553589 0.141998
0.191010 0.553589 0.141022
0.199524 0.553589 0.138397
0.211548 0.553589 0.134857
0.222229 0.556519 0.131317
0.241058 0.557129 0.127777
0.263153 0.559387 0.124237
0.291443 0.560669 0.121124
0.326660 0.564209 0.116608
0.368835 0.567749 0.109009
0.417633 0.569763 0.106537
0.467377 0.571259 0.110107
0.518677 0.574829 0.131775
0.564850 0.578339 0.154755
0.604614 0.581909 0.172028
0.642456 0.585602 0.188690
0.676819 0.591248 0.204773
0.707855 0.592834 0.216980
0.738983 0.597443 0.225128
0.764526 0.601318 0.232574
0.785583 0.606201 0.241791
0.804993 0.606628 0.247528
0.826355 0.610199 0.251587
0.843689 0.612823 0.254669
0.860077 0.613708 0.258453
0.874878 0.616821 0.262695
0.887451 0.617279 0.266174
0.897400 0.617279 0.266174
0.186584 0.601105 0.165375
0.190765 0.601105 0.165375
0.195953 0.601105 0.164032
0.201233 0.601105 0.162262
0.207458 0.604645 0.161469
0.212677 0.604645 0.158295
0.222504 0.604645 0.154755
0.231873 0.604645 0.153412
0.245239 0.607574 0.149872
0.260956 0.608185 0.144135
0.282593 0.610443 0.141907
0.310883 0.611725 0.139282
0.345245 0.615265 0.135742
0.384796 0.616760 0.125122
0.432678 0.618805 0.121582
0.482391 0.622314 0.121582
0.531067 0.625000 0.132202
0.579895 0.625885 0.151215
0.620361 0.629395 0.174438
0.657501 0.632965 0.192200
0.689117 0.636475 0.207062
0.718933 0.640015 0.220825
0.750488 0.643555 0.233093
0.776001 0.647095 0.244049
0.795837 0.650574 0.250183
0.813385 0.652802 0.255920
0.831207 0.654419 0.261139
0.847229 0.657684 0.266174
0.860260 0.657684 0.269928
0.874878 0.660431 0.274200
0.887451 0.661255 0.277832
0.897400 0.663452 0.280762
0.207397 0.647308 0.182617
0.211578 0.647308 0.182617
0.216766 0.647308 0.181488
0.222046 0.647308 0.179504
0.227936 0.647308 0.178741
0.231293 0.647552 0.175568
0.239990 0.650848 0.172028
0.252655 0.650848 0.168854
0.265442 0.650848 0.167358
0.281311 0.654388 0.160980
0.299896 0.654388 0.156769
0.328186 0.657928 0.153198
0.362732 0.657928 0.149780
0.400940 0.661438 0.145752
0.446625 0.665009 0.136658
0.494446 0.665009 0.135529
0.544098 0.668518 0.139069
0.590302 0.670959 0.151215
0.633148 0.672089 0.172028
0.671417 0.675598 0.192200
0.703094 0.679138 0.207886
0.732849 0.682343 0.223602
0.760162 0.685089 0.237152
0.782898 0.687286 0.247375
0.803955 0.689758 0.257019
0.823792 0.692108 0.262817
0.840027 0.693756 0.268463
0.855438 0.695709 0.275452
0.868439 0.699036 0.280334
0.879517 0.699768 0.284607
0.891449 0.700378 0.288239
0.900970 0.702789 0.291168
0.227570 0.688599 0.199280
0.231781 0.688599 0.199280
0.236969 0.690979 0.198669
0.242249 0.691559 0.196198
0.247864 0.692139 0.195404
0.251495 0.692139 0.192200
0.260162 0.692139 0.188690
0.272888 0.692139 0.185547
0.285645 0.695068 0.184540
0.301514 0.695679 0.181000
0.320099 0.697327 0.173920
0.344849 0.699219 0.169708
0.379486 0.699646 0.166870
0.415161 0.702759 0.162384
0.460236 0.706299 0.154388
0.506439 0.708710 0.152710
0.554199 0.709839 0.149750
0.601715 0.712769 0.157562
0.640839 0.713379 0.171387
0.681519 0.716888 0.192200
0.713165 0.719025 0.207886
0.742950 0.720612 0.224396
0.770996 0.723969 0.237152
0.794312 0.726929 0.249786
0.814056 0.728149 0.260071
0.830414 0.730438 0.268707
0.848175 0.731049 0.275513
0.865540 0.733551 0.283112
0.875214 0.733978 0.286926
0.889099 0.737518 0.291168
0.898041 0.738159 0.294830
0.908051 0.741058 0.297699
0.245972 0.726685 0.214935
0.250153 0.729431 0.214935
0.255341 0.729431 0.214722
0.260620 0.729431 0.211426
0.263336 0.729431 0.210266
0.269867 0.729431 0.207886
0.278564 0.730255 0.204346
0.291260 0.730255 0.203522
0.304016 0.732971 0.200012
0.319916 0.732971 0.196014
0.338470 0.736023 0.190674
0.361969 0.736511 0.184570
0.392609 0.738342 0.181274
0.430847 0.740051 0.177277
0.472992 0.743561 0.169250
0.518860 0.744385 0.165436
0.563416 0.747131 0.164642
0.609589 0.747925 0.164642
0.650024 0.750641 0.174438
0.687805 0.752075 0.188690
0.722351 0.754181 0.207062
0.752136 0.755768 0.224396
0.780212 0.758545 0.238831
0.803497 0.761261 0.251984
0.823273 0.763336 0.260712
0.839630 0.765564 0.271484
0.855804 0.765625 0.279083
0.871185 0.768341 0.285614
0.884216 0.768951 0.292572
0.895294 0.769653 0.298157
0.907227 0.772705 0.304016
0.914307 0.772705 0.306915
0.263275 0.763550 0.230682
0.267487 0.763550 0.230682
0.272675 0.763550 0.228485
0.277954 0.763550 0.227905
0.283813 0.764343 0.224396
0.287170 0.764343 0.223022
0.295868 0.767090 0.220642
0.308563 0.767090 0.217316
0.321320 0.767090 0.214386
0.337646 0.767853 0.209808
0.355804 0.770630 0.204468
0.375732 0.771423 0.198853
0.408356 0.774170 0.195312
0.443787 0.774933 0.191772
0.483490 0.777710 0.183807
0.527832 0.778473 0.178925
0.572052 0.781250 0.177948
0.618256 0.782013 0.177612
0.657562 0.784790 0.178741
0.695831 0.785553 0.192383
0.730225 0.788300 0.207062
0.760773 0.789093 0.224396
0.788849 0.791870 0.240692
0.814362 0.792633 0.251984
0.831909 0.795380 0.263763
0.848267 0.796143 0.272247
0.864441 0.798920 0.282593
0.879852 0.798920 0.290375
0.890289 0.799713 0.297485
0.903412 0.802460 0.306000
0.912994 0.802460 0.313293
0.922943 0.802460 0.316345
0.279602 0.795135 0.244232
0.283783 0.795135 0.244232
0.288971 0.795135 0.244232
0.294250 0.795135 0.241119
0.300140 0.796997 0.240356
0.303467 0.796997 0.237152
0.312195 0.796997 0.233612
0.324860 0.798676 0.231750
0.337646 0.798676 0.228210
0.353973 0.800537 0.226105
0.372101 0.800934 0.220764
0.392029 0.803497 0.214050
0.420868 0.804077 0.207855
0.458252 0.805756 0.203796
0.496277 0.808197 0.201782
0.535980 0.809296 0.192841
0.580231 0.811127 0.191162
0.626404 0.812805 0.191162
0.665710 0.814697 0.191162
0.704010 0.816376 0.196991
0.735657 0.818207 0.209747
0.767853 0.819885 0.224396
0.796997 0.819885 0.240692
0.822510 0.823456 0.253845
0.840057 0.823456 0.264862
0.858276 0.825073 0.277649
0.874451 0.826965 0.286316
0.889832 0.826965 0.297638
0.901031 0.828491 0.307526
0.913452 0.830505 0.316010
0.924011 0.830505 0.323303
0.931091 0.830505 0.329132
0.294434 0.824188 0.256866
0.298615 0.824188 0.256866
0.303802 0.824188 0.256104
0.309113 0.824188 0.255524
0.314972 0.824188 0.251984
0.318329 0.824188 0.250610
0.327026 0.826416 0.248260
0.339691 0.826416 0.244934
0.353088 0.827759 0.242004
0.368805 0.827759 0.237854
0.386932 0.829956 0.232117
0.406891 0.831268 0.225983
0.433197 0.832306 0.220154
0.469208 0.834839 0.216614
0.505371 0.834839 0.214172
0.543884 0.837860 0.206512
0.587616 0.838348 0.202484
0.631592 0.840546 0.202484
0.670715 0.841888 0.202484
0.707886 0.842499 0.203827
0.743042 0.845428 0.211426
0.772827 0.845428 0.224396
0.802734 0.848969 0.240692
0.828613 0.848969 0.257721
0.849701 0.848969 0.269989
0.869507 0.848969 0.283691
0.885132 0.852509 0.297607
0.901581 0.852509 0.310791
0.911987 0.852509 0.318787
0.924713 0.854370 0.328644
0.934967 0.856049 0.335938
0.942047 0.856049 0.341766
0.306671 0.845276 0.267792
0.310883 0.845276 0.267792
0.316040 0.846527 0.267792
0.321350 0.846527 0.264679
0.327209 0.846527 0.263885
0.330597 0.848816 0.260712
0.339264 0.848816 0.257172
0.351959 0.848816 0.255920
0.365356 0.848816 0.253632
0.381073 0.850067 0.249664
0.399170 0.852356 0.244324
0.419128 0.852356 0.238220
0.444427 0.855896 0.231415
0.478607 0.855896 0.227356
0.515045 0.858337 0.224091
0.553070 0.859436 0.218262
0.593323 0.859863 0.213501
0.636475 0.862946 0.211212
0.675751 0.862946 0.211212
0.714020 0.866516 0.213501
0.747925 0.866516 0.216217
0.779724 0.866516 0.229187
0.810547 0.868805 0.247345
0.837341 0.870026 0.267303
0.858398 0.870026 0.282166
0.878235 0.870026 0.295990
0.894806 0.870026 0.307922
0.910309 0.871887 0.321198
0.921631 0.872314 0.330841
0.933441 0.873566 0.339539
0.942352 0.873566 0.346863
0.951721 0.873566 0.352692
0.318207 0.868591 0.279327
0.322418 0.868591 0.279327
0.327576 0.868591 0.279327
0.332886 0.868652 0.276215
0.338745 0.868652 0.275421
0.342133 0.868652 0.270874
0.350800 0.868652 0.268707
0.363495 0.868652 0.265564
0.376312 0.871582 0.262268
0.392609 0.872192 0.261200
0.410706 0.872192 0.255859
0.430664 0.873444 0.249756
0.455963 0.875732 0.242950
0.486603 0.875732 0.236938
0.524292 0.879242 0.233398
0.559784 0.879242 0.230255
0.602570 0.879242 0.226654
0.647003 0.882812 0.229706
0.688477 0.882812 0.229706
0.726746 0.882874 0.233154
0.758392 0.886322 0.236725
0.791687 0.886322 0.245392
0.823273 0.886322 0.261688
0.848877 0.886322 0.280121
0.869934 0.886383 0.297150
0.889771 0.886383 0.310974
0.906006 0.889893 0.321411
0.921387 0.889893 0.334564
0.931091 0.889893 0.342621
0.941528 0.889923 0.351074
0.951050 0.890564 0.359039
0.960968 0.893402 0.367676
0.328583 0.886505 0.289673
0.332764 0.886505 0.289673
0.337952 0.886505 0.286713
0.343262 0.886505 0.286163
0.349457 0.886505 0.282593
0.354065 0.886505 0.281250
0.362549 0.886505 0.279083
0.373444 0.888062 0.275513
0.388214 0.890015 0.274200
0.404114 0.890015 0.269623
0.422668 0.890015 0.264923
0.442627 0.891266 0.261383
0.464355 0.893555 0.254303
0.495026 0.893555 0.247314
0.532715 0.897095 0.245270
0.571228 0.897095 0.242249
0.614502 0.897095 0.243347
0.658936 0.897095 0.248199
0.700470 0.899048 0.251984
0.738739 0.899048 0.259705
0.773926 0.900635 0.265350
0.806427 0.900635 0.275574
0.835266 0.902557 0.287567
0.860809 0.902557 0.302399
0.880310 0.902557 0.313049
0.900116 0.904175 0.324585
0.914429 0.904175 0.333344
0.928680 0.904175 0.346985
0.939667 0.905914 0.354553
0.951813 0.906647 0.365509
0.960724 0.907715 0.374512
0.967804 0.907715 0.383240
0.344849 0.900726 0.302856
0.349030 0.900726 0.302856
0.354218 0.900726 0.299896
0.359497 0.903809 0.299316
0.365356 0.903809 0.295776
0.369171 0.903809 0.294403
0.380768 0.903809 0.292236
0.393219 0.903870 0.292175
0.406433 0.904266 0.288727
0.422760 0.904266 0.285156
0.443970 0.906525 0.282471
0.463928 0.907349 0.277649
0.488770 0.907806 0.273651
0.517853 0.909332 0.268616
0.553986 0.910889 0.266571
0.592468 0.911346 0.266571
0.635834 0.911346 0.269684
