滤镜资源/Professional Luts Collection/Triune-Digital-Cinematic-LUTs/3D LUTs (CUBE)/REDLOGFILM/The Ring - REDlogFilm.cube
#Created by Benjamin (IWLTBAP) : http://luts.iwltbap.com
#Copyright: (C) Copyright 2016 Triune Films and IWLTBAP
TITLE "Blockbuster LUTs Pack (REDlogFilm)"
#LUT size
LUT_3D_SIZE 8
#LUT data points
DOMAIN_MIN 0.000000 0.000000 0.000000
DOMAIN_MAX 0.903226 0.903226 0.903226
0.000000 0.000000 0.000000
0.022736 0.000000 0.000000
0.068604 0.000000 0.000000
0.167877 0.002838 0.002563
0.311646 0.015289 0.010223
0.450378 0.037964 0.022614
0.560699 0.057190 0.039368
0.633026 0.070618 0.050201
0.000000 0.025604 0.000000
0.022736 0.026703 0.000000
0.070038 0.027039 0.000305
0.171844 0.033508 0.002838
0.313049 0.047424 0.010223
0.453247 0.070068 0.025513
0.560699 0.087891 0.040802
0.636627 0.100891 0.051636
0.000000 0.085205 0.002869
0.022736 0.086304 0.002869
0.068268 0.087738 0.003174
0.178375 0.095673 0.007996
0.319611 0.112610 0.015930
0.459778 0.131592 0.032379
0.566132 0.146851 0.047302
0.638367 0.157715 0.055969
0.000000 0.217499 0.018707
0.022736 0.217499 0.018982
0.059998 0.220032 0.021515
0.165619 0.225159 0.026642
0.326965 0.237610 0.039154
0.469635 0.251221 0.052979
0.579620 0.264679 0.065430
0.651459 0.274536 0.074158
0.000000 0.400970 0.063812
0.022736 0.402405 0.065247
0.059998 0.400970 0.066345
0.117981 0.406067 0.069183
0.306549 0.413757 0.079102
0.474457 0.425049 0.090454
0.589539 0.435974 0.101349
0.665405 0.443512 0.108887
0.000000 0.583557 0.112762
0.022736 0.581299 0.111664
0.059998 0.583221 0.112762
0.117981 0.586700 0.116760
0.189148 0.592651 0.122986
0.444153 0.602875 0.133179
0.579926 0.610443 0.142212
0.662140 0.618164 0.149506
0.000000 0.725403 0.151184
0.022736 0.724335 0.150116
0.059998 0.724670 0.151947
0.117981 0.726746 0.154480
0.189148 0.734558 0.160339
0.364502 0.742584 0.169128
0.551270 0.753479 0.179260
0.644257 0.756348 0.182892
0.000000 0.819794 0.176544
0.022736 0.819397 0.176544
0.059998 0.820862 0.177307
0.117981 0.823364 0.179810
0.189148 0.832153 0.186768
0.253693 0.837769 0.194519
0.511841 0.845001 0.201721
0.622406 0.852570 0.209320
0.000000 0.000000 0.024170
0.025269 0.000000 0.025604
0.078003 0.000305 0.028137
0.182648 0.005371 0.034943
0.326172 0.019318 0.046326
0.463745 0.041962 0.063843
0.570862 0.061188 0.077637
0.644562 0.074615 0.088867
0.000000 0.028137 0.028137
0.024170 0.028137 0.028137
0.075745 0.030670 0.030975
0.184937 0.036377 0.036377
0.326172 0.051422 0.048889
0.464874 0.073730 0.065308
0.573425 0.091858 0.078003
0.644562 0.102753 0.088165
0.000000 0.091705 0.033875
0.022736 0.092804 0.034973
0.070038 0.095367 0.035309
0.184906 0.102203 0.043243
0.330139 0.118042 0.055725
0.470306 0.135254 0.071838
0.578522 0.151184 0.085266
0.648468 0.161713 0.093170
0.000000 0.222626 0.055084
0.022736 0.222626 0.055969
0.059998 0.223785 0.057343
0.169312 0.230255 0.062469
0.333221 0.241608 0.074951
0.478729 0.256348 0.089081
0.587585 0.267914 0.100372
0.660156 0.277618 0.109131
0.000000 0.403839 0.097046
0.022736 0.403839 0.097382
0.059998 0.404968 0.098480
0.117981 0.408936 0.103577
0.307983 0.417725 0.111237
0.477020 0.429047 0.123688
0.594208 0.441345 0.134888
0.670502 0.448212 0.142120
0.000000 0.586426 0.143768
0.022736 0.583862 0.142334
0.059998 0.586426 0.144897
0.117981 0.588959 0.146606
0.189148 0.595184 0.155090
0.445282 0.605408 0.163879
0.583252 0.616302 0.174011
0.666809 0.621307 0.180206
0.000000 0.726898 0.180054
0.022736 0.729004 0.181488
0.059998 0.727875 0.181488
0.117981 0.730133 0.182892
0.189148 0.736755 0.191010
0.369080 0.745514 0.199799
0.552704 0.752350 0.207397
0.646393 0.758118 0.213165
0.000000 0.821655 0.205139
0.022736 0.825928 0.207245
0.059998 0.824493 0.207245
0.117981 0.825500 0.209778
0.189148 0.831879 0.215332
0.253693 0.838806 0.224091
0.512604 0.848206 0.231659
0.624573 0.854279 0.237457
0.000000 0.002563 0.068604
0.025269 0.002563 0.075104
0.082611 0.002869 0.084869
0.199371 0.008240 0.102661
0.345764 0.023621 0.120575
0.488159 0.048492 0.138123
0.595917 0.067749 0.152283
0.667816 0.081146 0.161316
0.000000 0.032410 0.079742
0.022736 0.033569 0.082306
0.082306 0.035309 0.090271
0.199371 0.042084 0.104401
0.345764 0.058289 0.123108
0.487366 0.080627 0.138458
0.596283 0.098389 0.153320
0.669250 0.110718 0.162750
0.000000 0.101105 0.096008
0.022736 0.103363 0.098236
0.071472 0.103668 0.101105
0.196564 0.113525 0.113525
0.350250 0.128235 0.128571
0.489899 0.144989 0.144165
0.597717 0.159180 0.157684
0.670074 0.170380 0.166046
0.000000 0.235382 0.126190
0.022736 0.235687 0.126190
0.059998 0.235992 0.126831
0.175842 0.241089 0.134186
0.345184 0.250732 0.146667
0.492432 0.264862 0.158569
0.602783 0.277039 0.170685
0.677277 0.287842 0.179413
0.000000 0.414337 0.163971
0.022736 0.414337 0.163971
0.059998 0.414673 0.163971
0.117981 0.419739 0.169098
0.314484 0.427094 0.178986
0.487823 0.438446 0.190308
0.604736 0.449341 0.198944
0.681763 0.456604 0.206970
0.000000 0.594086 0.204956
0.022736 0.594391 0.205292
0.059998 0.598389 0.207550
0.117981 0.599213 0.210022
0.189148 0.605255 0.218353
0.452118 0.615143 0.226807
0.589691 0.623535 0.235504
0.673920 0.628601 0.240906
0.000000 0.735168 0.239777
0.022736 0.734436 0.240173
0.059998 0.737732 0.240845
0.117981 0.739502 0.244110
0.189148 0.746887 0.251465
0.370178 0.753693 0.259064
0.557434 0.760712 0.267120
0.653625 0.768341 0.274017
0.000000 0.830231 0.263672
0.022736 0.831787 0.264801
0.059998 0.831085 0.264465
0.117981 0.833221 0.266937
0.189148 0.840454 0.276031
0.253693 0.847198 0.280914
0.517609 0.854248 0.289886
0.629669 0.861938 0.296082
0.000000 0.013611 0.172974
0.022736 0.015869 0.178406
0.077545 0.016144 0.191742
0.212097 0.021515 0.214630
0.370911 0.038849 0.242157
0.521240 0.061493 0.265076
0.633270 0.080444 0.281799
0.708466 0.094177 0.292908
0.000000 0.048279 0.184937
0.022736 0.049438 0.188904
0.076111 0.052002 0.199127
0.212097 0.057617 0.218658
0.370911 0.073517 0.243896
0.521545 0.093597 0.266510
0.634033 0.111420 0.282074
0.708862 0.124146 0.292908
0.000000 0.118927 0.207428
0.022736 0.121460 0.210236
0.062988 0.123993 0.215363
0.208893 0.129120 0.230316
0.371185 0.141846 0.250732
0.521240 0.158752 0.270538
0.634796 0.172974 0.287201
0.709930 0.183838 0.295868
0.000000 0.253784 0.243591
0.022736 0.256348 0.245819
0.059998 0.256073 0.248108
0.180908 0.261414 0.256348
0.365234 0.271332 0.271088
0.521790 0.284973 0.287506
0.635559 0.296112 0.300507
0.712860 0.306000 0.308838
0.000000 0.439819 0.288361
0.022736 0.437561 0.288361
0.059998 0.439819 0.288635
0.117981 0.442657 0.293762
0.327271 0.450012 0.303711
0.506744 0.462769 0.315308
0.630463 0.469940 0.326202
0.709625 0.477661 0.334167
0.000000 0.616455 0.327454
0.022736 0.618408 0.328583
0.059998 0.619781 0.328857
0.117981 0.624115 0.333954
0.189148 0.628113 0.340485
0.463684 0.635437 0.349274
0.607452 0.643799 0.358459
0.696472 0.653748 0.365570
0.000000 0.757629 0.359650
0.022736 0.760254 0.361603
0.059998 0.760681 0.361938
0.117981 0.762726 0.364777
0.189148 0.767822 0.369873
0.382812 0.776215 0.379120
0.571960 0.783875 0.387756
0.668518 0.788269 0.392883
0.000000 0.853577 0.383698
0.022736 0.854126 0.383972
0.059998 0.854279 0.383759
0.117981 0.858215 0.386536
0.189148 0.863495 0.393219
0.253693 0.868988 0.400146
0.528259 0.877686 0.408478
0.641266 0.881622 0.413910
0.000000 0.053558 0.316742
0.022736 0.053558 0.322205
0.059998 0.053558 0.333008
0.210114 0.058990 0.360992
0.390778 0.068909 0.395844
0.550995 0.086456 0.424744
0.670441 0.103149 0.447205
0.752167 0.114014 0.461365
0.000000 0.084290 0.327271
0.022736 0.085693 0.330139
0.059998 0.086029 0.341003
0.209808 0.091095 0.364960
0.390778 0.101013 0.397308
0.549561 0.117432 0.427277
0.670441 0.133820 0.447968
0.750732 0.144714 0.461365
0.000000 0.148956 0.351196
0.022736 0.151215 0.354858
0.059998 0.153748 0.361389
0.204651 0.156586 0.376953
0.388245 0.169098 0.406708
0.551819 0.183746 0.434937
0.669708 0.195648 0.452637
0.750336 0.206207 0.466400
0.000000 0.281036 0.396973
0.022736 0.283569 0.397247
0.059998 0.283569 0.399902
0.161621 0.288940 0.410034
0.382294 0.298859 0.432159
0.547028 0.310486 0.452515
0.670441 0.321106 0.468933
0.750031 0.329071 0.480225
0.000000 0.467316 0.449432
0.022736 0.471008 0.450562
0.059998 0.470215 0.452301
0.117981 0.472687 0.457367
0.334625 0.480072 0.469879
0.530273 0.491394 0.484863
0.658722 0.499756 0.497192
0.743652 0.507324 0.507324
0.000000 0.653931 0.495880
0.022736 0.651672 0.496185
0.059998 0.651672 0.497314
0.117981 0.655609 0.501587
0.189148 0.662964 0.510071
0.480988 0.671753 0.521393
0.631683 0.676117 0.531158
0.723907 0.685516 0.539551
0.000000 0.792480 0.529938
0.022736 0.793243 0.530701
0.059998 0.795044 0.530701
0.117981 0.797607 0.533508
0.189148 0.803467 0.541626
0.384521 0.809662 0.552216
0.589539 0.817993 0.560577
0.694855 0.822723 0.566315
0.000000 0.888306 0.552429
0.022736 0.888733 0.552429
0.059998 0.891571 0.554993
0.117981 0.891663 0.557526
0.189148 0.896790 0.562622
0.253693 0.904144 0.571838
0.542175 0.911377 0.580170
0.661133 0.916779 0.585602
0.000000 0.094910 0.461700
0.022736 0.095215 0.464569
0.059998 0.096344 0.475433
0.176178 0.098907 0.499695
0.393311 0.106537 0.539673
0.567139 0.117859 0.573334
0.694824 0.131989 0.599762
0.778473 0.142883 0.616211
0.000000 0.124786 0.468872
0.022736 0.124451 0.472229
0.059998 0.126221 0.481445
0.171631 0.128754 0.505432
0.393311 0.137238 0.542236
0.568573 0.149994 0.577606
0.694153 0.162689 0.601624
0.777679 0.171753 0.617981
0.000000 0.186615 0.491669
0.022736 0.187103 0.493896
0.059998 0.186279 0.499023
0.156677 0.191742 0.519989
0.390442 0.200165 0.553070
0.567780 0.211823 0.584503
0.694916 0.224976 0.608124
0.777374 0.232941 0.621979
0.000000 0.312714 0.540283
0.022736 0.312439 0.540009
0.059998 0.314178 0.545380
0.117981 0.317810 0.556702
0.378876 0.325165 0.579926
0.563995 0.336243 0.605957
0.691315 0.347107 0.625153
0.777679 0.355133 0.639648
0.000000 0.497620 0.600922
0.022736 0.497620 0.600922
0.059998 0.498749 0.603821
0.117981 0.501312 0.612274
0.324738 0.511505 0.627594
0.538727 0.517700 0.642578
0.679596 0.527496 0.658569
0.766327 0.534058 0.668701
0.000000 0.681335 0.653564
0.022736 0.684204 0.656128
0.059998 0.682770 0.654694
0.117981 0.688965 0.664062
0.189148 0.691559 0.669983
0.484680 0.702057 0.685303
0.647003 0.708984 0.697662
0.742554 0.714386 0.705627
0.000000 0.827240 0.693909
0.022736 0.826477 0.693542
0.059998 0.828247 0.695282
0.117981 0.830658 0.698120
0.189148 0.835510 0.707306
0.368652 0.843597 0.717926
0.600128 0.848694 0.726288
0.709381 0.854553 0.734314
0.000000 0.923370 0.717438
0.022736 0.923737 0.718536
0.059998 0.923309 0.719086
0.117981 0.925110 0.721313
0.189148 0.930756 0.729523
0.253693 0.939240 0.740540
0.547302 0.946777 0.750244
0.676727 0.952057 0.757446
0.000000 0.128967 0.570923
0.022736 0.128967 0.573090
0.059998 0.129730 0.585052
0.121063 0.132294 0.610046
0.386383 0.137390 0.650024
0.573669 0.148682 0.686554
0.708282 0.159576 0.718475
0.793579 0.167908 0.732574
0.000000 0.157837 0.578888
0.022736 0.157837 0.581055
0.059998 0.160095 0.590851
0.118835 0.160675 0.614014
0.385712 0.168060 0.652222
0.573334 0.179077 0.689087
0.705688 0.189545 0.715942
0.791809 0.198273 0.734436
0.000000 0.215027 0.599518
0.022736 0.216827 0.601318
0.059998 0.217560 0.608948
0.117981 0.221130 0.630066
0.383545 0.228485 0.664154
0.571106 0.238403 0.697388
0.707214 0.248901 0.723907
0.792145 0.256073 0.740845
0.000000 0.337463 0.649597
0.022736 0.337463 0.648895
0.059998 0.340027 0.655060
0.117981 0.342560 0.666992
0.366913 0.350220 0.692261
0.565247 0.359009 0.719543
0.703186 0.369873 0.742584
0.789154 0.377472 0.756805
0.000000 0.521240 0.715607
0.022736 0.521240 0.716370
0.059998 0.521881 0.718811
0.117981 0.524811 0.726868
0.293182 0.531403 0.741913
0.540894 0.542358 0.764130
0.687866 0.548523 0.779755
0.780853 0.558350 0.793182
0.000000 0.708160 0.775177
0.022736 0.707092 0.775177
0.059998 0.707153 0.775909
0.117981 0.710388 0.780945
0.189148 0.716217 0.793427
0.479340 0.723877 0.808777
0.652008 0.731873 0.820679
0.755951 0.738068 0.831543
0.000000 0.852234 0.817291
0.022736 0.851501 0.815765
0.059998 0.851807 0.816864
0.117981 0.854340 0.821930
0.189148 0.859894 0.832581
0.347260 0.868683 0.843903
0.601562 0.875244 0.854797
0.715851 0.879456 0.861969
0.000000 0.950897 0.842987
0.022736 0.951355 0.843689
0.059998 0.950256 0.844421
0.117981 0.953156 0.848846
0.189148 0.960083 0.856873
0.253693 0.965698 0.867432
0.545532 0.970703 0.876556
0.679962 0.974945 0.883392
0.000000 0.153595 0.645386
0.022736 0.151459 0.647247
0.059998 0.151764 0.656647
0.117981 0.156158 0.684509
0.374146 0.161682 0.722351
0.572235 0.170471 0.760590
0.711151 0.180603 0.792206
0.799408 0.186768 0.809204
0.000000 0.180298 0.651520
0.022736 0.179626 0.654785
0.059998 0.181702 0.662354
0.117981 0.184692 0.687073
0.374146 0.189819 0.725952
0.572968 0.199310 0.764313
0.711151 0.209137 0.792603
0.801941 0.217468 0.813599
0.000000 0.238220 0.674408
0.022736 0.237122 0.673615
0.059998 0.238556 0.680176
0.117981 0.241547 0.701233
0.369446 0.248016 0.737183
0.571198 0.257965 0.772186
0.709442 0.266296 0.798798
0.799805 0.274261 0.815765
0.000000 0.355896 0.721100
0.022736 0.356323 0.723633
0.059998 0.356323 0.726227
0.117981 0.358856 0.739349
0.350922 0.366791 0.767181
0.564301 0.377441 0.796326
0.706818 0.385925 0.821655
0.796570 0.391663 0.835693
0.000000 0.537537 0.790833
0.022736 0.538239 0.791138
0.059998 0.538147 0.794037
0.117981 0.542633 0.803619
0.249847 0.547729 0.818542
0.539154 0.557617 0.842255
0.690735 0.564819 0.859619
0.784088 0.570312 0.870850
0.000000 0.722565 0.852783
0.022736 0.723694 0.852142
0.059998 0.723053 0.854126
0.117981 0.727478 0.862366
0.189148 0.731873 0.873688
0.469269 0.739899 0.886871
0.653839 0.749237 0.903931
0.759491 0.755432 0.916168
0.000000 0.867798 0.898254
0.022736 0.869263 0.897858
0.059998 0.870026 0.900146
0.117981 0.870636 0.901794
0.189148 0.877258 0.913544
0.319031 0.884979 0.927094
0.600800 0.890778 0.937622
0.720245 0.897278 0.948029
0.000000 0.968750 0.928345
0.022736 0.966583 0.926147
0.059998 0.967194 0.926788
0.117981 0.971283 0.933411
0.189148 0.976349 0.941071
0.253693 0.977203 0.951355
0.536560 0.977631 0.962891
0.682831 0.979309 0.971283
