滤镜资源/Professional Luts Collection/Triune-Digital-Cinematic-LUTs/3D LUTs (CUBE)/REDLOGFILM/The Book of Eli - REDlogFilm.cube
#Created by Benjamin (IWLTBAP) : http://luts.iwltbap.com
#Copyright: (C) Copyright 2016 Triune Films and IWLTBAP
TITLE "Blockbuster LUTs Pack (REDlogFilm)"
#LUT size
LUT_3D_SIZE 32
#LUT data points
0.031799 0.029999 0.027466
0.035614 0.030701 0.028107
0.040344 0.031555 0.028809
0.045197 0.032471 0.029297
0.051239 0.033630 0.029694
0.057434 0.034760 0.030396
0.064911 0.036163 0.031403
0.073364 0.037323 0.032501
0.083099 0.037445 0.033417
0.094604 0.038727 0.034851
0.106781 0.041290 0.037048
0.120087 0.044128 0.039551
0.134460 0.045837 0.041077
0.153107 0.048462 0.041718
0.170349 0.052246 0.045074
0.186584 0.054413 0.046783
0.204163 0.057739 0.051758
0.221100 0.061859 0.055450
0.240479 0.065887 0.059448
0.262238 0.070618 0.063477
0.282379 0.075531 0.068726
0.302429 0.081085 0.072052
0.319244 0.083588 0.072754
0.335022 0.084839 0.074280
0.351227 0.087311 0.077667
0.368774 0.090546 0.081268
0.384583 0.093872 0.084412
0.397675 0.097809 0.087097
0.407166 0.100769 0.089264
0.418030 0.104523 0.092072
0.427307 0.107483 0.095490
0.434875 0.108948 0.097900
0.035858 0.036255 0.030334
0.039703 0.037018 0.030975
0.044342 0.037903 0.031647
0.049408 0.038849 0.031921
0.055389 0.040039 0.032196
0.061615 0.041077 0.032898
0.069000 0.042053 0.033783
0.077728 0.042969 0.034882
0.087280 0.043121 0.035614
0.098450 0.044220 0.036987
0.110626 0.046906 0.039246
0.123840 0.049408 0.041626
0.139404 0.051666 0.043549
0.156891 0.054901 0.045532
0.173798 0.058228 0.047302
0.190216 0.060608 0.049164
0.207855 0.063629 0.054626
0.224854 0.067383 0.058533
0.244995 0.071686 0.062500
0.266541 0.076813 0.066772
0.287415 0.082001 0.072357
0.306885 0.086761 0.074402
0.324249 0.089661 0.076080
0.341125 0.091919 0.079590
0.357819 0.094574 0.081177
0.375519 0.097900 0.084778
0.390411 0.101288 0.088196
0.403656 0.105072 0.090820
0.413300 0.108215 0.093079
0.424438 0.112030 0.096436
0.433807 0.114960 0.099884
0.441650 0.116333 0.102295
0.040344 0.043762 0.033691
0.044373 0.044647 0.034332
0.049194 0.045593 0.034973
0.054321 0.046570 0.035156
0.060242 0.047668 0.035339
0.066254 0.048370 0.035919
0.073975 0.049316 0.036865
0.082916 0.050018 0.037903
0.092499 0.050659 0.038849
0.103455 0.052155 0.040466
0.115234 0.054413 0.042633
0.128204 0.056641 0.045074
0.143921 0.059448 0.047852
0.161316 0.062958 0.050507
0.177887 0.065491 0.050781
0.194122 0.068176 0.052795
0.212433 0.071014 0.058014
0.230316 0.074402 0.062347
0.250214 0.078613 0.065887
0.271515 0.083862 0.070099
0.293610 0.089020 0.074829
0.312988 0.093689 0.077881
0.330719 0.097321 0.081635
0.349030 0.100769 0.085266
0.365753 0.103485 0.085571
0.384094 0.106903 0.089172
0.397430 0.110077 0.092560
0.410461 0.113708 0.095001
0.420471 0.117004 0.097351
0.432159 0.120911 0.101807
0.441681 0.123688 0.105133
0.449585 0.124969 0.107452
0.044830 0.052124 0.037109
0.048828 0.053070 0.037781
0.053650 0.053497 0.038208
0.058319 0.054047 0.038330
0.064026 0.055054 0.038574
0.070099 0.055664 0.039124
0.078247 0.056854 0.040314
0.087311 0.057953 0.041534
0.096832 0.058716 0.042480
0.108154 0.060699 0.044342
0.119934 0.062286 0.046234
0.132629 0.063995 0.048706
0.148041 0.066620 0.051361
0.164978 0.070129 0.054626
0.181458 0.072601 0.054840
0.197906 0.075378 0.056000
0.216614 0.078094 0.061096
0.235626 0.081512 0.065887
0.256470 0.086945 0.069946
0.277710 0.091187 0.072754
0.299072 0.095398 0.076294
0.319366 0.100708 0.081360
0.338074 0.105652 0.087799
0.357025 0.109467 0.090424
0.374878 0.112701 0.091309
0.391113 0.115143 0.093109
0.404358 0.118805 0.096863
0.417908 0.123047 0.100159
0.428619 0.126190 0.102509
0.441437 0.129883 0.106659
0.451569 0.132355 0.110107
0.459625 0.133698 0.112366
0.049622 0.062012 0.040924
0.053497 0.062378 0.041229
0.058228 0.062653 0.041565
0.062683 0.062592 0.041687
0.067932 0.062927 0.041718
0.074066 0.063538 0.042328
0.082672 0.064941 0.043610
0.092224 0.066650 0.045227
0.101105 0.067261 0.046021
0.112152 0.069153 0.047943
0.124207 0.070831 0.050354
0.136871 0.072357 0.052856
0.152496 0.075165 0.055725
0.169159 0.078125 0.058899
0.186035 0.080872 0.059967
0.202942 0.084290 0.059967
0.221741 0.087738 0.065247
0.241852 0.091156 0.070007
0.263855 0.096832 0.074646
0.284943 0.100159 0.076660
0.305267 0.102661 0.078400
0.325806 0.108398 0.084961
0.346436 0.115265 0.094757
0.366821 0.119476 0.096527
0.384308 0.122894 0.097412
0.398926 0.125183 0.099396
0.412079 0.128510 0.103180
0.426575 0.133362 0.107422
0.438751 0.136536 0.109375
0.452881 0.140228 0.112122
0.463013 0.142426 0.115448
0.471527 0.144104 0.117523
0.054047 0.071259 0.044159
0.057831 0.071442 0.044342
0.062561 0.071625 0.044647
0.067383 0.071869 0.045044
0.072449 0.071686 0.045258
0.078766 0.072205 0.046143
0.087311 0.073608 0.047485
0.096832 0.075378 0.048981
0.106049 0.076416 0.050079
0.116760 0.077881 0.051971
0.127960 0.079071 0.053925
0.141388 0.081268 0.056915
0.156372 0.083710 0.059601
0.173065 0.086853 0.062866
0.190643 0.090057 0.064209
0.207306 0.093140 0.064362
0.226288 0.097107 0.068634
0.248169 0.101379 0.073761
0.269562 0.106079 0.078064
0.290741 0.108459 0.079559
0.311157 0.110291 0.081085
0.332520 0.116882 0.088898
0.355011 0.125824 0.099121
0.375610 0.129578 0.101837
0.393066 0.132843 0.102386
0.407745 0.135986 0.106537
0.421204 0.139374 0.110535
0.436584 0.143799 0.114380
0.449585 0.147156 0.116333
0.464142 0.150909 0.118500
0.474976 0.153198 0.120728
0.483246 0.155273 0.122040
0.059448 0.081635 0.047668
0.063690 0.082306 0.048218
0.068359 0.082733 0.048859
0.073120 0.083099 0.049469
0.078278 0.083618 0.050354
0.083496 0.083588 0.051117
0.092133 0.084900 0.052795
0.101044 0.086151 0.053650
0.110718 0.087555 0.054871
0.121918 0.090057 0.057312
0.132996 0.091461 0.059418
0.146393 0.093170 0.061646
0.160645 0.094391 0.063202
0.177277 0.097351 0.066528
0.195160 0.101898 0.070099
0.212067 0.104889 0.070465
0.232239 0.108978 0.072479
0.255432 0.113556 0.077698
0.275818 0.117554 0.081421
0.297882 0.120697 0.083923
0.318237 0.123138 0.086182
0.342041 0.130035 0.092438
0.364471 0.138062 0.101807
0.384399 0.141632 0.106842
0.401855 0.145203 0.109070
0.416443 0.148499 0.113770
0.431122 0.152710 0.118256
0.448120 0.156799 0.122131
0.462036 0.160645 0.124817
0.476501 0.164398 0.127228
0.486267 0.167236 0.128021
0.494293 0.169312 0.129150
0.064362 0.092926 0.051971
0.068481 0.094177 0.053284
0.073608 0.095093 0.054230
0.078674 0.095856 0.055054
0.083740 0.096466 0.056030
0.088898 0.096680 0.056641
0.096313 0.096558 0.057281
0.105469 0.097748 0.058777
0.115021 0.099548 0.060547
0.126282 0.102509 0.062958
0.138672 0.105621 0.065979
0.151947 0.106628 0.066986
0.165436 0.106537 0.067322
0.181641 0.108337 0.070221
0.199066 0.112854 0.074066
0.217499 0.117889 0.076965
0.237488 0.121460 0.078247
0.260773 0.124725 0.081451
0.281891 0.129272 0.085480
0.305786 0.135284 0.090088
0.327484 0.138824 0.093170
0.351074 0.143646 0.096466
0.374176 0.150391 0.103882
0.394196 0.155304 0.110229
0.411072 0.159302 0.115295
0.426636 0.163269 0.120697
0.442169 0.167358 0.125336
0.459259 0.170380 0.131226
0.473145 0.174194 0.133392
0.488037 0.178894 0.135742
0.497925 0.181915 0.136566
0.505890 0.184357 0.137238
0.068512 0.103607 0.054382
0.072266 0.104706 0.055847
0.077057 0.106079 0.057526
0.082428 0.107880 0.059448
0.088562 0.109375 0.061279
0.094482 0.109924 0.062225
0.101898 0.109650 0.062653
0.110413 0.110077 0.063568
0.119263 0.110809 0.065155
0.131195 0.114624 0.068390
0.143677 0.118652 0.071686
0.157532 0.120575 0.072571
0.170685 0.120178 0.072754
0.187378 0.122070 0.075531
0.205811 0.127533 0.080353
0.224243 0.131195 0.083344
0.244232 0.134735 0.084473
0.267487 0.137848 0.086548
0.289886 0.142853 0.090576
0.313568 0.148651 0.095612
0.337128 0.154846 0.100555
0.360687 0.159882 0.103729
0.384277 0.166656 0.113403
0.404266 0.171814 0.121277
0.422089 0.176300 0.123383
0.438354 0.180176 0.127106
0.455353 0.183411 0.132660
0.472260 0.186188 0.137970
0.484344 0.188568 0.141052
0.498535 0.193329 0.142761
0.508850 0.196625 0.143280
0.516937 0.199036 0.143585
0.071503 0.115295 0.055756
0.075623 0.116699 0.057495
0.080383 0.118073 0.059296
0.085632 0.119781 0.061462
0.092499 0.122101 0.064392
0.099304 0.123566 0.065948
0.107513 0.124146 0.067322
0.115875 0.124390 0.067780
0.125183 0.126160 0.069153
0.136658 0.129883 0.071777
0.149078 0.133667 0.074799
0.163574 0.136078 0.078247
0.177399 0.136536 0.079224
0.195160 0.139679 0.082886
0.213837 0.143768 0.085510
0.233215 0.147766 0.089111
0.254089 0.151917 0.092316
0.279999 0.156708 0.094818
0.302185 0.162231 0.103271
0.324646 0.167725 0.109924
0.349152 0.174316 0.109924
0.372406 0.179993 0.114563
0.397034 0.187561 0.126709
0.417999 0.191345 0.131653
0.436035 0.196960 0.133911
0.452850 0.200500 0.135315
0.469940 0.203644 0.139099
0.487457 0.207794 0.144440
0.498260 0.209351 0.146606
0.511566 0.211487 0.149078
0.522888 0.214844 0.149872
0.532684 0.217743 0.151855
0.075989 0.128876 0.059387
0.079620 0.129120 0.058990
0.084412 0.130432 0.060486
0.089874 0.132202 0.062805
0.096710 0.134552 0.065613
0.103516 0.136261 0.067383
0.112213 0.138245 0.069214
0.121582 0.139496 0.071014
0.131042 0.142181 0.071960
0.141815 0.145386 0.074493
0.154205 0.148193 0.077087
0.168671 0.151215 0.080872
0.185303 0.155975 0.086365
0.203491 0.159882 0.090363
0.222687 0.162170 0.091431
0.242126 0.165863 0.094299
0.268463 0.172668 0.099304
0.295013 0.177673 0.103210
0.317444 0.184174 0.116608
0.341736 0.192322 0.123199
0.366333 0.199188 0.123901
0.388367 0.205048 0.130585
0.411743 0.211212 0.140594
0.435394 0.215668 0.142181
0.453339 0.219421 0.143036
0.472229 0.224091 0.145660
0.490112 0.228607 0.148804
0.507782 0.234222 0.154968
0.518951 0.236298 0.158142
0.532257 0.240082 0.162323
0.542664 0.242828 0.164825
0.552704 0.246704 0.167725
0.081909 0.145813 0.067749
0.086212 0.146698 0.067963
0.091553 0.147766 0.068207
0.096802 0.148560 0.068054
0.102966 0.149689 0.068359
0.110657 0.152557 0.070923
0.119904 0.155487 0.074036
0.129456 0.158325 0.076630
0.138794 0.160919 0.078583
0.149628 0.163971 0.081146
0.162140 0.167572 0.084778
0.175262 0.170197 0.087555
0.192047 0.174316 0.092987
0.208954 0.177765 0.095215
0.230774 0.183075 0.099335
0.252136 0.186615 0.101166
0.281403 0.194611 0.108307
0.311829 0.203766 0.118011
0.338135 0.212250 0.131256
0.364777 0.222931 0.138000
0.387909 0.230499 0.142975
0.409332 0.234711 0.149292
0.435089 0.240784 0.152985
0.459320 0.246796 0.155182
0.479431 0.251373 0.160034
0.499542 0.257019 0.164398
0.516724 0.263519 0.170685
0.533783 0.269867 0.177002
0.546814 0.274597 0.181946
0.559753 0.279358 0.186584
0.570740 0.282867 0.190277
0.579285 0.285889 0.193329
0.091003 0.168121 0.077576
0.095520 0.169128 0.077454
0.101288 0.170593 0.077545
0.106842 0.171722 0.077911
0.113373 0.173035 0.079163
0.121155 0.175964 0.081177
0.130737 0.179413 0.083588
0.139648 0.181610 0.085602
0.148804 0.184357 0.089081
0.158661 0.187164 0.095703
0.171570 0.190887 0.098175
0.184235 0.192291 0.098816
0.200775 0.196472 0.101074
0.221283 0.203339 0.106201
0.244354 0.210938 0.113037
0.267639 0.216034 0.116608
0.298218 0.226288 0.125885
0.330261 0.236938 0.138763
0.358459 0.244171 0.144623
0.385498 0.253387 0.149872
0.411621 0.260071 0.156281
0.435486 0.265869 0.161804
0.464020 0.276764 0.168823
0.489655 0.285522 0.176636
0.510620 0.291901 0.181732
0.528229 0.298218 0.187012
0.547913 0.307312 0.195557
0.562805 0.312042 0.202423
0.573761 0.314850 0.205627
0.587616 0.319977 0.211365
0.599213 0.325531 0.217438
0.608459 0.330139 0.222260
0.103149 0.192535 0.084900
0.107208 0.193542 0.085785
0.112427 0.195099 0.087067
0.118652 0.197296 0.089844
0.125854 0.199585 0.091553
0.132660 0.201324 0.092438
0.141937 0.204590 0.094391
0.152954 0.209503 0.099884
0.163239 0.213074 0.105560
0.173462 0.215454 0.109131
0.186035 0.218231 0.108154
0.199982 0.221466 0.109039
0.216278 0.225433 0.112366
0.236053 0.231537 0.118774
0.259369 0.240234 0.125763
0.286835 0.250488 0.134308
0.317261 0.260437 0.143555
0.347961 0.272949 0.156647
0.378937 0.281616 0.162140
0.410919 0.289185 0.165192
0.439240 0.297577 0.173523
0.467255 0.307861 0.178375
0.497620 0.322052 0.191040
0.525909 0.335632 0.206635
0.545166 0.342529 0.213470
0.564026 0.349335 0.220978
0.583496 0.358002 0.230499
0.599579 0.364380 0.238129
0.613770 0.372528 0.247040
0.629211 0.380249 0.255005
0.639435 0.384186 0.259399
0.646698 0.386292 0.261536
0.116730 0.218658 0.094666
0.121033 0.220062 0.096191
0.126678 0.221832 0.098572
0.132721 0.223969 0.101288
0.140137 0.227325 0.105286
0.146271 0.230316 0.108948
0.154388 0.233398 0.112305
0.163605 0.237183 0.116333
0.172760 0.241699 0.119568
0.185638 0.247772 0.123077
0.197479 0.251648 0.123138
0.211823 0.255188 0.124817
0.229065 0.257812 0.128906
0.251160 0.265747 0.137482
0.275238 0.274536 0.141815
0.304718 0.284210 0.149292
0.335510 0.296204 0.164001
0.368286 0.311096 0.177277
0.400879 0.321808 0.176788
0.437134 0.330566 0.186584
0.471863 0.344513 0.197479
0.502045 0.358002 0.209503
0.530396 0.369049 0.223175
0.556427 0.382263 0.236938
0.577972 0.392273 0.247131
0.600739 0.401886 0.257202
0.619537 0.410187 0.265198
0.636414 0.418915 0.273926
0.649231 0.425415 0.280518
0.661591 0.430542 0.286224
0.671539 0.434509 0.290558
0.679169 0.437500 0.293274
0.123169 0.249786 0.109589
0.127106 0.251923 0.111816
0.131805 0.254486 0.114471
0.136566 0.256866 0.117065
0.142822 0.259521 0.120728
0.148956 0.261475 0.122986
0.156586 0.263153 0.124115
0.165619 0.266144 0.126373
0.176636 0.272034 0.130493
0.190247 0.279053 0.134644
0.205536 0.285522 0.139069
0.223328 0.289215 0.142731
0.243439 0.295349 0.150024
0.266998 0.304962 0.159363
0.292694 0.312408 0.162292
0.320099 0.317993 0.162689
0.354767 0.334595 0.181213
0.391479 0.348053 0.191803
0.429382 0.362671 0.200256
0.466553 0.377472 0.215576
0.504211 0.393707 0.225891
0.532501 0.407349 0.244568
0.561401 0.419464 0.256592
0.591034 0.433197 0.270142
0.613495 0.442444 0.279297
0.632751 0.451263 0.287781
0.649078 0.459839 0.296143
0.667206 0.470032 0.306763
0.678741 0.474976 0.311371
0.691620 0.480591 0.317535
0.701447 0.485962 0.324249
0.708984 0.489624 0.329285
0.127380 0.281830 0.121277
0.130981 0.284119 0.123383
0.135345 0.286865 0.125916
0.139740 0.288818 0.128113
0.144897 0.291046 0.130493
0.150787 0.293549 0.133453
0.158478 0.296082 0.135651
0.167084 0.298981 0.136993
0.179993 0.305634 0.142303
0.198669 0.317322 0.147766
0.218445 0.324432 0.153168
0.241669 0.330627 0.161407
0.264709 0.338837 0.168335
0.289124 0.348175 0.176697
0.319122 0.355377 0.182343
0.348419 0.364746 0.187958
0.385162 0.380829 0.200592
0.423187 0.393890 0.210693
0.460022 0.408112 0.225311
0.499817 0.424042 0.238892
0.532288 0.439697 0.255920
0.561401 0.453766 0.271149
0.594299 0.467163 0.282043
0.621521 0.479919 0.297852
0.642700 0.491058 0.310059
0.662628 0.502014 0.321198
0.679108 0.509796 0.329834
0.695740 0.517853 0.338623
0.707062 0.523285 0.344666
0.718445 0.528961 0.351074
0.728699 0.534821 0.358063
0.737061 0.539856 0.364197
0.127777 0.318207 0.134766
0.131073 0.318634 0.134766
0.135040 0.319031 0.134857
0.140961 0.319916 0.135345
0.146881 0.321472 0.137177
0.153229 0.324310 0.140564
0.161224 0.327820 0.144928
0.174042 0.332397 0.149719
0.190918 0.339874 0.155121
0.212891 0.351593 0.160858
0.238861 0.362091 0.169098
0.265106 0.374054 0.179108
0.289673 0.384216 0.189941
0.319336 0.393127 0.195953
0.348175 0.400452 0.203156
0.376892 0.409515 0.213074
0.415955 0.426147 0.225647
0.457581 0.441223 0.239288
0.492249 0.452240 0.249847
0.529327 0.469299 0.264801
0.561371 0.486786 0.284088
0.591461 0.498169 0.296844
0.622070 0.511871 0.311798
0.647644 0.523956 0.325958
0.670074 0.537384 0.340027
0.688995 0.548615 0.353912
0.703857 0.554047 0.362732
0.721802 0.564514 0.375763
0.734863 0.572754 0.384857
0.747437 0.580200 0.393097
0.755890 0.583984 0.398163
0.762726 0.586823 0.401978
0.122986 0.347717 0.148407
0.126190 0.347748 0.148285
0.132965 0.348907 0.148865
0.139862 0.350098 0.149536
0.148834 0.352753 0.151855
0.159058 0.356445 0.155426
0.170746 0.361023 0.159607
0.185852 0.366089 0.162933
0.203613 0.372253 0.167389
0.226715 0.381897 0.172272
0.254608 0.396942 0.182068
0.283203 0.410400 0.197479
0.313782 0.423035 0.211517
0.345978 0.432098 0.217377
0.378937 0.444580 0.227966
0.409546 0.454590 0.238068
0.445160 0.466400 0.248505
0.485809 0.480408 0.262665
0.523590 0.497192 0.278870
0.558319 0.512421 0.295319
0.591705 0.528168 0.313812
0.620575 0.541138 0.329041
0.647552 0.552429 0.341858
0.669891 0.564484 0.354218
0.690063 0.575348 0.367584
0.708099 0.584320 0.381439
0.725128 0.593658 0.394379
0.741486 0.603149 0.404724
0.753448 0.609619 0.411469
0.764465 0.615204 0.418365
0.773102 0.618835 0.423065
0.780090 0.622101 0.426971
0.134857 0.378143 0.161865
0.139679 0.379242 0.162537
0.145538 0.380615 0.163269
0.152374 0.382080 0.164032
0.162018 0.384827 0.165771
0.172394 0.388580 0.168762
0.185120 0.392120 0.171814
0.199554 0.396667 0.175537
0.217041 0.403198 0.180237
0.240204 0.414032 0.185669
0.269989 0.427612 0.194489
0.305389 0.443726 0.212189
0.339020 0.457611 0.226959
0.373718 0.472260 0.241516
0.409637 0.487793 0.254181
0.441345 0.497986 0.266022
0.477142 0.510773 0.279053
0.516907 0.525513 0.295776
0.553040 0.540222 0.311829
0.591248 0.558533 0.332611
0.621246 0.571472 0.346985
0.647369 0.581177 0.359314
0.668945 0.590088 0.370270
0.690552 0.600250 0.381714
0.709412 0.608398 0.392578
0.727417 0.617645 0.404816
0.742706 0.626007 0.415924
0.758026 0.634583 0.427734
0.768280 0.641022 0.434875
0.779388 0.647278 0.442352
0.788177 0.651703 0.447998
0.795380 0.654816 0.452271
0.154419 0.411926 0.175842
0.158386 0.412933 0.176239
0.163330 0.414154 0.176697
0.168335 0.415283 0.177002
0.174133 0.416260 0.176941
0.186157 0.417633 0.180725
0.197968 0.421143 0.184387
0.210968 0.425751 0.188477
0.228271 0.430756 0.192108
0.252411 0.438751 0.197693
0.284149 0.452820 0.209229
0.322327 0.472015 0.226257
0.364929 0.494476 0.247253
0.404572 0.514069 0.265228
0.437408 0.525696 0.280945
0.471375 0.536499 0.295258
0.513031 0.553101 0.313202
0.549408 0.565399 0.328613
0.582916 0.579498 0.344482
0.613800 0.591278 0.357513
0.642639 0.602753 0.370697
0.665833 0.611755 0.382385
0.686798 0.621307 0.394653
0.707733 0.629852 0.406281
0.726135 0.636932 0.416443
0.742615 0.645447 0.428345
0.757843 0.654114 0.438995
0.772461 0.663177 0.449951
0.781860 0.668610 0.456635
0.792816 0.675293 0.465240
0.801697 0.679749 0.471008
0.808350 0.682831 0.475189
0.149048 0.436798 0.182373
0.153107 0.437927 0.181732
0.158051 0.439514 0.181732
0.163300 0.441040 0.182343
0.174927 0.443787 0.185455
0.186707 0.445251 0.189148
0.201935 0.447021 0.193878
0.220856 0.452393 0.201111
0.242432 0.458527 0.205597
0.268188 0.466370 0.211426
0.298706 0.478973 0.222748
0.338226 0.499176 0.241425
0.384949 0.524445 0.265930
0.426788 0.542847 0.284210
0.465118 0.560516 0.309326
0.503052 0.572357 0.324646
0.541351 0.586823 0.340942
0.574341 0.597412 0.354736
0.604156 0.608978 0.368256
0.634216 0.620941 0.380371
0.660309 0.632111 0.394531
0.684357 0.640686 0.406281
0.705902 0.649261 0.418457
0.725677 0.656891 0.429688
0.741913 0.664917 0.439697
0.757477 0.672668 0.450104
0.771759 0.680511 0.460358
0.784851 0.689209 0.471863
0.794312 0.695129 0.479248
0.804779 0.700653 0.485962
0.813507 0.704468 0.491180
0.820129 0.707275 0.495209
0.163544 0.464874 0.196472
0.168640 0.465881 0.195587
0.176575 0.467529 0.195740
0.185516 0.468781 0.197083
0.195007 0.470093 0.199036
0.208038 0.472046 0.203339
0.225677 0.474670 0.209351
0.243561 0.479889 0.214722
0.264404 0.487396 0.221313
0.290009 0.495667 0.226990
0.316284 0.505615 0.237854
0.355377 0.525177 0.260651
0.403229 0.550598 0.285583
0.453522 0.573547 0.309113
0.496948 0.592743 0.334808
0.534943 0.605713 0.352814
0.567657 0.618530 0.368073
0.598328 0.628448 0.377960
0.625275 0.638031 0.390625
0.652588 0.649506 0.404785
0.677460 0.660156 0.418610
0.701019 0.668396 0.429138
0.723175 0.678314 0.444427
0.742188 0.685394 0.454956
0.756287 0.690887 0.461426
0.770782 0.697723 0.469147
0.784210 0.705475 0.479584
0.797058 0.713257 0.490204
0.806427 0.718506 0.497375
0.815948 0.722321 0.503174
0.823853 0.725647 0.508118
0.830475 0.728485 0.512085
0.188782 0.488007 0.209839
0.195953 0.489197 0.210876
0.205261 0.490906 0.212708
0.213348 0.491943 0.213928
0.222412 0.493347 0.215576
0.231812 0.495300 0.218262
0.247498 0.500366 0.223969
0.266571 0.506775 0.230774
0.286377 0.514496 0.238373
0.308380 0.521515 0.245819
0.334656 0.530548 0.256104
0.371735 0.549042 0.277527
0.422119 0.575470 0.304962
0.477814 0.603088 0.335571
0.521088 0.621490 0.360474
0.559143 0.637482 0.380524
0.589630 0.648743 0.391418
0.619232 0.657837 0.401794
0.645691 0.667206 0.415466
0.671570 0.677399 0.427765
0.694641 0.685425 0.438477
0.716705 0.693970 0.451080
0.736664 0.702026 0.464294
0.754578 0.710236 0.474731
0.769348 0.716370 0.482208
0.783539 0.722168 0.489960
0.796387 0.728699 0.498535
0.809479 0.736115 0.508301
0.817902 0.739594 0.513702
0.826599 0.743652 0.519897
0.834106 0.747101 0.525024
0.840240 0.749908 0.529327
0.205597 0.506165 0.221924
0.211792 0.507019 0.222839
0.219971 0.508484 0.224396
0.227936 0.509613 0.225616
0.237305 0.511383 0.227783
0.248505 0.515045 0.231873
0.263550 0.520721 0.237854
0.281738 0.527893 0.245392
0.300659 0.534302 0.252655
0.321777 0.540222 0.259125
0.347931 0.548828 0.269012
0.383911 0.564880 0.288055
0.435822 0.592560 0.316681
0.490356 0.621063 0.351471
0.536652 0.643158 0.380005
0.577087 0.661530 0.400543
0.605530 0.671844 0.412262
0.633698 0.680878 0.422638
0.660095 0.689972 0.434570
0.683258 0.697083 0.443756
0.705170 0.704681 0.454407
0.727417 0.712982 0.467438
0.747681 0.721771 0.480713
0.764465 0.729340 0.489624
0.778900 0.736237 0.498352
0.792877 0.741943 0.506775
0.805389 0.747681 0.514771
0.817688 0.753662 0.523193
0.826202 0.757294 0.528656
0.834717 0.760956 0.534271
0.841614 0.764038 0.538696
0.847809 0.768127 0.543213
0.218964 0.522491 0.232422
0.225311 0.523529 0.233521
0.233185 0.524841 0.234894
0.242310 0.527191 0.237854
0.252869 0.530212 0.241089
0.264496 0.534515 0.245392
0.280762 0.540833 0.251953
0.296936 0.546143 0.257721
0.314453 0.551971 0.265076
0.334839 0.557220 0.270996
0.360229 0.565399 0.280396
0.396271 0.580658 0.298828
0.448669 0.609528 0.329193
0.502045 0.637604 0.366119
0.554352 0.665619 0.398346
0.592987 0.683594 0.419800
0.620758 0.693268 0.431671
0.648285 0.702179 0.442017
0.673981 0.711090 0.453644
0.694519 0.716125 0.460815
0.715515 0.722931 0.471039
0.736511 0.730774 0.483215
0.757355 0.739990 0.495178
0.774811 0.746521 0.504272
0.788849 0.753326 0.513580
0.801056 0.759583 0.522369
0.812744 0.764404 0.529205
0.824066 0.769684 0.536407
0.832733 0.773560 0.541718
0.842346 0.777679 0.547424
0.850006 0.781158 0.552338
0.855896 0.784576 0.556244
0.232635 0.538147 0.242889
0.238861 0.538879 0.243927
0.246887 0.540161 0.245728
0.256592 0.542877 0.249268
0.267944 0.546692 0.252472
0.278320 0.549713 0.255554
0.293976 0.555511 0.261230
0.310699 0.561218 0.267548
0.326874 0.566132 0.274292
0.349274 0.573639 0.282379
0.374786 0.582184 0.292572
0.411011 0.597870 0.311615
0.460846 0.624268 0.341339
0.514862 0.653320 0.377502
0.569183 0.683746 0.412384
0.606964 0.701447 0.434814
0.635193 0.711517 0.447937
0.661499 0.720215 0.458313
0.685120 0.729034 0.469513
0.705658 0.733185 0.477539
0.726318 0.739838 0.487274
0.746033 0.747467 0.498077
0.767151 0.756622 0.510345
0.784851 0.763336 0.519928
0.797424 0.768860 0.527313
0.809326 0.774811 0.535065
0.821594 0.780457 0.542511
0.832855 0.785645 0.548828
0.841522 0.789673 0.553680
0.850983 0.794098 0.559540
0.858368 0.797546 0.564453
0.864014 0.800507 0.568390
0.247406 0.553558 0.254395
0.253784 0.554443 0.255585
0.262299 0.556244 0.258118
0.272278 0.559631 0.260803
0.283661 0.563416 0.263855
0.294067 0.566559 0.266815
0.308655 0.571350 0.271698
0.324036 0.575806 0.277771
0.341034 0.581207 0.285492
0.364624 0.589630 0.295441
0.392487 0.600800 0.307526
0.429199 0.617584 0.327454
0.473969 0.640137 0.354889
0.526978 0.668152 0.387878
0.580414 0.699677 0.425659
0.619202 0.718201 0.448120
0.649048 0.729767 0.464996
