滤镜资源/Professional Luts Collection/Triune-Digital-Cinematic-LUTs/3D LUTs (CUBE)/REDLOGFILM/The Ring - REDlogFilm.cube
#Created by Benjamin (IWLTBAP) : http://luts.iwltbap.com
#Copyright: (C) Copyright 2016 Triune Films and IWLTBAP
TITLE "Blockbuster LUTs Pack (REDlogFilm)"
#LUT size
LUT_3D_SIZE 32
#LUT data points
0.000000 0.000000 0.000000
0.004547 0.000000 0.000000
0.010193 0.000000 0.000000
0.015961 0.000000 0.000000
0.022736 0.000000 0.000000
0.029999 0.000000 0.000000
0.040833 0.000000 0.000000
0.053802 0.000000 0.000000
0.068604 0.000000 0.000000
0.088043 0.000000 0.000000
0.109314 0.000000 0.000000
0.137421 0.002533 0.002533
0.167877 0.002838 0.002563
0.201324 0.005890 0.003357
0.238464 0.009064 0.005127
0.274475 0.012146 0.007019
0.311646 0.015289 0.010223
0.351166 0.021637 0.013367
0.385559 0.027374 0.016235
0.419678 0.032928 0.018982
0.450378 0.037964 0.022614
0.481506 0.043640 0.027405
0.511597 0.049744 0.031891
0.537628 0.053802 0.035950
0.560699 0.057190 0.039368
0.582428 0.061218 0.042511
0.601929 0.065491 0.045349
0.619812 0.068542 0.048126
0.633026 0.070618 0.050201
0.648621 0.073700 0.052582
0.662354 0.076721 0.054565
0.673340 0.079102 0.056152
0.000000 0.004547 0.000000
0.004547 0.005341 0.000000
0.010193 0.005341 0.000000
0.016205 0.005341 0.000000
0.023499 0.005341 0.000000
0.030792 0.005341 0.000000
0.041656 0.005341 0.000000
0.053802 0.005341 0.000000
0.068939 0.005341 0.000000
0.088867 0.005341 0.000000
0.110901 0.006165 0.000000
0.138184 0.007874 0.002533
0.168945 0.008972 0.002563
0.202148 0.011230 0.003357
0.239258 0.014404 0.005127
0.274475 0.017487 0.007019
0.311646 0.021454 0.010223
0.351776 0.027771 0.013367
0.385559 0.033508 0.016235
0.420471 0.039062 0.019775
0.451172 0.044891 0.023438
0.481506 0.049805 0.028198
0.511597 0.055878 0.032074
0.537628 0.059998 0.035950
0.560699 0.063354 0.039368
0.582428 0.066559 0.042511
0.601929 0.070831 0.045349
0.620636 0.074677 0.048126
0.633850 0.076752 0.050201
0.648682 0.079132 0.052582
0.662354 0.082062 0.054565
0.673340 0.084473 0.056152
0.000000 0.010193 0.000000
0.004547 0.010986 0.000000
0.010193 0.011963 0.000000
0.016205 0.011963 0.000000
0.024170 0.011963 0.000000
0.031769 0.011963 0.000000
0.042633 0.011963 0.000000
0.054596 0.011963 0.000000
0.068939 0.011963 0.000000
0.089844 0.011963 0.000000
0.112885 0.013763 0.000000
0.139160 0.014496 0.002533
0.169922 0.016602 0.002563
0.204132 0.018890 0.003357
0.240234 0.021027 0.005127
0.274475 0.024109 0.007019
0.311646 0.029053 0.010223
0.351776 0.035400 0.013367
0.386444 0.041107 0.016235
0.420837 0.046692 0.020142
0.452148 0.052826 0.024414
0.482391 0.058258 0.029205
0.511597 0.063507 0.033051
0.537628 0.067566 0.035950
0.560699 0.070953 0.039368
0.582428 0.074158 0.042511
0.601929 0.077454 0.045349
0.620911 0.081604 0.048126
0.634827 0.084381 0.050201
0.649658 0.086731 0.052582
0.662415 0.088745 0.054565
0.673340 0.091095 0.056152
0.000000 0.016449 0.000000
0.004547 0.016998 0.000000
0.010193 0.018005 0.000000
0.015961 0.018768 0.000000
0.023926 0.018768 0.000000
0.032410 0.018768 0.000000
0.043396 0.018768 0.000000
0.055603 0.018768 0.000000
0.068939 0.018982 0.000244
0.090607 0.018982 0.000244
0.114288 0.021423 0.000244
0.140198 0.021545 0.002533
0.170715 0.024384 0.002808
0.205688 0.026917 0.003357
0.240997 0.028320 0.005341
0.275360 0.031403 0.007263
0.311890 0.037109 0.010223
0.351776 0.043427 0.013611
0.387451 0.049164 0.016479
0.421051 0.054688 0.020386
0.452942 0.060608 0.025208
0.483398 0.066833 0.029938
0.511841 0.071320 0.034088
0.537750 0.075348 0.036194
0.560699 0.078766 0.039581
0.582428 0.082184 0.042786
0.601929 0.085022 0.045624
0.621155 0.088623 0.048370
0.635437 0.091766 0.050446
0.650696 0.094513 0.052795
0.663452 0.096497 0.054779
0.673584 0.098114 0.056396
0.000000 0.025604 0.000000
0.004547 0.025604 0.000000
0.010193 0.025909 0.000000
0.015961 0.026703 0.000000
0.022736 0.026703 0.000000
0.031250 0.026703 0.000000
0.043396 0.026703 0.000000
0.056335 0.026703 0.000000
0.070038 0.027039 0.000305
0.090607 0.028137 0.001434
0.114288 0.030579 0.001434
0.141357 0.030670 0.002533
0.171844 0.033508 0.002838
0.205688 0.036591 0.003998
0.240997 0.038635 0.006531
0.276550 0.041687 0.008453
0.313049 0.047424 0.010223
0.351776 0.053772 0.013977
0.388123 0.059509 0.017670
0.422272 0.065002 0.021576
0.453247 0.070068 0.025513
0.484100 0.075958 0.029938
0.513031 0.080414 0.034424
0.538971 0.084534 0.037384
0.560699 0.087891 0.040802
0.582428 0.091888 0.043945
0.601929 0.095337 0.046783
0.622009 0.098114 0.049561
0.636627 0.100891 0.051636
0.651855 0.103668 0.053986
0.664612 0.105652 0.056000
0.674774 0.107269 0.057587
0.000000 0.035217 0.000000
0.004547 0.035217 0.000000
0.010193 0.035217 0.000000
0.015961 0.035339 0.000153
0.022736 0.035339 0.000153
0.030090 0.035339 0.000153
0.042603 0.035339 0.000153
0.056335 0.035339 0.000153
0.071167 0.035645 0.000305
0.090607 0.037903 0.002563
0.114410 0.040344 0.002563
0.142609 0.040436 0.002686
0.173126 0.043243 0.002838
0.205780 0.046478 0.005219
0.241150 0.049652 0.006622
0.277161 0.052734 0.009613
0.314484 0.058441 0.010345
0.351929 0.064636 0.014099
0.388275 0.070374 0.018921
0.423370 0.075897 0.022705
0.454620 0.080963 0.026794
0.484222 0.085724 0.030090
0.514282 0.090210 0.034576
0.540192 0.094299 0.038635
0.561615 0.097656 0.042023
0.582520 0.101654 0.045197
0.602081 0.105927 0.048065
0.622009 0.108978 0.050812
0.637299 0.111084 0.052917
0.653137 0.113403 0.055115
0.665894 0.115417 0.057098
0.676025 0.117035 0.058716
0.000000 0.047729 0.000000
0.004547 0.047729 0.000000
0.010193 0.047729 0.000000
0.015961 0.047943 0.000244
0.022736 0.049164 0.001434
0.030090 0.049500 0.001740
0.042603 0.049500 0.001740
0.056335 0.049500 0.001740
0.071167 0.049805 0.001740
0.090607 0.052032 0.002563
0.116028 0.054443 0.002563
0.144226 0.054565 0.004333
0.174744 0.057404 0.004333
0.207397 0.061249 0.005890
0.242767 0.065369 0.008270
0.278809 0.068451 0.009613
0.317719 0.074188 0.011932
0.354706 0.079865 0.015717
0.389893 0.084503 0.020538
0.423981 0.089996 0.023315
0.456604 0.095062 0.027740
0.486664 0.099823 0.031708
0.515900 0.104309 0.036163
0.541809 0.108398 0.040283
0.563202 0.111786 0.043640
0.584198 0.115753 0.046814
0.603699 0.120056 0.049652
0.622681 0.123108 0.052429
0.637299 0.125214 0.054535
0.653748 0.127563 0.056091
0.667480 0.129517 0.057098
0.677612 0.131134 0.058716
0.000000 0.064392 0.000977
0.004547 0.065186 0.000977
0.010193 0.065399 0.000977
0.015961 0.065155 0.000977
0.022736 0.064850 0.001434
0.029846 0.066101 0.002563
0.040619 0.066956 0.002563
0.055359 0.066956 0.002563
0.070465 0.067261 0.002869
0.090607 0.069489 0.003540
0.116730 0.071930 0.003540
0.145020 0.072083 0.005096
0.176544 0.075165 0.006104
0.209198 0.078918 0.006866
0.244568 0.083679 0.009064
0.280579 0.086761 0.011200
0.319305 0.092468 0.013733
0.356903 0.097809 0.017548
0.391663 0.101074 0.022308
0.426758 0.107544 0.026062
0.456604 0.111603 0.028748
0.489227 0.116333 0.033508
0.517090 0.120819 0.037994
0.542725 0.124908 0.042053
0.565002 0.128265 0.045410
0.585114 0.131439 0.047760
0.604492 0.135559 0.050476
0.623474 0.138611 0.053223
0.637726 0.140686 0.055328
0.654510 0.143799 0.057648
0.668488 0.146027 0.058868
0.679413 0.147644 0.059662
0.000000 0.085205 0.002869
0.004547 0.085663 0.002869
0.010193 0.086639 0.002869
0.015961 0.087433 0.002869
0.022736 0.086304 0.002869
0.029846 0.085205 0.002869
0.039124 0.086609 0.002869
0.051605 0.087738 0.002869
0.068268 0.087738 0.003174
0.089996 0.089966 0.005432
0.116394 0.092407 0.005432
0.145020 0.092804 0.005432
0.178375 0.095673 0.007996
0.211426 0.100952 0.008759
0.246429 0.104126 0.010834
0.282471 0.107208 0.012787
0.319611 0.112610 0.015930
0.357544 0.116364 0.019409
0.393555 0.121490 0.024506
0.428497 0.125946 0.028137
0.459778 0.131592 0.032379
0.489532 0.134888 0.035706
0.519287 0.139404 0.039856
0.543243 0.143463 0.043945
0.566132 0.146851 0.047302
0.587311 0.150055 0.049927
0.605408 0.152863 0.051361
0.624115 0.155640 0.053864
0.638367 0.157715 0.055969
0.654816 0.160492 0.058258
0.669556 0.163513 0.060272
0.681274 0.165894 0.061890
0.000000 0.113586 0.005127
0.004547 0.113586 0.005127
0.010193 0.113586 0.005127
0.015961 0.113586 0.005127
0.022736 0.113586 0.005127
0.029846 0.113586 0.005127
0.039124 0.113586 0.005127
0.050262 0.114594 0.005127
0.063812 0.116119 0.005432
0.085541 0.116119 0.007660
0.114075 0.118591 0.007660
0.145020 0.121216 0.007660
0.178375 0.124054 0.010223
0.214111 0.127136 0.010986
0.249817 0.130310 0.014160
0.284729 0.133392 0.017242
0.321869 0.136566 0.020416
0.362030 0.142242 0.023590
0.397400 0.146057 0.027374
0.429901 0.150482 0.031769
0.460571 0.154114 0.035400
0.491760 0.158844 0.040161
0.521820 0.163330 0.044006
0.547729 0.167450 0.046173
0.569122 0.170776 0.049561
0.590088 0.173950 0.052704
0.609589 0.176788 0.055573
0.628571 0.179565 0.058319
0.642853 0.181671 0.060425
0.658844 0.183990 0.062744
0.672607 0.186005 0.064758
0.683533 0.187592 0.066345
0.000000 0.144562 0.007538
0.004547 0.144562 0.007538
0.010193 0.144562 0.007538
0.015961 0.144348 0.007538
0.022736 0.143158 0.007538
0.029846 0.142273 0.007660
0.039124 0.143890 0.009308
0.049255 0.145569 0.009979
0.060730 0.147156 0.009979
0.078217 0.147156 0.010071
0.109161 0.149567 0.010071
0.142578 0.149780 0.012512
0.176208 0.152618 0.012939
0.213287 0.155670 0.015869
0.250214 0.158844 0.019043
0.287140 0.161926 0.020203
0.324280 0.167542 0.025299
0.362030 0.168976 0.028473
0.398346 0.174561 0.032227
0.433472 0.180145 0.037781
0.465454 0.183990 0.041626
0.495697 0.187408 0.045044
0.524261 0.191254 0.048920
0.550293 0.193634 0.051056
0.573364 0.198669 0.054413
0.594116 0.202515 0.057617
0.612244 0.205353 0.060455
0.631012 0.208160 0.063232
0.645294 0.210205 0.065308
0.661285 0.212555 0.066895
0.675018 0.214539 0.067871
0.685974 0.216156 0.068787
0.000000 0.180725 0.012726
0.004547 0.180725 0.012726
0.010193 0.180725 0.012726
0.015961 0.180481 0.012726
0.022736 0.179260 0.012726
0.029846 0.178162 0.012726
0.039124 0.178162 0.012726
0.049255 0.179199 0.012756
0.059998 0.181061 0.013062
0.072784 0.183289 0.015289
0.098907 0.183289 0.017731
0.137421 0.185852 0.017822
0.173553 0.186127 0.018097
0.211578 0.189178 0.021179
0.250061 0.192352 0.024323
0.287262 0.195435 0.027405
0.326935 0.198608 0.030579
0.366486 0.202362 0.034363
0.400879 0.208099 0.039154
0.436127 0.212494 0.043091
0.468201 0.215057 0.047028
0.498444 0.218353 0.050354
0.526917 0.222198 0.054199
0.552948 0.224487 0.056335
0.576019 0.229553 0.059723
0.597717 0.232635 0.062042
0.617249 0.234070 0.063477
0.636230 0.237640 0.065979
0.650452 0.240784 0.068085
0.665710 0.243530 0.070404
0.678467 0.245514 0.072388
0.688599 0.247131 0.073975
0.000000 0.217499 0.018707
0.004547 0.217224 0.018707
0.010193 0.217224 0.018707
0.015961 0.217468 0.018951
0.022736 0.217499 0.018982
0.029846 0.217346 0.018982
0.039124 0.217224 0.020447
0.049255 0.217896 0.021240
0.059998 0.220032 0.021515
0.072754 0.220032 0.021515
0.086639 0.222198 0.023712
0.122040 0.222595 0.024078
0.165619 0.225159 0.026642
0.206940 0.228210 0.029663
0.248627 0.231079 0.032867
0.288910 0.234161 0.035675
0.326965 0.237610 0.039154
0.367126 0.240784 0.042267
0.403717 0.243652 0.045776
0.437836 0.247284 0.050171
0.469635 0.251221 0.052979
0.501312 0.254547 0.056030
0.530090 0.258759 0.060181
0.558044 0.262817 0.062195
0.579620 0.264679 0.065430
0.600281 0.266815 0.068573
0.619812 0.269684 0.071442
0.638245 0.272430 0.073120
0.651459 0.274536 0.074158
0.667053 0.276825 0.076050
0.680817 0.278839 0.078094
0.691742 0.280487 0.079681
0.000000 0.261597 0.028656
0.004547 0.261566 0.028656
0.010193 0.260620 0.028656
0.015961 0.260101 0.028656
0.022736 0.261261 0.029297
0.029846 0.262268 0.030457
0.039124 0.260651 0.030457
0.049255 0.259857 0.030457
0.059998 0.260162 0.030731
0.072754 0.264160 0.032990
0.086639 0.264954 0.033752
0.101746 0.266693 0.035522
0.148041 0.266968 0.035797
0.200562 0.270020 0.038849
0.244812 0.271790 0.042023
0.285858 0.273743 0.043945
0.326202 0.278687 0.048279
0.367126 0.281860 0.051453
0.404327 0.285492 0.054321
0.440918 0.288269 0.057098
0.472687 0.291595 0.060730
0.504364 0.294128 0.064545
0.532806 0.297974 0.066772
0.558838 0.300140 0.070709
0.581909 0.303467 0.073059
0.604370 0.306610 0.075470
0.622437 0.308044 0.078339
0.640656 0.309723 0.079987
0.655975 0.311829 0.081055
0.672394 0.314148 0.082947
0.686157 0.316132 0.084961
0.697083 0.317749 0.086609
0.000000 0.305054 0.039948
0.004547 0.305847 0.040741
0.010193 0.306488 0.041351
0.015961 0.306488 0.041351
0.022736 0.306488 0.041351
0.029846 0.307617 0.041351
0.039124 0.307251 0.041351
0.049255 0.307465 0.041351
0.059998 0.307861 0.041656
0.072754 0.309021 0.043884
0.086639 0.310028 0.044922
0.101746 0.311584 0.045044
0.125122 0.311859 0.046722
0.179657 0.314880 0.048981
0.234497 0.316711 0.051544
0.279266 0.318604 0.054596
0.322998 0.321777 0.057800
0.366302 0.323547 0.060944
0.404327 0.327301 0.063812
0.442352 0.332886 0.066589
0.474731 0.335663 0.070221
0.507050 0.339203 0.074036
0.536591 0.342041 0.076904
0.563293 0.344849 0.079742
0.585052 0.346954 0.081818
0.607635 0.350128 0.084167
0.628571 0.352936 0.086426
0.646759 0.353546 0.089233
0.659973 0.354279 0.090546
0.675568 0.356201 0.091736
0.689331 0.358246 0.093079
0.700256 0.359833 0.094696
0.000000 0.351105 0.051117
0.004547 0.351105 0.051117
0.010193 0.351105 0.051117
0.015961 0.351746 0.051727
0.022736 0.351746 0.051727
0.029846 0.351837 0.051849
0.039124 0.353485 0.053467
0.049255 0.353668 0.053650
0.059998 0.353973 0.053650
0.072754 0.352356 0.054291
0.086639 0.354279 0.054291
0.101746 0.356842 0.056213
0.117981 0.358765 0.058746
0.151184 0.360168 0.060181
0.213928 0.361938 0.061310
0.269348 0.363892 0.063873
0.318024 0.367035 0.068970
0.361908 0.367645 0.070190
0.402435 0.371399 0.073059
0.440460 0.376984 0.076996
0.475067 0.380920 0.080292
0.507050 0.383270 0.083282
0.537750 0.385529 0.085541
0.565704 0.388336 0.088318
0.588806 0.391693 0.091644
0.609863 0.393402 0.094208
0.629700 0.395142 0.096710
0.650085 0.397919 0.098145
0.665009 0.399567 0.099365
0.679810 0.400360 0.100952
0.692566 0.401337 0.101990
0.703339 0.402771 0.102783
0.000000 0.400970 0.063812
0.004547 0.400970 0.063812
0.010193 0.400970 0.063812
0.015961 0.401215 0.064056
0.022736 0.402405 0.065247
0.029846 0.403412 0.066223
0.039124 0.401764 0.064606
0.049255 0.400970 0.064789
0.059998 0.400970 0.066345
0.072754 0.400970 0.066345
0.086639 0.403412 0.066345
0.101746 0.403534 0.068909
0.117981 0.406067 0.069183
0.135406 0.406830 0.072235
0.182922 0.408630 0.074005
0.249695 0.410553 0.075928
0.306549 0.413757 0.079102
0.353638 0.416870 0.082306
0.397583 0.419739 0.085175
0.438416 0.422516 0.087921
0.474457 0.425049 0.090454
0.507050 0.427429 0.092804
0.538391 0.430298 0.095703
0.568146 0.434265 0.099640
0.589539 0.435974 0.101349
0.610504 0.437561 0.102905
0.630005 0.438965 0.104340
0.650085 0.441437 0.106842
0.665405 0.443512 0.108887
0.681824 0.445831 0.110474
0.695587 0.447876 0.111511
0.706512 0.449432 0.112305
0.000000 0.449951 0.076477
0.004547 0.449799 0.076477
0.010193 0.448822 0.076477
0.015961 0.448029 0.076477
0.022736 0.448029 0.076477
0.029846 0.448181 0.076477
0.039124 0.449799 0.077606
0.049255 0.450592 0.079010
0.059998 0.450592 0.079010
0.072754 0.450592 0.079010
0.086639 0.450592 0.079010
0.101746 0.453156 0.081543
0.117981 0.453705 0.081818
0.135406 0.455872 0.084106
0.155060 0.458252 0.085480
0.212677 0.458893 0.088562
0.286957 0.462738 0.091125
0.343536 0.463959 0.092377
0.389038 0.467743 0.095520
0.431488 0.471008 0.099426
0.469269 0.472656 0.101013
0.504822 0.476471 0.104858
0.537140 0.478668 0.107697
0.565216 0.478912 0.109741
0.588806 0.483459 0.112610
0.610504 0.486328 0.114746
0.630005 0.486328 0.114746
0.650696 0.488495 0.116913
0.665985 0.490601 0.118988
0.682556 0.492920 0.120728
0.697327 0.494934 0.122742
0.709045 0.496552 0.124329
0.000000 0.493835 0.087891
0.004547 0.493835 0.088684
0.010193 0.493835 0.088806
0.015961 0.493835 0.088806
0.022736 0.493835 0.088806
0.029846 0.493835 0.088806
0.039124 0.494690 0.088806
0.049255 0.496429 0.088867
0.059998 0.496429 0.090454
0.072754 0.496429 0.090454
0.086639 0.496429 0.091370
0.101746 0.498047 0.092987
0.117981 0.498962 0.093292
0.135406 0.503052 0.095551
0.153473 0.501984 0.096954
0.181152 0.505066 0.100037
0.258698 0.506622 0.100647
0.327698 0.509216 0.103790
0.377899 0.511749 0.106659
0.423828 0.515930 0.109436
0.462097 0.517029 0.111969
0.499451 0.519409 0.114349
0.534637 0.522278 0.117188
0.563141 0.524597 0.121185
0.587128 0.527191 0.122833
0.610413 0.529480 0.124481
0.630005 0.530914 0.125916
0.651184 0.533417 0.127441
0.667542 0.535522 0.129547
0.684387 0.537079 0.131836
0.698120 0.538940 0.133026
0.709045 0.540527 0.133820
0.000000 0.540222 0.100128
0.004547 0.539429 0.100128
0.010193 0.539124 0.100769
0.015961 0.539337 0.101562
0.022736 0.540222 0.101562
0.029846 0.540222 0.101562
0.039124 0.540222 0.101562
0.049255 0.540222 0.101562
0.059998 0.541962 0.101837
0.072754 0.542786 0.102661
0.086639 0.542786 0.104004
0.101746 0.542786 0.104095
0.117981 0.545349 0.105225
0.135406 0.545349 0.106628
0.153473 0.547852 0.108063
0.171051 0.549805 0.111115
0.213165 0.551849 0.111755
0.302887 0.554413 0.115448
0.361053 0.556244 0.117767
0.413147 0.559235 0.120544
0.454254 0.561768 0.123077
0.492554 0.564148 0.125458
0.527954 0.565765 0.127686
0.559998 0.568817 0.131256
0.585083 0.571503 0.133972
0.608490 0.573944 0.135559
0.629700 0.575653 0.136993
0.648987 0.575958 0.138367
0.665222 0.577942 0.139404
0.683594 0.580292 0.141327
0.698120 0.581665 0.143311
0.709045 0.582489 0.144958
0.000000 0.583557 0.112762
0.004547 0.582764 0.111969
0.010193 0.581787 0.111664
0.015961 0.580994 0.111664
0.022736 0.581299 0.111664
0.029846 0.582428 0.111664
0.039124 0.582428 0.111664
0.049255 0.583435 0.112640
0.059998 0.583221 0.112762
0.072754 0.583862 0.114197
0.086639 0.583862 0.114197
0.101746 0.584991 0.114197
0.117981 0.586700 0.116760
0.135406 0.588287 0.117523
0.153473 0.588928 0.118164
0.171051 0.590912 0.121216
0.189148 0.592651 0.122986
0.262573 0.594696 0.126465
0.342133 0.596130 0.127869
0.397980 0.601471 0.131775
0.444153 0.602875 0.133179
0.483398 0.606171 0.136505
0.520996 0.607941 0.138275
0.553497 0.608093 0.139862
0.579926 0.610443 0.142212
0.604828 0.614441 0.145386
0.627197 0.617584 0.147095
0.647858 0.618164 0.148468
0.662140 0.618164 0.149506
0.679626 0.618896 0.150665
0.695404 0.620575 0.152313
0.707947 0.622162 0.153931
0.000000 0.622864 0.122803
0.004547 0.623627 0.123596
0.010193 0.622925 0.122864
0.015961 0.622192 0.122101
0.022736 0.622192 0.122101
0.029846 0.622192 0.122101
0.039124 0.622192 0.122101
0.049255 0.623169 0.122162
0.059998 0.624725 0.124023
0.072754 0.623108 0.124695
0.086639 0.623108 0.124695
0.101746 0.624725 0.124695
0.117981 0.625000 0.126556
0.135406 0.627289 0.127228
0.153473 0.629822 0.129761
0.171051 0.630768 0.131714
0.189148 0.631439 0.133942
0.207764 0.633942 0.135468
0.310730 0.636810 0.138336
0.380432 0.638824 0.141327
0.429901 0.642578 0.144135
0.472931 0.643555 0.146027
0.513245 0.647400 0.149872
0.547791 0.647827 0.150330
0.574249 0.649506 0.152008
0.599945 0.651917 0.153564
0.622437 0.656097 0.156281
0.644043 0.657928 0.157990
0.659332 0.657928 0.159027
0.677277 0.658630 0.160187
0.693024 0.659668 0.161224
0.705566 0.660461 0.162018
0.000000 0.657684 0.130737
0.004547 0.658447 0.131531
0.010193 0.659485 0.132568
0.015961 0.660004 0.133057
0.022736 0.659607 0.132690
0.029846 0.659607 0.132812
0.039124 0.659607 0.133331
0.049255 0.660583 0.133331
0.059998 0.661835 0.133331
0.072754 0.661530 0.135223
0.086639 0.662140 0.135223
0.101746 0.662781 0.135864
0.117981 0.662720 0.136139
0.135406 0.665375 0.138458
0.153473 0.666748 0.139832
0.171051 0.668579 0.142273
0.189148 0.668518 0.143524
0.207153 0.672333 0.146057
0.248199 0.675201 0.148926
0.352905 0.677460 0.151703
0.412903 0.679199 0.153748
0.459503 0.681580 0.154999
0.502014 0.683838 0.158844
0.540070 0.685760 0.160889
0.567535 0.686951 0.162567
0.593231 0.688721 0.164154
0.617035 0.691559 0.165588
0.639069 0.693237 0.166962
0.655426 0.694305 0.167999
0.674377 0.695435 0.169159
0.690125 0.696442 0.170166
0.702698 0.697266 0.170959
0.000000 0.693909 0.141083
0.004547 0.694489 0.141632
0.010193 0.695435 0.142639
0.015961 0.696075 0.143311
0.022736 0.694916 0.142090
0.029846 0.693909 0.141083
0.039124 0.693909 0.142731
0.049255 0.694641 0.143524
0.059998 0.696167 0.143524
0.072754 0.693909 0.143524
0.086639 0.696198 0.143524
0.101746 0.698853 0.146057
0.117981 0.696899 0.146240
0.135406 0.701324 0.148621
0.153473 0.702850 0.149902
0.171051 0.702057 0.151154
0.189148 0.706421 0.153625
0.207153 0.704742 0.154327
0.238617 0.707458 0.157074
0.316071 0.710236 0.159851
0.390869 0.713776 0.162384
0.445496 0.717560 0.164764
0.489685 0.719727 0.166992
0.529846 0.721985 0.169159
0.559662 0.721985 0.170837
0.586914 0.722687 0.172302
0.610687 0.724121 0.173706
0.632965 0.725494 0.175110
0.649323 0.726532 0.176147
0.668518 0.727722 0.177429
0.685272 0.728729 0.178436
0.698639 0.729523 0.179230
0.000000 0.725403 0.151184
0.004547 0.724609 0.150391
0.010193 0.723633 0.149384
0.015961 0.724335 0.150116
0.022736 0.724335 0.150116
0.029846 0.723724 0.149506
0.039124 0.725342 0.151154
0.049255 0.724426 0.151947
0.059998 0.724670 0.151947
0.072754 0.725403 0.151947
0.086639 0.726044 0.151947
0.101746 0.728699 0.154480
0.117981 0.726746 0.154480
0.135406 0.730469 0.156006
0.153473 0.732239 0.157074
0.171051 0.731873 0.159576
0.189148 0.734558 0.160339
0.207153 0.735016 0.162750
0.223480 0.738159 0.164673
0.282043 0.740051 0.166595
0.364502 0.742584 0.169128
0.429443 0.745697 0.171478
0.477875 0.747314 0.173706
0.518066 0.748413 0.175873
0.551270 0.753479 0.179260
0.578461 0.753479 0.179993
0.602264 0.753937 0.180450
0.626495 0.755310 0.181824
0.644257 0.756348 0.182892
0.664093 0.757538 0.184814
0.681854 0.758545 0.186829
0.695251 0.759308 0.187653
0.000000 0.753387 0.159027
0.004547 0.752594 0.159027
0.010193 0.751587 0.158081
0.015961 0.751282 0.157288
0.022736 0.752502 0.157288
0.029846 0.752502 0.157288
0.039124 0.753418 0.158234
0.049255 0.754028 0.159882
0.059998 0.752167 0.159546
0.072754 0.753387 0.159027
0.086639 0.754211 0.159882
0.101746 0.755066 0.161560
0.117981 0.754761 0.162384
0.135406 0.757660 0.162384
0.153473 0.757904 0.164124
0.171051 0.760773 0.166046
0.189148 0.761871 0.167511
0.207153 0.762085 0.170044
0.223480 0.766144 0.172607
0.246918 0.768097 0.173767
0.333679 0.770630 0.176300
0.411255 0.773010 0.178680
0.465973 0.775269 0.180908
0.507080 0.775330 0.182800
0.540985 0.777527 0.184784
0.571381 0.782288 0.187927
0.595184 0.782288 0.187927
0.620239 0.782562 0.189056
0.638672 0.783569 0.190063
0.658569 0.785492 0.191254
0.676270 0.786591 0.193146
0.690399 0.787415 0.194733
0.000000 0.777161 0.164734
0.004547 0.776367 0.164734
0.010193 0.775360 0.164734
0.015961 0.775085 0.164429
0.022736 0.777496 0.164429
0.029846 0.779114 0.164429
0.039124 0.779114 0.164429
0.049255 0.779419 0.165710
0.059998 0.778809 0.166656
0.072754 0.777161 0.164734
0.086639 0.779419 0.166992
0.101746 0.777435 0.167236
0.117981 0.781403 0.169525
0.135406 0.779999 0.169525
0.153473 0.781128 0.169830
0.171051 0.786407 0.171753
0.189148 0.787079 0.174652
0.207153 0.788727 0.177216
0.223480 0.788574 0.178406
0.239319 0.792175 0.180878
0.300018 0.795837 0.183411
0.386353 0.798218 0.185791
0.450317 0.800476 0.188019
0.497131 0.802002 0.189941
0.531982 0.800323 0.189941
0.562836 0.803223 0.192200
0.589478 0.807465 0.195038
0.614777 0.807465 0.196136
0.634247 0.807465 0.197205
0.654327 0.809296 0.198334
0.671082 0.811310 0.199371
0.684723 0.812592 0.200439
0.000000 0.801361 0.171387
0.004547 0.801361 0.171387
0.010193 0.800690 0.171387
0.015961 0.799896 0.171387
0.022736 0.800598 0.171387
0.029846 0.802856 0.171387
0.039124 0.802856 0.171387
0.049255 0.802856 0.171387
0.059998 0.803467 0.173126
0.072754 0.803558 0.172485
0.086639 0.803833 0.173798
0.101746 0.803558 0.173920
0.117981 0.805969 0.175659
0.135406 0.806122 0.177246
0.153473 0.805328 0.176453
0.171051 0.810333 0.179504
0.189148 0.812683 0.181580
