滤镜资源/Professional Luts Collection/Triune-Digital-Cinematic-LUTs/3D LUTs (CUBE)/REDLOGFILM/The Lord of the Rings - REDlogFilm.cube
#Created by Benjamin (IWLTBAP) : http://luts.iwltbap.com
#Copyright: (C) Copyright 2016 Triune Films and IWLTBAP
TITLE "Blockbuster LUTs Pack (REDlogFilm)"
#LUT size
LUT_3D_SIZE 5
#LUT data points
DOMAIN_MIN 0.000000 0.000000 0.000000
DOMAIN_MAX 0.903226 0.903226 0.903226
0.005157 0.004669 0.004425
0.061890 0.007172 0.006866
0.233337 0.050110 0.047516
0.573517 0.140808 0.139862
0.754272 0.205017 0.203491
0.014374 0.066071 0.010376
0.081757 0.079681 0.024536
0.267334 0.124054 0.066681
0.580536 0.189270 0.145660
0.723724 0.229584 0.192047
0.080414 0.248108 0.077026
0.147095 0.273834 0.089569
0.356445 0.333588 0.117096
0.676697 0.410217 0.213348
0.837311 0.452698 0.263977
0.200745 0.536163 0.173248
0.248260 0.557953 0.183716
0.482086 0.650543 0.247314
0.813110 0.735138 0.332825
0.962799 0.764404 0.374054
0.263397 0.676086 0.227722
0.309265 0.698822 0.240448
0.547211 0.799866 0.309387
0.868073 0.882080 0.384735
0.983398 0.896698 0.423584
0.007996 0.007355 0.055756
0.075562 0.019287 0.070160
0.257446 0.060394 0.112122
0.591949 0.149261 0.188812
0.759369 0.207428 0.243042
0.026459 0.078491 0.076721
0.094604 0.094971 0.093506
0.301910 0.126617 0.122498
0.627686 0.201874 0.201904
0.769470 0.243011 0.244049
0.088715 0.267761 0.138092
0.137848 0.297302 0.138580
0.369049 0.344635 0.167542
0.702148 0.425812 0.258789
0.856903 0.468475 0.306030
0.204834 0.542206 0.220062
0.256439 0.577576 0.233215
0.492737 0.661316 0.287689
0.836365 0.750793 0.376038
0.966675 0.782227 0.421753
0.264069 0.676270 0.270752
0.313416 0.707855 0.283966
0.549561 0.810120 0.346802
0.885803 0.902618 0.428040
0.988434 0.917389 0.470947
0.047089 0.038269 0.223419
0.105774 0.048553 0.246521
0.321838 0.053864 0.306305
0.606842 0.155457 0.347961
0.767792 0.211060 0.388062
0.058258 0.112061 0.251282
0.107788 0.111603 0.285278
0.321930 0.122833 0.310760
0.628876 0.205688 0.364838
0.758942 0.237915 0.392303
0.099457 0.290802 0.294434
0.146271 0.311615 0.315308
0.376770 0.367065 0.360352
0.716492 0.461456 0.447510
0.880615 0.513763 0.498535
0.222534 0.563690 0.380127
0.272614 0.596008 0.401001
0.490784 0.682983 0.471497
0.846497 0.785004 0.559662
0.977905 0.820496 0.613159
0.281586 0.697998 0.430328
0.332672 0.732574 0.453339
0.542419 0.845825 0.535645
0.887817 0.933807 0.606140
0.990936 0.944061 0.672028
0.116180 0.064697 0.552277
0.174591 0.071014 0.596008
0.339630 0.089508 0.557678
0.634705 0.165192 0.604553
0.816162 0.230591 0.650757
0.103729 0.117004 0.518463
0.154419 0.125366 0.548218
0.332336 0.151001 0.558167
0.625244 0.204163 0.586243
0.767487 0.246155 0.609833
0.141327 0.309906 0.511841
0.193237 0.337311 0.557617
0.378784 0.401184 0.599670
0.735474 0.497040 0.680695
0.898376 0.548859 0.726776
0.249268 0.585175 0.597382
0.299713 0.617767 0.626343
0.469177 0.713104 0.695892
0.847595 0.812256 0.780945
0.988708 0.848602 0.816010
0.301636 0.715393 0.635834
0.366089 0.769409 0.677856
0.514587 0.872375 0.749420
0.883545 0.953033 0.818787
0.990936 0.962982 0.861969
0.168427 0.096710 0.733826
0.198303 0.090759 0.702087
0.349792 0.108215 0.680817
0.659424 0.187927 0.755219
0.658173 0.160187 0.627350
0.129059 0.130829 0.619202
0.179688 0.142761 0.661957
0.313934 0.165527 0.667572
0.629791 0.221619 0.715149
0.776001 0.252930 0.739410
0.167603 0.325623 0.626373
0.220917 0.356049 0.678711
0.371521 0.421509 0.737030
0.753845 0.529694 0.826782
0.910431 0.570221 0.862335
0.267883 0.591949 0.716461
0.327576 0.639404 0.759827
0.462982 0.732117 0.830750
0.858215 0.837097 0.917023
0.990875 0.854797 0.931061
0.320282 0.728241 0.758179
0.387238 0.787476 0.805206
0.526459 0.888184 0.879150
0.876129 0.958893 0.932404
0.990936 0.968262 0.948853
