滤镜资源/Professional Luts Collection/Triune-Digital-Cinematic-LUTs/3D LUTs (CUBE)/REDLOGFILM/The Lord of the Rings - REDlogFilm.cube
#Created by Benjamin (IWLTBAP) : http://luts.iwltbap.com
#Copyright: (C) Copyright 2016 Triune Films and IWLTBAP
TITLE "Blockbuster LUTs Pack (REDlogFilm)"
#LUT size
LUT_3D_SIZE 32
#LUT data points
0.005157 0.004669 0.004425
0.008118 0.004913 0.004608
0.012146 0.004913 0.004791
0.015900 0.005188 0.004852
0.023102 0.005280 0.005127
0.033630 0.005768 0.005585
0.046234 0.006500 0.006073
0.061890 0.007172 0.006866
0.079895 0.009247 0.007904
0.100739 0.017212 0.014587
0.124878 0.023438 0.021179
0.148071 0.029938 0.027649
0.173706 0.035828 0.033600
0.200928 0.042603 0.040436
0.233337 0.050110 0.047516
0.264740 0.057373 0.054993
0.300720 0.067780 0.064850
0.345520 0.078766 0.075684
0.418549 0.092865 0.091431
0.485535 0.111176 0.110901
0.526581 0.123718 0.122650
0.573517 0.140808 0.139862
0.616425 0.157074 0.155518
0.648224 0.168152 0.166779
0.682159 0.180908 0.179230
0.699280 0.186249 0.184814
0.721588 0.193970 0.192566
0.740662 0.200562 0.199005
0.754272 0.205017 0.203491
0.771057 0.210938 0.209198
0.781097 0.214050 0.212402
0.786926 0.215485 0.213776
0.005341 0.007843 0.004669
0.008484 0.008118 0.004822
0.012329 0.008331 0.005035
0.016235 0.008423 0.005188
0.025421 0.008636 0.005585
0.035065 0.009216 0.005890
0.048523 0.009888 0.006561
0.064484 0.011536 0.007416
0.081726 0.017334 0.010529
0.102997 0.023163 0.016998
0.125641 0.029968 0.023010
0.149536 0.035828 0.028992
0.174713 0.041565 0.034943
0.201965 0.048218 0.041687
0.236023 0.056702 0.049591
0.267609 0.064270 0.057190
0.303772 0.074768 0.067932
0.355194 0.085205 0.077789
0.426727 0.099213 0.093262
0.492889 0.117737 0.113281
0.527435 0.127777 0.122925
0.570312 0.143433 0.138489
0.610382 0.157928 0.152985
0.643616 0.169769 0.164886
0.675995 0.181793 0.176849
0.695709 0.188385 0.183380
0.717499 0.195953 0.190948
0.738739 0.203522 0.198395
0.750580 0.207184 0.202148
0.766632 0.212585 0.207550
0.777039 0.215881 0.210785
0.781769 0.216736 0.211792
0.005524 0.011810 0.004883
0.008850 0.012024 0.005157
0.012695 0.012421 0.005371
0.016693 0.012543 0.005554
0.027344 0.012756 0.006042
0.038239 0.013092 0.006500
0.051361 0.015320 0.007050
0.066467 0.020355 0.007874
0.084076 0.024994 0.012970
0.103729 0.031464 0.018829
0.127014 0.037872 0.025269
0.150726 0.043304 0.030731
0.176453 0.048676 0.037079
0.203827 0.055969 0.043579
0.239136 0.065125 0.052765
0.271149 0.072937 0.060455
0.307434 0.083710 0.070984
0.371613 0.093323 0.081635
0.438293 0.107208 0.096161
0.501465 0.124878 0.115234
0.528198 0.133209 0.123566
0.570709 0.148285 0.139008
0.603729 0.159454 0.150421
0.638275 0.171906 0.162689
0.664948 0.181274 0.172211
0.687988 0.189178 0.180237
0.704834 0.194794 0.185638
0.727020 0.202637 0.193359
0.737549 0.205841 0.196716
0.751312 0.210175 0.201141
0.763580 0.214081 0.204987
0.766296 0.214233 0.205109
0.006042 0.015594 0.005188
0.008972 0.016022 0.005463
0.013123 0.016174 0.005768
0.020294 0.016449 0.006134
0.029999 0.018616 0.006622
0.040955 0.020844 0.007019
0.053070 0.024872 0.007568
0.068481 0.028809 0.009338
0.085846 0.033051 0.014832
0.105743 0.039307 0.020508
0.128540 0.045715 0.027405
0.152252 0.050812 0.033142
0.179413 0.057953 0.040375
0.207001 0.064545 0.046448
0.241760 0.074005 0.055389
0.274353 0.081970 0.063232
0.313507 0.092072 0.073334
0.385803 0.101318 0.084442
0.449615 0.115906 0.100067
0.498901 0.129364 0.114349
0.529968 0.138702 0.124573
0.571777 0.153412 0.139679
0.601898 0.163177 0.149872
0.634918 0.174896 0.161530
0.656952 0.182098 0.168793
0.681458 0.190765 0.177460
0.696167 0.195435 0.181976
0.714508 0.201477 0.188171
0.729340 0.206360 0.193085
0.739746 0.209381 0.196228
0.747894 0.211456 0.198364
0.749359 0.210876 0.198029
0.006256 0.022369 0.005768
0.009796 0.023254 0.006165
0.014496 0.025940 0.006470
0.023376 0.027618 0.006866
0.033875 0.029144 0.007294
0.042664 0.032257 0.007538
0.055573 0.035461 0.007996
0.071594 0.038544 0.012329
0.088013 0.042755 0.016388
0.108215 0.048645 0.022919
0.130524 0.054871 0.030273
0.154266 0.060333 0.035156
0.182861 0.068970 0.043945
0.210938 0.075592 0.050049
0.244843 0.084106 0.058350
0.278168 0.092041 0.066956
0.329285 0.100250 0.074219
0.396912 0.110657 0.086334
0.457733 0.125000 0.101868
0.497040 0.135956 0.114136
0.530640 0.145233 0.125153
0.570190 0.158081 0.139313
0.598938 0.167450 0.148804
0.631958 0.178955 0.160583
0.650330 0.184631 0.166260
0.676025 0.193634 0.175323
0.693420 0.199005 0.181061
0.709808 0.204193 0.186249
0.723053 0.208496 0.190796
0.735107 0.212219 0.194305
0.742920 0.214203 0.196503
0.744385 0.213623 0.195984
0.007233 0.033051 0.006500
0.010406 0.035217 0.006866
0.020325 0.036224 0.007202
0.026428 0.038696 0.007507
0.036133 0.040710 0.007812
0.046600 0.042542 0.008759
0.059326 0.045563 0.011444
0.072937 0.050018 0.015198
0.089172 0.053864 0.018738
0.110840 0.059814 0.025879
0.133118 0.065277 0.032379
0.157684 0.071014 0.038452
0.185852 0.080322 0.046875
0.215179 0.085907 0.053528
0.248230 0.094452 0.061188
0.283325 0.103180 0.069733
0.345123 0.109039 0.075989
0.408356 0.119476 0.088715
0.465149 0.134918 0.104553
0.498260 0.143890 0.115173
0.535797 0.153748 0.127899
0.572723 0.165344 0.140686
0.598633 0.173126 0.149078
0.628510 0.182922 0.159271
0.650452 0.189789 0.166504
0.672058 0.197052 0.173798
0.691681 0.203461 0.180511
0.705261 0.207550 0.184418
0.716797 0.210846 0.188202
0.729156 0.214691 0.192017
0.739624 0.217743 0.195251
0.741455 0.217407 0.194733
0.007996 0.048431 0.007446
0.014557 0.049774 0.007599
0.022980 0.051147 0.007874
0.031494 0.052856 0.009674
0.041168 0.055054 0.012115
0.050110 0.057617 0.013550
0.062531 0.060669 0.016144
0.077209 0.063477 0.019836
0.092621 0.067719 0.023529
0.114624 0.073883 0.029785
0.136780 0.078888 0.035767
0.160706 0.084625 0.041443
0.188629 0.093140 0.050262
0.219574 0.101196 0.057617
0.257507 0.108459 0.063324
0.302307 0.114441 0.069366
0.358826 0.121368 0.077911
0.421844 0.132965 0.091003
0.466309 0.146332 0.106262
0.500366 0.155243 0.117096
0.539642 0.164978 0.130280
0.577454 0.176178 0.143585
0.603638 0.183319 0.151611
0.628510 0.190430 0.159637
0.653564 0.198517 0.168152
0.671265 0.203796 0.173737
0.692108 0.210693 0.181183
0.704834 0.214233 0.184601
0.714508 0.216949 0.187439
0.724335 0.219299 0.190186
0.733795 0.221985 0.192871
0.735718 0.221619 0.192688
0.014374 0.066071 0.010376
0.020203 0.067291 0.012115
0.028656 0.068573 0.014313
0.037079 0.070099 0.015594
0.045532 0.072266 0.017090
0.055237 0.074524 0.019592
0.067474 0.077179 0.021637
0.081757 0.079681 0.024536
0.098267 0.084106 0.029205
0.119873 0.090057 0.035919
0.141357 0.094910 0.040375
0.165375 0.100952 0.046478
0.193207 0.108368 0.054199
0.227112 0.117981 0.061859
0.267334 0.124054 0.066681
0.315979 0.130096 0.072144
0.373138 0.138031 0.081024
0.426788 0.149261 0.094727
0.467773 0.160187 0.108154
0.504791 0.168701 0.120148
0.547058 0.180634 0.134796
0.580536 0.189270 0.145660
0.610321 0.196106 0.155273
0.634125 0.202606 0.162567
0.659393 0.210419 0.171417
0.678375 0.215973 0.177521
0.695282 0.220978 0.182922
0.711090 0.225800 0.187866
0.723724 0.229584 0.192047
0.733215 0.231537 0.194336
0.739807 0.232849 0.196075
0.740509 0.232086 0.195190
0.021240 0.084076 0.017487
0.027649 0.085266 0.019073
0.034302 0.086609 0.020508
0.041046 0.088013 0.021973
0.049103 0.089844 0.023407
0.059418 0.092285 0.025391
0.072632 0.094788 0.028046
0.087250 0.097473 0.030670
0.104584 0.102448 0.035492
0.126038 0.108307 0.041504
0.147095 0.112976 0.046051
0.171173 0.119171 0.052887
0.200745 0.127380 0.060669
0.235229 0.135010 0.067230
0.279266 0.140961 0.069489
0.329041 0.145142 0.073425
0.387024 0.154724 0.083801
0.430725 0.166321 0.098175
0.472717 0.176331 0.111847
0.511597 0.185791 0.124512
0.549438 0.195984 0.137421
0.584900 0.205475 0.149048
0.611420 0.211853 0.157196
0.643433 0.220886 0.168182
0.665161 0.226685 0.175354
0.686920 0.233154 0.182343
0.704712 0.237915 0.188080
0.718597 0.241455 0.192139
0.730347 0.244354 0.195801
0.743652 0.248260 0.199951
0.752136 0.250305 0.202271
0.754303 0.250000 0.202087
0.029053 0.105194 0.024872
0.034424 0.106018 0.026215
0.039825 0.107391 0.027527
0.045837 0.108826 0.028290
0.055695 0.110992 0.030273
0.065399 0.113708 0.032410
0.079529 0.116150 0.035309
0.094086 0.119171 0.038269
0.111664 0.124023 0.042786
0.132019 0.128937 0.047577
0.153900 0.134521 0.053528
0.178101 0.140259 0.059509
0.208099 0.148346 0.067413
0.246338 0.154236 0.068878
0.294037 0.160889 0.071472
0.346100 0.168091 0.077881
0.390930 0.176300 0.088379
0.438873 0.187683 0.103882
0.476135 0.195862 0.115540
0.518372 0.206787 0.129669
0.555969 0.216278 0.141937
0.593903 0.227020 0.154907
0.623535 0.234589 0.164429
0.647858 0.240601 0.171936
0.674042 0.248047 0.180908
0.696411 0.254364 0.188263
0.717499 0.260895 0.195374
0.731873 0.264343 0.199554
0.741486 0.266693 0.202393
0.750671 0.268768 0.204773
0.757751 0.270599 0.206482
0.761536 0.271301 0.207245
0.037750 0.128998 0.033966
0.042694 0.130341 0.034576
0.049042 0.131470 0.035919
0.055420 0.132690 0.037750
0.064850 0.134521 0.039764
0.074554 0.137421 0.042206
0.087677 0.141174 0.045319
0.102448 0.143585 0.047302
0.118835 0.146118 0.050629
0.138641 0.151917 0.055573
0.161163 0.157104 0.061401
0.185303 0.163269 0.066864
0.218811 0.170837 0.069489
0.260345 0.178406 0.070984
0.308014 0.183746 0.073212
0.355469 0.192902 0.082031
0.396423 0.201141 0.094360
0.447144 0.213470 0.110748
0.487061 0.221985 0.123199
0.528931 0.231903 0.136597
0.568787 0.242401 0.150055
0.600494 0.249847 0.160187
0.634491 0.259613 0.171509
0.661346 0.266541 0.180176
0.687073 0.273865 0.188660
0.707153 0.279236 0.195190
0.724030 0.283691 0.200439
0.743469 0.290100 0.207001
0.758179 0.294739 0.211914
0.768890 0.297729 0.214905
0.776367 0.300171 0.217041
0.781525 0.301727 0.218353
0.046265 0.154602 0.042664
0.051117 0.155701 0.043915
0.057770 0.156799 0.044891
0.065552 0.158112 0.046753
0.074310 0.160522 0.049561
0.084351 0.163269 0.051727
0.098083 0.166443 0.054504
0.113220 0.169281 0.057251
0.128540 0.172729 0.060547
0.147552 0.177124 0.064423
0.170624 0.183563 0.070343
0.198608 0.192444 0.073425
0.233948 0.200012 0.072388
0.273865 0.206665 0.073547
0.320709 0.214630 0.078156
0.360535 0.221863 0.089233
0.406677 0.231384 0.102905
0.457458 0.243134 0.119202
0.500916 0.253021 0.133057
0.543213 0.263580 0.146637
0.580811 0.272675 0.158783
0.621887 0.284576 0.172791
0.649689 0.290466 0.181366
0.676544 0.297333 0.189636
0.706207 0.306793 0.200043
0.728302 0.312958 0.207397
0.747528 0.318848 0.213715
0.764252 0.323486 0.218872
0.775909 0.326782 0.222534
0.786713 0.329712 0.225525
0.793945 0.332092 0.227509
0.798950 0.334259 0.228882
0.055664 0.181213 0.052063
0.061188 0.182678 0.053528
0.067780 0.184967 0.055664
0.075073 0.186981 0.057983
0.084686 0.189117 0.060455
0.095184 0.191864 0.063202
0.108917 0.195374 0.065674
0.124603 0.199036 0.068817
0.140259 0.203461 0.071808
0.160645 0.209473 0.076660
0.183075 0.217438 0.077667
0.210083 0.225189 0.075470
0.245880 0.233398 0.077728
0.287292 0.241974 0.077087
0.327362 0.248047 0.087372
0.371338 0.256989 0.100037
0.421478 0.267975 0.115173
0.472992 0.280548 0.131378
0.510864 0.287628 0.142273
0.557129 0.299683 0.157410
0.598907 0.310303 0.171326
0.630280 0.316742 0.180695
0.667419 0.328491 0.193420
0.695557 0.335754 0.202423
0.723877 0.344025 0.211975
0.743256 0.348328 0.217804
0.761566 0.353485 0.223694
0.779785 0.359192 0.229523
0.792877 0.362885 0.233765
0.805450 0.366730 0.237732
0.813599 0.369598 0.239929
0.819366 0.372131 0.241730
0.068359 0.213013 0.064301
0.073364 0.215118 0.065857
0.080597 0.217377 0.068085
0.087280 0.219696 0.069855
0.096558 0.222076 0.072296
0.107422 0.224823 0.075012
0.120789 0.228119 0.077759
0.135010 0.232666 0.079132
0.152313 0.238007 0.081970
0.171631 0.247589 0.082855
0.192657 0.255737 0.080109
0.221954 0.263641 0.081940
0.258209 0.273926 0.083038
0.295074 0.278198 0.088318
0.339752 0.288055 0.100647
0.386200 0.298615 0.114075
0.433777 0.307892 0.127594
0.483765 0.318848 0.142456
0.529449 0.330658 0.156891
0.574310 0.341095 0.171021
0.614136 0.350922 0.183502
0.651886 0.361267 0.195862
0.684052 0.369110 0.205994
0.716095 0.377930 0.216522
0.742249 0.385345 0.225006
0.765656 0.392303 0.232697
0.784668 0.397156 0.238739
0.802429 0.402161 0.244263
0.813263 0.404633 0.247437
0.824921 0.407867 0.250793
0.834137 0.411133 0.253632
0.840851 0.413177 0.255432
0.080414 0.248108 0.077026
0.085022 0.249664 0.078369
0.091675 0.251617 0.080078
0.098907 0.253448 0.081818
0.108734 0.256653 0.084625
0.120392 0.259918 0.087433
0.133118 0.266724 0.089081
0.147095 0.273834 0.089569
0.162109 0.281128 0.089294
0.180145 0.291290 0.087860
0.205261 0.299957 0.089233
0.235199 0.309326 0.090912
0.268555 0.311920 0.095428
0.309937 0.322693 0.105225
0.356445 0.333588 0.117096
0.402252 0.343445 0.129547
0.452057 0.354218 0.143738
0.504974 0.367065 0.159790
0.549164 0.377899 0.173065
0.596649 0.389862 0.187988
0.637268 0.400391 0.200928
0.676697 0.410217 0.213348
0.711792 0.420441 0.224701
0.741150 0.427124 0.233795
0.770416 0.436829 0.243805
0.791626 0.441376 0.250275
0.811584 0.446442 0.256470
0.827026 0.450287 0.260986
0.837311 0.452698 0.263977
0.850830 0.456207 0.268005
0.861176 0.459808 0.271179
0.868988 0.462738 0.273651
0.091949 0.280762 0.088104
0.097382 0.283234 0.090149
0.104706 0.285828 0.092285
0.111908 0.288940 0.094269
0.120483 0.294220 0.095490
0.130493 0.299225 0.097687
0.141724 0.308746 0.096863
0.156158 0.316986 0.096985
0.170929 0.325867 0.097229
0.192871 0.337799 0.099182
0.219696 0.346893 0.102631
0.249969 0.350677 0.107300
0.287140 0.360077 0.115387
0.326447 0.368469 0.123566
0.372314 0.379242 0.134003
0.421417 0.391144 0.147278
0.473572 0.404419 0.162384
0.522980 0.414856 0.176239
0.571320 0.426910 0.191040
0.620056 0.440857 0.206543
0.658508 0.448395 0.217682
0.699951 0.459930 0.231110
0.734100 0.468964 0.241852
0.767853 0.478271 0.252747
0.789459 0.482361 0.258820
0.813843 0.489258 0.266632
0.835205 0.494904 0.273529
0.851318 0.498810 0.278259
0.863098 0.501465 0.281433
0.876556 0.505310 0.285675
0.886597 0.508728 0.288849
0.894043 0.510986 0.291077
0.108002 0.318573 0.103760
0.113678 0.322510 0.104584
0.119995 0.327850 0.105957
0.126953 0.333923 0.107117
0.135223 0.341583 0.107727
0.143158 0.349609 0.108307
0.154358 0.359100 0.109344
0.168274 0.368561 0.110748
0.185028 0.376160 0.111633
0.208710 0.382477 0.114563
0.236542 0.388824 0.119934
0.268036 0.399475 0.127686
0.302734 0.406555 0.134247
0.345184 0.418396 0.144257
0.392944 0.430908 0.155548
0.437500 0.438751 0.164490
0.491394 0.452728 0.180084
0.546875 0.467957 0.196533
0.595825 0.480865 0.211243
0.640289 0.490784 0.224182
0.684357 0.502777 0.237915
0.725372 0.514496 0.251007
0.757263 0.520630 0.260040
0.790314 0.530182 0.270905
0.814301 0.535339 0.278168
0.835754 0.540802 0.284790
0.852295 0.543304 0.289001
0.868591 0.546265 0.293457
0.880920 0.549835 0.297363
0.895844 0.554321 0.302307
0.905701 0.556824 0.304932
0.913269 0.558990 0.307251
0.126251 0.369141 0.115692
0.132202 0.374390 0.116577
0.138977 0.380829 0.118011
0.145905 0.386597 0.119446
0.153931 0.394348 0.121490
0.162689 0.402283 0.123199
0.172821 0.410278 0.124481
0.184540 0.418121 0.125610
0.202179 0.421417 0.128723
0.225220 0.426422 0.132812
0.252533 0.435638 0.139313
0.282562 0.443390 0.145416
0.322479 0.457825 0.155884
0.363647 0.468353 0.164948
0.411346 0.480560 0.175781
0.460541 0.493073 0.187317
0.515289 0.507416 0.201141
0.570068 0.521301 0.216919
0.619049 0.535034 0.231659
0.668427 0.548615 0.246826
0.707825 0.555420 0.257477
0.745789 0.565765 0.269531
0.780975 0.575806 0.280914
0.812408 0.584167 0.290894
0.834839 0.588165 0.296997
0.855560 0.591553 0.302521
0.875305 0.596252 0.308502
0.893494 0.601166 0.314087
0.904297 0.602661 0.316650
0.916168 0.604523 0.319702
0.926605 0.607391 0.322845
0.934784 0.609711 0.325165
0.146667 0.417938 0.130646
0.152466 0.423065 0.132141
0.159302 0.430328 0.133972
0.166077 0.436951 0.135376
0.173828 0.442078 0.136749
0.181396 0.448334 0.138184
0.190369 0.450867 0.138519
0.201721 0.453644 0.140350
0.218414 0.462067 0.145477
0.241333 0.469208 0.150665
0.268799 0.478180 0.156952
0.300568 0.488892 0.164795
0.337219 0.498932 0.172668
0.382690 0.514526 0.184418
0.432922 0.529022 0.196625
0.480164 0.539795 0.206879
0.535980 0.556152 0.221069
0.589600 0.569061 0.234924
0.639252 0.582733 0.249939
0.683136 0.590881 0.261566
0.727600 0.604004 0.276062
0.765045 0.613159 0.287445
0.799316 0.621643 0.297729
0.829468 0.628571 0.306458
0.855408 0.636017 0.314758
0.875336 0.639252 0.319794
0.893799 0.642639 0.324829
0.911530 0.646515 0.329987
0.922852 0.648193 0.332886
0.934906 0.650055 0.335876
0.945557 0.652557 0.338776
0.954254 0.654205 0.341125
0.165222 0.461426 0.144379
0.171326 0.467926 0.146576
0.179077 0.475403 0.149323
0.186768 0.481720 0.151672
0.194397 0.487244 0.153320
0.201111 0.488159 0.154053
0.209320 0.489410 0.154816
0.219940 0.493469 0.157349
0.231689 0.497772 0.160065
0.257202 0.510529 0.167877
0.282471 0.517120 0.172852
0.315063 0.528656 0.181183
0.354187 0.542542 0.191101
0.396301 0.553925 0.200317
0.448792 0.571503 0.213867
0.500854 0.587128 0.226959
0.556244 0.603241 0.240784
0.609741 0.616058 0.253937
0.655243 0.626160 0.266113
0.704346 0.639404 0.281097
0.747162 0.651031 0.294281
0.784943 0.660095 0.305267
0.817993 0.667938 0.314911
0.846802 0.673889 0.322906
0.869965 0.677612 0.328766
0.893524 0.683594 0.335876
0.912323 0.688141 0.341431
0.930450 0.692474 0.346741
0.940735 0.692535 0.348785
0.952179 0.692566 0.350800
0.958954 0.693848 0.353058
0.961578 0.694946 0.354797
0.184784 0.502167 0.160706
0.189911 0.507050 0.161865
0.196533 0.513031 0.163147
0.201721 0.514435 0.163513
0.207306 0.514526 0.163940
0.213623 0.516235 0.165039
0.223511 0.521271 0.167755
0.235199 0.528961 0.172150
0.248749 0.535889 0.176208
0.268311 0.543060 0.180908
0.296143 0.554321 0.188232
0.330353 0.567627 0.197357
0.370270 0.581818 0.207520
0.413513 0.595093 0.217804
0.466248 0.612732 0.231445
0.518463 0.629089 0.244537
0.574280 0.643402 0.258301
0.626953 0.656219 0.271027
0.676544 0.670746 0.285095
0.721039 0.680359 0.297150
0.764954 0.692596 0.310516
0.801300 0.700226 0.320465
0.832397 0.706757 0.328827
0.863220 0.714142 0.337799
0.889099 0.719818 0.345001
0.909393 0.723053 0.350159
0.928528 0.727783 0.355835
0.945068 0.730560 0.360016
0.955444 0.730621 0.362091
0.961151 0.730042 0.364014
0.964478 0.731201 0.367126
0.967285 0.733002 0.370514
0.200745 0.536163 0.173248
0.205872 0.540802 0.174744
0.211670 0.544342 0.175751
0.216583 0.545441 0.176453
0.222351 0.546265 0.177032
0.228912 0.549530 0.178833
0.237915 0.553223 0.181122
0.248260 0.557953 0.183716
0.261658 0.566559 0.188660
0.280457 0.576111 0.194397
0.308258 0.587280 0.201874
0.344666 0.603058 0.212250
0.382935 0.615448 0.221405
0.428345 0.632080 0.233276
0.482086 0.650543 0.247314
0.534241 0.665863 0.260284
0.590057 0.680237 0.274078
0.643738 0.695343 0.288055
0.688995 0.705261 0.298553
0.734741 0.715240 0.310181
0.776917 0.726349 0.322693
0.813110 0.735138 0.332825
0.845917 0.742279 0.341553
0.874146 0.746918 0.348663
0.899261 0.751831 0.355499
0.921509 0.755890 0.361450
0.940552 0.761536 0.367432
0.957672 0.764221 0.371735
0.962799 0.764404 0.374054
0.966400 0.764130 0.377502
0.969391 0.763733 0.380096
0.971771 0.762909 0.382263
0.214050 0.565247 0.184265
0.219177 0.569916 0.185974
0.223999 0.571167 0.186584
0.228699 0.572327 0.187225
0.234436 0.573792 0.188141
0.241058 0.576813 0.189667
0.251648 0.583984 0.193787
0.263763 0.591858 0.198151
0.276031 0.598755 0.202271
0.291290 0.606171 0.206665
0.320587 0.621887 0.216309
0.359467 0.638702 0.227325
0.396179 0.648804 0.235107
0.442383 0.665405 0.247284
0.494873 0.682678 0.260590
0.548248 0.698517 0.274384
0.603699 0.713715 0.288361
0.654510 0.725189 0.299683
0.700867 0.736572 0.310791
0.747833 0.749359 0.323181
0.787750 0.757477 0.333435
0.824158 0.766083 0.343475
0.855499 0.771790 0.351471
0.886475 0.778625 0.360077
0.911438 0.784393 0.367096
0.933655 0.788818 0.373169
0.950500 0.790344 0.376892
0.963806 0.792328 0.381104
0.967102 0.792480 0.384735
0.970825 0.792999 0.389618
0.974396 0.795074 0.393951
0.976898 0.795258 0.397247
0.227295 0.593811 0.195740
0.231384 0.596344 0.196625
0.235687 0.596649 0.196869
0.240723 0.598206 0.197754
0.246796 0.600616 0.199158
0.254272 0.605316 0.201965
0.264252 0.611389 0.205170
0.275665 0.618469 0.209137
0.287018 0.624512 0.212646
0.302551 0.633728 0.217865
0.328491 0.645752 0.225342
0.367126 0.662384 0.236481
0.407135 0.676422 0.246429
0.454987 0.695465 0.259644
0.508392 0.711700 0.273346
0.561005 0.727173 0.286499
0.616943 0.743073 0.300690
0.666107 0.754333 0.311554
0.712616 0.766266 0.322876
0.759674 0.778931 0.334625
0.797607 0.785645 0.343353
0.835236 0.795380 0.354126
0.865601 0.799713 0.361176
0.896667 0.807312 0.370148
0.919922 0.811005 0.375824
0.943512 0.817200 0.382874
0.961090 0.819550 0.387085
0.967804 0.817871 0.390350
0.970856 0.816895 0.393494
0.974518 0.816895 0.398499
0.978058 0.818848 0.402832
0.980927 0.820526 0.407013
0.239319 0.618958 0.206085
0.242798 0.620087 0.206726
0.247040 0.620544 0.207001
0.252136 0.622528 0.208130
0.257721 0.624634 0.209290
0.264587 0.627930 0.211182
0.273590 0.632629 0.213806
0.284088 0.638428 0.217072
0.297394 0.648071 0.222443
0.312531 0.657654 0.227814
0.336151 0.666016 0.233398
0.374695 0.683899 0.244934
0.417755 0.701416 0.257019
0.464264 0.717316 0.268799
0.518646 0.734955 0.283203
0.570221 0.749695 0.295837
0.624298 0.765137 0.309174
0.675476 0.778198 0.321167
0.722382 0.790741 0.332794
0.767761 0.801666 0.343536
0.805450 0.808624 0.351440
0.842712 0.817413 0.361786
0.874969 0.823242 0.369843
0.905426 0.830231 0.378387
0.928192 0.833160 0.383636
0.950348 0.837830 0.389618
0.967041 0.840240 0.393799
0.971069 0.838745 0.398560
0.974030 0.837311 0.401489
0.977417 0.836182 0.405212
0.980896 0.837646 0.409363
0.983856 0.839142 0.413361
0.244690 0.632782 0.210907
0.248291 0.633820 0.211456
0.252991 0.635468 0.212311
0.258209 0.637878 0.213684
0.265167 0.641968 0.216034
0.272461 0.646240 0.218384
0.281464 0.651245 0.221252
0.292114 0.657532 0.224640
0.305603 0.667297 0.230072
0.320190 0.675995 0.234894
0.344788 0.687439 0.242249
0.383026 0.704620 0.253418
0.425629 0.721283 0.264832
0.472443 0.737244 0.277008
0.526276 0.754791 0.291046
0.579224 0.771149 0.304596
0.631897 0.785217 0.317108
0.683960 0.799591 0.329773
0.729340 0.810944 0.340393
0.773560 0.820404 0.350220
0.812561 0.828308 0.358643
0.850159 0.837616 0.369019
0.881226 0.842438 0.376312
0.912567 0.850128 0.385223
0.936279 0.853455 0.390839
0.956848 0.856781 0.395874
0.969757 0.857391 0.399658
0.973938 0.856537 0.405579
0.977203 0.856476 0.409729
0.980591 0.855377 0.414001
0.984070 0.856812 0.418762
0.986877 0.857971 0.422882
0.252319 0.650116 0.217743
0.255707 0.650360 0.217896
0.259766 0.651031 0.218384
0.264008 0.651917 0.218903
0.270386 0.654968 0.220581
0.277771 0.659912 0.223419
0.287811 0.666382 0.226990
0.299561 0.674408 0.231384
0.310699 0.680511 0.234741
0.325439 0.689941 0.239990
0.351807 0.704773 0.249054
0.390045 0.722473 0.260376
0.432465 0.738556 0.271606
0.478943 0.753876 0.283661
0.533569 0.771759 0.297943
0.586975 0.789154 0.311920
0.640198 0.803894 0.324707
0.689667 0.816589 0.336273
0.735504 0.828430 0.347198
0.780243 0.838196 0.357147
0.819489 0.845428 0.365173
0.856659 0.854218 0.374847
0.888733 0.860229 0.382874
0.918152 0.866455 0.390564
0.942749 0.870880 0.397003
0.963593 0.873901 0.401947
0.972290 0.872864 0.405426
0.976410 0.871613 0.411438
0.979706 0.871765 0.416168
0.983368 0.871765 0.421448
0.986816 0.873169 0.427063
0.989594 0.874420 0.431610
0.259369 0.666138 0.224030
0.262146 0.665771 0.223938
0.266144 0.666229 0.224274
0.270111 0.666595 0.224457
0.275909 0.668823 0.225677
0.283386 0.673279 0.228241
0.293396 0.680176 0.232086
0.305267 0.688812 0.236847
0.316589 0.695343 0.240387
0.330505 0.703369 0.244934
0.357544 0.719666 0.254639
0.396362 0.738037 0.266327
0.439240 0.753845 0.277924
0.486664 0.769867 0.290070
0.541321 0.788391 0.304626
0.594727 0.805786 0.318848
0.648132 0.821167 0.331787
