滤镜资源/Professional Luts Collection/Triune-Digital-Cinematic-LUTs/3D LUTs (CUBE)/REDLOGFILM/The Book of Eli - REDlogFilm.cube
#Created by Benjamin (IWLTBAP) : http://luts.iwltbap.com
#Copyright: (C) Copyright 2016 Triune Films and IWLTBAP
TITLE "Blockbuster LUTs Pack (REDlogFilm)"
#LUT size
LUT_3D_SIZE 5
#LUT data points
DOMAIN_MIN 0.000000 0.000000 0.000000
DOMAIN_MAX 0.903226 0.903226 0.903226
0.031799 0.029999 0.027466
0.073364 0.037323 0.032501
0.170349 0.052246 0.045074
0.302429 0.081085 0.072052
0.407166 0.100769 0.089264
0.064362 0.092926 0.051971
0.105469 0.097748 0.058777
0.199066 0.112854 0.074066
0.351074 0.143646 0.096466
0.473145 0.174194 0.133392
0.116730 0.218658 0.094666
0.163605 0.237183 0.116333
0.275238 0.274536 0.141815
0.502045 0.358002 0.209503
0.649231 0.425415 0.280518
0.149048 0.436798 0.182373
0.220856 0.452393 0.201111
0.465118 0.560516 0.309326
0.684357 0.640686 0.406281
0.794312 0.695129 0.479248
0.258850 0.564789 0.262848
0.335815 0.587463 0.288269
0.587738 0.710632 0.434052
0.762665 0.776184 0.523407
0.856873 0.818024 0.576935
0.032776 0.031494 0.057831
0.081299 0.043427 0.072083
0.179596 0.062469 0.092407
0.317596 0.090332 0.118622
0.432770 0.116699 0.142181
0.062714 0.091095 0.089050
0.111023 0.106842 0.108459
0.207794 0.120605 0.121399
0.370056 0.156342 0.156006
0.506104 0.197113 0.192657
0.125671 0.226898 0.146973
0.167175 0.243439 0.157898
0.298828 0.300232 0.212280
0.528137 0.384338 0.284546
0.659821 0.435974 0.343933
0.147461 0.443542 0.235779
0.213440 0.458099 0.251617
0.474915 0.573578 0.372375
0.685883 0.646271 0.459961
0.796936 0.700226 0.528198
0.259399 0.579926 0.322449
0.340973 0.598999 0.348572
0.571014 0.701508 0.464874
0.767059 0.785767 0.574615
0.856384 0.820740 0.619598
0.051270 0.049347 0.167053
0.109528 0.072998 0.196777
0.264618 0.134308 0.265717
0.421326 0.155518 0.284454
0.525360 0.176514 0.305939
0.086182 0.117065 0.211914
0.136963 0.133789 0.231842
0.282562 0.184784 0.294128
0.475647 0.230133 0.334503
0.594574 0.263763 0.368561
0.137238 0.248810 0.265869
0.200195 0.287170 0.301453
0.368713 0.363861 0.373138
0.584656 0.433228 0.437531
0.710419 0.487366 0.494965
0.187103 0.492554 0.394226
0.271637 0.514465 0.413757
0.501007 0.602692 0.505524
0.719482 0.688843 0.601379
0.821350 0.733154 0.652161
0.319214 0.641235 0.497925
0.393311 0.657471 0.513184
0.584381 0.726593 0.586243
0.794189 0.819153 0.691711
0.874939 0.845245 0.717834
0.085327 0.082275 0.306122
0.127960 0.101166 0.334991
0.371552 0.218903 0.472748
0.577759 0.272858 0.531799
0.620026 0.255585 0.503052
0.133362 0.166565 0.376556
0.185181 0.186829 0.402893
0.405243 0.281830 0.505219
0.637726 0.365387 0.585388
0.690765 0.358459 0.579651
0.199249 0.343689 0.468018
0.281647 0.399506 0.518463
0.484406 0.470795 0.583893
0.688110 0.540344 0.649811
0.774078 0.565063 0.678528
0.242096 0.550964 0.557648
0.348724 0.583008 0.589478
0.582367 0.677765 0.682922
0.760284 0.737030 0.743408
0.843262 0.760193 0.767609
0.376617 0.686798 0.638428
0.457550 0.713684 0.666321
0.632690 0.777740 0.732117
0.831757 0.859344 0.814301
0.906464 0.880310 0.835297
0.105347 0.106842 0.393829
0.151947 0.126129 0.421448
0.391357 0.232819 0.546539
0.627319 0.315002 0.632263
0.703918 0.331512 0.652191
0.165466 0.201019 0.467926
0.225983 0.229065 0.507996
0.432495 0.300323 0.581909
0.676697 0.400146 0.682007
0.752441 0.419952 0.699524
0.249268 0.420105 0.595734
0.361603 0.472412 0.643158
0.552979 0.532867 0.695801
0.724091 0.580872 0.742798
0.815887 0.613617 0.776703
0.313751 0.610168 0.669952
0.434570 0.653412 0.709869
0.628784 0.725800 0.781677
0.780243 0.757599 0.813660
0.860657 0.778229 0.831757
0.410553 0.717834 0.720947
0.495941 0.748260 0.751251
0.663910 0.812561 0.819122
0.840210 0.870392 0.870575
0.911896 0.887390 0.885590
