滤镜资源/Professional Luts Collection/Triune-Digital-Cinematic-LUTs/3D LUTs (CUBE)/REDLOGFILM/The Ring - REDlogFilm.cube
#Created by Benjamin (IWLTBAP) : http://luts.iwltbap.com
#Copyright: (C) Copyright 2016 Triune Films and IWLTBAP
TITLE "Blockbuster LUTs Pack (REDlogFilm)"
#LUT size
LUT_3D_SIZE 5
#LUT data points
DOMAIN_MIN 0.000000 0.000000 0.000000
DOMAIN_MAX 0.903226 0.903226 0.903226
0.000000 0.000000 0.000000
0.053802 0.000000 0.000000
0.238464 0.009064 0.005127
0.481506 0.043640 0.027405
0.633026 0.070618 0.050201
0.000000 0.064392 0.000977
0.055359 0.066956 0.002563
0.244568 0.083679 0.009064
0.489227 0.116333 0.033508
0.637726 0.140686 0.055328
0.000000 0.305054 0.039948
0.049255 0.307465 0.041351
0.234497 0.316711 0.051544
0.507050 0.339203 0.074036
0.659973 0.354279 0.090546
0.000000 0.622864 0.122803
0.049255 0.623169 0.122162
0.153473 0.629822 0.129761
0.472931 0.643555 0.146027
0.659332 0.657928 0.159027
0.000000 0.819794 0.176544
0.049255 0.820221 0.176544
0.153473 0.825226 0.182373
0.322418 0.840210 0.196991
0.622406 0.852570 0.209320
0.000000 0.000977 0.055359
0.063416 0.000977 0.064392
0.266510 0.012604 0.089752
0.511688 0.051361 0.119904
0.659943 0.078857 0.138550
0.000000 0.076569 0.073029
0.056335 0.077576 0.076569
0.265961 0.094879 0.095825
0.514191 0.125031 0.123413
0.662506 0.148773 0.142090
0.000000 0.318665 0.123199
0.049255 0.319214 0.123199
0.242004 0.327698 0.133820
0.520172 0.348419 0.154358
0.675690 0.365295 0.170288
0.000000 0.630219 0.195770
0.049255 0.633423 0.197388
0.153473 0.637848 0.203430
0.479034 0.652161 0.218689
0.667786 0.664764 0.231262
0.000000 0.826874 0.245087
0.049255 0.828033 0.246643
0.153473 0.833221 0.252014
0.326599 0.846100 0.266418
0.628540 0.859619 0.277863
0.000000 0.031097 0.243561
0.049255 0.032288 0.256744
0.299957 0.045044 0.302521
0.570435 0.076599 0.350311
0.730133 0.102234 0.375671
0.000000 0.112976 0.270477
0.049255 0.115509 0.279114
0.297852 0.126160 0.311005
0.570038 0.153351 0.355042
0.731689 0.175140 0.379639
0.000000 0.359161 0.343842
0.049255 0.359161 0.345978
0.255188 0.366821 0.359161
0.565552 0.386322 0.385864
0.729858 0.399323 0.404022
0.000000 0.674408 0.418579
0.049255 0.675293 0.421143
0.153473 0.680908 0.427612
0.503815 0.693665 0.445038
0.704407 0.705597 0.457428
0.000000 0.872498 0.466339
0.049255 0.870392 0.466736
0.153473 0.875488 0.471100
0.332977 0.887360 0.485077
0.650726 0.897614 0.495544
0.000000 0.104889 0.493347
0.049255 0.104279 0.501373
0.288361 0.110962 0.549988
0.606903 0.129761 0.614502
0.783295 0.149078 0.649902
0.000000 0.174377 0.512604
0.049255 0.176910 0.521271
0.284821 0.183472 0.561707
0.606812 0.203369 0.620636
0.783081 0.221069 0.653625
0.000000 0.408844 0.602234
0.049255 0.409241 0.604797
0.199249 0.417633 0.624939
0.594788 0.432739 0.662109
0.778717 0.447144 0.687927
0.000000 0.730591 0.699005
0.049255 0.730591 0.701569
0.153473 0.736145 0.710602
0.517273 0.749390 0.733124
0.737885 0.761230 0.750061
0.000000 0.933350 0.754395
0.049255 0.934418 0.755981
0.153473 0.934937 0.761322
0.322205 0.948883 0.779907
0.678162 0.959625 0.793884
0.000000 0.153595 0.645386
0.049255 0.151459 0.654053
0.233643 0.157928 0.702057
0.611969 0.172791 0.769501
0.799408 0.186768 0.809204
0.000000 0.219971 0.666046
0.049255 0.219971 0.671173
0.221649 0.226471 0.714630
0.611969 0.241760 0.776794
0.799408 0.255280 0.813141
0.000000 0.443756 0.756592
0.049255 0.443054 0.758453
0.153473 0.449280 0.780029
0.598480 0.465546 0.824158
0.793610 0.478119 0.851837
0.000000 0.764008 0.865448
0.049255 0.764771 0.866211
0.153473 0.768524 0.875671
0.508606 0.783081 0.902100
0.750580 0.794830 0.923889
0.000000 0.968750 0.928345
0.049255 0.966187 0.925751
0.153473 0.972992 0.936951
0.288025 0.977631 0.954224
0.682831 0.979309 0.971283
