滤镜资源/Professional Luts Collection/Triune-Digital-Cinematic-LUTs/3D LUTs (CUBE)/REDLOGFILM/The Matrix - REDlogFilm.cube
#Created by Benjamin (IWLTBAP) : http://luts.iwltbap.com
#Copyright: (C) Copyright 2016 Triune Films and IWLTBAP
TITLE "Blockbuster LUTs Pack (REDlogFilm)"
#LUT size
LUT_3D_SIZE 5
#LUT data points
DOMAIN_MIN 0.000000 0.000000 0.000000
DOMAIN_MAX 0.903226 0.903226 0.903226
0.003540 0.000000 0.007080
0.080261 0.003143 0.013763
0.352417 0.034271 0.049530
0.732483 0.121033 0.096283
0.902527 0.166046 0.134216
0.013763 0.076324 0.027924
0.083405 0.083008 0.027924
0.339081 0.127869 0.063293
0.739563 0.200897 0.099792
0.906219 0.245911 0.137543
0.125153 0.432678 0.115631
0.170044 0.437317 0.101471
0.384277 0.460999 0.093323
0.690033 0.502075 0.200531
0.857605 0.524200 0.231262
0.263275 0.763550 0.230682
0.308563 0.767090 0.217316
0.483490 0.777710 0.183807
0.760773 0.789093 0.224396
0.890289 0.799713 0.297485
0.360016 0.913300 0.314209
0.408417 0.916840 0.303589
0.573853 0.920563 0.288879
0.832733 0.924133 0.325012
0.958923 0.934509 0.384369
0.000000 0.003540 0.059021
0.062561 0.007080 0.083771
0.327759 0.042053 0.118073
0.728973 0.125336 0.165924
0.895630 0.176666 0.204254
0.000000 0.086914 0.101074
0.075928 0.086517 0.104614
0.377502 0.114136 0.121582
0.743103 0.198517 0.165924
0.906219 0.246277 0.200500
0.125153 0.433777 0.167969
0.177124 0.437317 0.174652
0.387787 0.460999 0.164032
0.711975 0.498566 0.243042
0.881989 0.516418 0.270569
0.263275 0.763550 0.283417
0.318787 0.764343 0.287354
0.482727 0.777710 0.249115
0.764343 0.789093 0.275574
0.896393 0.798920 0.346130
0.360016 0.913300 0.366577
0.419220 0.913483 0.376587
0.576294 0.920563 0.354980
0.833740 0.924133 0.398193
0.958923 0.934509 0.457336
0.000000 0.037811 0.178864
0.013824 0.041351 0.218079
0.289856 0.080261 0.290955
0.628235 0.180084 0.348328
0.833740 0.226166 0.386261
0.006287 0.121887 0.224060
0.040558 0.127869 0.241760
0.325531 0.153015 0.311768
0.674561 0.248047 0.358154
0.860748 0.297577 0.393341
0.101471 0.446838 0.364166
0.146759 0.447937 0.367676
0.377197 0.465607 0.377197
0.796143 0.469147 0.378296
0.954468 0.484589 0.397064
0.269592 0.766022 0.443817
0.322296 0.767090 0.450897
0.503967 0.771423 0.482727
0.774933 0.788300 0.462280
0.917053 0.795197 0.503754
0.367065 0.913483 0.521362
0.426117 0.913483 0.530914
0.608307 0.915955 0.556732
0.837433 0.924133 0.572540
0.961548 0.934509 0.620422
0.000000 0.114716 0.334808
0.013824 0.117493 0.359161
0.200165 0.148254 0.505920
0.636993 0.216553 0.569031
0.778900 0.282562 0.586700
0.000000 0.204407 0.380005
0.037781 0.211121 0.393738
0.180389 0.222107 0.535522
0.661743 0.283417 0.586304
0.806396 0.346130 0.604187
0.021484 0.484406 0.548370
0.100952 0.488708 0.555054
0.324707 0.513489 0.576660
0.755402 0.503967 0.649292
0.896790 0.531097 0.674042
0.208710 0.778473 0.693604
0.247284 0.781250 0.697113
0.415527 0.788300 0.703125
0.736816 0.798920 0.722656
0.974213 0.784790 0.711273
0.340576 0.923920 0.744720
0.392731 0.923920 0.752563
0.565033 0.924896 0.769470
0.836273 0.931000 0.770447
0.969696 0.941406 0.797546
0.000000 0.176666 0.436005
0.013824 0.180206 0.453308
0.107483 0.200317 0.594543
0.644073 0.241089 0.706360
0.810547 0.293213 0.732941
0.000000 0.263580 0.474518
0.057251 0.267120 0.488251
0.140167 0.277527 0.598969
0.648590 0.317810 0.719330
0.828033 0.359283 0.750214
0.002441 0.517151 0.631897
0.098206 0.523102 0.641418
0.288940 0.551422 0.690735
0.653076 0.539337 0.810730
0.873505 0.559570 0.802368
0.130890 0.805817 0.808960
0.186737 0.806793 0.812469
0.349823 0.819977 0.835968
0.703979 0.822723 0.871429
0.940002 0.805054 0.868866
0.223022 0.944946 0.884613
0.268311 0.944946 0.884613
0.494720 0.941589 0.888367
0.791870 0.948669 0.912903
0.965973 0.948669 0.926880
