滤镜资源/Professional Luts Collection/Triune-Digital-Cinematic-LUTs/3D LUTs (CUBE)/REDLOGFILM/The Lord of the Rings - REDlogFilm.cube
#Created by Benjamin (IWLTBAP) : http://luts.iwltbap.com
#Copyright: (C) Copyright 2016 Triune Films and IWLTBAP
TITLE "Blockbuster LUTs Pack (REDlogFilm)"
#LUT size
LUT_3D_SIZE 8
#LUT data points
DOMAIN_MIN 0.000000 0.000000 0.000000
DOMAIN_MAX 0.903226 0.903226 0.903226
0.005157 0.004669 0.004425
0.023102 0.005280 0.005127
0.079895 0.009247 0.007904
0.173706 0.035828 0.033600
0.300720 0.067780 0.064850
0.526581 0.123718 0.122650
0.682159 0.180908 0.179230
0.754272 0.205017 0.203491
0.006256 0.022369 0.005768
0.033875 0.029144 0.007294
0.088013 0.042755 0.016388
0.182861 0.068970 0.043945
0.329285 0.100250 0.074219
0.530640 0.145233 0.125153
0.650330 0.184631 0.166260
0.723053 0.208496 0.190796
0.021240 0.084076 0.017487
0.049103 0.089844 0.023407
0.104584 0.102448 0.035492
0.200745 0.127380 0.060669
0.387024 0.154724 0.083801
0.549438 0.195984 0.137421
0.665161 0.226685 0.175354
0.730347 0.244354 0.195801
0.055664 0.181213 0.052063
0.084686 0.189117 0.060455
0.140259 0.203461 0.071808
0.245880 0.233398 0.077728
0.421478 0.267975 0.115173
0.598907 0.310303 0.171326
0.723877 0.344025 0.211975
0.792877 0.362885 0.233765
0.108002 0.318573 0.103760
0.135223 0.341583 0.107727
0.185028 0.376160 0.111633
0.302734 0.406555 0.134247
0.491394 0.452728 0.180084
0.684357 0.502777 0.237915
0.814301 0.535339 0.278168
0.880920 0.549835 0.297363
0.184784 0.502167 0.160706
0.207306 0.514526 0.163940
0.248749 0.535889 0.176208
0.370270 0.581818 0.207520
0.574280 0.643402 0.258301
0.764954 0.692596 0.310516
0.889099 0.719818 0.345001
0.955444 0.730621 0.362091
0.239319 0.618958 0.206085
0.257721 0.624634 0.209290
0.297394 0.648071 0.222443
0.417755 0.701416 0.257019
0.624298 0.765137 0.309174
0.805450 0.808624 0.351440
0.928192 0.833160 0.383636
0.974030 0.837311 0.401489
0.263397 0.676086 0.227722
0.279968 0.679169 0.229553
0.320953 0.706451 0.244629
0.443939 0.764343 0.281921
0.652954 0.833130 0.336426
0.832397 0.874298 0.376556
0.952179 0.897552 0.405701
0.983398 0.896698 0.423584
0.006287 0.005951 0.019836
0.030945 0.006714 0.023132
0.084747 0.015228 0.036194
0.179108 0.040466 0.061127
0.324768 0.072449 0.092957
0.548523 0.133209 0.150726
0.677856 0.178894 0.194336
0.752899 0.204498 0.219391
0.007996 0.027710 0.026459
0.038239 0.035339 0.032532
0.092194 0.048218 0.046692
0.187683 0.075317 0.072693
0.365051 0.105164 0.101685
0.576538 0.159180 0.159058
0.702179 0.201691 0.200439
0.761230 0.220459 0.218842
0.027313 0.090057 0.046692
0.055847 0.097015 0.054260
0.109558 0.108795 0.065155
0.209534 0.133789 0.087646
0.403107 0.159363 0.112274
0.584961 0.202515 0.163239
0.699280 0.234894 0.201080
0.762726 0.252777 0.221008
0.062195 0.188507 0.081543
0.089508 0.198120 0.090515
0.144989 0.211670 0.098602
0.249847 0.237518 0.097961
0.440826 0.272400 0.134521
0.623260 0.316437 0.192841
0.746857 0.349274 0.233246
0.813416 0.368744 0.254608
0.114014 0.338287 0.127777
0.139130 0.359650 0.128906
0.184082 0.384583 0.135925
0.303802 0.416809 0.151855
0.506439 0.463196 0.199677
0.699158 0.512543 0.259766
0.825989 0.545074 0.299072
0.894623 0.562408 0.319641
0.188782 0.508392 0.182159
0.213287 0.529205 0.188416
0.252106 0.550385 0.196533
0.372467 0.590973 0.225372
0.584656 0.650635 0.278015
0.777771 0.699554 0.330505
0.902466 0.727905 0.365479
0.959564 0.740753 0.384460
0.238251 0.617157 0.223816
0.263031 0.638123 0.230774
0.298126 0.655365 0.238647
0.420288 0.705109 0.273376
0.635315 0.772400 0.328522
0.821991 0.815857 0.372314
0.944855 0.843140 0.405670
0.976379 0.847351 0.424713
0.262360 0.674042 0.244232
0.283325 0.688873 0.248108
0.322479 0.713043 0.261047
0.441620 0.764252 0.295959
0.661865 0.839081 0.354675
0.849182 0.885498 0.398651
0.961761 0.907288 0.425385
0.986176 0.907867 0.446991
0.014069 0.008484 0.072754
0.044525 0.014923 0.079468
0.095612 0.026093 0.090149
0.188690 0.050873 0.113220
0.381500 0.081268 0.146637
0.562195 0.139313 0.191772
0.683258 0.181427 0.229034
0.760040 0.207794 0.253448
0.021515 0.042847 0.082184
0.050751 0.049469 0.089203
0.103333 0.059631 0.100098
0.201599 0.084930 0.124969
0.396851 0.108490 0.150208
0.583557 0.160706 0.196533
0.699310 0.200378 0.231964
0.753693 0.216888 0.247742
0.036530 0.100128 0.099060
0.063416 0.108337 0.106354
0.120605 0.120636 0.118408
0.225098 0.135345 0.131287
0.414612 0.162262 0.157837
0.595947 0.208313 0.206207
0.711945 0.241302 0.241028
0.773376 0.258850 0.259766
0.071259 0.202393 0.134857
0.094604 0.211792 0.140289
0.139862 0.224243 0.140503
0.248840 0.239258 0.142212
0.445984 0.278046 0.182220
0.630951 0.324280 0.235016
0.751984 0.358032 0.271515
0.816406 0.377075 0.290222
0.122711 0.362213 0.170685
0.145691 0.377380 0.173065
0.182312 0.391998 0.176819
0.306305 0.423218 0.199524
0.514435 0.473022 0.244476
0.709625 0.524261 0.296234
0.834503 0.554932 0.330231
0.905090 0.575623 0.351715
0.191864 0.512329 0.221069
0.216248 0.533478 0.226746
0.255981 0.555420 0.238251
0.374268 0.597809 0.267914
0.592560 0.660889 0.312958
0.786133 0.708893 0.361145
0.911194 0.739868 0.396790
0.962585 0.754547 0.419037
0.241852 0.621796 0.262726
0.263947 0.638702 0.266876
0.303345 0.661346 0.280273
0.416748 0.709900 0.311188
0.637238 0.778137 0.356476
0.831116 0.828522 0.404327
0.949921 0.855621 0.435822
0.979431 0.860138 0.459808
0.265167 0.677612 0.283661
0.286987 0.693268 0.288391
0.328094 0.719818 0.303619
0.437012 0.772614 0.334778
0.663910 0.849823 0.384888
0.854156 0.900146 0.430603
0.965668 0.921295 0.455444
0.989105 0.919830 0.479370
0.036346 0.029846 0.165100
0.062592 0.034882 0.170593
0.114960 0.047760 0.182281
0.222015 0.045959 0.214142
0.400269 0.082184 0.238495
0.569794 0.142456 0.274689
0.692505 0.185425 0.306702
0.761871 0.208557 0.325500
0.044067 0.063904 0.174988
0.070160 0.070557 0.181030
0.123016 0.081604 0.195190
0.227753 0.073730 0.220917
0.416534 0.108093 0.247192
0.584961 0.161499 0.280487
0.693115 0.197876 0.306976
0.745300 0.213440 0.320892
0.056519 0.121246 0.190735
0.080536 0.128448 0.201599
0.121826 0.129486 0.216614
0.230927 0.130676 0.226501
0.422211 0.165619 0.255127
0.598724 0.213470 0.295105
0.712585 0.245483 0.324097
0.768799 0.259308 0.339020
0.073059 0.220917 0.223602
0.090790 0.224304 0.226929
0.126160 0.229584 0.230560
0.247467 0.244324 0.241913
0.449615 0.292755 0.285431
0.636566 0.342743 0.334320
0.760437 0.377686 0.369293
0.829071 0.399567 0.390991
0.128967 0.367584 0.253265
0.150513 0.383423 0.260895
0.189972 0.402313 0.272064
0.304749 0.430359 0.297272
0.519745 0.487030 0.348480
0.721130 0.545441 0.403961
0.852234 0.584564 0.442841
0.922455 0.604950 0.465210
0.200775 0.523468 0.304810
0.223419 0.541107 0.312286
0.264496 0.565491 0.328888
0.364044 0.606873 0.361237
0.597046 0.675354 0.418671
0.794708 0.728485 0.467468
0.921173 0.763641 0.500916
0.969574 0.780182 0.534332
0.251129 0.633911 0.346344
0.272369 0.648376 0.352814
0.314270 0.675110 0.371765
0.385498 0.713562 0.394592
0.643097 0.796814 0.464661
0.835663 0.848602 0.506744
0.954498 0.875000 0.532501
0.986084 0.881439 0.573242
0.274414 0.689514 0.367859
0.296967 0.705200 0.377411
0.339783 0.734802 0.397003
0.415222 0.784424 0.425049
0.671204 0.873810 0.498199
0.854950 0.917908 0.532013
0.965942 0.937622 0.549652
0.990936 0.936951 0.601990
0.056366 0.046753 0.283234
0.083679 0.051056 0.306732
0.134613 0.044891 0.356720
0.250275 0.048187 0.393311
0.404816 0.082733 0.385437
0.579041 0.145935 0.417725
0.703491 0.189667 0.444885
0.765808 0.209808 0.455261
0.062134 0.078857 0.306854
0.087219 0.074554 0.338837
0.132965 0.072723 0.368744
0.241241 0.077728 0.390228
0.420868 0.105988 0.403809
0.584534 0.160370 0.421722
0.681793 0.192596 0.433136
0.725647 0.204437 0.436066
0.067932 0.126343 0.350891
0.090637 0.125671 0.363556
0.130981 0.128723 0.375641
0.234863 0.138275 0.385162
0.422760 0.168854 0.403656
0.601776 0.219299 0.436432
0.711700 0.247528 0.455811
0.771301 0.262268 0.468842
0.086121 0.222443 0.350616
0.108368 0.232635 0.376526
0.146851 0.240936 0.384552
0.248322 0.262177 0.397308
0.453400 0.306305 0.428772
0.645264 0.358917 0.474579
0.769989 0.396667 0.507843
0.840881 0.418793 0.529388
0.143372 0.377472 0.382721
0.166443 0.394684 0.401245
0.207397 0.416626 0.420166
0.279480 0.441986 0.437500
0.528015 0.510651 0.495453
0.731018 0.573273 0.553192
0.863098 0.615265 0.592163
0.935974 0.637909 0.614471
0.215515 0.539032 0.436798
0.238373 0.556152 0.450592
0.279968 0.581512 0.470062
0.350006 0.619385 0.495483
0.604462 0.697845 0.565948
0.797455 0.750244 0.612091
0.926056 0.786407 0.645111
0.977509 0.804657 0.673859
0.264862 0.648438 0.475159
0.286499 0.662506 0.486084
0.327545 0.689392 0.505524
0.399078 0.736298 0.535919
0.651917 0.824432 0.613037
0.835907 0.867706 0.648499
0.951263 0.890778 0.669281
0.990936 0.900360 0.710236
0.288422 0.704773 0.494843
0.309998 0.718628 0.506897
0.356628 0.754913 0.531281
0.436798 0.815216 0.570404
0.675446 0.897461 0.641479
0.851013 0.933197 0.668945
0.958344 0.947998 0.681641
0.990936 0.952026 0.743866
0.101196 0.058533 0.498230
0.131256 0.062164 0.532745
0.181030 0.066681 0.564880
0.262543 0.071472 0.532410
0.421509 0.103943 0.535431
0.588013 0.148010 0.559937
0.727783 0.199036 0.596954
0.812042 0.229004 0.619141
0.100922 0.081757 0.507446
0.124664 0.083923 0.519928
0.163696 0.087219 0.533203
0.247070 0.094208 0.539246
0.425049 0.120880 0.543915
0.574554 0.154297 0.543121
0.666595 0.184570 0.543701
0.709412 0.196472 0.540192
0.096466 0.130951 0.485107
0.123108 0.134583 0.515686
0.158020 0.139435 0.518066
0.231750 0.154083 0.523346
0.432312 0.188354 0.542908
0.601807 0.221130 0.564117
0.711212 0.249817 0.579712
0.778717 0.270355 0.594482
0.113190 0.232544 0.474518
0.136078 0.240295 0.503845
0.174835 0.255615 0.521240
0.242310 0.276978 0.533722
0.465149 0.328247 0.568451
0.652954 0.375549 0.606171
0.781372 0.414856 0.640839
0.852142 0.436829 0.659943
0.169250 0.394104 0.513611
0.191254 0.407867 0.533966
0.230865 0.430603 0.553986
0.294464 0.460938 0.575043
0.539307 0.534943 0.630493
0.740204 0.593323 0.682495
0.870209 0.633026 0.719360
0.940765 0.655701 0.739594
0.231476 0.550140 0.561188
0.253845 0.565826 0.578735
0.294342 0.591461 0.597137
0.364410 0.636353 0.627869
0.603485 0.714478 0.691681
0.803864 0.770020 0.740387
0.924927 0.800629 0.768768
0.983337 0.819550 0.786987
0.278168 0.660004 0.596954
0.297363 0.670074 0.607910
0.342072 0.702911 0.631226
0.421448 0.761017 0.671051
0.648193 0.841583 0.736603
0.835602 0.880585 0.770691
0.944702 0.898895 0.786682
0.990936 0.911041 0.816803
0.301147 0.716980 0.614166
0.325317 0.733063 0.630768
0.376129 0.776184 0.659943
0.457336 0.837982 0.702240
0.668701 0.912964 0.760925
0.852722 0.946930 0.790985
0.952209 0.955658 0.797302
0.990936 0.961823 0.845367
0.152557 0.085754 0.672638
0.168518 0.083679 0.669495
0.197205 0.081299 0.645905
0.277496 0.089813 0.632904
0.431610 0.119232 0.635925
0.607941 0.165771 0.675171
0.740631 0.203217 0.706665
0.740631 0.196930 0.652649
0.127045 0.093689 0.606750
0.155029 0.100098 0.635590
0.187134 0.102509 0.634613
0.252563 0.107361 0.630280
0.426758 0.130676 0.635681
0.559540 0.155060 0.615051
0.650909 0.176605 0.614716
0.716278 0.198486 0.627930
0.116089 0.138428 0.563019
0.147308 0.147339 0.611633
0.178497 0.153442 0.610077
0.239258 0.166626 0.611969
0.429504 0.197693 0.631378
0.602142 0.230896 0.653229
0.716797 0.256226 0.673676
0.785736 0.277252 0.689606
0.133667 0.243103 0.560059
0.157837 0.253296 0.592316
0.195068 0.268433 0.612915
0.251556 0.288116 0.625885
0.474426 0.349213 0.668427
0.665558 0.395264 0.710205
0.787231 0.425934 0.737701
0.860443 0.450043 0.757507
0.187805 0.405060 0.604279
0.209351 0.417358 0.623383
0.247131 0.439301 0.645111
0.312683 0.477142 0.673645
0.552765 0.560181 0.739075
0.750244 0.613434 0.784729
0.874298 0.645660 0.813965
0.945892 0.667633 0.833801
0.247650 0.559692 0.652222
0.267609 0.570923 0.666412
0.311371 0.602844 0.690918
0.386597 0.655579 0.730347
0.611053 0.737610 0.797119
0.809143 0.785553 0.836548
0.922241 0.807831 0.855316
0.986664 0.823914 0.870087
0.290680 0.667389 0.687439
0.311310 0.679016 0.698700
0.359558 0.718811 0.727692
0.435944 0.774719 0.767761
0.641724 0.851288 0.828308
0.834991 0.889801 0.860138
0.940369 0.903809 0.871063
0.990936 0.916534 0.889160
0.308044 0.718536 0.696289
0.338379 0.745087 0.719635
0.389679 0.789948 0.752289
0.468506 0.848602 0.793549
0.659943 0.920471 0.849304
0.849243 0.953186 0.875549
0.949158 0.960907 0.881378
0.990936 0.966217 0.909119
0.168427 0.096710 0.733826
0.179718 0.091949 0.715271
0.208221 0.090485 0.696411
0.279388 0.095886 0.677399
0.426239 0.122131 0.677948
0.618958 0.176514 0.743774
0.675446 0.179230 0.696899
0.658173 0.160187 0.627350
0.136719 0.099945 0.647919
0.169098 0.109344 0.691620
0.196625 0.110870 0.683533
0.250916 0.113586 0.674622
0.414124 0.130402 0.674377
0.543701 0.152557 0.649780
0.656464 0.182770 0.673706
0.725037 0.201416 0.689819
0.126007 0.144684 0.606018
0.157959 0.154419 0.659698
0.187805 0.161652 0.657318
0.239227 0.175323 0.659943
0.426971 0.207794 0.688477
0.607086 0.243988 0.720917
0.724182 0.267609 0.741364
0.793854 0.287384 0.755676
0.145203 0.250458 0.609314
0.169647 0.261139 0.639709
0.207184 0.279266 0.664459
0.263794 0.301025 0.686371
0.478241 0.363281 0.736603
0.671936 0.409149 0.778900
0.795776 0.440186 0.806305
0.866577 0.459900 0.823547
0.196228 0.406677 0.652039
0.218658 0.420166 0.674255
0.262177 0.450745 0.706879
0.331024 0.492828 0.743195
0.553009 0.572876 0.807343
0.762878 0.633331 0.859100
0.882874 0.660522 0.882599
0.948700 0.676849 0.896057
0.255066 0.559753 0.705078
0.278992 0.577362 0.726044
0.326385 0.615234 0.756317
0.401489 0.668274 0.797821
0.609711 0.749420 0.864166
0.817688 0.801880 0.906494
0.926331 0.818573 0.919556
0.986633 0.828644 0.927979
0.297668 0.667633 0.741852
0.324890 0.689545 0.761322
0.373810 0.730682 0.792908
0.451538 0.788391 0.835693
0.636963 0.861206 0.893646
0.838318 0.900726 0.924683
0.940521 0.909546 0.930328
0.990936 0.917145 0.936737
0.320282 0.728241 0.758179
0.351074 0.755341 0.781250
0.402863 0.800934 0.815704
0.480621 0.859283 0.858215
0.653137 0.927094 0.909515
0.845917 0.956635 0.931641
0.943542 0.961243 0.933868
0.990936 0.968262 0.948853
