滤镜资源/Professional Luts Collection/Triune-Digital-Cinematic-LUTs/3D LUTs (CUBE)/REDLOGFILM/The Conjuring - REDlogFilm.cube
#Created by Benjamin (IWLTBAP) : http://luts.iwltbap.com
#Copyright: (C) Copyright 2016 Triune Films and IWLTBAP
TITLE "Blockbuster LUTs Pack (REDlogFilm)"
#LUT size
LUT_3D_SIZE 8
#LUT data points
DOMAIN_MIN 0.000000 0.000000 0.000000
DOMAIN_MAX 0.903226 0.903226 0.903226
0.006836 0.007782 0.010040
0.024292 0.008331 0.010712
0.061340 0.013123 0.013702
0.152588 0.031281 0.024902
0.285797 0.055237 0.040192
0.404755 0.077789 0.057861
0.489410 0.091827 0.067566
0.540405 0.099091 0.072296
0.009644 0.033447 0.015015
0.028473 0.036438 0.015991
0.076324 0.046021 0.020508
0.182617 0.064209 0.032959
0.322418 0.091858 0.051636
0.438141 0.111206 0.066162
0.520264 0.123138 0.073730
0.568909 0.132874 0.080017
0.014557 0.086823 0.026001
0.036438 0.090424 0.026733
0.083862 0.098541 0.026764
0.213898 0.118927 0.045288
0.364044 0.146912 0.064575
0.487640 0.165497 0.075653
0.567627 0.186615 0.089264
0.614075 0.198273 0.097198
0.035004 0.171539 0.038788
0.060333 0.176819 0.038177
0.113007 0.186798 0.033539
0.237915 0.203003 0.039215
0.425476 0.233612 0.078583
0.551483 0.263367 0.100830
0.628510 0.287231 0.117798
0.674591 0.300446 0.127197
0.091370 0.291534 0.059601
0.134827 0.300751 0.055115
0.204712 0.313751 0.049988
0.316437 0.329010 0.055054
0.476257 0.353149 0.089111
0.618225 0.392151 0.132263
0.702240 0.422180 0.153564
0.750946 0.439270 0.168121
0.156525 0.411133 0.089233
0.204468 0.425537 0.091095
0.287811 0.445190 0.089386
0.411865 0.466370 0.091705
0.567047 0.497650 0.119629
0.676331 0.523590 0.152374
0.764648 0.555420 0.186768
0.816650 0.573181 0.203369
0.213715 0.509918 0.120575
0.263580 0.526245 0.124786
0.351837 0.550415 0.123260
0.478668 0.586121 0.127747
0.626129 0.620941 0.149384
0.735870 0.637482 0.172791
0.803345 0.650970 0.195038
0.852051 0.668884 0.215240
0.258362 0.581573 0.143829
0.307587 0.597839 0.149078
0.399628 0.626740 0.148346
0.520630 0.665344 0.151184
0.660553 0.700378 0.167450
0.769897 0.712250 0.184021
0.831879 0.722015 0.203186
0.871368 0.729462 0.218506
0.006683 0.006989 0.027008
0.024811 0.008270 0.030731
0.067322 0.014923 0.037506
0.157257 0.031555 0.047455
0.279358 0.052643 0.059906
0.392029 0.074036 0.076569
0.475189 0.088928 0.087280
0.526947 0.096832 0.092010
0.009735 0.034058 0.039764
0.028839 0.037689 0.043854
0.077789 0.048248 0.049896
0.182526 0.067596 0.059692
0.318085 0.092163 0.076324
0.435059 0.114319 0.092102
0.517059 0.126373 0.100189
0.567200 0.134766 0.104675
0.014374 0.086700 0.051453
0.037170 0.092499 0.056366
0.089417 0.103607 0.056519
0.220856 0.125916 0.074280
0.367432 0.155548 0.094269
0.488953 0.175323 0.106476
0.570648 0.193115 0.117676
0.618317 0.205353 0.125763
0.027039 0.170685 0.063354
0.063171 0.183380 0.071503
0.123016 0.196594 0.067261
0.257812 0.216797 0.076141
0.432770 0.245239 0.109222
0.558380 0.276184 0.130951
0.638947 0.301544 0.148560
0.685394 0.315613 0.158875
0.071777 0.283630 0.083984
0.127899 0.306183 0.090546
0.207672 0.321930 0.083862
0.332611 0.342743 0.091736
0.488739 0.367310 0.124146
0.623932 0.406769 0.166138
0.711304 0.441437 0.193268
0.761169 0.457550 0.205872
0.132446 0.398041 0.109650
0.194885 0.426331 0.123260
0.276215 0.451019 0.128174
0.414307 0.481171 0.126770
0.576996 0.515900 0.153168
0.683929 0.539703 0.188202
0.772705 0.573792 0.224182
0.824127 0.590912 0.242065
0.183990 0.495148 0.142700
0.246063 0.525116 0.158936
0.334747 0.555817 0.165680
0.478333 0.597046 0.162201
0.632019 0.638123 0.182922
0.744720 0.654388 0.204315
0.809784 0.667389 0.229401
0.858368 0.685272 0.252075
0.226593 0.566010 0.167267
0.289337 0.598145 0.184113
0.383301 0.632477 0.195526
0.519592 0.674713 0.191589
0.666443 0.716064 0.200531
0.777374 0.729614 0.215698
0.838715 0.738647 0.235626
0.877319 0.745605 0.251465
0.006683 0.007629 0.060730
0.024658 0.009491 0.065887
0.064575 0.015442 0.074921
0.153900 0.032684 0.087616
0.278931 0.054321 0.099243
0.389496 0.076538 0.115234
0.473175 0.093048 0.126740
0.524963 0.101105 0.131256
0.009583 0.033691 0.076019
0.029053 0.037842 0.080231
0.074036 0.045349 0.086884
0.177185 0.065247 0.098083
0.308899 0.089325 0.112335
0.424011 0.112915 0.128845
0.504639 0.126099 0.137268
0.554962 0.133484 0.141144
0.017090 0.087891 0.100525
0.037506 0.092468 0.104584
0.084595 0.105743 0.114044
0.211853 0.133850 0.126801
0.364960 0.163483 0.145538
0.484039 0.188171 0.160919
0.568085 0.203583 0.169769
0.616577 0.212067 0.174652
0.027191 0.175507 0.120758
0.048706 0.184174 0.126740
0.112396 0.207611 0.140686
0.260895 0.232452 0.141357
0.433533 0.268951 0.176544
0.567902 0.301575 0.196777
0.654968 0.325439 0.212097
0.703796 0.339691 0.222626
0.047974 0.284027 0.134552
0.084961 0.295441 0.138916
0.192993 0.332947 0.152313
0.335083 0.363342 0.158752
0.496216 0.387604 0.187408
0.635864 0.432770 0.232178
0.726562 0.470306 0.262604
0.779999 0.491455 0.279358
0.096649 0.384674 0.152161
0.148407 0.404938 0.163513
0.261932 0.454254 0.185150
0.403503 0.497192 0.195007
0.584656 0.540405 0.218536
0.696106 0.569458 0.260254
0.784668 0.603333 0.300812
0.834930 0.622620 0.324097
0.149231 0.471100 0.175659
0.202454 0.497894 0.186981
0.309875 0.557434 0.224915
0.463959 0.608429 0.236176
0.637024 0.659271 0.252838
0.753418 0.682098 0.276794
0.821472 0.697540 0.305237
0.868439 0.715515 0.334747
0.186707 0.538147 0.196075
0.239960 0.570007 0.215698
0.358917 0.636444 0.256653
0.507599 0.684052 0.269928
0.666351 0.734802 0.276703
0.781860 0.753510 0.283905
0.847961 0.765076 0.309448
0.886200 0.772217 0.326447
0.007751 0.012115 0.119812
0.026276 0.014069 0.122681
0.063049 0.021851 0.131989
0.139954 0.036438 0.145660
0.272034 0.059662 0.162384
0.384644 0.079895 0.175354
0.464233 0.095459 0.185577
0.517517 0.104706 0.190369
0.012634 0.041626 0.137573
0.032776 0.046417 0.143463
0.069489 0.051453 0.147125
0.158386 0.066803 0.160278
0.301819 0.093231 0.175598
0.413635 0.116577 0.191284
0.497589 0.132751 0.200958
0.550812 0.142975 0.206329
0.021698 0.093079 0.164642
0.041870 0.098511 0.169830
0.077637 0.111633 0.182220
0.181305 0.129120 0.191223
0.344330 0.159760 0.205566
0.469482 0.188293 0.223633
0.556091 0.207489 0.233276
0.607758 0.215729 0.236725
0.034607 0.179413 0.201294
0.055450 0.186890 0.208069
0.095001 0.204468 0.221832
0.210815 0.245178 0.253632
0.424744 0.293274 0.274414
0.559143 0.330048 0.298706
0.645599 0.349060 0.309265
0.696442 0.356262 0.311432
0.050537 0.289673 0.236145
0.072296 0.300812 0.244598
0.121918 0.323303 0.256866
0.300995 0.392761 0.288147
0.496521 0.433960 0.316467
0.649780 0.487061 0.363464
0.741913 0.520966 0.390778
0.795013 0.537781 0.403687
0.072052 0.396820 0.263763
0.103668 0.409515 0.265564
0.171600 0.436401 0.271790
0.387238 0.523651 0.313843
0.578461 0.568817 0.334229
0.703796 0.605133 0.382721
0.795258 0.647064 0.429382
0.849457 0.668549 0.450562
0.101624 0.477478 0.274872
0.139435 0.491516 0.276703
0.223206 0.517334 0.286041
0.445251 0.628815 0.348938
0.626709 0.678925 0.366516
0.754791 0.711212 0.400452
0.828766 0.732025 0.432556
0.880615 0.753540 0.459412
0.128998 0.529724 0.277191
0.171661 0.545319 0.284698
0.283295 0.585876 0.302765
0.487457 0.700134 0.378967
0.657074 0.750305 0.391632
0.781311 0.779205 0.404968
0.855011 0.796204 0.436157
0.899017 0.807648 0.453705
0.015533 0.028656 0.203156
0.033447 0.028107 0.200745
0.066772 0.034760 0.208099
0.140198 0.052795 0.226562
0.247894 0.069397 0.240204
0.374359 0.085968 0.248871
0.458160 0.104462 0.262207
0.513794 0.115082 0.268402
0.021942 0.060150 0.221802
0.042389 0.066467 0.229370
0.072418 0.067535 0.229065
0.149384 0.084656 0.244354
0.274445 0.100708 0.254517
0.402161 0.122681 0.267181
0.488586 0.143280 0.281036
0.544891 0.155670 0.287750
0.031128 0.111206 0.248993
0.051758 0.118073 0.257538
0.085510 0.131561 0.271698
0.157532 0.142639 0.278900
0.304749 0.165894 0.288147
0.450928 0.194702 0.304291
0.546692 0.219513 0.318665
0.604675 0.232635 0.324768
0.043945 0.192383 0.287292
0.064850 0.200653 0.295959
0.101776 0.217072 0.311554
0.185059 0.253693 0.344696
0.352325 0.285065 0.357239
0.532623 0.325165 0.372284
0.631744 0.348358 0.385559
0.688599 0.360107 0.391113
0.061066 0.296844 0.332306
0.084839 0.306885 0.340759
0.127319 0.327148 0.357971
0.226166 0.375977 0.399750
0.429077 0.453125 0.450409
0.645142 0.516876 0.484375
0.742310 0.548431 0.507385
0.792969 0.558624 0.513611
0.082947 0.397064 0.368835
0.108337 0.409119 0.377716
0.157959 0.434387 0.396362
0.266266 0.497955 0.439697
0.557434 0.613892 0.489990
0.710663 0.650208 0.530731
0.806152 0.684967 0.561676
0.859558 0.704254 0.576599
0.102295 0.476440 0.395599
0.129303 0.490936 0.405212
0.184265 0.524414 0.428345
0.314880 0.599030 0.461884
0.622864 0.718750 0.518188
0.761780 0.750366 0.543488
0.835388 0.765930 0.573242
0.887146 0.786316 0.597382
0.114838 0.532196 0.413452
0.144379 0.549774 0.424469
0.208252 0.591461 0.445496
0.368652 0.659241 0.460388
0.654846 0.779327 0.536255
0.784973 0.812469 0.550476
0.862762 0.830322 0.587006
0.905884 0.839233 0.603455
0.025238 0.047546 0.281464
0.042664 0.045471 0.277588
0.073395 0.049255 0.280273
0.140137 0.066223 0.298492
0.245270 0.089294 0.321350
0.344788 0.096497 0.322662
0.440002 0.109344 0.328674
0.502167 0.122711 0.337830
0.031128 0.078674 0.299377
0.051514 0.085449 0.307617
0.080414 0.084900 0.304474
0.144196 0.098846 0.316895
0.259583 0.125092 0.341980
0.374573 0.131592 0.339844
0.472626 0.148987 0.349640
0.537170 0.165466 0.360260
0.040863 0.131256 0.328369
0.061615 0.138580 0.336700
0.094482 0.151459 0.350067
0.155273 0.159607 0.357330
0.274261 0.185089 0.375244
0.416473 0.206116 0.382233
0.529419 0.229248 0.394043
0.598572 0.248047 0.405243
0.054199 0.211090 0.369415
0.076019 0.219421 0.378418
0.113281 0.235443 0.393494
0.192902 0.272675 0.428406
0.305817 0.294525 0.450989
0.486694 0.334198 0.454651
0.613617 0.360260 0.465881
0.677948 0.372955 0.473083
0.074432 0.311340 0.415619
0.097839 0.320862 0.424286
0.139252 0.339661 0.441254
0.229706 0.386841 0.484894
0.374084 0.450653 0.544312
0.593597 0.511200 0.556732
0.721436 0.544922 0.576141
0.782349 0.555969 0.583221
0.095581 0.405609 0.452972
0.121735 0.417847 0.463806
0.169525 0.441833 0.484680
0.264709 0.498566 0.532379
0.455322 0.598267 0.606720
0.705170 0.678345 0.639191
0.809998 0.706421 0.664886
0.861053 0.719971 0.675201
0.114716 0.480225 0.480774
0.140930 0.493256 0.491150
0.190002 0.521545 0.513611
0.290955 0.589203 0.566589
0.522247 0.704865 0.632599
0.763824 0.776428 0.665802
0.847168 0.800964 0.698059
0.896179 0.815002 0.714539
0.127472 0.531891 0.498505
0.154541 0.547211 0.510254
0.205963 0.581451 0.536194
0.308319 0.652618 0.588959
0.564880 0.763000 0.636230
0.786987 0.839630 0.680328
0.873077 0.862579 0.715637
0.915436 0.867584 0.728302
0.032623 0.062347 0.339661
0.049133 0.057770 0.332642
0.079346 0.061523 0.334991
0.140900 0.076935 0.351166
0.242157 0.102203 0.377533
0.343506 0.118866 0.391754
0.416138 0.119965 0.386993
0.481415 0.126556 0.388611
0.038757 0.094604 0.358551
0.059021 0.100952 0.366150
0.087250 0.099396 0.362701
0.144836 0.110443 0.371643
0.248657 0.134918 0.394806
0.365601 0.157898 0.415924
0.448181 0.157410 0.406738
0.515625 0.167938 0.411774
0.048309 0.146698 0.387268
0.068665 0.152954 0.394867
0.102081 0.165680 0.409271
0.158386 0.172668 0.414581
0.262207 0.195923 0.433502
0.389099 0.226410 0.457062
0.498596 0.236084 0.453064
0.575775 0.250946 0.458801
0.061890 0.224945 0.426636
0.084839 0.233276 0.435791
0.122253 0.248993 0.452087
0.198242 0.285034 0.487366
0.299469 0.307373 0.510590
0.430786 0.339630 0.529877
0.579437 0.369720 0.530090
0.658844 0.383270 0.534760
0.084412 0.323181 0.476532
0.108337 0.333435 0.486145
0.149231 0.351959 0.502289
0.233826 0.397064 0.545776
0.374176 0.462738 0.606232
0.491241 0.489655 0.619141
0.679291 0.541534 0.630127
0.758484 0.560547 0.641144
0.106354 0.415924 0.515167
0.131836 0.427521 0.526154
0.177887 0.450287 0.547302
0.267761 0.503296 0.594482
0.429077 0.588562 0.665314
0.660706 0.674744 0.706848
0.782318 0.703827 0.720062
0.848389 0.720490 0.732208
0.124115 0.487915 0.544067
0.151062 0.501770 0.556732
0.200348 0.530548 0.581543
0.297272 0.593628 0.633148
0.480042 0.689423 0.706116
0.732300 0.781006 0.744019
0.844666 0.814972 0.775696
0.897125 0.827820 0.790558
0.136841 0.538483 0.563660
0.164825 0.554932 0.577606
0.214539 0.587799 0.604095
0.309753 0.651581 0.654663
0.489716 0.746735 0.722931
0.754456 0.836884 0.756195
0.870361 0.872833 0.794708
0.917480 0.881897 0.810699
0.037598 0.072845 0.378326
0.053497 0.066925 0.370087
0.083649 0.070587 0.372528
0.140869 0.083160 0.384583
0.241028 0.109558 0.412903
0.338867 0.130432 0.433716
0.415894 0.136017 0.435211
0.464111 0.134613 0.428650
0.043640 0.104706 0.396454
0.063995 0.111237 0.404449
0.091309 0.107697 0.398926
0.145721 0.117218 0.406738
0.244141 0.141266 0.429962
0.349701 0.167480 0.455994
0.444305 0.178528 0.461517
0.496490 0.175354 0.451935
0.052887 0.155975 0.424469
0.073456 0.162109 0.431763
0.108063 0.175262 0.446930
0.160889 0.180725 0.451965
0.254547 0.201721 0.472290
0.365509 0.229645 0.493042
0.480804 0.253876 0.507843
0.552155 0.256805 0.500305
0.068176 0.234283 0.464569
0.091400 0.242767 0.474487
0.129150 0.258301 0.492493
0.199799 0.291382 0.524506
0.293488 0.313751 0.547546
0.403351 0.339996 0.566193
0.542694 0.377686 0.584564
0.635193 0.391388 0.581055
0.091461 0.331604 0.515533
0.115021 0.341644 0.524597
0.154907 0.359467 0.540283
0.234894 0.402008 0.582611
0.375061 0.473816 0.649780
0.493591 0.501434 0.673004
0.623962 0.532410 0.671844
0.723145 0.556061 0.677063
0.112946 0.422668 0.554871
0.138062 0.434265 0.566040
0.183594 0.457184 0.588074
0.270660 0.508728 0.635315
0.424927 0.592316 0.705109
0.636749 0.675079 0.753571
0.761841 0.702240 0.758118
0.825867 0.717163 0.766327
0.130646 0.494110 0.585876
0.157593 0.508179 0.599030
0.205750 0.536224 0.623718
0.298950 0.596161 0.673798
0.466583 0.683533 0.741913
0.713715 0.779083 0.791992
0.841125 0.822998 0.822021
0.887329 0.829956 0.828552
0.143860 0.545837 0.607574
0.171875 0.562592 0.622314
0.222412 0.595459 0.649780
0.316254 0.655792 0.698608
0.489044 0.744476 0.765228
0.742950 0.840485 0.815155
0.856995 0.876282 0.840179
0.913971 0.888519 0.857910
