滤镜资源/Professional Luts Collection/Triune-Digital-Cinematic-LUTs/3D LUTs (CUBE)/REDLOGFILM/The Conjuring - REDlogFilm.cube
#Created by Benjamin (IWLTBAP) : http://luts.iwltbap.com
#Copyright: (C) Copyright 2016 Triune Films and IWLTBAP
TITLE "Blockbuster LUTs Pack (REDlogFilm)"
#LUT size
LUT_3D_SIZE 32
#LUT data points
0.006836 0.007782 0.010040
0.010376 0.007996 0.010406
0.014679 0.008209 0.010590
0.019073 0.008270 0.010651
0.024292 0.008331 0.010712
0.030579 0.008698 0.010895
0.039642 0.010223 0.011719
0.049622 0.011444 0.012512
0.061340 0.013123 0.013702
0.079498 0.016907 0.015961
0.101227 0.020782 0.018524
0.124359 0.025513 0.021576
0.152588 0.031281 0.024902
0.185120 0.037750 0.028900
0.220459 0.043091 0.031891
0.252258 0.048462 0.035248
0.285797 0.055237 0.040192
0.319580 0.061798 0.045166
0.350464 0.068024 0.050140
0.379333 0.073517 0.054626
0.404755 0.077789 0.057861
0.429504 0.082336 0.061096
0.452728 0.086426 0.063873
0.473206 0.089508 0.065979
0.489410 0.091827 0.067566
0.504517 0.093933 0.069031
0.518127 0.096008 0.070465
0.530975 0.097778 0.071503
0.540405 0.099091 0.072296
0.551056 0.100708 0.073395
0.560242 0.102417 0.074524
0.567719 0.103821 0.075531
0.007416 0.012604 0.011200
0.011139 0.013031 0.011475
0.015503 0.013306 0.011658
0.020050 0.013641 0.011902
0.025238 0.013672 0.011932
0.031708 0.014221 0.012146
0.041321 0.015900 0.012970
0.051666 0.017456 0.013611
0.064301 0.019409 0.015076
0.082245 0.023102 0.017273
0.104584 0.026917 0.019928
0.129364 0.032135 0.023346
0.158295 0.037598 0.026459
0.190521 0.043579 0.030151
0.226471 0.049500 0.033661
0.258942 0.055206 0.037262
0.292847 0.062073 0.042328
0.326355 0.068848 0.047363
0.357117 0.075043 0.052307
0.385590 0.080170 0.056458
0.411224 0.084381 0.059540
0.435944 0.088776 0.062622
0.459015 0.092499 0.065186
0.479126 0.095642 0.067352
0.495422 0.097961 0.068909
0.510406 0.100098 0.070282
0.523773 0.102203 0.071716
0.536591 0.104004 0.072784
0.545715 0.105469 0.073700
0.556335 0.107086 0.074799
0.565491 0.108826 0.076050
0.572998 0.110260 0.077026
0.008057 0.018585 0.012268
0.011871 0.018951 0.012543
0.016388 0.019470 0.012665
0.021027 0.019928 0.012909
0.026398 0.020233 0.013123
0.032990 0.020996 0.013458
0.043182 0.022827 0.014374
0.053772 0.024750 0.014923
0.067810 0.027222 0.016693
0.086060 0.030762 0.018951
0.108398 0.034393 0.021667
0.135712 0.040253 0.025421
0.164978 0.045593 0.028442
0.197296 0.050842 0.031677
0.233673 0.057159 0.035522
0.267120 0.063538 0.039703
0.301514 0.070801 0.045044
0.335022 0.077759 0.050293
0.365265 0.083649 0.054993
0.392975 0.088257 0.058502
0.419159 0.092560 0.061615
0.443939 0.096771 0.064545
0.467010 0.100220 0.066956
0.486511 0.103271 0.069092
0.502899 0.105499 0.070526
0.517822 0.107635 0.071869
0.530823 0.109619 0.073059
0.543701 0.111816 0.074402
0.552612 0.113251 0.075348
0.563110 0.115143 0.076691
0.572235 0.116791 0.077850
0.579498 0.118225 0.078857
0.008789 0.024750 0.013275
0.012604 0.025238 0.013611
0.017242 0.025726 0.013672
0.021912 0.026459 0.013916
0.027466 0.027191 0.014282
0.034607 0.028687 0.014862
0.045074 0.030670 0.015808
0.056549 0.033051 0.016449
0.072296 0.036072 0.018616
0.091095 0.039368 0.021027
0.113129 0.042511 0.023682
0.142212 0.048676 0.027405
0.173248 0.054199 0.030609
0.206055 0.059418 0.033813
0.242035 0.066284 0.038177
0.276489 0.073212 0.042755
0.311035 0.080322 0.047974
0.343719 0.086823 0.053009
0.373383 0.092438 0.057404
0.401337 0.096802 0.060608
0.427734 0.101044 0.063721
0.452423 0.104889 0.066376
0.475403 0.108429 0.068695
0.495087 0.111542 0.070831
0.510956 0.113770 0.072174
0.525452 0.115997 0.073639
0.538391 0.118042 0.074829
0.551025 0.120361 0.076233
0.559998 0.122040 0.077515
0.570618 0.124023 0.078857
0.579437 0.125885 0.080231
0.586639 0.127319 0.081238
0.009644 0.033447 0.015015
0.013458 0.034058 0.015411
0.018127 0.034790 0.015594
0.022919 0.035492 0.015808
0.028473 0.036438 0.015991
0.036072 0.038116 0.016479
0.046997 0.040527 0.017517
0.060089 0.042938 0.018402
0.076324 0.046021 0.020508
0.096313 0.048950 0.022919
0.118896 0.052216 0.025879
0.149536 0.058655 0.029694
0.182617 0.064209 0.032959
0.216827 0.069855 0.036346
0.252258 0.077271 0.041290
0.287415 0.084839 0.046356
0.322418 0.091858 0.051636
0.354919 0.097900 0.056519
0.382904 0.102692 0.060059
0.411499 0.107178 0.063263
0.438141 0.111206 0.066162
0.462524 0.114441 0.068390
0.485260 0.118011 0.070740
0.504700 0.120911 0.072418
0.520264 0.123138 0.073730
0.535034 0.125824 0.075439
0.547577 0.128296 0.076996
0.559875 0.131073 0.078918
0.568909 0.132874 0.080017
0.579132 0.135071 0.081573
0.587860 0.136963 0.082947
0.594788 0.138458 0.084076
0.010437 0.043427 0.017090
0.014526 0.044037 0.017517
0.019348 0.044800 0.017639
0.024414 0.045654 0.017914
0.030029 0.046661 0.018097
0.036743 0.048004 0.018402
0.048096 0.050171 0.018707
0.061829 0.052765 0.019653
0.078583 0.055725 0.021576
0.100647 0.059082 0.024628
0.124634 0.062714 0.028107
0.155304 0.068298 0.031555
0.189880 0.074402 0.035248
0.225433 0.080994 0.039429
0.261993 0.088837 0.044708
0.296570 0.096008 0.049469
0.330963 0.102631 0.054504
0.363739 0.108521 0.059113
0.392670 0.113037 0.062317
0.421722 0.117340 0.065399
0.448181 0.121521 0.068146
0.472595 0.125092 0.070312
0.495270 0.128845 0.072571
0.514038 0.131958 0.074524
0.529663 0.135040 0.076477
0.544159 0.137909 0.078430
0.556854 0.140656 0.080231
0.569397 0.143677 0.082153
0.578186 0.145599 0.083435
0.588165 0.147766 0.084930
0.596710 0.149628 0.086334
0.603760 0.151184 0.087372
0.011536 0.056488 0.019684
0.015686 0.057343 0.020081
0.020599 0.058197 0.020264
0.025970 0.059113 0.020355
0.032104 0.060303 0.020477
0.039062 0.061768 0.020844
0.048981 0.063293 0.020874
0.064148 0.065826 0.021088
0.081451 0.068878 0.022919
0.104645 0.072510 0.025818
0.132050 0.076477 0.030426
0.163208 0.081512 0.034271
0.198792 0.088318 0.038666
0.236237 0.095825 0.043488
0.274933 0.104218 0.049042
0.308472 0.110535 0.053345
0.341949 0.116516 0.057861
0.375580 0.122375 0.062195
0.405609 0.126831 0.065277
0.435272 0.131134 0.068115
0.461334 0.135193 0.070587
0.485565 0.139221 0.072968
0.507721 0.143127 0.075104
0.526642 0.147186 0.077698
0.542053 0.150970 0.080170
0.556427 0.154358 0.082611
0.569550 0.157471 0.084625
0.581818 0.160583 0.086792
0.590576 0.162598 0.088226
0.600647 0.164978 0.089844
0.609253 0.167084 0.091156
0.616180 0.168610 0.092133
0.012726 0.071320 0.022583
0.017120 0.072021 0.023163
0.022186 0.072998 0.023315
0.027649 0.074005 0.023438
0.034119 0.075256 0.023621
0.041443 0.076996 0.023743
0.051483 0.078766 0.023895
0.065033 0.080444 0.023651
0.084167 0.083954 0.024414
0.108307 0.087311 0.026611
0.137024 0.091370 0.032166
0.171051 0.096619 0.037506
0.207489 0.103424 0.042145
0.246185 0.111603 0.047577
0.286102 0.119812 0.052734
0.319977 0.125824 0.057098
0.353088 0.131409 0.061218
0.387665 0.137390 0.065430
0.418854 0.141876 0.068298
0.449036 0.146057 0.070831
0.475159 0.150482 0.073334
0.499146 0.154816 0.075867
0.520935 0.159637 0.078796
0.539886 0.164490 0.081879
0.555084 0.168701 0.084686
0.569397 0.172394 0.087189
0.581940 0.175537 0.089386
0.594238 0.178772 0.091766
0.603088 0.180878 0.093170
0.613007 0.183228 0.094635
0.621490 0.185211 0.095886
0.628265 0.186829 0.096954
0.014557 0.086823 0.026001
0.019226 0.087524 0.026672
0.024445 0.088287 0.026672
0.029938 0.089172 0.026581
0.036438 0.090424 0.026733
0.043976 0.092438 0.026794
0.054779 0.094879 0.026978
0.068756 0.096741 0.026794
0.083862 0.098541 0.026764
0.110291 0.102356 0.026825
0.140594 0.106628 0.032196
0.176270 0.111877 0.039917
0.213898 0.118927 0.045288
0.254181 0.127319 0.051117
0.295685 0.135193 0.055878
0.330292 0.141296 0.060486
0.364044 0.146912 0.064575
0.399719 0.152588 0.068359
0.431641 0.156891 0.070831
0.461670 0.161011 0.073059
0.487640 0.165497 0.075653
0.511536 0.170624 0.078827
0.533600 0.177094 0.082947
0.552155 0.182343 0.086426
0.567627 0.186615 0.089264
0.581573 0.190216 0.091705
0.593628 0.193207 0.093964
0.605591 0.196320 0.095917
0.614075 0.198273 0.097198
0.623840 0.200623 0.098785
0.632080 0.202606 0.100220
0.638763 0.204285 0.101349
0.017792 0.105316 0.029724
0.022552 0.106110 0.030029
0.027924 0.107025 0.029999
0.033478 0.107910 0.029907
0.039886 0.108826 0.029755
0.047089 0.110535 0.029572
0.059021 0.113068 0.029358
0.073456 0.115845 0.028656
0.089203 0.117859 0.028198
0.110626 0.119598 0.027557
0.144287 0.124603 0.030548
0.180908 0.130493 0.040009
0.222412 0.138153 0.048126
0.264099 0.146179 0.053955
0.307159 0.153748 0.059113
0.342896 0.159882 0.063965
0.378510 0.165161 0.067810
0.415649 0.170441 0.070953
0.447357 0.174561 0.073242
0.476807 0.179260 0.076111
0.502502 0.184448 0.079376
0.526031 0.191101 0.083710
0.547455 0.198059 0.088226
0.566559 0.204193 0.092102
0.581543 0.208221 0.094757
0.595520 0.212036 0.097473
0.607666 0.215302 0.099701
0.619415 0.218567 0.102142
0.627899 0.220551 0.103699
0.637451 0.222809 0.105408
0.645599 0.224670 0.106812
0.652039 0.226257 0.107971
0.022644 0.125244 0.032959
0.027222 0.126251 0.033142
0.032776 0.127472 0.033234
0.038513 0.128601 0.033142
0.045135 0.129791 0.033020
0.053162 0.131531 0.032593
0.064392 0.133606 0.031830
0.078461 0.136505 0.030762
0.096008 0.139160 0.029755
0.118225 0.141388 0.028717
0.145844 0.143280 0.027710
0.187164 0.151184 0.037048
0.228394 0.159332 0.048065
0.273773 0.166626 0.056183
0.320007 0.174530 0.062286
0.356628 0.180237 0.067261
0.394043 0.185364 0.071167
0.431396 0.189819 0.073700
0.463593 0.194733 0.076721
0.492676 0.200623 0.080536
0.517975 0.208038 0.085419
0.541443 0.215698 0.090332
0.562561 0.222504 0.094788
0.581207 0.227997 0.098358
0.596436 0.232697 0.101807
0.610168 0.236603 0.104706
0.622437 0.240051 0.107300
0.634094 0.243134 0.109589
0.642578 0.245117 0.111115
0.652069 0.247314 0.112793
0.660065 0.249146 0.114227
0.666382 0.250580 0.115326
0.028198 0.147552 0.036041
0.032745 0.148438 0.035980
0.038330 0.149506 0.035828
0.044067 0.150574 0.035675
0.051514 0.152191 0.035553
0.059937 0.154266 0.035065
0.071381 0.157074 0.034485
0.084900 0.159363 0.033020
0.101593 0.161499 0.032013
0.126038 0.164307 0.030212
0.156433 0.166779 0.029022
0.188324 0.170807 0.031311
0.233185 0.181488 0.045013
0.278900 0.187805 0.056702
0.330933 0.196869 0.065216
0.371063 0.202942 0.070618
0.409363 0.207886 0.074615
0.447693 0.213989 0.078888
0.479980 0.219421 0.082581
0.509247 0.226685 0.087463
0.534973 0.235352 0.093048
0.557526 0.242249 0.097687
0.578369 0.248566 0.102081
0.596893 0.254181 0.106201
0.611816 0.258789 0.109528
0.625519 0.262787 0.112457
0.637634 0.266205 0.114899
0.649445 0.269287 0.117126
0.657715 0.271118 0.118500
0.666992 0.273346 0.120270
0.674957 0.275482 0.121735
0.681244 0.277069 0.122925
0.035004 0.171539 0.038788
0.039734 0.172455 0.038696
0.045654 0.173584 0.038605
0.052582 0.175079 0.038513
0.060333 0.176819 0.038177
0.069458 0.179169 0.037598
0.082062 0.182281 0.036621
0.097046 0.185059 0.035126
0.113007 0.186798 0.033539
0.137360 0.189362 0.031708
0.169373 0.192963 0.030212
0.204498 0.196442 0.031860
0.237915 0.203003 0.039215
0.285309 0.211823 0.054230
0.339172 0.220123 0.066040
0.384552 0.228394 0.073944
0.425476 0.233612 0.078583
0.463531 0.240997 0.084991
0.495544 0.247467 0.089478
0.525116 0.254761 0.094818
0.551483 0.263367 0.100830
0.574615 0.270355 0.105774
0.595551 0.277039 0.110504
0.613708 0.282715 0.114563
0.628510 0.287231 0.117798
0.642242 0.291229 0.120697
0.654327 0.294617 0.123047
0.666229 0.298187 0.125519
0.674591 0.300446 0.127197
0.683899 0.302948 0.128998
0.691864 0.304993 0.130524
0.698151 0.306702 0.131775
0.044800 0.198608 0.042969
0.050293 0.199829 0.042908
0.057098 0.201416 0.042725
0.063812 0.202942 0.042419
0.071899 0.204865 0.042084
0.082214 0.207367 0.041321
0.097504 0.210693 0.039307
0.114990 0.213867 0.037201
0.132690 0.216125 0.035278
0.156097 0.218567 0.033478
0.186279 0.221954 0.032501
0.222473 0.225739 0.033722
0.258942 0.231812 0.039734
0.293579 0.238098 0.048462
0.346405 0.244781 0.062744
0.396271 0.255493 0.075500
0.439880 0.262482 0.082947
0.479248 0.270386 0.089935
0.512115 0.277863 0.096313
0.542145 0.285767 0.102570
0.568268 0.293671 0.108704
0.591827 0.300903 0.114258
0.613739 0.308197 0.119537
0.632050 0.314087 0.123932
0.646759 0.318634 0.127228
0.660278 0.322479 0.129974
0.672241 0.326111 0.132446
0.683716 0.329529 0.134827
0.692017 0.331879 0.136475
0.701447 0.334503 0.138367
0.709442 0.336731 0.139923
0.715851 0.338501 0.141113
0.058441 0.229248 0.047424
0.064026 0.230804 0.047272
0.071472 0.232513 0.046906
0.079407 0.234406 0.046692
0.089050 0.236542 0.045929
0.101257 0.238983 0.044678
0.118896 0.241882 0.042511
0.138702 0.245026 0.040009
0.159180 0.248230 0.037659
0.183350 0.251068 0.036407
0.210602 0.253845 0.035980
0.243530 0.257629 0.036438
0.278320 0.262207 0.042114
0.314575 0.268463 0.050873
0.355194 0.273041 0.059387
0.407135 0.283356 0.074188
0.453491 0.293091 0.087067
0.494019 0.301392 0.095795
0.528015 0.309387 0.102966
0.559082 0.317474 0.109528
0.586090 0.325500 0.115784
0.609833 0.333313 0.121704
0.631226 0.340576 0.127380
0.650055 0.346893 0.132507
0.665283 0.351990 0.136200
0.679077 0.356415 0.139465
0.691132 0.360107 0.142334
0.702881 0.364014 0.145081
0.711487 0.366547 0.146759
0.721008 0.369385 0.148651
0.729126 0.371735 0.150299
0.735687 0.373688 0.151764
0.073090 0.259308 0.052734
0.079437 0.261108 0.052673
0.087250 0.263336 0.052551
0.097626 0.265320 0.051605
0.110870 0.267609 0.050201
0.125122 0.270020 0.048279
0.143433 0.273193 0.045959
0.163483 0.276611 0.043427
0.183807 0.279480 0.041504
0.208099 0.283417 0.040771
0.232758 0.286438 0.041290
0.261292 0.290588 0.043396
0.295044 0.294098 0.046936
0.335754 0.299500 0.054840
0.378998 0.304688 0.063568
0.416565 0.310944 0.073700
0.464722 0.322479 0.088470
0.507202 0.332184 0.100342
0.542175 0.340668 0.109802
0.574188 0.348755 0.116943
0.602539 0.358124 0.123932
0.627075 0.366028 0.129822
0.648621 0.373413 0.135284
0.667877 0.380157 0.140259
0.683502 0.385986 0.144623
0.698059 0.391205 0.148651
0.711029 0.395844 0.152191
0.723602 0.400391 0.155914
0.732178 0.403046 0.158264
0.741669 0.406189 0.161102
0.749634 0.408722 0.163330
0.755920 0.410767 0.165192
0.091370 0.291534 0.059601
0.099854 0.293365 0.058990
0.110596 0.295563 0.057800
0.121429 0.298096 0.056671
0.134827 0.300751 0.055115
0.148651 0.303741 0.053680
0.166687 0.307373 0.051575
0.185577 0.310608 0.050385
0.204712 0.313751 0.049988
0.227570 0.317261 0.049744
0.254181 0.321777 0.050537
0.283936 0.325989 0.052887
0.316437 0.329010 0.055054
0.358826 0.332062 0.059814
0.402924 0.338501 0.068512
0.440338 0.344452 0.078430
0.476257 0.353149 0.089111
0.520020 0.364075 0.103180
0.556000 0.372925 0.114105
0.589355 0.382172 0.123840
0.618225 0.392151 0.132263
0.643921 0.401123 0.138885
0.667206 0.409637 0.144806
0.686554 0.416595 0.149445
0.702240 0.422180 0.153564
0.716309 0.427063 0.157898
0.729248 0.431732 0.161774
0.741608 0.436066 0.165466
0.750946 0.439270 0.168121
0.761047 0.442780 0.171173
0.769409 0.445831 0.173950
0.775848 0.448029 0.176056
0.112305 0.323761 0.065491
0.120605 0.325897 0.064911
0.131226 0.328522 0.063934
0.141663 0.331268 0.063385
0.154175 0.334412 0.062195
0.167358 0.337891 0.061890
0.185699 0.341888 0.061432
0.204773 0.345306 0.061676
0.224457 0.348572 0.061157
0.248901 0.352722 0.060883
0.277527 0.358124 0.061035
0.309784 0.363068 0.063416
0.345154 0.365784 0.064758
0.383636 0.367859 0.067352
0.427887 0.374542 0.075928
0.465942 0.382172 0.085632
0.500946 0.388702 0.095367
0.533356 0.396301 0.105133
0.570282 0.405823 0.116913
0.604156 0.416077 0.128235
0.632965 0.426361 0.137726
0.659271 0.436310 0.146271
0.683655 0.446045 0.154449
0.704376 0.454071 0.160980
0.720428 0.459991 0.165863
0.735229 0.464722 0.169373
0.748199 0.468994 0.172729
0.760498 0.472717 0.175659
0.769470 0.475555 0.177856
0.779724 0.478882 0.180511
0.788422 0.481720 0.182861
0.795227 0.483948 0.184845
0.128845 0.353638 0.071716
0.137054 0.356049 0.071655
0.147278 0.358978 0.071228
0.157593 0.361877 0.071442
0.170380 0.365540 0.071838
0.184143 0.369171 0.072113
0.203339 0.373810 0.072449
0.224426 0.377960 0.072113
0.245575 0.381561 0.071289
0.271088 0.386230 0.070312
0.300232 0.391052 0.070312
0.333374 0.396057 0.071716
0.369904 0.399109 0.072876
0.408539 0.400940 0.074829
0.450439 0.409058 0.083679
0.488678 0.417908 0.093048
0.523560 0.423859 0.102631
0.555786 0.430267 0.111877
0.584656 0.437469 0.120575
0.619476 0.449127 0.133179
0.648407 0.460083 0.142914
0.674377 0.470215 0.152527
0.698730 0.480042 0.162628
0.718903 0.487793 0.170563
0.734894 0.492920 0.174774
0.750488 0.497772 0.178772
0.764404 0.502106 0.181915
0.777374 0.505890 0.184540
0.786682 0.508911 0.186829
0.797028 0.512360 0.189484
0.805817 0.515228 0.191589
0.812805 0.517456 0.193207
0.143158 0.383301 0.079468
0.151733 0.386139 0.080322
0.162445 0.389832 0.081573
0.174164 0.393219 0.082123
0.187469 0.396851 0.082397
0.202667 0.400726 0.082306
0.223114 0.405426 0.082520
0.245850 0.410614 0.081970
0.268524 0.415436 0.081390
0.295105 0.419769 0.079498
0.323273 0.423615 0.079132
0.356354 0.429474 0.081055
0.393066 0.433167 0.081818
0.432190 0.438263 0.085663
0.473450 0.446472 0.093597
0.511200 0.455505 0.102448
0.545776 0.460999 0.110382
0.579315 0.466888 0.119934
0.607361 0.474426 0.128815
0.634186 0.482361 0.137573
0.663086 0.493408 0.148315
0.688965 0.503418 0.158813
0.712677 0.511932 0.167877
0.732910 0.519592 0.175995
0.750153 0.525482 0.181915
0.766724 0.530975 0.186646
0.780914 0.535797 0.190735
0.794067 0.539642 0.193939
0.803162 0.542633 0.196136
0.813416 0.546021 0.198608
0.822357 0.548859 0.200745
0.829437 0.551086 0.202332
0.156525 0.411133 0.089233
0.166260 0.414093 0.089661
0.177490 0.417664 0.090546
0.189911 0.421356 0.090942
0.204468 0.425537 0.091095
0.220367 0.429504 0.091522
0.241486 0.434662 0.091187
0.264160 0.440125 0.090729
0.287811 0.445190 0.089386
0.314453 0.449768 0.088470
0.343140 0.454407 0.087860
0.376099 0.460297 0.089020
0.411865 0.466370 0.091705
0.452087 0.474243 0.096527
0.492371 0.481842 0.102875
0.531525 0.490295 0.111450
0.567047 0.497650 0.119629
0.600586 0.503876 0.128265
0.628693 0.510254 0.136475
0.654144 0.517426 0.144409
0.676331 0.523590 0.152374
0.702057 0.533112 0.163422
0.726105 0.542175 0.173065
0.747101 0.549713 0.181000
0.764648 0.555420 0.186768
0.780884 0.560883 0.191986
0.794983 0.565613 0.196350
0.807770 0.570312 0.200623
0.816650 0.573181 0.203369
0.826630 0.576569 0.206512
0.835144 0.579346 0.208801
0.842102 0.581604 0.210510
0.170959 0.437408 0.097961
0.180695 0.440521 0.098358
0.192993 0.444641 0.098999
0.205719 0.448700 0.099518
0.221100 0.453278 0.099945
0.237457 0.457794 0.100220
0.258911 0.463257 0.100037
0.282196 0.468994 0.099548
0.305756 0.473602 0.097565
0.332855 0.479248 0.096527
0.361572 0.484192 0.096008
0.393799 0.489990 0.096649
0.429077 0.498474 0.101318
0.468842 0.507904 0.106689
0.509766 0.516235 0.112885
0.548798 0.524048 0.120026
0.585297 0.532349 0.128418
0.618988 0.539337 0.136200
0.646820 0.543854 0.143524
0.671326 0.550018 0.151825
0.692932 0.555573 0.159882
0.714081 0.561279 0.167633
0.738373 0.569824 0.176880
0.759583 0.577179 0.184235
0.777313 0.583557 0.190369
0.793091 0.588959 0.195953
0.806702 0.593842 0.201019
0.819183 0.598541 0.205750
0.828033 0.601471 0.208496
0.837738 0.604614 0.211517
0.845947 0.607208 0.214111
0.852722 0.609406 0.216339
0.186462 0.463470 0.106110
0.196350 0.467010 0.106812
0.208649 0.471344 0.107544
0.221100 0.475281 0.108093
0.236420 0.479858 0.108887
0.252899 0.484497 0.109192
0.274750 0.490173 0.108948
0.298035 0.495575 0.107941
0.321289 0.500763 0.106628
0.348846 0.506775 0.105316
0.377991 0.512421 0.104156
0.411194 0.520477 0.105713
0.446930 0.530334 0.110565
0.485840 0.541595 0.116516
0.526947 0.550995 0.122894
0.565063 0.558075 0.128662
0.600830 0.564667 0.135986
0.634094 0.572083 0.143372
0.661865 0.576721 0.150055
0.686859 0.580750 0.157166
0.708527 0.585968 0.165131
0.729156 0.590881 0.172089
0.749512 0.596130 0.179138
0.770844 0.603302 0.186462
0.788361 0.609772 0.192657
0.802948 0.614594 0.198151
0.815735 0.618988 0.202850
0.828033 0.623505 0.207764
0.836853 0.626648 0.211304
0.846771 0.630157 0.215088
0.855133 0.632935 0.218201
0.861755 0.635101 0.220734
0.201050 0.488556 0.113892
0.210419 0.491699 0.114532
0.222382 0.495575 0.115295
0.235413 0.499847 0.116272
0.250885 0.504730 0.117371
0.267609 0.509644 0.117920
0.289795 0.515991 0.118256
0.314240 0.522736 0.117584
0.337708 0.527740 0.115875
0.365570 0.533630 0.113403
0.395966 0.541656 0.112274
0.428223 0.549500 0.114594
0.464081 0.560364 0.119720
0.501587 0.572083 0.125336
0.541656 0.581940 0.131622
0.579132 0.589203 0.137146
0.615021 0.594971 0.143311
0.647919 0.601837 0.150452
0.675781 0.606750 0.156372
0.701172 0.609863 0.162323
0.723602 0.614441 0.168976
0.743896 0.618805 0.176300
0.763306 0.623230 0.182983
0.780121 0.626556 0.188324
0.797119 0.632538 0.194824
0.812103 0.637939 0.200592
0.824829 0.642578 0.205505
0.837067 0.647095 0.210266
0.845795 0.650360 0.213928
0.855438 0.653809 0.218262
0.863678 0.656677 0.222046
0.870148 0.658905 0.224915
0.213715 0.509918 0.120575
0.223450 0.513336 0.121490
0.235901 0.517548 0.122559
0.248505 0.521515 0.123657
0.263580 0.526245 0.124786
0.280518 0.531403 0.125549
0.302795 0.538300 0.126160
0.327454 0.544800 0.125275
0.351837 0.550415 0.123260
0.380188 0.557098 0.120972
0.410553 0.565369 0.119324
0.443085 0.574554 0.122498
0.478668 0.586121 0.127747
0.515594 0.597626 0.132965
0.553833 0.607971 0.138824
0.590424 0.615173 0.143860
0.626129 0.620941 0.149384
0.659363 0.626434 0.156433
0.686829 0.631042 0.161682
0.712646 0.634247 0.167053
0.735870 0.637482 0.172791
0.755890 0.641663 0.179504
0.774017 0.645355 0.185394
0.790192 0.648376 0.190369
0.803345 0.650970 0.195038
0.818634 0.656586 0.201233
0.831421 0.661255 0.206390
0.843506 0.665771 0.211365
0.852051 0.668884 0.215240
0.861450 0.672150 0.219666
0.869568 0.675049 0.223328
0.876068 0.677338 0.226227
0.226105 0.530212 0.127075
0.235413 0.533325 0.128021
0.247650 0.537292 0.129150
0.260406 0.541351 0.130341
0.275085 0.545807 0.131378
0.291718 0.550873 0.131989
0.314362 0.557892 0.132568
0.339386 0.565033 0.131958
0.364807 0.571686 0.130554
0.393188 0.578827 0.127869
0.423187 0.587555 0.127014
0.456238 0.598267 0.130096
0.491852 0.610016 0.134918
0.528015 0.621094 0.139618
0.564758 0.632324 0.145325
0.600525 0.639221 0.150116
0.636383 0.644623 0.155243
0.669922 0.648987 0.161285
0.697296 0.653778 0.166687
0.723602 0.657196 0.171326
0.746460 0.659088 0.175903
0.765930 0.661896 0.181488
0.783875 0.666168 0.187958
0.799164 0.669342 0.193634
0.811951 0.671722 0.197968
0.824341 0.674194 0.202148
0.837189 0.678741 0.207245
0.849304 0.683197 0.212524
0.857635 0.686157 0.216431
0.866943 0.689453 0.220673
0.874908 0.692200 0.224213
0.881409 0.694489 0.227081
0.237152 0.548492 0.133057
0.246552 0.551453 0.133972
0.258331 0.555115 0.135132
0.270508 0.558716 0.135956
0.285370 0.563324 0.136932
0.302551 0.569275 0.138245
0.325745 0.576477 0.138611
0.351562 0.584656 0.138672
0.377991 0.592133 0.136719
0.405975 0.599670 0.134918
0.434387 0.607544 0.134247
0.467529 0.619171 0.136536
0.502686 0.630737 0.140503
0.538391 0.641876 0.145660
0.574677 0.652679 0.150970
0.609680 0.660553 0.155640
0.645416 0.665649 0.160187
0.678650 0.668884 0.164764
0.706329 0.672577 0.169861
0.732727 0.676208 0.174225
0.755310 0.678894 0.179016
0.774872 0.680817 0.183685
0.791992 0.684723 0.190063
0.806854 0.687805 0.195801
0.819397 0.690216 0.199921
0.831512 0.692535 0.204071
0.842377 0.694824 0.208069
0.854523 0.699097 0.213776
0.862915 0.702087 0.217896
0.872192 0.705414 0.221985
0.880157 0.708221 0.225403
0.886566 0.710541 0.228302
0.248474 0.566681 0.138855
0.258240 0.569946 0.139954
0.270172 0.573761 0.141174
0.282349 0.577393 0.141907
0.297516 0.582397 0.143127
0.314667 0.588654 0.145172
0.338318 0.596222 0.145905
0.364105 0.604156 0.145020
0.390289 0.611572 0.142944
0.418274 0.619934 0.141876
0.445465 0.627136 0.141174
0.477875 0.638397 0.142548
0.512848 0.650543 0.146240
0.548859 0.661957 0.152374
0.584473 0.672424 0.157043
0.618683 0.681152 0.161133
0.654419 0.685547 0.164551
