滤镜资源/Professional Luts Collection/Triune-Digital-Cinematic-LUTs/3D LUTs (CUBE)/LOG/BW/Casino Royale 2 - LOG.cube
#Created by Benjamin (IWLTBAP) : http://luts.iwltbap.com
#Copyright: (C) Copyright 2016 Triune Films and IWLTBAP
TITLE "Blockbuster LUTs Pack (LOG)"
#LUT size
LUT_3D_SIZE 8
#LUT data points
DOMAIN_MIN 0.000000 0.000000 0.000000
DOMAIN_MAX 0.903226 0.903226 0.903226
0.004608 0.004608 0.020264
0.007324 0.007324 0.022766
0.026550 0.026550 0.040649
0.094147 0.094147 0.103516
0.210358 0.210358 0.211609
0.339386 0.339386 0.331604
0.364441 0.364441 0.354919
0.382477 0.382477 0.371704
0.008911 0.008911 0.024231
0.009613 0.009613 0.024902
0.032684 0.032684 0.046356
0.096649 0.096649 0.105835
0.204315 0.204315 0.205963
0.346313 0.346313 0.338043
0.379425 0.379425 0.368835
0.400879 0.400879 0.388794
0.015442 0.015442 0.030334
0.016113 0.016113 0.030945
0.053711 0.053711 0.065918
0.139771 0.139771 0.145966
0.267914 0.267914 0.265137
0.421600 0.421600 0.408081
0.462555 0.462555 0.446167
0.472473 0.472473 0.455383
0.024384 0.024384 0.038605
0.025513 0.025513 0.039673
0.066315 0.066315 0.077606
0.173706 0.173706 0.177521
0.326233 0.326233 0.319366
0.491882 0.491882 0.473419
0.584442 0.584442 0.559540
0.596771 0.596771 0.570984
0.043701 0.043701 0.056641
0.050476 0.050476 0.062897
0.077393 0.077393 0.087921
0.195190 0.195190 0.197479
0.370605 0.370605 0.360657
0.556030 0.556030 0.533112
0.686920 0.686920 0.654846
0.696503 0.696503 0.663757
0.076569 0.076569 0.087189
0.088593 0.088593 0.098358
0.100830 0.100830 0.109711
0.207031 0.207031 0.208527
0.404205 0.404205 0.391907
0.609100 0.609100 0.582458
0.750427 0.750427 0.713898
0.773590 0.773590 0.735443
0.112427 0.112427 0.120514
0.126007 0.126007 0.133148
0.140137 0.140137 0.146301
0.205566 0.205566 0.207153
0.415741 0.415741 0.402618
0.642303 0.642303 0.613342
0.789642 0.789642 0.750366
0.831696 0.831696 0.789490
0.122009 0.122009 0.129425
0.137054 0.137054 0.143433
0.154663 0.154663 0.159790
0.175476 0.175476 0.179169
0.388733 0.388733 0.377502
0.626099 0.626099 0.598267
0.795349 0.795349 0.755676
0.868408 0.868408 0.823669
0.006592 0.006592 0.022095
0.010803 0.010803 0.025970
0.036438 0.036438 0.049866
0.106445 0.106445 0.114960
0.217987 0.217987 0.218689
0.343262 0.343262 0.335175
0.371490 0.371490 0.361450
0.392456 0.392456 0.380981
0.009766 0.009766 0.025024
0.012268 0.012268 0.027405
0.041412 0.041412 0.054474
0.103790 0.103790 0.112488
0.208405 0.208405 0.209778
0.351807 0.351807 0.343170
0.394135 0.394135 0.382507
0.414734 0.414734 0.401672
0.015198 0.015198 0.030090
0.016571 0.016571 0.031372
0.058472 0.058472 0.070343
0.141998 0.141998 0.148041
0.274261 0.274261 0.271057
0.423523 0.423523 0.409851
0.474091 0.474091 0.456909
0.485657 0.485657 0.467651
0.026184 0.026184 0.040314
0.027130 0.027130 0.041168
0.068756 0.068756 0.079926
0.179810 0.179810 0.183197
0.327606 0.327606 0.320679
0.501526 0.501526 0.482391
0.592621 0.592621 0.567108
0.604980 0.604980 0.578613
0.044556 0.044556 0.057404
0.054108 0.054108 0.066284
0.078400 0.078400 0.088867
0.201508 0.201508 0.203369
0.380798 0.380798 0.370117
0.561676 0.561676 0.538361
0.690887 0.690887 0.658508
0.703918 0.703918 0.670654
0.079865 0.079865 0.090240
0.094055 0.094055 0.103424
0.103638 0.103638 0.112335
0.212646 0.212646 0.213715
0.411530 0.411530 0.398712
0.616730 0.616730 0.589539
0.757935 0.757935 0.720886
0.781738 0.781738 0.743011
0.113922 0.113922 0.121918
0.128632 0.128632 0.135590
0.145477 0.145477 0.151276
0.210327 0.210327 0.211578
0.420135 0.420135 0.406708
0.648895 0.648895 0.619476
0.793335 0.793335 0.753815
0.838501 0.838501 0.795807
0.125153 0.125153 0.132355
0.141327 0.141327 0.147400
0.160126 0.160126 0.164886
0.180969 0.180969 0.184265
0.395813 0.395813 0.384064
0.631622 0.631622 0.603394
0.798737 0.798737 0.758850
0.873352 0.873352 0.828247
0.007874 0.007874 0.023285
0.012817 0.012817 0.027893
0.059753 0.059753 0.071503
0.140320 0.140320 0.146454
0.274139 0.274139 0.270905
0.410828 0.410828 0.398071
0.430328 0.430328 0.416199
0.447693 0.447693 0.432343
0.013245 0.013245 0.028290
0.014893 0.014893 0.029816
0.060791 0.060791 0.072510
0.137054 0.137054 0.143433
0.260223 0.260223 0.257996
0.412018 0.412018 0.399139
0.444794 0.444794 0.429626
0.460052 0.460052 0.443817
0.019836 0.019836 0.034393
0.021484 0.021484 0.035950
0.084106 0.084106 0.094208
0.185699 0.185699 0.188690
0.320953 0.320953 0.314453
0.467987 0.467987 0.451233
0.510223 0.510223 0.490509
0.521881 0.521881 0.501312
0.033386 0.033386 0.047028
0.040649 0.040649 0.053741
0.089111 0.089111 0.098816
0.204346 0.204346 0.205994
0.355194 0.355194 0.346313
0.518616 0.518616 0.498322
0.603821 0.603821 0.577545
0.610870 0.610870 0.584106
0.054321 0.054321 0.066467
0.062897 0.062897 0.074463
0.084167 0.084167 0.094238
0.204132 0.204132 0.205811
0.385071 0.385071 0.374084
0.565613 0.565613 0.541992
0.698059 0.698059 0.665222
0.710175 0.710175 0.676453
0.083740 0.083740 0.093811
0.095245 0.095245 0.104523
0.108337 0.108337 0.116730
0.213287 0.213287 0.214325
0.418335 0.418335 0.405060
0.624695 0.624695 0.596954
0.761505 0.761505 0.724213
0.786102 0.786102 0.747070
0.119141 0.119141 0.126770
0.133789 0.133789 0.140381
0.148895 0.148895 0.154449
0.214111 0.214111 0.215088
0.427277 0.427277 0.413361
0.654022 0.654022 0.624237
0.797180 0.797180 0.757355
0.842255 0.842255 0.799286
0.127350 0.127350 0.134369
0.145172 0.145172 0.150970
0.164398 0.164398 0.168854
0.184753 0.184753 0.187775
0.399872 0.399872 0.387878
0.639954 0.639954 0.611176
0.806396 0.806396 0.765961
0.877319 0.877319 0.831940
0.011536 0.011536 0.026672
0.015076 0.015076 0.029968
0.073761 0.073761 0.084595
0.184509 0.184509 0.187561
0.329498 0.329498 0.322418
0.480530 0.480530 0.462891
0.496826 0.496826 0.478058
0.511292 0.511292 0.491486
0.017303 0.017303 0.032043
0.020325 0.020325 0.034851
0.076630 0.076630 0.087250
0.171478 0.171478 0.175446
0.322418 0.322418 0.315826
0.478485 0.478485 0.460999
0.512268 0.512268 0.492371
0.523407 0.523407 0.502777
0.023834 0.023834 0.038116
0.026855 0.026855 0.040955
0.099792 0.099792 0.108765
0.222595 0.222595 0.222961
0.376038 0.376038 0.365692
0.534271 0.534271 0.512848
0.576782 0.576782 0.552429
0.581146 0.581146 0.556488
0.053101 0.053101 0.065369
0.064087 0.064087 0.075592
0.117401 0.117401 0.125153
0.272064 0.272064 0.268982
0.438385 0.438385 0.423706
0.593475 0.593475 0.567902
0.687622 0.687622 0.655487
0.689484 0.689484 0.657227
0.081696 0.081696 0.091949
0.095428 0.095428 0.104736
0.113831 0.113831 0.121826
0.274994 0.274994 0.271729
0.474365 0.474365 0.457123
0.635590 0.635590 0.607086
0.754852 0.754852 0.718018
0.755310 0.755310 0.718445
0.106415 0.106415 0.114929
0.119537 0.119537 0.127136
0.130402 0.130402 0.137238
0.258057 0.258057 0.255981
0.473602 0.473602 0.456421
0.660706 0.660706 0.630432
0.782318 0.782318 0.743561
0.801819 0.801819 0.761688
0.136353 0.136353 0.142761
0.154266 0.154266 0.159424
0.168884 0.168884 0.173004
0.227509 0.227509 0.227570
0.447357 0.447357 0.432037
0.658569 0.658569 0.628479
0.798798 0.798798 0.758881
0.844574 0.844574 0.801422
0.138550 0.138550 0.144775
0.157257 0.157257 0.162201
0.173523 0.173523 0.177338
0.190247 0.190247 0.192871
0.404755 0.404755 0.392426
0.642914 0.642914 0.613892
0.810944 0.810944 0.770172
0.882019 0.882019 0.836304
0.016541 0.016541 0.031372
0.018799 0.018799 0.033447
0.085266 0.085266 0.095215
0.214478 0.214478 0.215454
0.382843 0.382843 0.372009
0.544617 0.544617 0.522522
0.571594 0.571594 0.547607
0.588409 0.588409 0.563202
0.016968 0.016968 0.031738
0.024445 0.024445 0.038666
0.083282 0.083282 0.093414
0.204834 0.204834 0.206451
0.375641 0.375641 0.365356
0.544891 0.544891 0.522736
0.585968 0.585968 0.560944
0.601349 0.601349 0.575256
0.033783 0.033783 0.047394
0.038635 0.038635 0.051910
0.123047 0.123047 0.130402
0.258636 0.258636 0.256500
0.437958 0.437958 0.423279
0.592834 0.592834 0.567322
0.636566 0.636566 0.608002
0.644806 0.644806 0.615662
0.067657 0.067657 0.078888
0.081879 0.081879 0.092102
0.144440 0.144440 0.150299
0.306976 0.306976 0.301483
0.500916 0.500916 0.481842
0.655487 0.655487 0.625610
0.737732 0.737732 0.702087
0.740082 0.740082 0.704285
0.114624 0.114624 0.122559
0.127014 0.127014 0.134094
0.141785 0.141785 0.147858
0.326904 0.326904 0.320007
0.553040 0.553040 0.530304
0.711395 0.711395 0.677612
0.806183 0.806183 0.765747
0.811676 0.811676 0.770874
0.152679 0.152679 0.157959
0.162140 0.162140 0.166779
0.175629 0.175629 0.179291
0.307709 0.307709 0.302124
0.558197 0.558197 0.535156
0.734406 0.734406 0.699005
0.833282 0.833282 0.790985
0.851898 0.851898 0.808258
0.185333 0.185333 0.188324
0.203430 0.203430 0.205139
0.218719 0.218719 0.219391
0.280731 0.280731 0.277069
0.539642 0.539642 0.517853
0.736725 0.736725 0.701172
0.849182 0.849182 0.805756
0.883820 0.883820 0.837952
0.184052 0.184052 0.187134
0.205383 0.205383 0.207001
0.229919 0.229919 0.229797
0.251526 0.251526 0.249878
0.489227 0.489227 0.470978
0.713074 0.713074 0.679169
0.839752 0.839752 0.796967
0.901245 0.901245 0.854156
0.016266 0.016266 0.031097
0.027283 0.027283 0.041321
0.104980 0.104980 0.113586
0.240601 0.240601 0.239746
0.427094 0.427094 0.413177
0.608093 0.608093 0.581512
0.639557 0.639557 0.610748
0.651733 0.651733 0.622101
0.022095 0.022095 0.036499
0.031860 0.031860 0.045593
0.100800 0.100800 0.109711
0.234558 0.234558 0.234100
0.420380 0.420380 0.406921
0.611420 0.611420 0.584595
0.652161 0.652161 0.622528
0.664642 0.664642 0.634125
0.045776 0.045776 0.058533
0.056122 0.056122 0.068146
0.136932 0.136932 0.143311
0.294678 0.294678 0.290039
0.477020 0.477020 0.459625
0.647614 0.647614 0.618256
0.692444 0.692444 0.659973
0.697876 0.697876 0.665039
0.084991 0.084991 0.095032
0.097900 0.097900 0.106995
0.158752 0.158752 0.163605
0.349976 0.349976 0.341492
0.545013 0.545013 0.522827
0.706512 0.706512 0.673065
0.781677 0.781677 0.742981
0.783691 0.783691 0.744843
0.133514 0.133514 0.140106
0.146088 0.146088 0.151855
0.158569 0.158569 0.163452
0.365204 0.365204 0.355621
0.597198 0.597198 0.571411
0.752075 0.752075 0.715454
0.840363 0.840363 0.797546
0.844330 0.844330 0.801239
0.193481 0.193481 0.195923
0.214447 0.214447 0.215393
0.229095 0.229095 0.229034
0.370117 0.370117 0.360199
0.626373 0.626373 0.598511
0.792267 0.792267 0.752808
0.870209 0.870209 0.825287
0.888397 0.888397 0.842224
0.238129 0.238129 0.237427
0.261353 0.261353 0.259033
0.283997 0.283997 0.280121
0.344391 0.344391 0.336273
0.604340 0.604340 0.578064
0.799164 0.799164 0.759216
0.880920 0.880920 0.835266
0.912689 0.912689 0.864807
0.241486 0.241486 0.240540
0.268402 0.268402 0.265594
0.295135 0.295135 0.290466
0.317780 0.317780 0.311493
0.559937 0.559937 0.536713
0.781219 0.781219 0.742554
0.882812 0.882812 0.837036
0.927673 0.927673 0.878754
0.018127 0.018127 0.032837
0.028809 0.028809 0.042755
0.103699 0.103699 0.112396
0.242554 0.242554 0.241547
0.431030 0.431030 0.416870
0.619202 0.619202 0.591858
0.653687 0.653687 0.623932
0.666382 0.666382 0.635742
0.019897 0.019897 0.034485
0.029449 0.029449 0.043365
0.099609 0.099609 0.108612
0.238647 0.238647 0.237915
0.422180 0.422180 0.408600
0.619110 0.619110 0.591766
0.669647 0.669647 0.638733
0.685394 0.685394 0.653412
0.047180 0.047180 0.059814
0.057404 0.057404 0.069366
0.135742 0.135742 0.142212
0.297272 0.297272 0.292450
0.481598 0.481598 0.463898
0.656433 0.656433 0.626465
0.718384 0.718384 0.684082
0.722900 0.722900 0.688324
0.090607 0.090607 0.100189
0.104279 0.104279 0.112946
0.160095 0.160095 0.164856
0.361389 0.361389 0.352081
0.562836 0.562836 0.539429
0.728210 0.728210 0.693207
0.804993 0.804993 0.764648
0.812988 0.812988 0.772095
0.147858 0.147858 0.153473
0.162659 0.162659 0.167236
0.178284 0.178284 0.181793
0.390717 0.390717 0.379333
0.633179 0.633179 0.604828
0.783081 0.783081 0.744293
0.868744 0.868744 0.823944
0.870972 0.870972 0.825989
0.224823 0.224823 0.225067
0.247345 0.247345 0.246002
0.265778 0.265778 0.263153
0.414490 0.414490 0.401428
0.661591 0.661591 0.631256
0.821564 0.821564 0.780090
0.894653 0.894653 0.848053
0.907623 0.907623 0.860077
0.295929 0.295929 0.291199
0.317596 0.317596 0.311340
0.343445 0.343445 0.335358
0.398041 0.398041 0.386139
0.663116 0.663116 0.632721
0.830383 0.830383 0.788269
0.911469 0.911469 0.863647
0.933441 0.933441 0.884094
0.305420 0.305420 0.300018
0.333801 0.333801 0.326416
0.358124 0.358124 0.349030
0.381134 0.381134 0.370453
0.626160 0.626160 0.598328
0.820770 0.820770 0.779297
0.913422 0.913422 0.865479
0.946289 0.946289 0.896088
0.019318 0.019318 0.033936
0.029053 0.029053 0.042969
0.102966 0.102966 0.111725
0.245728 0.245728 0.244507
0.429504 0.429504 0.415405
0.619141 0.619141 0.591797
0.659393 0.659393 0.629242
0.673157 0.673157 0.642029
0.019684 0.019684 0.034271
0.029022 0.029022 0.042938
0.100433 0.100433 0.109375
0.239166 0.239166 0.238434
0.428070 0.428070 0.414093
0.620728 0.620728 0.593292
0.677155 0.677155 0.645752
0.691498 0.691498 0.659088
0.046570 0.046570 0.059265
0.058502 0.058502 0.070374
0.135559 0.135559 0.142029
0.296692 0.296692 0.291901
0.479034 0.479034 0.461487
0.657227 0.657227 0.627197
0.717621 0.717621 0.683380
0.724792 0.724792 0.690033
0.094543 0.094543 0.103882
0.105591 0.105591 0.114197
0.160767 0.160767 0.165497
0.362518 0.362518 0.353119
0.559784 0.559784 0.536591
0.725281 0.725281 0.690521
0.809540 0.809540 0.768890
0.815155 0.815155 0.774078
0.148956 0.148956 0.154480
0.166534 0.166534 0.170837
0.182281 0.182281 0.185486
0.388763 0.388763 0.377533
0.628387 0.628387 0.600403
0.782166 0.782166 0.743408
0.864868 0.864868 0.820343
0.873535 0.873535 0.828400
0.226440 0.226440 0.226562
0.248962 0.248962 0.247528
0.268097 0.268097 0.265320
0.411133 0.411133 0.398346
0.659912 0.659912 0.629730
0.825134 0.825134 0.783386
0.896881 0.896881 0.850098
0.915833 0.915833 0.867737
0.306061 0.306061 0.300598
0.330231 0.330231 0.323090
0.356995 0.356995 0.347992
0.404541 0.404541 0.392212
0.678986 0.678986 0.647461
0.844452 0.844452 0.801331
0.918701 0.918701 0.870422
0.941223 0.941223 0.891357
0.337860 0.337860 0.330200
0.367676 0.367676 0.357910
0.396912 0.396912 0.385132
0.422180 0.422180 0.408600
0.666046 0.666046 0.635406
0.848877 0.848877 0.805481
0.928345 0.928345 0.879364
0.954681 0.954681 0.903900
