滤镜资源/Professional Luts Collection/Triune-Digital-Cinematic-LUTs/3D LUTs (CUBE)/LOG/BW/Casino Royale 2 - LOG.cube
#Created by Benjamin (IWLTBAP) : http://luts.iwltbap.com
#Copyright: (C) Copyright 2016 Triune Films and IWLTBAP
TITLE "Blockbuster LUTs Pack (LOG)"
#LUT size
LUT_3D_SIZE 5
#LUT data points
DOMAIN_MIN 0.000000 0.000000 0.000000
DOMAIN_MAX 0.903226 0.903226 0.903226
0.004608 0.004608 0.020264
0.016144 0.016144 0.030945
0.144470 0.144470 0.150299
0.350494 0.350494 0.341919
0.382477 0.382477 0.371704
0.014496 0.014496 0.029449
0.035004 0.035004 0.048492
0.186493 0.186493 0.189423
0.427002 0.427002 0.413086
0.444275 0.444275 0.429138
0.032257 0.032257 0.045959
0.049744 0.049744 0.062225
0.266968 0.266968 0.264282
0.567902 0.567902 0.544128
0.646912 0.646912 0.617645
0.082794 0.082794 0.092987
0.109222 0.109222 0.117554
0.302917 0.302917 0.297699
0.662903 0.662903 0.632507
0.786926 0.786926 0.747864
0.122009 0.122009 0.129425
0.151215 0.151215 0.156586
0.271576 0.271576 0.268524
0.678619 0.678619 0.647125
0.868408 0.868408 0.823669
0.007690 0.007690 0.023132
0.037598 0.037598 0.050934
0.190430 0.190430 0.193054
0.407135 0.407135 0.394623
0.429077 0.429077 0.415009
0.017944 0.017944 0.032623
0.054504 0.054504 0.066650
0.225616 0.225616 0.225800
0.466125 0.466125 0.449463
0.471954 0.471954 0.454895
0.036957 0.036957 0.050354
0.056244 0.056244 0.068237
0.273438 0.273438 0.270294
0.582336 0.582336 0.557587
0.659851 0.659851 0.629639
0.091217 0.091217 0.100769
0.114777 0.114777 0.122711
0.317963 0.317963 0.311707
0.671997 0.671997 0.640930
0.799255 0.799255 0.759308
0.125977 0.125977 0.133087
0.158508 0.158508 0.163361
0.281982 0.281982 0.278229
0.689484 0.689484 0.657227
0.876587 0.876587 0.831238
0.012634 0.012634 0.027710
0.058960 0.058960 0.070801
0.277588 0.277588 0.274139
0.521301 0.521301 0.500793
0.549469 0.549469 0.526978
0.024078 0.024078 0.038361
0.080841 0.080841 0.091156
0.311707 0.311707 0.305878
0.573029 0.573029 0.548889
0.583038 0.583038 0.558197
0.081512 0.081512 0.091797
0.101929 0.101929 0.110748
0.403442 0.403442 0.391205
0.692719 0.692719 0.660248
0.762177 0.762177 0.724823
0.138397 0.138397 0.144684
0.160339 0.160339 0.165100
0.396240 0.396240 0.384460
0.736755 0.736755 0.701172
0.836823 0.836823 0.794250
0.160187 0.160187 0.164948
0.192993 0.192993 0.195465
0.322083 0.322083 0.315521
0.714935 0.714935 0.680878
0.884827 0.884827 0.838867
0.016113 0.016113 0.030945
0.082245 0.082245 0.092468
0.332642 0.332642 0.325348
0.639130 0.639130 0.610382
0.660431 0.660431 0.630188
0.038666 0.038666 0.051910
0.107422 0.107422 0.115845
0.375153 0.375153 0.364868
0.670654 0.670654 0.639709
0.682770 0.682770 0.650970
0.113861 0.113861 0.121887
0.135254 0.135254 0.141754
0.482208 0.482208 0.464447
0.770020 0.770020 0.732147
0.822845 0.822845 0.781250
0.219757 0.219757 0.220337
0.255035 0.255035 0.253143
0.511169 0.511169 0.491364
0.830048 0.830048 0.787964
0.900879 0.900879 0.853851
0.257050 0.257050 0.255035
0.305450 0.305450 0.300049
0.431824 0.431824 0.417572
0.828033 0.828033 0.786072
0.932465 0.932465 0.883209
0.019318 0.019318 0.033936
0.081573 0.081573 0.091827
0.335663 0.335663 0.328156
0.645020 0.645020 0.615845
0.673157 0.673157 0.642029
0.037598 0.037598 0.050934
0.102386 0.102386 0.111176
0.369904 0.369904 0.359985
0.667480 0.667480 0.636749
0.701263 0.701263 0.668182
0.119568 0.119568 0.127136
0.143890 0.143890 0.149780
0.494568 0.494568 0.475922
0.785400 0.785400 0.746429
0.844055 0.844055 0.800964
0.244171 0.244171 0.243073
0.289185 0.289185 0.284912
0.537903 0.537903 0.516235
0.854126 0.854126 0.810364
0.923065 0.923065 0.874451
0.337860 0.337860 0.330200
0.391266 0.391266 0.379852
0.517181 0.517181 0.496979
0.876251 0.876251 0.830933
0.954681 0.954681 0.903900
