滤镜资源/Professional Luts Collection/Triune-Digital-Cinematic-LUTs/3D LUTs (CUBE)/LOG/BW/Casino Royale 1 - LOG.cube
#Created by Benjamin (IWLTBAP) : http://luts.iwltbap.com
#Copyright: (C) Copyright 2016 Triune Films and IWLTBAP
TITLE "Blockbuster LUTs Pack (LOG)"
#LUT size
LUT_3D_SIZE 5
#LUT data points
DOMAIN_MIN 0.000000 0.000000 0.000000
DOMAIN_MAX 0.903226 0.903226 0.903226
0.000000 0.000000 0.000000
0.070099 0.068146 0.067291
0.345245 0.342896 0.334747
0.654846 0.653870 0.643341
0.693329 0.692535 0.681976
0.020874 0.019684 0.019806
0.038849 0.037262 0.037079
0.284088 0.281677 0.275085
0.651764 0.650787 0.640167
0.694000 0.693207 0.682678
0.104736 0.102539 0.100830
0.113495 0.111298 0.109314
0.197968 0.195526 0.191315
0.577728 0.576416 0.566132
0.697998 0.697205 0.686737
0.262817 0.260406 0.254364
0.267548 0.265106 0.259033
0.347107 0.344788 0.336548
0.474457 0.472443 0.461121
0.701965 0.701172 0.690704
0.373474 0.371185 0.362274
0.389252 0.386993 0.377716
0.444550 0.442444 0.431854
0.591156 0.589935 0.579529
0.706726 0.705994 0.695435
0.001068 0.000824 0.000946
0.004059 0.003540 0.003723
0.183716 0.181305 0.177429
0.529358 0.527863 0.516693
0.591980 0.590759 0.580322
0.026093 0.024750 0.024811
0.076752 0.074738 0.073761
0.349762 0.347443 0.339172
0.693298 0.692505 0.681976
0.723816 0.723114 0.712799
0.107605 0.105377 0.103607
0.129272 0.126953 0.124634
0.213745 0.211304 0.206635
0.596008 0.594818 0.584320
0.716248 0.715515 0.705109
0.263092 0.260651 0.254700
0.286591 0.284180 0.277557
0.366455 0.364166 0.355438
0.491577 0.489777 0.478241
0.720428 0.719696 0.709320
0.378357 0.376068 0.367065
0.411682 0.409485 0.399658
0.467316 0.465271 0.454132
0.610413 0.609253 0.598755
0.723724 0.723022 0.712677
0.003601 0.003113 0.003296
0.008118 0.007355 0.007568
0.017273 0.016144 0.016327
0.233948 0.231506 0.226288
0.294006 0.291595 0.284729
0.033142 0.031647 0.031586
0.084137 0.082062 0.080872
0.086212 0.084137 0.082855
0.382721 0.380463 0.371368
0.421509 0.419342 0.409302
0.135254 0.132904 0.130432
0.150726 0.148376 0.145477
0.386871 0.384613 0.375427
0.735840 0.735199 0.724915
0.831299 0.830963 0.822144
0.292877 0.290466 0.283661
0.314484 0.312073 0.304749
0.493439 0.491547 0.479950
0.593842 0.592651 0.582184
0.791046 0.790619 0.781036
0.400787 0.398560 0.389008
0.432251 0.430115 0.419830
0.532196 0.530609 0.519531
0.647247 0.646240 0.635651
0.740997 0.740356 0.730164
0.006592 0.005920 0.006134
0.011871 0.010925 0.011139
0.023865 0.022583 0.022675
0.040680 0.039093 0.038849
0.060455 0.058594 0.057983
0.039459 0.037842 0.037659
0.090210 0.088135 0.086761
0.092438 0.090332 0.088898
0.089142 0.087036 0.085693
0.114746 0.112518 0.110565
0.151886 0.149536 0.146576
0.167999 0.165619 0.162201
0.403503 0.401276 0.391602
0.405273 0.403046 0.393402
0.553131 0.551758 0.541382
0.333588 0.331207 0.323395
0.356903 0.354584 0.346161
0.527466 0.525909 0.514679
0.762115 0.761566 0.751587
0.920135 0.920044 0.914429
0.454163 0.452087 0.441284
0.489624 0.487823 0.476318
0.572052 0.570770 0.560394
0.816193 0.815826 0.806671
0.889435 0.889282 0.882294
0.007080 0.006378 0.006622
0.012695 0.011719 0.011932
0.024750 0.023438 0.023529
0.041809 0.040192 0.039948
0.043427 0.041748 0.041504
0.038483 0.036896 0.036743
0.084747 0.082703 0.081512
0.086060 0.083954 0.082733
0.081757 0.079712 0.078583
0.071960 0.070007 0.069092
0.150909 0.148529 0.145630
0.169830 0.167419 0.163971
0.396606 0.394379 0.384949
0.403503 0.401306 0.391693
0.383453 0.381195 0.372101
0.342468 0.340149 0.332092
0.367828 0.365540 0.356842
0.529968 0.528412 0.517456
0.766174 0.765625 0.755707
0.762268 0.761719 0.751740
0.494751 0.492798 0.481049
0.528564 0.526947 0.515594
0.600433 0.599274 0.588776
0.840698 0.840424 0.831848
0.988007 0.987976 0.986938
