滤镜资源/Professional Luts Collection/Triune-Digital-Cinematic-LUTs/3D LUTs (CUBE)/LOG/BW/Casino Royale 2 - LOG.cube
#Created by Benjamin (IWLTBAP) : http://luts.iwltbap.com
#Copyright: (C) Copyright 2016 Triune Films and IWLTBAP
TITLE "Blockbuster LUTs Pack (LOG)"
#LUT size
LUT_3D_SIZE 32
#LUT data points
0.004608 0.004608 0.020264
0.004425 0.004425 0.020081
0.004639 0.004639 0.020294
0.005310 0.005310 0.020905
0.007324 0.007324 0.022766
0.007812 0.007812 0.023224
0.009674 0.009674 0.024963
0.016144 0.016144 0.030945
0.026550 0.026550 0.040649
0.041748 0.041748 0.054779
0.055786 0.055786 0.067841
0.075653 0.075653 0.086304
0.094147 0.094147 0.103516
0.112946 0.112946 0.121002
0.144470 0.144470 0.150299
0.175079 0.175079 0.178772
0.210358 0.210358 0.211609
0.241150 0.241150 0.240265
0.278534 0.278534 0.274994
0.317749 0.317749 0.311493
0.339386 0.339386 0.331604
0.350494 0.350494 0.341919
0.355133 0.355133 0.346252
0.359802 0.359802 0.350586
0.364441 0.364441 0.354919
0.369110 0.369110 0.359253
0.373749 0.373749 0.363586
0.378113 0.378113 0.367645
0.382477 0.382477 0.371704
0.386810 0.386810 0.375732
0.391174 0.391174 0.379791
0.395508 0.395508 0.383820
0.004944 0.004944 0.020569
0.004669 0.004669 0.020325
0.004364 0.004364 0.020020
0.005981 0.005981 0.021515
0.006744 0.006744 0.022217
0.006989 0.006989 0.022461
0.011230 0.011230 0.026398
0.015625 0.015625 0.030487
0.025848 0.025848 0.039978
0.041443 0.041443 0.054474
0.055695 0.055695 0.067749
0.075500 0.075500 0.086182
0.094055 0.094055 0.103455
0.114227 0.114227 0.122192
0.143768 0.143768 0.149689
0.175049 0.175049 0.178772
0.209503 0.209503 0.210815
0.241669 0.241669 0.240753
0.279907 0.279907 0.276306
0.319702 0.319702 0.313293
0.341278 0.341278 0.333374
0.354279 0.354279 0.345459
0.358856 0.358856 0.349701
0.363525 0.363525 0.354034
0.368164 0.368164 0.358368
0.372833 0.372833 0.362701
0.377472 0.377472 0.367035
0.383575 0.383575 0.372711
0.387939 0.387939 0.376770
0.392273 0.392273 0.380798
0.396637 0.396637 0.384857
0.400970 0.400970 0.388916
0.006256 0.006256 0.021759
0.005890 0.005890 0.021423
0.004913 0.004913 0.020508
0.006897 0.006897 0.022369
0.006592 0.006592 0.022095
0.007874 0.007874 0.023254
0.011475 0.011475 0.026611
0.014771 0.014771 0.029694
0.025024 0.025024 0.039215
0.040863 0.040863 0.053955
0.054993 0.054993 0.067108
0.074432 0.074432 0.085175
0.093750 0.093750 0.103149
0.114563 0.114563 0.122498
0.142395 0.142395 0.148407
0.174774 0.174774 0.178497
0.209198 0.209198 0.210510
0.243286 0.243286 0.242218
0.281158 0.281158 0.277466
0.320312 0.320312 0.313873
0.343109 0.343109 0.335083
0.358093 0.358093 0.348999
0.362671 0.362671 0.353241
0.367249 0.367249 0.357513
0.371887 0.371887 0.361847
0.376556 0.376556 0.366180
0.381195 0.381195 0.370514
0.387299 0.387299 0.376190
0.393433 0.393433 0.381866
0.397766 0.397766 0.385925
0.402130 0.402130 0.389984
0.406494 0.406494 0.394012
0.007477 0.007477 0.022919
0.007812 0.007812 0.023224
0.008453 0.008453 0.023834
0.006775 0.006775 0.022247
0.008118 0.008118 0.023529
0.009796 0.009796 0.025055
0.011139 0.011139 0.026306
0.017181 0.017181 0.031921
0.027191 0.027191 0.041260
0.041962 0.041962 0.054962
0.053772 0.053772 0.065979
0.072174 0.072174 0.083069
0.091644 0.091644 0.101196
0.114899 0.114899 0.122833
0.139893 0.139893 0.146057
0.172272 0.172272 0.176208
0.206390 0.206390 0.207916
0.242035 0.242035 0.241089
0.277649 0.277649 0.274200
0.316986 0.316986 0.310760
0.345856 0.345856 0.337616
0.361877 0.361877 0.352539
0.366455 0.366455 0.356781
0.371033 0.371033 0.361053
0.375610 0.375610 0.365295
0.380280 0.380280 0.369629
0.384918 0.384918 0.373962
0.391022 0.391022 0.379639
0.397156 0.397156 0.385315
0.403229 0.403229 0.390991
0.407593 0.407593 0.395050
0.411957 0.411957 0.399078
0.008911 0.008911 0.024231
0.009094 0.009094 0.024445
0.009308 0.009308 0.024628
0.009552 0.009552 0.024872
0.009613 0.009613 0.024902
0.011993 0.011993 0.027100
0.014069 0.014069 0.029053
0.020508 0.020508 0.035034
0.032684 0.032684 0.046356
0.046173 0.046173 0.058899
0.063477 0.063477 0.074982
0.079041 0.079041 0.089478
0.096649 0.096649 0.105835
0.118958 0.118958 0.126617
0.144196 0.144196 0.150055
0.171295 0.171295 0.175262
0.204315 0.204315 0.205963
0.237579 0.237579 0.236938
0.273163 0.273163 0.269989
0.313324 0.313324 0.307373
0.346313 0.346313 0.338043
0.365692 0.365692 0.356079
0.370270 0.370270 0.360321
0.374847 0.374847 0.364594
0.379425 0.379425 0.368835
0.384003 0.384003 0.373077
0.388641 0.388641 0.377411
0.394745 0.394745 0.383087
0.400879 0.400879 0.388794
0.406982 0.406982 0.394470
0.413116 0.413116 0.400146
0.417450 0.417450 0.404205
0.010254 0.010254 0.025482
0.010223 0.010223 0.025482
0.010376 0.010376 0.025604
0.010712 0.010712 0.025940
0.012329 0.012329 0.027405
0.011841 0.011841 0.026978
0.017029 0.017029 0.031830
0.026337 0.026337 0.040436
0.038696 0.038696 0.051971
0.053864 0.053864 0.066071
0.068298 0.068298 0.079468
0.090485 0.090485 0.100128
0.109192 0.109192 0.117523
0.132355 0.132355 0.139038
0.158386 0.158386 0.163300
0.185364 0.185364 0.188385
0.217682 0.217682 0.218414
0.253418 0.253418 0.251648
0.287140 0.287140 0.283020
0.317444 0.317444 0.311188
0.351929 0.351929 0.343292
0.371185 0.371185 0.361206
0.374054 0.374054 0.363861
0.378632 0.378632 0.368134
0.383209 0.383209 0.372375
0.387787 0.387787 0.376617
0.392365 0.392365 0.380859
0.398468 0.398468 0.386536
0.404602 0.404602 0.392242
0.410706 0.410706 0.397919
0.416809 0.416809 0.403595
0.422913 0.422913 0.409271
0.011871 0.011871 0.026978
0.012085 0.012085 0.027161
0.011902 0.011902 0.027039
0.011475 0.011475 0.026642
0.012390 0.012390 0.027496
0.015747 0.015747 0.030579
0.019653 0.019653 0.034210
0.029327 0.029327 0.043213
0.044128 0.044128 0.057007
0.058594 0.058594 0.070435
0.075226 0.075226 0.085907
0.094299 0.094299 0.103638
0.119324 0.119324 0.126953
0.143707 0.143707 0.149628
0.172791 0.172791 0.176666
0.203949 0.203949 0.205627
0.235687 0.235687 0.235168
0.272430 0.272430 0.269348
0.303589 0.303589 0.298340
0.337921 0.337921 0.330261
0.371460 0.371460 0.361450
0.401825 0.401825 0.389679
0.403381 0.403381 0.391144
0.403137 0.403137 0.390900
0.404541 0.404541 0.392212
0.407379 0.407379 0.394836
0.410065 0.410065 0.397339
0.411407 0.411407 0.398590
0.413025 0.413025 0.400085
0.417542 0.417542 0.404297
0.423553 0.423553 0.409851
0.429535 0.429535 0.415436
0.014496 0.014496 0.029449
0.014038 0.014038 0.028992
0.013611 0.013611 0.028595
0.014130 0.014130 0.029083
0.015533 0.015533 0.030426
0.015472 0.015472 0.030365
0.022278 0.022278 0.036682
0.035004 0.035004 0.048492
0.049377 0.049377 0.061890
0.065308 0.065308 0.076721
0.084656 0.084656 0.094666
0.107239 0.107239 0.115692
0.127167 0.127167 0.134247
0.154022 0.154022 0.159210
0.186493 0.186493 0.189423
0.219543 0.219543 0.220123
0.254181 0.254181 0.252350
0.285309 0.285309 0.281342
0.326782 0.326782 0.319855
0.362640 0.362640 0.353241
0.397400 0.397400 0.385559
0.427002 0.427002 0.413086
0.433868 0.433868 0.419464
0.434387 0.434387 0.419952
0.434784 0.434784 0.420319
0.437042 0.437042 0.422455
0.440369 0.440369 0.425507
0.442413 0.442413 0.427429
0.444275 0.444275 0.429138
0.446075 0.446075 0.430817
0.449463 0.449463 0.433990
0.452942 0.452942 0.437195
0.015442 0.015442 0.030334
0.016174 0.016174 0.031006
0.016907 0.016907 0.031677
0.016998 0.016998 0.031769
0.016113 0.016113 0.030945
0.018585 0.018585 0.033234
0.025391 0.025391 0.039581
0.036987 0.036987 0.050354
0.053711 0.053711 0.065918
0.071350 0.071350 0.082306
0.088928 0.088928 0.098663
0.113098 0.113098 0.121155
0.139771 0.139771 0.145966
0.168427 0.168427 0.172607
0.199097 0.199097 0.201111
0.234222 0.234222 0.233826
0.267914 0.267914 0.265137
0.308319 0.308319 0.302704
0.345245 0.345245 0.337067
0.378998 0.378998 0.368469
0.421600 0.421600 0.408081
0.452454 0.452454 0.436768
0.462799 0.462799 0.446381
0.464142 0.464142 0.447662
0.462555 0.462555 0.446167
0.464386 0.464386 0.447876
0.466309 0.466309 0.449646
0.469025 0.469025 0.452179
0.472473 0.472473 0.455383
0.475952 0.475952 0.458588
0.480743 0.480743 0.463074
0.484558 0.484558 0.466583
0.016541 0.016541 0.031342
0.016815 0.016815 0.031586
0.017059 0.017059 0.031860
0.017273 0.017273 0.032043
0.017822 0.017822 0.032562
0.018738 0.018738 0.033386
0.026031 0.026031 0.040161
0.039246 0.039246 0.052460
0.058716 0.058716 0.070587
0.077942 0.077942 0.088440
0.098450 0.098450 0.107513
0.119049 0.119049 0.126678
0.146637 0.146637 0.152344
0.179901 0.179901 0.183258
0.214600 0.214600 0.215546
0.250275 0.250275 0.248718
0.287689 0.287689 0.283539
0.320801 0.320801 0.314301
0.363251 0.363251 0.353790
0.400024 0.400024 0.388000
0.443054 0.443054 0.428009
0.478699 0.478699 0.461182
0.495758 0.495758 0.476990
0.493317 0.493317 0.474762
0.491486 0.491486 0.473083
0.496155 0.496155 0.477386
0.500916 0.500916 0.481842
0.504303 0.504303 0.485016
0.506439 0.506439 0.486969
0.508057 0.508057 0.488464
0.511200 0.511200 0.491394
0.514435 0.514435 0.494385
0.018341 0.018341 0.033020
0.018280 0.018280 0.032990
0.018494 0.018494 0.033173
0.018677 0.018677 0.033325
0.018799 0.018799 0.033447
0.020142 0.020142 0.034698
0.027161 0.027161 0.041229
0.042023 0.042023 0.055054
0.060791 0.060791 0.072479
0.079773 0.079773 0.090149
0.106018 0.106018 0.114563
0.130005 0.130005 0.136902
0.156677 0.156677 0.161682
0.190613 0.190613 0.193237
0.225922 0.225922 0.226105
0.260437 0.260437 0.258209
0.302673 0.302673 0.297455
0.339905 0.339905 0.332062
0.376526 0.376526 0.366180
0.419067 0.419067 0.405731
0.460022 0.460022 0.443817
0.498505 0.498505 0.479614
0.526947 0.526947 0.506073
0.526398 0.526398 0.505554
0.525421 0.525421 0.504639
0.526184 0.526184 0.505310
0.527008 0.527008 0.506104
0.529449 0.529449 0.508362
0.532196 0.532196 0.510925
0.534790 0.534790 0.513336
0.539185 0.539185 0.517426
0.543732 0.543732 0.521667
0.022400 0.022400 0.036774
0.021881 0.021881 0.036316
0.021454 0.021454 0.035889
0.021088 0.021088 0.035553
0.020691 0.020691 0.035156
0.020203 0.020203 0.034729
0.030151 0.030151 0.044006
0.044464 0.044464 0.057312
0.064606 0.064606 0.076050
0.086884 0.086884 0.096771
0.110199 0.110199 0.118439
0.134613 0.134613 0.141144
0.164368 0.164368 0.168823
0.202454 0.202454 0.204224
0.234711 0.234711 0.234253
0.272125 0.272125 0.269043
0.311249 0.311249 0.305450
0.350769 0.350769 0.342194
0.390533 0.390533 0.379181
0.438385 0.438385 0.423676
0.477661 0.477661 0.460236
0.514771 0.514771 0.494751
0.547791 0.547791 0.525421
0.553467 0.553467 0.530701
0.553558 0.553558 0.530792
0.555237 0.555237 0.532349
0.558350 0.558350 0.535248
0.560760 0.560760 0.537476
0.563019 0.563019 0.539581
0.565399 0.565399 0.541809
0.569641 0.569641 0.545746
0.574280 0.574280 0.550049
0.024384 0.024384 0.038605
0.025146 0.025146 0.039337
0.025909 0.025909 0.040039
0.026276 0.026276 0.040375
0.025513 0.025513 0.039673
0.024689 0.024689 0.038910
0.029999 0.029999 0.043854
0.048309 0.048309 0.060883
0.066315 0.066315 0.077606
0.088562 0.088562 0.098328
0.112030 0.112030 0.120148
0.141907 0.141907 0.147949
0.173706 0.173706 0.177521
0.210297 0.210297 0.211548
0.246155 0.246155 0.244873
0.280670 0.280670 0.276978
0.326233 0.326233 0.319366
0.362274 0.362274 0.352905
0.408508 0.408508 0.395905
0.452332 0.452332 0.436646
0.491882 0.491882 0.473419
0.533356 0.533356 0.511993
0.571289 0.571289 0.547272
0.581421 0.581421 0.556702
0.584442 0.584442 0.559540
0.587555 0.587555 0.562408
0.591492 0.591492 0.566071
0.594513 0.594513 0.568878
0.596771 0.596771 0.570984
0.599060 0.599060 0.573120
0.602753 0.602753 0.576538
0.606537 0.606537 0.580078
0.026764 0.026764 0.040863
0.027924 0.027924 0.041931
0.029083 0.029083 0.042999
0.030182 0.030182 0.044037
0.031189 0.031189 0.044952
0.031433 0.031433 0.045197
0.033600 0.033600 0.047180
0.048920 0.048920 0.061432
0.073151 0.073151 0.083984
0.091339 0.091339 0.100891
0.119537 0.119537 0.127167
0.149323 0.149323 0.154846
0.181274 0.181274 0.184540
0.217712 0.217712 0.218445
0.255127 0.255127 0.253265
0.296265 0.296265 0.291504
0.336212 0.336212 0.328674
0.372925 0.372925 0.362793
0.419830 0.419830 0.406433
0.463440 0.463440 0.446991
0.512146 0.512146 0.492249
0.551178 0.551178 0.528564
0.592041 0.592041 0.566589
0.606018 0.606018 0.579590
0.611176 0.611176 0.584412
0.612762 0.612762 0.585876
0.616150 0.616150 0.589020
0.618042 0.618042 0.590759
0.619781 0.619781 0.592377
0.622772 0.622772 0.595154
0.627045 0.627045 0.599152
0.631378 0.631378 0.603180
0.032257 0.032257 0.045959
0.033966 0.033966 0.047546
0.034637 0.034637 0.048157
0.034790 0.034790 0.048309
0.034912 0.034912 0.048431
0.034821 0.034821 0.048340
0.037415 0.037415 0.050751
0.049744 0.049744 0.062225
0.074615 0.074615 0.085358
0.097961 0.097961 0.107056
0.120819 0.120819 0.128326
0.152740 0.152740 0.157990
0.183136 0.183136 0.186279
0.224426 0.224426 0.224670
0.266968 0.266968 0.264282
0.303986 0.303986 0.298676
0.346588 0.346588 0.338318
0.386353 0.386353 0.375305
0.429626 0.429626 0.415527
0.479462 0.479462 0.461884
0.523834 0.523834 0.503143
0.567902 0.567902 0.544128
0.612244 0.612244 0.585388
0.634247 0.634247 0.605835
0.640228 0.640228 0.611420
0.641815 0.641815 0.612885
0.644379 0.644379 0.615265
0.645630 0.645630 0.616425
0.646912 0.646912 0.617645
0.648193 0.648193 0.618835
0.651215 0.651215 0.621643
0.654541 0.654541 0.624725
0.034515 0.034515 0.048065
0.037140 0.037140 0.050507
0.039795 0.039795 0.052979
0.041992 0.041992 0.054993
0.043457 0.043457 0.056366
0.044769 0.044769 0.057587
0.047760 0.047760 0.060364
0.049591 0.049591 0.062073
0.074738 0.074738 0.085449
0.098816 0.098816 0.107849
0.124512 0.124512 0.131775
0.155853 0.155853 0.160919
0.193298 0.193298 0.195740
0.228821 0.228821 0.228790
0.273499 0.273499 0.270355
0.320587 0.320587 0.314087
0.361816 0.361816 0.352448
0.403015 0.403015 0.390808
0.448456 0.448456 0.433044
0.496613 0.496613 0.477814
0.536621 0.536621 0.515045
0.585724 0.585724 0.560730
0.624634 0.624634 0.596893
0.653076 0.653076 0.623383
0.664703 0.664703 0.634186
0.664795 0.664795 0.634247
0.666626 0.666626 0.635956
0.668884 0.668884 0.638062
0.672272 0.672272 0.641205
0.675690 0.675690 0.644379
0.680145 0.680145 0.648529
0.684662 0.684662 0.652710
0.043701 0.043701 0.056641
0.045502 0.045502 0.058289
0.047272 0.047272 0.059906
0.048889 0.048889 0.061432
0.050476 0.050476 0.062897
0.052582 0.052582 0.064880
0.054626 0.054626 0.066742
0.056549 0.056549 0.068573
0.077393 0.077393 0.087921
0.102814 0.102814 0.111572
0.125702 0.125702 0.132874
0.162476 0.162476 0.167023
0.195190 0.195190 0.197479
0.236755 0.236755 0.236145
0.281982 0.281982 0.278198
0.326538 0.326538 0.319641
0.370605 0.370605 0.360657
0.419128 0.419128 0.405762
0.459808 0.459808 0.443634
0.509247 0.509247 0.489563
0.556030 0.556030 0.533112
0.596069 0.596069 0.570343
0.636658 0.636658 0.608093
0.669250 0.669250 0.638428
0.686920 0.686920 0.654846
0.689362 0.689362 0.657104
0.691437 0.691437 0.659027
0.693939 0.693939 0.661377
0.696503 0.696503 0.663757
0.698761 0.698761 0.665863
0.702332 0.702332 0.669159
0.705963 0.705963 0.672546
0.050201 0.050201 0.062653
0.052338 0.052338 0.064667
0.055145 0.055145 0.067261
0.058472 0.058472 0.070343
0.061768 0.061768 0.073395
0.064972 0.064972 0.076385
0.067444 0.067444 0.078705
0.069244 0.069244 0.080353
0.077240 0.077240 0.087769
0.101837 0.101837 0.110687
0.133148 0.133148 0.139801
0.161499 0.161499 0.166168
0.195831 0.195831 0.198090
0.242157 0.242157 0.241150
0.289398 0.289398 0.285126
0.334625 0.334625 0.327148
0.386475 0.386475 0.375397
0.431549 0.431549 0.417328
0.478333 0.478333 0.460846
0.520935 0.520935 0.500458
0.564880 0.564880 0.541321
0.614166 0.614166 0.587158
0.651703 0.651703 0.622070
0.683777 0.683777 0.651917
0.704834 0.704834 0.671509
0.707733 0.707733 0.674194
0.710144 0.710144 0.676422
0.712341 0.712341 0.678467
0.714539 0.714539 0.680511
0.716827 0.716827 0.682648
0.719971 0.719971 0.685547
0.723785 0.723785 0.689117
0.059692 0.059692 0.071472
0.062683 0.062683 0.074280
0.065674 0.065674 0.077057
0.068604 0.068604 0.079773
0.070526 0.070526 0.081573
0.072052 0.072052 0.082977
0.074219 0.074219 0.084991
0.076508 0.076508 0.087158
0.079132 0.079132 0.089569
0.105164 0.105164 0.113800
0.129028 0.129028 0.135956
0.162445 0.162445 0.167053
0.200836 0.200836 0.202759
0.243073 0.243073 0.242035
0.295776 0.295776 0.291077
0.342834 0.342834 0.334808
0.390106 0.390106 0.378784
0.441620 0.441620 0.426666
0.488464 0.488464 0.470276
0.538330 0.538330 0.516632
0.581299 0.581299 0.556610
0.623260 0.623260 0.595612
0.662964 0.662964 0.632538
0.696350 0.696350 0.663605
0.724365 0.724365 0.689636
0.730377 0.730377 0.695221
0.731354 0.731354 0.696136
0.732605 0.732605 0.697327
0.734497 0.734497 0.699066
0.738129 0.738129 0.702484
0.742584 0.742584 0.706604
0.747040 0.747040 0.710754
0.069672 0.069672 0.080780
0.072601 0.072601 0.083496
0.075897 0.075897 0.086548
0.079132 0.079132 0.089569
0.082062 0.082062 0.092285
0.084717 0.084717 0.094757
0.086853 0.086853 0.096741
0.088898 0.088898 0.098663
0.090881 0.090881 0.100494
0.103729 0.103729 0.112427
0.133240 0.133240 0.139862
0.165222 0.165222 0.169647
0.202881 0.202881 0.204651
0.251617 0.251617 0.250000
0.298279 0.298279 0.293365
0.347870 0.347870 0.339478
0.402161 0.402161 0.389984
0.454163 0.454163 0.438354
0.504150 0.504150 0.484863
0.549530 0.549530 0.527069
0.599457 0.599457 0.573486
0.638458 0.638458 0.609772
0.675171 0.675171 0.643921
0.707947 0.707947 0.674377
0.735779 0.735779 0.700287
0.750458 0.750458 0.713898
0.753357 0.753357 0.716614
0.755280 0.755280 0.718384
0.757263 0.757263 0.720215
0.759125 0.759125 0.721954
0.761871 0.761871 0.724518
0.764618 0.764618 0.727081
0.076569 0.076569 0.087189
0.080261 0.080261 0.090607
0.083923 0.083923 0.093994
0.086395 0.086395 0.096313
0.088593 0.088593 0.098358
0.090546 0.090546 0.100159
0.092377 0.092377 0.101837
0.096588 0.096588 0.105774
0.100830 0.100830 0.109711
0.107910 0.107910 0.116302
0.133423 0.133423 0.140076
0.165619 0.165619 0.170013
0.207031 0.207031 0.208527
0.253662 0.253662 0.251892
0.302277 0.302277 0.297089
0.351624 0.351624 0.343018
0.404205 0.404205 0.391907
0.456726 0.456726 0.440704
0.514832 0.514832 0.494781
0.559509 0.559509 0.536346
0.609100 0.609100 0.582458
0.653168 0.653168 0.623444
0.686737 0.686737 0.654663
0.716675 0.716675 0.682495
0.750427 0.750427 0.713898
0.766327 0.766327 0.728668
0.768494 0.768494 0.730713
0.771881 0.771881 0.733856
0.773590 0.773590 0.735443
0.775085 0.775085 0.736847
0.777679 0.777679 0.739258
0.780365 0.780365 0.741730
0.082794 0.082794 0.092987
0.087189 0.087189 0.097076
0.091614 0.091614 0.101166
0.095947 0.095947 0.105194
0.100220 0.100220 0.109161
0.103607 0.103607 0.112335
0.106506 0.106506 0.114990
0.109222 0.109222 0.117554
0.111145 0.111145 0.119324
0.112640 0.112640 0.120697
0.131378 0.131378 0.138123
0.165222 0.165222 0.169617
0.209320 0.209320 0.210632
0.256683 0.256683 0.254669
0.302917 0.302917 0.297699
0.357056 0.357056 0.348053
0.407776 0.407776 0.395203
0.465057 0.465057 0.448486
0.514282 0.514282 0.494293
0.571930 0.571930 0.547913
0.616089 0.616089 0.588959
0.662903 0.662903 0.632507
0.700470 0.700470 0.667450
0.727814 0.727814 0.692871
0.759003 0.759003 0.721863
0.780121 0.780121 0.741516
0.783539 0.783539 0.744690
0.785187 0.785187 0.746216
0.786926 0.786926 0.747864
0.789337 0.789337 0.750122
0.793427 0.793427 0.753906
0.797516 0.797516 0.757721
0.093201 0.093201 0.102631
0.097565 0.097565 0.106689
0.101532 0.101532 0.110413
0.104858 0.104858 0.113495
0.108215 0.108215 0.116608
0.111450 0.111450 0.119568
0.114594 0.114594 0.122528
0.118469 0.118469 0.126129
0.122070 0.122070 0.129486
0.125336 0.125336 0.132538
0.127808 0.127808 0.134827
0.167084 0.167084 0.171356
0.210022 0.210022 0.211304
0.258118 0.258118 0.256012
0.309662 0.309662 0.303955
0.358704 0.358704 0.349579
0.415039 0.415039 0.401947
0.468475 0.468475 0.451660
0.520386 0.520386 0.499969
0.578156 0.578156 0.553680
0.629730 0.629730 0.601654
0.671631 0.671631 0.640594
0.707214 0.707214 0.673706
0.741089 0.741089 0.705200
0.770569 0.770569 0.732635
0.791840 0.791840 0.752411
0.800629 0.800629 0.760590
0.804016 0.804016 0.763733
0.806213 0.806213 0.765808
0.808228 0.808228 0.767670
0.811157 0.811157 0.770416
0.814026 0.814026 0.773071
0.099792 0.099792 0.108765
0.103363 0.103363 0.112091
0.106934 0.106934 0.115417
0.110443 0.110443 0.118683
0.114502 0.114502 0.122467
0.118835 0.118835 0.126495
0.122589 0.122589 0.129974
0.126282 0.126282 0.133423
0.128143 0.128143 0.135132
0.129974 0.129974 0.136841
0.131744 0.131744 0.138489
0.162872 0.162872 0.167450
0.205780 0.205780 0.207336
0.259735 0.259735 0.257538
0.308929 0.308929 0.303314
0.362946 0.362946 0.353516
0.416626 0.416626 0.403442
0.472443 0.472443 0.455383
0.530365 0.530365 0.509247
0.584015 0.584015 0.559143
0.631256 0.631256 0.603027
0.677979 0.677979 0.646515
0.719330 0.719330 0.684998
0.755249 0.755249 0.718353
0.777039 0.777039 0.738647
0.802216 0.802216 0.762054
0.811279 0.811279 0.770477
0.814575 0.814575 0.773560
0.816528 0.816528 0.775360
0.819550 0.819550 0.778168
0.823273 0.823273 0.781616
0.826996 0.826996 0.785095
0.112427 0.112427 0.120514
0.115997 0.115997 0.123840
0.119446 0.119446 0.127075
0.122711 0.122711 0.130096
0.126007 0.126007 0.133148
0.129242 0.129242 0.136169
0.133026 0.133026 0.139709
0.136597 0.136597 0.143036
0.140137 0.140137 0.146301
0.143127 0.143127 0.149078
0.145630 0.145630 0.151398
0.157379 0.157379 0.162323
0.205566 0.205566 0.207153
0.255951 0.255951 0.253998
0.308716 0.308716 0.303070
0.365448 0.365448 0.355865
0.415741 0.415741 0.402618
0.469635 0.469635 0.452759
0.531281 0.531281 0.510101
0.584290 0.584290 0.559387
0.642303 0.642303 0.613342
0.684753 0.684753 0.652802
0.723511 0.723511 0.688873
0.760590 0.760590 0.723358
0.789642 0.789642 0.750366
0.812622 0.812622 0.771729
0.823914 0.823914 0.782257
0.829987 0.829987 0.787933
0.831696 0.831696 0.789490
0.833313 0.833313 0.790985
0.835785 0.835785 0.793274
0.838379 0.838379 0.795715
0.117310 0.117310 0.125092
0.121277 0.121277 0.128754
0.125275 0.125275 0.132477
0.129242 0.129242 0.136169
0.133209 0.133209 0.139862
0.137024 0.137024 0.143402
0.140472 0.140472 0.146606
0.143677 0.143677 0.149597
0.146912 0.146912 0.152588
0.150421 0.150421 0.155853
0.154633 0.154633 0.159790
0.159943 0.159943 0.164703
0.196991 0.196991 0.199158
0.249847 0.249847 0.248322
0.305450 0.305450 0.300049
0.364410 0.364410 0.354858
0.418304 0.418304 0.404999
0.471466 0.471466 0.454437
0.527893 0.527893 0.506927
0.589722 0.589722 0.564453
0.639679 0.639679 0.610901
0.687012 0.687012 0.654938
0.727295 0.727295 0.692383
0.760468 0.760468 0.723236
0.795197 0.795197 0.755524
0.821136 0.821136 0.779633
0.834808 0.834808 0.792358
0.843048 0.843048 0.800018
0.844513 0.844513 0.801392
0.847137 0.847137 0.803833
0.850342 0.850342 0.806824
0.853577 0.853577 0.809845
0.119324 0.119324 0.126953
0.123291 0.123291 0.130646
0.127289 0.127289 0.134369
0.131256 0.131256 0.138062
0.135254 0.135254 0.141754
0.139221 0.139221 0.145447
0.142670 0.142670 0.148651
0.146149 0.146149 0.151886
0.149597 0.149597 0.155090
0.153046 0.153046 0.158295
0.156464 0.156464 0.161469
0.161926 0.161926 0.166565
0.185883 0.185883 0.188843
0.235352 0.235352 0.234833
0.291168 0.291168 0.286774
0.350098 0.350098 0.341583
0.406403 0.406403 0.393921
0.461487 0.461487 0.445160
0.523376 0.523376 0.502716
0.579895 0.579895 0.555298
0.636200 0.636200 0.607635
0.687469 0.687469 0.655334
0.724884 0.724884 0.690155
0.765442 0.765442 0.727875
0.799713 0.799713 0.759735
0.823486 0.823486 0.781830
0.839905 0.839905 0.797119
0.853699 0.853699 0.809937
0.856110 0.856110 0.812164
0.858459 0.858459 0.814362
0.861084 0.861084 0.816833
0.863464 0.863464 0.819031
0.120667 0.120667 0.128204
0.124207 0.124207 0.131470
0.128174 0.128174 0.135193
0.132141 0.132141 0.138885
0.136139 0.136139 0.142578
0.140106 0.140106 0.146271
0.145203 0.145203 0.151001
0.148682 0.148682 0.154236
0.152130 0.152130 0.157440
0.155609 0.155609 0.160675
0.159058 0.159058 0.163879
0.163361 0.163361 0.167877
0.181122 0.181122 0.184387
0.224915 0.224915 0.225128
0.280670 0.280670 0.277008
0.335327 0.335327 0.327820
0.397461 0.397461 0.385620
