滤镜资源/Professional Luts Collection/Triune-Digital-Cinematic-LUTs/3D LUTs (CUBE)/LOG/BW/Casino Royale 1 - LOG.cube
#Created by Benjamin (IWLTBAP) : http://luts.iwltbap.com
#Copyright: (C) Copyright 2016 Triune Films and IWLTBAP
TITLE "Blockbuster LUTs Pack (LOG)"
#LUT size
LUT_3D_SIZE 32
#LUT data points
0.000000 0.000000 0.000000
0.000519 0.000458 0.000488
0.003204 0.002777 0.002930
0.009186 0.008392 0.008575
0.017975 0.016846 0.016998
0.030701 0.029266 0.029266
0.048248 0.046509 0.046143
0.070099 0.068146 0.067291
0.095642 0.093506 0.092010
0.126953 0.124664 0.122345
0.161285 0.158905 0.155731
0.202972 0.200531 0.196167
0.246124 0.243652 0.238129
0.294952 0.292511 0.285675
0.345245 0.342896 0.334747
0.400116 0.397888 0.388336
0.454590 0.452515 0.441650
0.513458 0.511963 0.500000
0.566132 0.564789 0.554413
0.616089 0.614960 0.604401
0.643158 0.642151 0.631561
0.654846 0.653870 0.643341
0.660309 0.659363 0.648834
0.665833 0.664886 0.654358
0.671295 0.670410 0.659851
0.676788 0.675934 0.665375
0.682281 0.681427 0.670868
0.687805 0.686951 0.676422
0.693329 0.692535 0.681976
0.698853 0.698059 0.687531
0.704376 0.703613 0.693085
0.709900 0.709167 0.698639
0.000183 0.000153 0.000183
0.000366 0.000305 0.000336
0.002228 0.001892 0.002014
0.007721 0.006989 0.007202
0.016296 0.015228 0.015411
0.028198 0.026794 0.026855
0.044922 0.043243 0.042969
0.066620 0.064697 0.063904
0.091827 0.089722 0.088348
0.122498 0.120239 0.118042
0.156647 0.154266 0.151215
0.197418 0.194977 0.190765
0.241425 0.238953 0.233551
0.289764 0.287354 0.280640
0.339600 0.337219 0.329224
0.394073 0.391846 0.382446
0.448090 0.445953 0.435333
0.508026 0.506470 0.494385
0.561218 0.559845 0.549500
0.611481 0.610321 0.599792
0.641479 0.640442 0.629852
0.655151 0.654175 0.643616
0.660522 0.659576 0.649048
0.666046 0.665100 0.654572
0.671509 0.670624 0.660065
0.677002 0.676147 0.665588
0.682495 0.681641 0.671082
0.687408 0.686584 0.676056
0.692932 0.692139 0.681610
0.698456 0.697662 0.687164
0.704010 0.703247 0.692719
0.709503 0.708771 0.698273
0.000977 0.000763 0.000885
0.001068 0.000854 0.000977
0.001587 0.001312 0.001434
0.006256 0.005615 0.005829
0.014435 0.013428 0.013611
0.026184 0.024841 0.024902
0.041962 0.040314 0.040100
0.063202 0.061310 0.060608
0.087982 0.085907 0.084625
0.117798 0.115540 0.113495
0.151855 0.149475 0.146545
0.191467 0.189026 0.185028
0.236176 0.233734 0.228485
0.283234 0.280792 0.274261
0.333435 0.331055 0.323212
0.387634 0.385406 0.376160
0.441589 0.439453 0.428986
0.502075 0.500397 0.488434
0.555939 0.554596 0.544250
0.606598 0.605438 0.594879
0.639557 0.638550 0.627930
0.655457 0.654480 0.643921
0.660828 0.659882 0.649353
0.666260 0.665344 0.654785
0.671722 0.670837 0.660278
0.677216 0.676361 0.665802
0.682709 0.681854 0.671295
0.687622 0.686798 0.676270
0.692566 0.691742 0.681244
0.698059 0.697266 0.686798
0.703613 0.702850 0.692383
0.709137 0.708374 0.697906
0.002716 0.002319 0.002472
0.002869 0.002472 0.002625
0.003326 0.002869 0.003052
0.004700 0.004150 0.004333
0.011963 0.011047 0.011261
0.023682 0.022400 0.022461
0.038513 0.036957 0.036774
0.058319 0.056488 0.055908
0.083160 0.081116 0.079926
0.111481 0.109253 0.107361
0.145844 0.143494 0.140717
0.183258 0.180817 0.177063
0.228363 0.225922 0.220856
0.273560 0.271088 0.264862
0.324066 0.321686 0.314117
0.378296 0.376007 0.367004
0.432648 0.430511 0.420227
0.492188 0.490387 0.478638
0.547302 0.545898 0.535614
0.599091 0.597900 0.587372
0.636444 0.635376 0.624817
0.655762 0.654785 0.644226
0.661133 0.660187 0.649628
0.666565 0.665649 0.655060
0.671936 0.671051 0.660492
0.677429 0.676575 0.666016
0.682922 0.682068 0.671509
0.687836 0.687012 0.676483
0.692780 0.691956 0.681458
0.697693 0.696899 0.686432
0.703217 0.702454 0.692017
0.708740 0.707977 0.697540
0.005524 0.004883 0.005096
0.005707 0.005066 0.005280
0.005890 0.005249 0.005463
0.007355 0.006622 0.006836
0.009674 0.008820 0.009064
0.019806 0.018616 0.018768
0.034912 0.033417 0.033295
0.053284 0.051483 0.050995
0.077698 0.075684 0.074615
0.105255 0.103058 0.101349
0.138977 0.136658 0.134033
0.176758 0.174347 0.170685
0.220062 0.217621 0.212769
0.266388 0.263947 0.257843
0.314209 0.311798 0.304474
0.368683 0.366364 0.357605
0.423462 0.421295 0.411194
0.481445 0.479492 0.468048
0.538422 0.536957 0.526550
0.590790 0.589569 0.579071
0.629974 0.628937 0.618378
0.656067 0.655090 0.644501
0.661438 0.660492 0.649933
0.666870 0.665955 0.655365
0.672241 0.671356 0.660797
0.677643 0.676788 0.666229
0.683136 0.682312 0.671722
0.688049 0.687225 0.676697
0.692993 0.692169 0.681671
0.697906 0.697113 0.686646
0.702850 0.702057 0.691650
0.708344 0.707611 0.697205
0.009155 0.008331 0.008575
0.009521 0.008667 0.008911
0.009735 0.008911 0.009125
0.010773 0.009888 0.010101
0.013702 0.012695 0.012909
0.016907 0.015808 0.015991
0.030579 0.029175 0.029144
0.048279 0.046539 0.046204
0.071381 0.069427 0.068542
0.098969 0.096802 0.095215
0.130585 0.128265 0.125885
0.167358 0.164948 0.161621
0.210114 0.207642 0.203094
0.256531 0.254120 0.248260
0.306519 0.304108 0.296936
0.356354 0.354034 0.345642
0.412903 0.410706 0.400848
0.470093 0.468018 0.456848
0.527557 0.526062 0.514954
0.580780 0.579559 0.569061
0.624847 0.623749 0.613220
0.656342 0.655365 0.644775
0.661743 0.660797 0.650208
0.667175 0.666260 0.655670
0.672546 0.671661 0.661072
0.677948 0.677094 0.666504
0.683350 0.682526 0.671936
0.688263 0.687439 0.676910
0.693207 0.692413 0.681885
0.698120 0.697327 0.686859
0.703064 0.702271 0.691864
0.707977 0.707214 0.696838
0.014160 0.013153 0.013367
0.014465 0.013428 0.013641
0.014801 0.013763 0.013977
0.014984 0.013947 0.014160
0.018372 0.017242 0.017365
0.021912 0.020660 0.020782
0.026947 0.025574 0.025604
0.043457 0.041779 0.041534
0.065033 0.063110 0.062408
0.092010 0.089874 0.088501
0.124329 0.122040 0.119812
0.159058 0.156677 0.153534
0.199738 0.197296 0.193054
0.245972 0.243530 0.237976
0.295258 0.292847 0.285980
0.346649 0.344299 0.336121
0.400116 0.397888 0.388397
0.459869 0.457825 0.446808
0.515747 0.513947 0.502228
0.570557 0.569275 0.558868
0.618500 0.617371 0.606812
0.655182 0.654236 0.643646
0.661621 0.660706 0.650146
0.667206 0.666290 0.655731
0.672760 0.671875 0.661285
0.678192 0.677338 0.666748
0.683563 0.682739 0.672150
0.688538 0.687744 0.677185
0.693573 0.692780 0.682251
0.698425 0.697662 0.687164
0.703369 0.702606 0.692169
0.708282 0.707520 0.697113
0.020874 0.019684 0.019806
0.021301 0.020081 0.020203
0.021637 0.020416 0.020508
0.021545 0.020325 0.020447
0.023315 0.022034 0.022125
0.027954 0.026581 0.026611
0.033051 0.031555 0.031494
0.038849 0.037262 0.037079
0.059052 0.057190 0.056610
0.084961 0.082855 0.081665
0.115753 0.113495 0.111481
0.150269 0.147919 0.145020
0.190369 0.187927 0.183929
0.235352 0.232880 0.227661
0.284088 0.281677 0.275085
0.334412 0.332062 0.324219
0.390594 0.388336 0.378998
0.445129 0.442993 0.432434
0.503479 0.501617 0.489746
0.557343 0.555969 0.545563
0.610809 0.609680 0.599121
0.651764 0.650787 0.640167
0.663757 0.662842 0.652191
0.668945 0.668060 0.657410
0.673767 0.672913 0.662292
0.678680 0.677856 0.667267
0.684082 0.683258 0.672699
0.689026 0.688202 0.677673
0.694000 0.693207 0.682678
0.698944 0.698181 0.687683
0.703979 0.703247 0.692780
0.709015 0.708282 0.697845
0.028259 0.026855 0.026886
0.028717 0.027313 0.027344
0.029114 0.027710 0.027740
0.029236 0.027832 0.027863
0.029327 0.027924 0.027924
0.034973 0.033478 0.033356
0.039948 0.038330 0.038177
0.046356 0.044678 0.044342
0.053711 0.051941 0.051422
0.077301 0.075287 0.074280
0.107941 0.105743 0.103912
0.141724 0.139374 0.136688
0.181061 0.178680 0.174896
0.225098 0.222626 0.217682
0.271484 0.269043 0.262848
0.323212 0.320831 0.313263
0.377991 0.375702 0.366699
0.434052 0.431885 0.421539
0.493347 0.491547 0.479889
0.547699 0.546295 0.535950
0.599731 0.598541 0.588074
0.644775 0.643768 0.633209
0.662933 0.661987 0.651398
0.668610 0.667725 0.657135
0.674133 0.673279 0.662659
0.679688 0.678833 0.668243
0.685211 0.684387 0.673798
0.690063 0.689270 0.678711
0.694916 0.694122 0.683624
0.699738 0.698975 0.688477
0.704651 0.703918 0.693451
0.709656 0.708923 0.698486
0.037506 0.035980 0.035828
0.038086 0.036530 0.036346
0.038635 0.037048 0.036865
0.038788 0.037231 0.037048
0.038818 0.037231 0.037048
0.041901 0.040253 0.040070
0.048706 0.046997 0.046631
0.055267 0.053467 0.052979
0.062286 0.060394 0.059753
0.070190 0.068237 0.067383
0.098358 0.096191 0.094666
0.132202 0.129883 0.127472
0.171021 0.168610 0.165131
0.213196 0.210754 0.206116
0.258667 0.256195 0.250397
0.310272 0.307892 0.300629
0.365021 0.362701 0.354034
0.421051 0.418854 0.408813
0.477997 0.475952 0.464630
0.535187 0.533722 0.522888
0.588989 0.587769 0.577332
0.639587 0.638550 0.627991
0.663300 0.662354 0.651794
0.668427 0.667511 0.656952
0.673615 0.672699 0.662201
0.679291 0.678406 0.667877
0.684937 0.684082 0.673553
0.690552 0.689728 0.679199
0.695557 0.694763 0.684235
0.700317 0.699554 0.689056
0.705292 0.704529 0.694092
0.710236 0.709503 0.699066
0.047607 0.045898 0.045532
0.048248 0.046539 0.046173
0.048767 0.047028 0.046661
0.048950 0.047211 0.046844
0.049164 0.047424 0.047058
0.051147 0.049377 0.048950
0.057831 0.056000 0.055420
0.065399 0.063507 0.062775
0.073761 0.071777 0.070831
0.081177 0.079132 0.078033
0.089874 0.087769 0.086456
0.122498 0.120209 0.118073
0.159760 0.157410 0.154236
0.202423 0.199982 0.195618
0.248047 0.245575 0.240021
0.296997 0.294556 0.287720
0.352112 0.349792 0.341431
0.408203 0.406006 0.396240
0.464630 0.462555 0.451508
0.523682 0.522186 0.510742
0.576538 0.575256 0.564911
0.628418 0.627350 0.616791
0.664764 0.663849 0.653259
0.670044 0.669128 0.658539
0.675232 0.674377 0.663788
0.680511 0.679657 0.669098
0.685638 0.684814 0.674255
0.690582 0.689758 0.679260
0.695587 0.694763 0.684296
0.700989 0.700226 0.689758
0.706604 0.705872 0.695374
0.712158 0.711456 0.700958
0.059692 0.057831 0.057220
0.060425 0.058563 0.057922
0.061188 0.059326 0.058655
0.061615 0.059723 0.059052
0.061951 0.060059 0.059357
0.062012 0.060120 0.059418
0.067871 0.065948 0.065125
0.076599 0.074585 0.073578
0.084686 0.082642 0.081421
0.093353 0.091187 0.089813
0.104004 0.101807 0.100128
0.114044 0.111816 0.109863
0.149353 0.147003 0.144104
0.190948 0.188507 0.184479
0.234314 0.231842 0.226685
0.285645 0.283234 0.276611
0.337616 0.335236 0.327332
0.395050 0.392822 0.383362
0.450104 0.448029 0.437317
0.509766 0.508118 0.496063
0.564606 0.563293 0.552917
0.616699 0.615570 0.605072
0.659515 0.658569 0.647980
0.669830 0.668915 0.658356
0.675781 0.674896 0.664307
0.681641 0.680786 0.670166
0.687286 0.686462 0.675842
0.692017 0.691223 0.680664
0.696808 0.696014 0.685486
0.701569 0.700775 0.690308
0.706512 0.705780 0.695312
0.711609 0.710876 0.700470
0.072937 0.070984 0.070038
0.073639 0.071655 0.070709
0.074341 0.072357 0.071381
0.074738 0.072754 0.071777
0.075104 0.073120 0.072144
0.075317 0.073303 0.072327
0.079041 0.076996 0.075928
0.087463 0.085358 0.084106
0.097168 0.095032 0.093506
0.106720 0.104523 0.102753
0.117523 0.115265 0.113220
0.128479 0.126190 0.123840
0.138245 0.135895 0.133331
0.178589 0.176147 0.172485
0.223297 0.220825 0.215912
0.272522 0.270111 0.263855
0.323883 0.321472 0.313904
0.380280 0.378052 0.368958
0.438385 0.436249 0.425751
0.495636 0.493835 0.482056
0.552521 0.551147 0.540894
0.606506 0.605347 0.594757
0.654541 0.653595 0.643005
0.669128 0.668213 0.657654
0.675934 0.675079 0.664520
0.680939 0.680084 0.669556
0.686005 0.685181 0.674683
0.690887 0.690063 0.679596
0.696106 0.695312 0.684875
0.701324 0.700531 0.690094
0.706604 0.705841 0.695435
0.711884 0.711151 0.700745
0.087769 0.085693 0.084412
0.088837 0.086761 0.085419
0.089813 0.087708 0.086365
0.090576 0.088470 0.087097
0.091187 0.089081 0.087708
0.091034 0.088928 0.087555
0.090729 0.088623 0.087280
0.100555 0.098389 0.096771
0.110016 0.107788 0.105957
0.119934 0.117645 0.115570
0.132202 0.129913 0.127472
0.142395 0.140045 0.137360
0.154846 0.152496 0.149445
0.167084 0.164673 0.161316
0.210724 0.208252 0.203705
0.258057 0.255615 0.249817
0.310028 0.307617 0.300415
0.365936 0.363647 0.354950
0.422607 0.420410 0.410339
0.482117 0.480103 0.468597
0.537964 0.536499 0.525757
0.592499 0.591309 0.580841
0.643738 0.642731 0.632172
0.666443 0.665527 0.654968
0.676208 0.675354 0.664825
0.681549 0.680695 0.670166
0.687073 0.686279 0.675720
0.692596 0.691803 0.681274
0.698181 0.697388 0.686859
0.703217 0.702484 0.691956
0.708282 0.707550 0.697052
0.713318 0.712616 0.702148
0.104736 0.102539 0.100830
0.105927 0.103729 0.101959
0.106659 0.104462 0.102661
0.106934 0.104736 0.102966
0.107147 0.104950 0.103180
0.106934 0.104736 0.102966
0.107422 0.105225 0.103424
0.113495 0.111298 0.109314
0.124420 0.122131 0.119934
0.136017 0.133698 0.131165
0.147430 0.145050 0.142212
0.160248 0.157867 0.154663
0.172943 0.170563 0.166992
0.185394 0.182983 0.179077
0.197968 0.195526 0.191315
0.246155 0.243713 0.238159
0.296570 0.294159 0.287292
0.350830 0.348511 0.340210
0.407196 0.404999 0.395294
0.466003 0.463989 0.452881
0.524445 0.522797 0.511353
0.577728 0.576416 0.566132
0.631165 0.630127 0.619598
0.665466 0.664551 0.653931
0.678253 0.677368 0.666748
0.683655 0.682800 0.672180
0.688904 0.688080 0.677460
0.693451 0.692627 0.682098
0.697998 0.697205 0.686737
0.702545 0.701782 0.691345
0.707581 0.706818 0.696442
0.713043 0.712311 0.701935
0.122009 0.119720 0.117584
0.122894 0.120605 0.118439
0.123810 0.121521 0.119324
0.124573 0.122284 0.120087
0.125366 0.123077 0.120850
0.125732 0.123474 0.121185
0.125916 0.123627 0.121368
0.126038 0.123749 0.121490
0.139709 0.137390 0.134766
0.151947 0.149567 0.146606
0.163788 0.161407 0.158142
0.176666 0.174225 0.170624
0.189545 0.187103 0.183136
0.203583 0.201111 0.196747
0.216858 0.214386 0.209717
0.231445 0.228973 0.223877
0.282043 0.279633 0.273163
0.335907 0.333557 0.325653
0.393219 0.390991 0.381592
0.451416 0.449341 0.438538
0.510803 0.509216 0.497375
0.564758 0.563446 0.553070
0.619232 0.618134 0.607574
0.657288 0.656342 0.645752
0.678680 0.677826 0.667206
0.683746 0.682922 0.672333
0.688934 0.688110 0.677551
0.693756 0.692963 0.682434
0.699005 0.698242 0.687714
0.704315 0.703552 0.693024
0.709595 0.708862 0.698364
0.714844 0.714142 0.703644
0.141876 0.139526 0.136841
0.143219 0.140869 0.138153
0.144531 0.142181 0.139404
0.145660 0.143311 0.140503
0.146576 0.144257 0.141388
0.146515 0.144165 0.141327
0.146240 0.143890 0.141083
0.145721 0.143372 0.140594
0.153778 0.151367 0.148407
0.168182 0.165802 0.162354
0.180573 0.178131 0.174438
0.194702 0.192261 0.188141
0.207184 0.204742 0.200287
0.222656 0.220184 0.215332
0.236877 0.234436 0.229156
0.253052 0.250610 0.244873
0.267578 0.265106 0.259003
0.320862 0.318512 0.310974
0.377289 0.375031 0.366028
0.435883 0.433777 0.423340
0.496521 0.494690 0.483032
0.550903 0.549530 0.539215
0.606018 0.604858 0.594360
0.651245 0.650269 0.639648
0.678711 0.677856 0.667267
0.683533 0.682678 0.672119
0.689270 0.688446 0.677887
0.694611 0.693817 0.683258
0.699982 0.699219 0.688690
0.705078 0.704346 0.693817
0.710052 0.709320 0.698822
0.714966 0.714264 0.703827
0.163177 0.160797 0.157532
0.164001 0.161621 0.158325
0.164856 0.162476 0.159180
0.165558 0.163147 0.159851
0.166077 0.163666 0.160370
0.166107 0.163696 0.160400
0.166382 0.163971 0.160675
0.166656 0.164276 0.160950
0.170654 0.168243 0.164825
0.185974 0.183563 0.179657
0.199493 0.197052 0.192810
0.213715 0.211273 0.206635
0.227509 0.225037 0.220032
0.242371 0.239899 0.234497
0.256836 0.254395 0.248596
0.272766 0.270325 0.264099
0.288727 0.286316 0.279663
0.305176 0.302795 0.295685
0.360870 0.358551 0.350037
0.420441 0.418274 0.408234
0.479187 0.477173 0.465759
0.537872 0.536407 0.525696
0.592529 0.591339 0.580841
0.641968 0.640991 0.630402
0.677155 0.676300 0.665710
0.684570 0.683716 0.673157
0.690033 0.689209 0.678650
0.694916 0.694092 0.683563
0.699707 0.698944 0.688446
0.704529 0.703735 0.693298
0.709412 0.708649 0.698242
0.714630 0.713898 0.703522
0.184570 0.182129 0.178314
0.186462 0.184021 0.180145
0.188324 0.185913 0.181946
0.190063 0.187653 0.183624
0.190582 0.188141 0.184143
0.190399 0.187958 0.183990
0.190277 0.187836 0.183868
0.190277 0.187805 0.183868
0.190613 0.188141 0.184174
0.201477 0.199005 0.194763
0.219269 0.216858 0.212006
0.233521 0.231079 0.225891
0.248871 0.246429 0.240814
0.263916 0.261475 0.255463
0.278564 0.276093 0.269745
0.295563 0.293152 0.286316
0.310730 0.308319 0.301117
0.329468 0.327118 0.319336
0.344086 0.341736 0.333679
0.403564 0.401337 0.391693
0.464142 0.462097 0.451019
0.522156 0.520630 0.508972
0.576416 0.575104 0.564819
0.631561 0.630524 0.619873
0.671448 0.670563 0.659973
0.685577 0.684753 0.674133
0.690735 0.689941 0.679352
0.695374 0.694580 0.684052
0.700287 0.699524 0.689026
0.705780 0.705017 0.694519
0.711151 0.710419 0.699951
0.716492 0.715790 0.705322
0.209717 0.207275 0.202728
0.210999 0.208557 0.203979
0.212250 0.209778 0.205170
0.213257 0.210815 0.206177
0.214233 0.211761 0.207123
0.215027 0.212555 0.207886
0.215698 0.213226 0.208527
0.216125 0.213684 0.208954
0.216217 0.213776 0.209045
0.221069 0.218597 0.213806
0.236725 0.234283 0.229004
0.252319 0.249878 0.244202
0.269043 0.266602 0.260437
0.284760 0.282349 0.275787
0.301178 0.298737 0.291748
0.316833 0.314423 0.307037
0.334839 0.332489 0.324585
0.352356 0.350067 0.341675
0.368469 0.366180 0.357452
0.387970 0.385742 0.376434
0.446045 0.443939 0.433289
0.505402 0.503723 0.491791
0.561493 0.560150 0.549866
0.617035 0.615936 0.605377
0.665894 0.664978 0.654388
0.684875 0.684021 0.673523
0.690247 0.689423 0.678894
0.695526 0.694733 0.684235
0.700836 0.700043 0.689575
0.706116 0.705383 0.694885
0.710968 0.710236 0.699799
0.715698 0.714996 0.704590
0.235779 0.233337 0.228058
0.236755 0.234314 0.229034
0.237671 0.235229 0.229919
0.238800 0.236359 0.231018
0.240082 0.237640 0.232269
0.240967 0.238525 0.233124
0.241730 0.239288 0.233887
0.241486 0.239044 0.233643
0.241211 0.238739 0.233337
0.242462 0.239990 0.234558
0.255768 0.253296 0.247559
0.274384 0.271942 0.265656
0.289307 0.286865 0.280212
0.306946 0.304565 0.297394
0.322418 0.320038 0.312500
0.341980 0.339661 0.331543
0.359497 0.357208 0.348633
0.375977 0.373718 0.364746
0.392242 0.389984 0.380676
0.411316 0.409119 0.399292
0.428802 0.426636 0.416443
0.490692 0.488770 0.477142
0.549011 0.547607 0.537262
0.602631 0.601471 0.590973
0.654938 0.653961 0.643341
0.685150 0.684296 0.673798
0.690521 0.689697 0.679199
0.696136 0.695343 0.684845
0.701233 0.700439 0.689972
0.706207 0.705444 0.695007
0.711365 0.710632 0.700195
0.716492 0.715790 0.705383
0.262817 0.260406 0.254364
0.263672 0.261261 0.255249
0.264557 0.262115 0.256073
0.265228 0.262787 0.256744
0.265869 0.263428 0.257385
0.266174 0.263733 0.257690
0.267090 0.264648 0.258575
0.267548 0.265106 0.259033
0.267731 0.265289 0.259186
0.267731 0.265289 0.259186
0.276855 0.274414 0.268066
0.296753 0.294342 0.287415
0.311859 0.309479 0.302216
0.329895 0.327515 0.319763
0.347107 0.344788 0.336548
0.364777 0.362488 0.353790
0.381927 0.379669 0.370575
0.398163 0.395905 0.386475
0.418762 0.416595 0.406586
0.435730 0.433594 0.423187
0.455963 0.453888 0.442963
0.474457 0.472443 0.461121
0.531708 0.530243 0.519104
0.587708 0.586487 0.576080
0.642090 0.641083 0.630463
0.681335 0.680481 0.669952
0.691284 0.690460 0.679993
0.696594 0.695801 0.685333
0.701965 0.701172 0.690704
0.707397 0.706635 0.696167
0.713043 0.712311 0.701813
0.718658 0.717957 0.707458
0.288391 0.285950 0.279327
0.289734 0.287292 0.280640
0.291260 0.288818 0.282135
0.293182 0.290771 0.283997
0.295135 0.292725 0.285858
0.296783 0.294373 0.287476
0.297424 0.295013 0.288086
0.297333 0.294922 0.287994
0.296844 0.294434 0.287537
0.296234 0.293823 0.286957
0.296173 0.293762 0.286896
0.316925 0.314514 0.307098
0.335297 0.332916 0.325012
0.351501 0.349152 0.340851
0.369324 0.367004 0.358276
0.387878 0.385620 0.376404
0.407227 0.405060 0.395294
0.423431 0.421265 0.411163
0.441559 0.439423 0.428955
0.462006 0.459961 0.448914
0.478027 0.476013 0.464691
0.496765 0.494781 0.483124
0.517487 0.515961 0.504333
0.573303 0.572021 0.561646
0.626740 0.625671 0.615112
0.675232 0.674347 0.663818
0.692078 0.691284 0.680695
0.698334 0.697540 0.686981
0.703430 0.702667 0.692139
0.708435 0.707703 0.697205
0.713531 0.712830 0.702362
0.718750 0.718048 0.707611
0.319580 0.317200 0.309692
0.320343 0.317963 0.310425
0.321014 0.318634 0.311127
0.321503 0.319122 0.311615
0.322388 0.319977 0.312469
0.323151 0.320740 0.313232
0.324402 0.321991 0.314423
0.325165 0.322815 0.315186
0.325134 0.322754 0.315125
0.325043 0.322693 0.315063
0.324799 0.322418 0.314819
0.338196 0.335846 0.327881
0.357147 0.354828 0.346375
0.376892 0.374603 0.365601
0.394653 0.392426 0.382996
0.413605 0.411407 0.401520
0.430176 0.428009 0.417755
0.450317 0.448212 0.437439
0.469391 0.467377 0.456085
0.486237 0.484222 0.472687
0.505524 0.503815 0.492188
0.521484 0.519775 0.508331
0.539642 0.538239 0.527283
0.557831 0.556458 0.546173
0.613403 0.612274 0.601654
0.664520 0.663605 0.653015
0.689301 0.688477 0.677887
0.698456 0.697662 0.687134
0.703094 0.702332 0.691864
0.708221 0.707489 0.697052
0.713501 0.712769 0.702362
0.718750 0.718048 0.707642
0.349670 0.347382 0.339050
0.351013 0.348694 0.340363
0.352661 0.350372 0.341980
0.354034 0.351746 0.343292
0.355499 0.353210 0.344727
0.356842 0.354553 0.346008
0.357330 0.355042 0.346497
0.356842 0.354553 0.346039
0.356293 0.353973 0.345520
0.355927 0.353638 0.345184
0.356171 0.353882 0.345428
0.360168 0.357849 0.349335
0.380219 0.377930 0.368896
0.400146 0.397949 0.388367
0.418945 0.416748 0.406738
0.439056 0.436951 0.426392
0.457031 0.454956 0.444031
0.473785 0.471771 0.460510
0.493225 0.491425 0.479767
0.511780 0.509979 0.498352
0.527100 0.525635 0.514008
0.545776 0.544312 0.534149
0.564087 0.562775 0.552277
0.579010 0.577728 0.567413
0.597717 0.596497 0.585999
0.650177 0.649170 0.638611
0.683380 0.682526 0.671997
0.699310 0.698547 0.688019
0.704407 0.703644 0.693146
0.709442 0.708710 0.698212
0.714508 0.713776 0.703339
0.719330 0.718628 0.708221
0.360626 0.358337 0.349731
0.362823 0.360535 0.351868
0.365051 0.362762 0.354065
0.367249 0.364960 0.356201
0.369476 0.367188 0.358368
0.371979 0.369690 0.360809
0.374390 0.372101 0.363159
0.376312 0.374023 0.365021
0.378265 0.376007 0.366943
0.379456 0.377197 0.368103
0.380371 0.378113 0.369019
0.381531 0.379272 0.370178
0.399689 0.397491 0.387909
0.419739 0.417542 0.407562
0.439209 0.437103 0.426666
0.461700 0.459656 0.448608
0.481537 0.479523 0.468048
0.501526 0.499603 0.487671
0.518555 0.516968 0.505371
0.535919 0.534485 0.523804
0.552795 0.551422 0.540924
0.568359 0.567017 0.556763
0.586243 0.584991 0.574554
0.603516 0.602356 0.591827
0.619507 0.618439 0.607849
0.634857 0.633820 0.623291
0.677673 0.676788 0.666260
0.699341 0.698547 0.688080
0.704529 0.703766 0.693298
0.709290 0.708557 0.698120
0.714050 0.713348 0.702942
0.718811 0.718109 0.707764
0.365112 0.362823 0.354095
0.367340 0.365051 0.356262
0.369568 0.367279 0.358459
0.371796 0.369507 0.360626
0.374023 0.371735 0.362793
0.376221 0.373932 0.364960
0.378662 0.376373 0.367340
0.381073 0.378815 0.369690
0.383484 0.381195 0.372040
0.385864 0.383606 0.374359
0.388062 0.385803 0.376526
0.389954 0.387695 0.378357
0.399902 0.397675 0.388123
0.423676 0.421509 0.411346
0.442688 0.440521 0.430023
0.464172 0.462128 0.451080
0.488220 0.486237 0.474609
0.507050 0.505280 0.493408
0.526611 0.525085 0.513672
0.547180 0.545776 0.535309
0.565125 0.563782 0.553497
0.584503 0.583252 0.572815
0.602112 0.600952 0.590454
0.619476 0.618378 0.607819
0.636505 0.635468 0.624878
0.653015 0.652069 0.641510
0.670532 0.669647 0.658997
0.700653 0.699890 0.689331
0.705536 0.704773 0.694275
0.710388 0.709656 0.699188
0.715393 0.714691 0.704254
0.720459 0.719757 0.709381
0.369293 0.367004 0.358185
0.371796 0.369537 0.360626
0.374023 0.371765 0.362793
0.376251 0.373962 0.364960
0.378479 0.376190 0.367157
0.380676 0.378418 0.369324
0.382721 0.380463 0.371307
0.385162 0.382904 0.373688
0.387573 0.385315 0.376068
0.390015 0.387756 0.378418
0.392456 0.390198 0.380798
0.395050 0.392822 0.383331
0.402130 0.399933 0.390320
0.423798 0.421631 0.411438
0.444031 0.441925 0.431366
0.465729 0.463684 0.452606
0.488983 0.487030 0.475433
