滤镜资源/Professional Luts Collection/Triune-Digital-Cinematic-LUTs/3D LUTs (CUBE)/LOG/BW/Casino Royale 1 - LOG.cube
#Created by Benjamin (IWLTBAP) : http://luts.iwltbap.com
#Copyright: (C) Copyright 2016 Triune Films and IWLTBAP
TITLE "Blockbuster LUTs Pack (LOG)"
#LUT size
LUT_3D_SIZE 8
#LUT data points
DOMAIN_MIN 0.000000 0.000000 0.000000
DOMAIN_MAX 0.903226 0.903226 0.903226
0.000000 0.000000 0.000000
0.017975 0.016846 0.016998
0.095642 0.093506 0.092010
0.246124 0.243652 0.238129
0.454590 0.452515 0.441650
0.643158 0.642151 0.631561
0.671295 0.670410 0.659851
0.693329 0.692535 0.681976
0.005524 0.004883 0.005096
0.009674 0.008820 0.009064
0.077698 0.075684 0.074615
0.220062 0.217621 0.212769
0.423462 0.421295 0.411194
0.629974 0.628937 0.618378
0.672241 0.671356 0.660797
0.692993 0.692169 0.681671
0.028259 0.026855 0.026886
0.029327 0.027924 0.027924
0.053711 0.051941 0.051422
0.181061 0.178680 0.174896
0.377991 0.375702 0.366699
0.599731 0.598541 0.588074
0.674133 0.673279 0.662659
0.694916 0.694122 0.683624
0.072937 0.070984 0.070038
0.075104 0.073120 0.072144
0.097168 0.095032 0.093506
0.138245 0.135895 0.133331
0.323883 0.321472 0.313904
0.552521 0.551147 0.540894
0.675934 0.675079 0.664520
0.696106 0.695312 0.684875
0.141876 0.139526 0.136841
0.146576 0.144257 0.141388
0.153778 0.151367 0.148407
0.207184 0.204742 0.200287
0.267578 0.265106 0.259003
0.496521 0.494690 0.483032
0.678711 0.677856 0.667267
0.699982 0.699219 0.688690
0.235779 0.233337 0.228058
0.240082 0.237640 0.232269
0.241211 0.238739 0.233337
0.289307 0.286865 0.280212
0.359497 0.357208 0.348633
0.428802 0.426636 0.416443
0.654938 0.653961 0.643341
0.701233 0.700439 0.689972
0.349670 0.347382 0.339050
0.355499 0.353210 0.344727
0.356293 0.353973 0.345520
0.380219 0.377930 0.368896
0.457031 0.454956 0.444031
0.527100 0.525635 0.514008
0.597717 0.596497 0.585999
0.704407 0.703644 0.693146
0.373474 0.371185 0.362274
0.382935 0.380707 0.371521
0.391693 0.389435 0.380066
0.403870 0.401642 0.391968
0.489349 0.487366 0.475739
0.571411 0.570129 0.559814
0.648468 0.647491 0.636932
0.706726 0.705994 0.695435
0.000397 0.000305 0.000336
0.001282 0.001038 0.001160
0.051605 0.049866 0.049408
0.187622 0.185211 0.181274
0.405121 0.402893 0.393250
0.623291 0.622192 0.611664
0.654724 0.653748 0.643158
0.676392 0.675507 0.664948
0.007080 0.006378 0.006592
0.019135 0.018005 0.018127
0.094482 0.092346 0.090881
0.235657 0.233185 0.227966
0.433319 0.431183 0.420868
0.640564 0.639526 0.628937
0.682922 0.682068 0.671539
0.703613 0.702850 0.692413
0.029022 0.027618 0.027649
0.033630 0.032166 0.032074
0.058533 0.056702 0.056091
0.189697 0.187286 0.183258
0.388794 0.386536 0.377258
0.610016 0.608887 0.598328
0.684814 0.683960 0.673401
0.704895 0.704132 0.693695
0.073669 0.071686 0.070740
0.081909 0.079865 0.078705
0.103394 0.101227 0.099579
0.146881 0.144531 0.141724
0.336456 0.334106 0.326141
0.561981 0.560608 0.550385
0.687134 0.686310 0.675751
0.707367 0.706635 0.696167
0.142822 0.140472 0.137756
0.153381 0.151001 0.148010
0.162994 0.160583 0.157349
0.217926 0.215454 0.210693
0.278595 0.276184 0.269745
0.505951 0.504150 0.492493
0.689301 0.688507 0.677948
0.709259 0.708496 0.698090
0.236237 0.233795 0.228546
0.249023 0.246552 0.240997
0.251068 0.248596 0.242950
0.301453 0.299042 0.292023
0.368866 0.366577 0.357819
0.441315 0.439209 0.428650
0.663239 0.662292 0.651764
0.711182 0.710449 0.700043
0.349579 0.347229 0.339020
0.364655 0.362335 0.353699
0.367828 0.365509 0.356781
0.391357 0.389130 0.379791
0.466644 0.464630 0.453522
0.539917 0.538483 0.527893
0.607361 0.606201 0.595673
0.713959 0.713257 0.702850
0.376129 0.373871 0.364899
0.395233 0.393005 0.383575
0.404907 0.402679 0.393005
0.415619 0.413422 0.403473
0.502319 0.500549 0.488953
0.582947 0.581696 0.571289
0.658600 0.657654 0.647125
0.716034 0.715302 0.704895
0.001343 0.001068 0.001190
0.002533 0.002136 0.002289
0.005341 0.004761 0.004974
0.078552 0.076538 0.075500
0.246521 0.244080 0.238556
0.462555 0.460480 0.449493
0.521484 0.519989 0.508514
0.552704 0.551331 0.541077
0.009003 0.008209 0.008423
0.020813 0.019623 0.019714
0.020782 0.019562 0.019714
0.105194 0.102997 0.101257
0.271790 0.269348 0.263153
0.505646 0.503876 0.492249
0.574280 0.572998 0.562561
0.606354 0.605194 0.594666
0.036316 0.034790 0.034637
0.041107 0.039490 0.039276
0.107513 0.105286 0.103516
0.259430 0.256989 0.251068
0.461426 0.459381 0.448395
0.662811 0.661896 0.651245
0.725159 0.724487 0.714142
0.740417 0.739807 0.729614
0.081360 0.079315 0.078217
0.088715 0.086609 0.085327
0.143433 0.141083 0.138336
0.185822 0.183380 0.179504
0.375092 0.372803 0.363831
0.585297 0.584045 0.573700
0.699921 0.699127 0.688629
0.717285 0.716583 0.706177
0.146973 0.144623 0.141785
0.158386 0.156006 0.152863
0.179993 0.177582 0.173828
0.226929 0.224487 0.219482
0.286621 0.284210 0.277588
0.514343 0.512665 0.501099
0.698853 0.698059 0.687592
0.719513 0.718781 0.708435
0.236969 0.234528 0.229248
0.250885 0.248444 0.242767
0.260529 0.258087 0.252167
0.310974 0.308594 0.301270
0.378326 0.376068 0.367065
0.452209 0.450134 0.439270
0.671906 0.670990 0.660461
0.721771 0.721100 0.710724
0.350555 0.348206 0.339966
0.365723 0.363434 0.354767
0.379883 0.377625 0.368561
0.400757 0.398529 0.389008
0.477417 0.475372 0.464020
0.549377 0.547974 0.537598
0.616272 0.615173 0.604614
0.723694 0.722992 0.712677
0.378693 0.376404 0.367401
0.397491 0.395264 0.385803
0.417297 0.415131 0.405182
0.426971 0.424835 0.414642
0.514862 0.513214 0.501892
0.594513 0.593292 0.582825
0.668579 0.667664 0.657135
0.726227 0.725555 0.715210
0.002625 0.002228 0.002380
0.004272 0.003723 0.003937
0.007812 0.007050 0.007263
0.012482 0.011505 0.011719
0.110962 0.108734 0.106842
0.291260 0.288849 0.282074
0.345062 0.342712 0.334564
0.378693 0.376404 0.367462
0.011047 0.010162 0.010376
0.022461 0.021210 0.021332
0.022461 0.021240 0.021332
0.020050 0.018860 0.019012
0.129517 0.127228 0.124817
0.329651 0.327301 0.319489
0.402618 0.400391 0.390778
0.437714 0.435608 0.425140
0.041016 0.039398 0.039154
0.045746 0.044067 0.043762
0.112885 0.110626 0.108704
0.113831 0.111572 0.109619
0.276581 0.274170 0.267792
0.486298 0.484314 0.472809
0.567413 0.566101 0.555481
0.585663 0.584442 0.574005
0.095215 0.093109 0.091614
0.103455 0.101288 0.099579
0.156860 0.154480 0.151398
0.278717 0.276276 0.269836
0.486511 0.484558 0.472931
0.683380 0.682526 0.671967
0.789215 0.788788 0.779144
0.802338 0.801941 0.792511
0.165466 0.163086 0.159729
0.176453 0.174042 0.170410
0.194000 0.191559 0.187469
0.333221 0.330872 0.322998
0.390381 0.388153 0.378815
0.603333 0.602173 0.591736
0.766144 0.765594 0.755615
0.780182 0.779694 0.769928
0.256958 0.254486 0.248657
0.269928 0.267517 0.261292
0.279205 0.276794 0.270325
0.386688 0.384430 0.375275
0.449585 0.447510 0.436768
0.510040 0.508270 0.496552
0.708557 0.707794 0.697357
0.752991 0.752411 0.742249
0.361847 0.359528 0.350952
0.378204 0.375916 0.366913
0.387299 0.385040 0.375854
0.438232 0.436096 0.425659
0.503510 0.501740 0.490265
0.563171 0.561829 0.551422
0.622833 0.621735 0.611176
0.734222 0.733551 0.723297
0.383270 0.380981 0.371918
0.403992 0.401794 0.392151
0.421539 0.419373 0.409332
0.441254 0.439148 0.428619
0.523163 0.521454 0.510254
0.604279 0.603119 0.592621
0.678406 0.677521 0.666962
0.735992 0.735352 0.725098
0.004700 0.004150 0.004333
0.006378 0.005676 0.005920
0.010834 0.009949 0.010162
0.016022 0.014954 0.015137
0.023621 0.022339 0.022430
0.137421 0.135101 0.132538
0.182739 0.180328 0.176514
0.210876 0.208435 0.203888
0.013428 0.012421 0.012634
0.023529 0.022217 0.022339
0.023773 0.022522 0.022583
0.023682 0.022400 0.022522
0.033020 0.031555 0.031494
0.165802 0.163422 0.160065
0.230286 0.227844 0.222717
0.259888 0.257446 0.251556
0.046112 0.044434 0.044067
0.050995 0.049225 0.048828
0.117004 0.114746 0.112732
0.118042 0.115784 0.113708
0.117432 0.115173 0.113129
0.289062 0.286652 0.279999
0.374573 0.372314 0.363403
0.392944 0.390686 0.381348
0.102081 0.099915 0.098267
0.111755 0.109528 0.107605
0.162292 0.159882 0.156647
0.285156 0.282715 0.276123
0.288483 0.286072 0.279358
0.501923 0.500214 0.489105
0.638153 0.637146 0.626556
0.654297 0.653351 0.642761
0.183777 0.181335 0.177490
0.195557 0.193115 0.188965
0.208832 0.206360 0.201874
0.350586 0.348267 0.339996
0.506744 0.505096 0.493591
0.701202 0.700439 0.689941
0.845154 0.844879 0.836426
0.858429 0.858185 0.850098
0.278839 0.276398 0.269958
0.292236 0.289825 0.283051
0.301544 0.299133 0.292145
0.408142 0.405945 0.396210
0.562531 0.561188 0.550629
0.618958 0.617859 0.607269
0.796356 0.795929 0.786438
0.837921 0.837646 0.829010
0.388031 0.385773 0.376556
0.404419 0.402222 0.392517
0.414124 0.411957 0.402100
0.458466 0.456421 0.445526
0.616943 0.615814 0.605316
0.670807 0.669922 0.659302
0.719635 0.718933 0.708618
0.814484 0.814087 0.804962
0.416412 0.414215 0.404266
0.435120 0.432983 0.422577
0.453888 0.451813 0.441010
0.472900 0.470886 0.459595
0.625793 0.624725 0.614105
0.685822 0.684998 0.674530
0.743988 0.743347 0.733185
0.788849 0.788391 0.778778
0.006531 0.005859 0.006073
0.008362 0.007568 0.007812
0.013275 0.012299 0.012512
0.020111 0.018890 0.019043
0.028534 0.027161 0.027161
0.037903 0.036346 0.036194
0.063507 0.061615 0.060913
0.080994 0.078949 0.077820
0.015625 0.014557 0.014740
0.024658 0.023376 0.023438
0.024231 0.022949 0.023041
0.028992 0.027588 0.027618
0.038330 0.036743 0.036591
0.050262 0.048553 0.048126
0.092041 0.089966 0.088562
0.112244 0.110016 0.108124
0.050995 0.049255 0.048828
0.056488 0.054657 0.054138
0.122070 0.119812 0.117615
0.122467 0.120178 0.118011
0.122589 0.120300 0.118164
0.121399 0.119141 0.116974
0.190765 0.188354 0.184296
0.205994 0.203552 0.199127
0.109863 0.107666 0.105835
0.120636 0.118378 0.116241
0.168488 0.166046 0.162628
0.291840 0.289429 0.282715
0.293762 0.291351 0.284576
0.294769 0.292358 0.285553
0.446594 0.444519 0.433868
0.465698 0.463654 0.452576
0.195038 0.192627 0.188507
0.207520 0.205078 0.200592
0.216705 0.214264 0.209534
0.360260 0.357941 0.349396
0.513916 0.512207 0.501160
0.517700 0.516144 0.504608
0.700897 0.700104 0.689606
0.720123 0.719421 0.709045
0.303802 0.301392 0.294281
0.315186 0.312775 0.305450
0.325348 0.322998 0.315369
0.427948 0.425812 0.415588
0.581146 0.579895 0.569580
0.716797 0.716064 0.705658
0.870331 0.870117 0.862427
0.908020 0.907898 0.901764
0.415009 0.412842 0.402893
0.429504 0.427368 0.417114
0.442352 0.440216 0.429626
0.480530 0.478516 0.467102
0.636139 0.635132 0.624542
0.764252 0.763702 0.753693
0.807159 0.806763 0.797455
0.890411 0.890259 0.883331
0.447174 0.445068 0.434418
0.467163 0.465118 0.453949
0.484253 0.482269 0.470764
0.502350 0.500580 0.489227
0.646698 0.645691 0.635071
0.782471 0.782013 0.772278
0.832092 0.831787 0.822998
0.871460 0.871246 0.863617
0.006836 0.006165 0.006378
0.008575 0.007782 0.008026
0.013794 0.012787 0.013000
0.020538 0.019318 0.019440
0.028992 0.027557 0.027588
0.039398 0.037811 0.037598
0.041718 0.040070 0.039825
0.053131 0.051361 0.050873
0.014709 0.013672 0.013855
0.022308 0.021057 0.021149
0.021271 0.020050 0.020142
0.029663 0.028229 0.028229
0.039886 0.038269 0.038086
0.052094 0.050323 0.049866
0.056946 0.055145 0.054565
0.069519 0.067596 0.066742
0.050140 0.048370 0.047974
0.056854 0.055054 0.054474
0.117737 0.115479 0.113434
0.119141 0.116882 0.114777
0.119080 0.116821 0.114746
0.119415 0.117157 0.115051
0.107513 0.105316 0.103516
0.112610 0.110382 0.108459
0.112305 0.110077 0.108154
0.121613 0.119324 0.117157
0.164825 0.162415 0.159119
0.293060 0.290649 0.283813
0.294159 0.291748 0.284943
0.296875 0.294434 0.287567
0.290375 0.287964 0.281250
0.297791 0.295380 0.288483
0.200439 0.197968 0.193695
0.212830 0.210388 0.205780
0.221619 0.219177 0.214325
0.362579 0.360260 0.351685
0.518799 0.517120 0.505615
0.522675 0.521057 0.510132
0.524963 0.523468 0.512146
0.545715 0.544281 0.533051
0.312256 0.309875 0.302612
0.327545 0.325165 0.317505
0.337677 0.335297 0.327393
0.434509 0.432343 0.422028
0.589264 0.588013 0.577637
0.724182 0.723511 0.713104
0.725708 0.725037 0.714661
0.782318 0.781860 0.772156
0.441925 0.439789 0.429199
0.456970 0.454895 0.443970
0.467255 0.465210 0.454102
0.501709 0.499908 0.488464
0.652435 0.651489 0.640930
0.779633 0.779114 0.769318
0.881226 0.881042 0.873749
0.952789 0.952728 0.949005
0.479187 0.477173 0.465790
0.498779 0.496979 0.485291
0.517242 0.515594 0.504303
0.533936 0.532471 0.521179
0.666229 0.665314 0.654785
0.799622 0.799225 0.789764
0.904144 0.904022 0.897705
0.937958 0.937897 0.933228
0.007080 0.006378 0.006622
0.008911 0.008118 0.008331
0.013855 0.012848 0.013062
0.020630 0.019440 0.019592
0.029846 0.028412 0.028412
0.039917 0.038330 0.038116
0.042450 0.040833 0.040588
0.043427 0.041748 0.041504
0.014587 0.013580 0.013763
0.021362 0.020172 0.020264
0.021820 0.020599 0.020721
0.030334 0.028931 0.028900
0.040070 0.038452 0.038269
0.052948 0.051147 0.050690
0.057739 0.055939 0.055359
0.059113 0.057251 0.056641
0.049744 0.048004 0.047638
0.056366 0.054565 0.054016
0.115967 0.113739 0.111725
0.116608 0.114349 0.112335
0.117737 0.115479 0.113434
0.117218 0.114990 0.112915
0.104736 0.102539 0.100830
0.096466 0.094330 0.092804
0.112213 0.109985 0.108063
0.120789 0.118530 0.116394
0.163361 0.160950 0.157684
0.289337 0.286896 0.280182
0.291473 0.289062 0.282318
0.292542 0.290100 0.283356
0.287079 0.284668 0.278015
0.272217 0.269775 0.263580
0.199585 0.197144 0.192871
0.212158 0.209717 0.205139
0.221863 0.219421 0.214539
0.358185 0.355865 0.347382
0.515991 0.514343 0.502472
0.517487 0.515808 0.504669
0.518677 0.517090 0.505615
0.503082 0.501251 0.489929
0.311676 0.309265 0.301971
0.326080 0.323700 0.316071
0.336304 0.333923 0.326050
0.432587 0.430450 0.420044
0.586334 0.585114 0.574707
0.721741 0.721069 0.710663
0.724060 0.723389 0.713043
0.717010 0.716309 0.705872
0.443573 0.441437 0.430847
0.458252 0.456177 0.445251
0.470795 0.468781 0.457581
0.500610 0.498749 0.487213
0.654236 0.653290 0.642639
0.779846 0.779358 0.769592
0.883179 0.882996 0.875763
0.880859 0.880707 0.873413
0.494751 0.492798 0.481049
0.514923 0.513214 0.501770
0.533508 0.531952 0.520874
0.551544 0.550171 0.539581
0.680359 0.679504 0.668915
0.812347 0.811981 0.802734
0.915192 0.915131 0.909271
0.988007 0.987976 0.986938
