滤镜资源/Professional Luts Collection/Triune-Digital-Cinematic-LUTs/3D LUTs (CUBE)/LOG/BW/Noir 2 - LOG.cube
#Created by Benjamin (IWLTBAP) : http://luts.iwltbap.com
#Copyright: (C) Copyright 2016 Triune Films and IWLTBAP
TITLE "Blockbuster LUTs Pack (LOG)"
#LUT size
LUT_3D_SIZE 5
#LUT data points
DOMAIN_MIN 0.000000 0.000000 0.000000
DOMAIN_MAX 0.903226 0.903226 0.903226
0.000000 0.000000 0.000000
0.000000 0.000000 0.000000
0.000000 0.000000 0.000000
0.000000 0.000000 0.000000
0.000000 0.000000 0.000000
0.000000 0.000000 0.000000
0.000000 0.000000 0.000000
0.000000 0.000000 0.000000
0.000000 0.000000 0.000000
0.000000 0.000000 0.000000
0.000000 0.000000 0.000000
0.000000 0.000000 0.000000
0.000000 0.000000 0.000000
0.000000 0.000000 0.000000
0.000000 0.000000 0.000000
0.000000 0.000000 0.000000
0.000000 0.000000 0.000000
0.000000 0.000000 0.000000
0.000000 0.000000 0.000000
0.000000 0.000000 0.000000
0.000000 0.000000 0.000000
0.000000 0.000000 0.000000
0.000000 0.000000 0.000000
0.000000 0.000000 0.000000
0.000000 0.000000 0.000000
0.000000 0.000000 0.000000
0.000000 0.000000 0.000000
0.000000 0.000000 0.000000
0.000000 0.000000 0.000000
0.000000 0.000000 0.000000
0.000000 0.000000 0.000000
0.181335 0.181335 0.181335
0.148621 0.148621 0.148621
0.107422 0.107422 0.107422
0.075897 0.075897 0.075897
0.000000 0.000000 0.000000
0.063019 0.063019 0.063019
0.045166 0.045166 0.045166
0.045166 0.045166 0.045166
0.045166 0.045166 0.045166
0.000000 0.000000 0.000000
0.045166 0.045166 0.045166
0.045166 0.045166 0.045166
0.045166 0.045166 0.045166
0.045166 0.045166 0.045166
0.000000 0.000000 0.000000
0.045166 0.045166 0.045166
0.045166 0.045166 0.045166
0.045166 0.045166 0.045166
0.045166 0.045166 0.045166
0.000000 0.000000 0.000000
0.000000 0.000000 0.000000
0.000000 0.000000 0.000000
0.000000 0.000000 0.000000
0.000000 0.000000 0.000000
0.000000 0.000000 0.000000
0.170258 0.170258 0.170258
0.137177 0.137177 0.137177
0.095093 0.095093 0.095093
0.061432 0.061432 0.061432
0.000000 0.000000 0.000000
0.046814 0.046814 0.046814
0.431152 0.431152 0.431152
0.395416 0.395416 0.395416
0.364990 0.364990 0.364990
0.000000 0.000000 0.000000
0.045166 0.045166 0.045166
0.309814 0.309814 0.309814
0.273010 0.273010 0.273010
0.236725 0.236725 0.236725
0.000000 0.000000 0.000000
0.045166 0.045166 0.045166
0.180603 0.180603 0.180603
0.133942 0.133942 0.133942
0.090332 0.090332 0.090332
0.000000 0.000000 0.000000
0.000000 0.000000 0.000000
0.000000 0.000000 0.000000
0.000000 0.000000 0.000000
0.000000 0.000000 0.000000
0.000000 0.000000 0.000000
0.157013 0.157013 0.157013
0.123230 0.123230 0.123230
0.079803 0.079803 0.079803
0.045166 0.045166 0.045166
0.000000 0.000000 0.000000
0.045166 0.045166 0.045166
0.419159 0.419159 0.419159
0.383301 0.383301 0.383301
0.352295 0.352295 0.352295
0.000000 0.000000 0.000000
0.045166 0.045166 0.045166
0.297394 0.297394 0.297394
0.703339 0.703339 0.703339
0.670502 0.670502 0.670502
0.000000 0.000000 0.000000
0.045166 0.045166 0.045166
0.165192 0.165192 0.165192
0.583618 0.583618 0.583618
0.542877 0.542877 0.542877
0.000000 0.000000 0.000000
0.000000 0.000000 0.000000
0.000000 0.000000 0.000000
0.000000 0.000000 0.000000
0.000000 0.000000 0.000000
0.000000 0.000000 0.000000
0.148529 0.148529 0.148529
0.113800 0.113800 0.113800
0.068298 0.068298 0.068298
0.045166 0.045166 0.045166
0.000000 0.000000 0.000000
0.045166 0.045166 0.045166
0.409424 0.409424 0.409424
0.373077 0.373077 0.373077
0.341156 0.341156 0.341156
0.000000 0.000000 0.000000
0.045166 0.045166 0.045166
0.286011 0.286011 0.286011
0.692505 0.692505 0.692505
0.658905 0.658905 0.658905
0.000000 0.000000 0.000000
0.045166 0.045166 0.045166
0.148834 0.148834 0.148834
0.570160 0.570160 0.570160
0.978607 0.978607 0.978607
