滤镜资源/Professional Luts Collection/Triune-Digital-Cinematic-LUTs/3D LUTs (CUBE)/LOG/BW/Noir 3 - LOG.cube
#Created by Benjamin (IWLTBAP) : http://luts.iwltbap.com
#Copyright: (C) Copyright 2016 Triune Films and IWLTBAP
TITLE "Blockbuster LUTs Pack (LOG)"
#LUT size
LUT_3D_SIZE 32
#LUT data points
0.000000 0.000488 0.000244
0.001099 0.001678 0.001587
0.005096 0.006042 0.006561
0.009888 0.011230 0.012512
0.014618 0.016357 0.018402
0.019867 0.022034 0.024872
0.025513 0.027832 0.031525
0.031860 0.034332 0.039062
0.039154 0.041962 0.047913
0.047089 0.050690 0.058228
0.056519 0.061218 0.070862
0.067474 0.074158 0.087158
0.082001 0.091461 0.109009
0.099457 0.112976 0.134705
0.119537 0.141052 0.163208
0.142426 0.176056 0.192780
0.166809 0.214752 0.225555
0.192474 0.249329 0.262512
0.224609 0.282837 0.306458
0.261597 0.320404 0.358368
0.284363 0.343933 0.388672
0.295105 0.355072 0.402496
0.300171 0.360474 0.408325
0.305237 0.365875 0.414154
0.310272 0.371277 0.419983
0.315369 0.376709 0.425842
0.320404 0.382080 0.431641
0.325592 0.387543 0.437256
0.330811 0.393066 0.442871
0.335999 0.398529 0.448486
0.341217 0.404022 0.454132
0.346405 0.409485 0.459717
0.000671 0.001221 0.001068
0.000916 0.001495 0.001373
0.004303 0.005188 0.005615
0.009125 0.010406 0.011566
0.013947 0.015625 0.017548
0.019165 0.021301 0.024048
0.024719 0.027008 0.030609
0.031067 0.033539 0.038147
0.038239 0.041016 0.046783
0.046204 0.049713 0.057068
0.055573 0.060150 0.069580
0.066162 0.072601 0.085144
0.080627 0.089844 0.106934
0.097900 0.110931 0.132416
0.117859 0.138611 0.160889
0.140442 0.172943 0.190308
0.165070 0.211761 0.223206
0.190308 0.246887 0.259491
0.222198 0.280487 0.303314
0.259369 0.318115 0.355164
0.283630 0.343201 0.387634
0.296204 0.356232 0.403839
0.301300 0.361694 0.409607
0.306366 0.367126 0.415466
0.311432 0.372498 0.421295
0.316498 0.377930 0.427124
0.321564 0.383331 0.432953
0.326782 0.388794 0.438446
0.332001 0.394287 0.444092
0.337189 0.399750 0.449677
0.342407 0.405243 0.455322
0.347595 0.410706 0.460938
0.003296 0.004059 0.004333
0.003296 0.004059 0.004333
0.003845 0.004639 0.005005
0.008575 0.009796 0.010895
0.013397 0.015045 0.016876
0.018524 0.020599 0.023224
0.023987 0.026245 0.029755
0.030304 0.032745 0.037231
0.037323 0.039978 0.045593
0.045349 0.048767 0.055939
0.054474 0.058929 0.068085
0.065033 0.071228 0.083435
0.079041 0.087982 0.104584
0.095947 0.108185 0.129669
0.115997 0.135925 0.158264
0.138275 0.169525 0.187561
0.163055 0.208740 0.220337
0.188232 0.244293 0.256439
0.219574 0.277954 0.299835
0.256500 0.315155 0.351257
0.282745 0.342285 0.386383
0.297302 0.357391 0.405151
0.302399 0.362854 0.410950
0.307526 0.368347 0.416779
0.312561 0.373749 0.422577
0.317657 0.379150 0.428436
0.322693 0.384552 0.434235
0.327911 0.390015 0.439758
0.333191 0.395508 0.445282
0.338379 0.400970 0.450897
0.343597 0.406464 0.456512
0.348785 0.411957 0.462128
0.006714 0.007751 0.008545
0.006744 0.007782 0.008606
0.006989 0.008057 0.008881
0.008057 0.009247 0.010254
0.013000 0.014618 0.016388
0.018127 0.020142 0.022705
0.023590 0.025848 0.029266
0.029755 0.032196 0.036591
0.036530 0.039124 0.044617
0.044373 0.047668 0.054626
0.053040 0.057251 0.066010
0.063293 0.069153 0.080811
0.076416 0.084839 0.100677
0.093262 0.104858 0.125702
0.112854 0.131470 0.153839
0.134399 0.163452 0.182678
0.159454 0.203094 0.215485
0.184448 0.239594 0.250854
0.214539 0.272980 0.293060
0.251007 0.309509 0.343842
0.281433 0.340912 0.384735
0.298401 0.358551 0.406464
0.303497 0.364014 0.412262
0.308624 0.369507 0.418091
0.313721 0.374969 0.423889
0.318787 0.380402 0.429718
0.323822 0.385773 0.435547
0.329071 0.391235 0.441040
0.334320 0.396729 0.446594
0.339569 0.402191 0.452087
0.344757 0.407715 0.457733
0.349976 0.413177 0.463318
0.010223 0.011597 0.012939
0.010284 0.011658 0.013000
0.010315 0.011719 0.013062
0.011200 0.012634 0.014130
0.012543 0.014130 0.015808
0.017700 0.019684 0.022186
0.023224 0.025482 0.028839
0.029388 0.031799 0.036133
0.036102 0.038727 0.044098
0.044006 0.047241 0.054169
0.052551 0.056732 0.065369
0.062805 0.068573 0.080048
0.075409 0.083649 0.099182
0.091736 0.103088 0.123413
0.110382 0.127960 0.150330
0.131104 0.158508 0.178375
0.155853 0.197296 0.210449
0.180481 0.234650 0.245026
0.209656 0.268005 0.286438
0.245697 0.304108 0.336243
0.277374 0.336670 0.379578
0.299500 0.359711 0.407806
0.304596 0.365173 0.413605
0.309723 0.370667 0.419434
0.314819 0.376129 0.425201
0.319916 0.381622 0.431030
0.324982 0.387024 0.436859
0.330200 0.392487 0.442352
0.335480 0.397980 0.447876
0.340698 0.403442 0.453400
0.345947 0.408936 0.458923
0.351135 0.414398 0.464539
0.013916 0.015625 0.017548
0.013977 0.015686 0.017609
0.014038 0.015747 0.017670
0.014435 0.016144 0.018127
0.015778 0.017609 0.019836
0.017151 0.019104 0.021515
0.022614 0.024841 0.028107
0.028839 0.031219 0.035461
0.035431 0.038025 0.043304
0.043396 0.046570 0.053375
0.051880 0.055969 0.064484
0.062134 0.067810 0.079102
0.074707 0.082794 0.098083
0.090912 0.102112 0.122192
0.109528 0.126709 0.149078
0.130646 0.157684 0.178009
0.154816 0.195557 0.208862
0.178650 0.231689 0.242493
0.206696 0.264709 0.282288
0.241119 0.299377 0.329559
0.275452 0.334656 0.376984
0.300934 0.361237 0.409515
0.305695 0.366333 0.414917
0.310822 0.371826 0.420746
0.315918 0.377289 0.426544
0.321014 0.382782 0.432343
0.326111 0.388245 0.438141
0.331360 0.393707 0.443665
0.336609 0.399200 0.449188
0.341827 0.404663 0.454681
0.347107 0.410156 0.460236
0.352325 0.415619 0.465729
0.017700 0.019714 0.022217
0.017792 0.019775 0.022308
0.017883 0.019867 0.022400
0.017822 0.019836 0.022369
0.019073 0.021179 0.023926
0.020508 0.022644 0.025604
0.022095 0.024292 0.027496
0.028198 0.030609 0.034729
0.034943 0.037506 0.042725
0.042786 0.045898 0.052551
0.051208 0.055237 0.063599
0.061401 0.066925 0.077942
0.073608 0.081451 0.096405
0.089691 0.100647 0.120453
0.108276 0.124908 0.147308
0.129089 0.155243 0.176086
0.153381 0.193359 0.207184
0.177429 0.230011 0.240723
0.204712 0.263306 0.279907
0.239532 0.297791 0.327332
0.275146 0.334351 0.376495
0.306244 0.366943 0.415405
0.311432 0.372467 0.421448
0.315399 0.376740 0.425964
0.319672 0.381348 0.430878
0.324432 0.386444 0.436279
0.329193 0.391571 0.441681
0.334106 0.396606 0.446655
0.339081 0.401733 0.451691
0.343903 0.406799 0.456787
0.349121 0.412231 0.462280
0.354340 0.417664 0.467743
0.021729 0.023956 0.027069
0.021881 0.024078 0.027252
0.021973 0.024200 0.027374
0.021851 0.024078 0.027222
0.022491 0.024750 0.027985
0.024231 0.026520 0.030029
0.025879 0.028168 0.031952
0.027557 0.029907 0.033936
0.034241 0.036804 0.041870
0.042023 0.045074 0.051575
0.050446 0.054382 0.062592
0.060516 0.065857 0.076599
0.072510 0.080170 0.094788
0.088440 0.099152 0.118561
0.106842 0.122955 0.145325
0.127625 0.153229 0.173828
0.151672 0.190704 0.204956
0.175690 0.228424 0.238068
0.203094 0.261292 0.277527
0.237488 0.295837 0.324646
0.274872 0.334045 0.376373
0.309448 0.370453 0.418823
0.318939 0.380463 0.429779
0.322906 0.384705 0.434235
0.326904 0.388977 0.438812
0.331543 0.393921 0.444000
0.336121 0.398865 0.449249
0.340942 0.403809 0.454102
0.345734 0.408752 0.458923
0.350525 0.413666 0.463776
0.355774 0.419128 0.469147
0.361023 0.424561 0.474518
0.026184 0.028534 0.032349
0.026306 0.028656 0.032501
0.026428 0.028748 0.032623
0.026367 0.028687 0.032532
0.026306 0.028625 0.032471
0.028168 0.030548 0.034668
0.029877 0.032288 0.036682
0.031586 0.034088 0.038757
0.033295 0.035797 0.040741
0.041229 0.044189 0.050537
0.049347 0.053162 0.061157
0.059601 0.064819 0.075348
0.071228 0.078613 0.092834
0.087097 0.097534 0.116577
0.105347 0.120850 0.143158
0.126099 0.150787 0.172089
0.150238 0.188263 0.202637
0.174164 0.225464 0.236084
0.201508 0.259155 0.275116
0.235016 0.293213 0.320862
0.272949 0.332062 0.373810
0.310486 0.371490 0.420197
0.326233 0.388245 0.437897
0.330353 0.392517 0.442200
0.334351 0.396790 0.446686
0.339050 0.401764 0.451874
0.343719 0.406769 0.457062
0.348602 0.411743 0.461945
0.353516 0.416809 0.466919
0.358398 0.421844 0.471832
0.363739 0.427307 0.477234
0.369049 0.432800 0.482605
0.030853 0.033295 0.037872
0.031006 0.033447 0.038055
0.031128 0.033600 0.038208
0.031097 0.033569 0.038147
0.031036 0.033508 0.038086
0.032166 0.034668 0.039429
0.034180 0.036743 0.041809
0.036072 0.038696 0.044098
0.038208 0.040894 0.046661
0.040283 0.043152 0.049316
0.048615 0.052368 0.060211
0.058502 0.063446 0.073547
0.069977 0.077148 0.090973
0.085541 0.095703 0.114258
0.103455 0.118103 0.140533
0.124146 0.147705 0.169586
0.148010 0.184845 0.200073
0.172272 0.222748 0.233368
0.198181 0.256592 0.271027
0.232574 0.290833 0.317657
0.270416 0.329468 0.370209
0.312469 0.373596 0.422638
0.333649 0.396179 0.446259
0.337921 0.400543 0.450562
0.342041 0.404816 0.454773
0.346710 0.409729 0.459778
0.351440 0.414673 0.464844
0.356293 0.419769 0.469666
0.361237 0.424896 0.474640
0.366150 0.429962 0.479584
0.371521 0.435516 0.484985
0.376862 0.441071 0.490387
0.036011 0.038605 0.044006
0.036194 0.038788 0.044220
0.036346 0.038971 0.044403
0.036346 0.038940 0.044373
0.036346 0.038940 0.044373
0.036896 0.039520 0.045044
0.038910 0.041718 0.047607
0.041107 0.044098 0.050385
0.043243 0.046417 0.053162
0.045410 0.048798 0.055969
0.047638 0.051270 0.058899
0.057434 0.062225 0.072083
0.068756 0.075684 0.089081
0.083954 0.093811 0.111938
0.101898 0.116302 0.138184
0.122345 0.145325 0.166779
0.145813 0.181427 0.197205
0.170044 0.220032 0.230072
0.196533 0.253998 0.268341
0.229523 0.287842 0.313538
0.267059 0.325958 0.366211
0.309235 0.370148 0.418762
0.341156 0.404083 0.454407
0.345367 0.408417 0.458679
0.349548 0.412720 0.462799
0.354248 0.417511 0.467529
0.359039 0.422485 0.472504
0.363892 0.427673 0.477295
0.368866 0.432922 0.482178
0.373779 0.438049 0.487091
0.379120 0.443665 0.492401
0.384491 0.449249 0.497772
0.041992 0.045013 0.051514
0.042114 0.045166 0.051697
0.042267 0.045349 0.051910
0.042297 0.045380 0.051941
0.042267 0.045349 0.051910
0.042114 0.045197 0.051727
0.043915 0.047150 0.054047
0.046173 0.049652 0.057007
0.048492 0.052216 0.060028
0.050934 0.054932 0.063263
0.053497 0.057800 0.066650
0.056213 0.060913 0.070496
0.067078 0.073700 0.086548
0.082214 0.091736 0.109314
0.099731 0.113251 0.135132
0.120178 0.141937 0.164185
0.143738 0.178070 0.194397
0.168060 0.216339 0.227448
0.194061 0.251038 0.264740
0.226471 0.284668 0.308960
0.264221 0.323090 0.361969
0.305725 0.366455 0.414551
0.343994 0.407013 0.457306
0.353302 0.416595 0.466705
0.357544 0.420959 0.470978
0.362122 0.425690 0.475616
0.367004 0.430725 0.480499
0.371857 0.435913 0.485260
0.376678 0.441071 0.489990
0.381500 0.446289 0.494720
0.386810 0.451935 0.499939
0.392181 0.457581 0.505249
0.047943 0.051605 0.059326
0.048187 0.051880 0.059631
0.048431 0.052155 0.059937
0.048492 0.052216 0.060028
0.048401 0.052124 0.059937
0.048248 0.051971 0.059723
0.049225 0.053040 0.061005
0.051727 0.055817 0.064301
0.054443 0.058807 0.067841
0.057220 0.061981 0.071716
0.060059 0.065338 0.075989
0.062927 0.068726 0.080231
0.066101 0.072540 0.085083
0.080353 0.089508 0.106598
0.097687 0.110352 0.132233
0.118195 0.139038 0.161346
0.140991 0.173828 0.191071
0.165649 0.213013 0.223969
0.191193 0.247986 0.260803
0.223572 0.281921 0.305359
0.260834 0.319611 0.357300
0.301849 0.362183 0.410522
0.346344 0.409332 0.459381
0.359528 0.423126 0.472931
0.365479 0.429291 0.478882
0.370056 0.433990 0.483551
0.374908 0.438965 0.488495
0.379730 0.444153 0.493164
0.384613 0.449402 0.497894
0.389435 0.454620 0.502594
0.394684 0.460297 0.507690
0.399963 0.466003 0.512817
0.055084 0.059509 0.068695
0.055298 0.059753 0.069000
0.055450 0.059967 0.069214
0.055542 0.060059 0.069366
0.055542 0.060089 0.069397
0.055450 0.059937 0.069244
0.055389 0.059906 0.069244
0.058167 0.063110 0.073181
0.061066 0.066528 0.077423
0.064148 0.070160 0.082092
0.067078 0.073669 0.086517
0.070465 0.077728 0.091675
0.074280 0.082275 0.097504
0.078644 0.087494 0.103973
0.095886 0.108459 0.129486
0.115936 0.135895 0.158173
0.138611 0.170074 0.188019
0.163300 0.209198 0.220673
0.188721 0.244812 0.257111
0.220001 0.278320 0.300354
0.256958 0.315552 0.352295
0.298218 0.358521 0.405396
0.343414 0.406342 0.456512
0.364258 0.428009 0.477631
0.373383 0.437622 0.486694
0.377869 0.442352 0.491180
0.382782 0.447449 0.496124
0.387665 0.452667 0.500824
0.392487 0.457886 0.505493
0.397308 0.463104 0.510162
0.402588 0.468750 0.515289
0.407837 0.474426 0.520386
0.062958 0.068787 0.080292
0.063263 0.069122 0.080750
0.063477 0.069397 0.081055
0.063538 0.069458 0.081177
0.063538 0.069458 0.081207
0.063354 0.069244 0.080933
0.063171 0.069031 0.080627
0.064728 0.070862 0.082977
0.068298 0.075165 0.088409
0.072113 0.079651 0.094147
0.075897 0.084259 0.099915
0.080078 0.089203 0.106171
0.084503 0.094482 0.112732
0.089050 0.099884 0.119446
0.093597 0.105316 0.126221
0.113647 0.132599 0.154968
0.135803 0.165710 0.184479
0.160767 0.205170 0.217194
0.185974 0.241425 0.253143
0.216644 0.275055 0.295898
0.253571 0.312134 0.347229
0.293884 0.353882 0.400604
0.339111 0.401917 0.452179
0.369690 0.433624 0.483154
0.381439 0.446167 0.494659
0.385864 0.450867 0.499054
0.390717 0.456024 0.503845
0.395691 0.461243 0.508453
0.400665 0.466522 0.513062
0.405609 0.471741 0.517670
0.410980 0.477448 0.522736
0.416260 0.483154 0.527863
0.072113 0.079712 0.094208
0.072449 0.080109 0.094727
0.072815 0.080536 0.095245
0.072968 0.080719 0.095490
0.072998 0.080719 0.095490
0.072723 0.080414 0.095093
0.072571 0.080231 0.094849
0.072205 0.079773 0.094299
0.077026 0.085541 0.101593
0.081787 0.091217 0.108673
0.086243 0.096527 0.115326
0.090820 0.102020 0.122131
0.095551 0.107788 0.129028
0.100525 0.114349 0.136230
0.105652 0.121185 0.143616
0.111206 0.129089 0.151459
0.133087 0.161499 0.180939
0.158142 0.200928 0.213562
0.183167 0.238007 0.249023
0.213074 0.271545 0.291107
0.249573 0.308014 0.341736
0.289886 0.349640 0.395630
0.334900 0.397369 0.447296
0.370789 0.434723 0.484283
0.389587 0.454803 0.502686
0.393829 0.459381 0.506836
0.398651 0.464569 0.511536
0.403839 0.469879 0.515991
0.408905 0.475159 0.520599
0.413910 0.480408 0.525116
0.419403 0.486145 0.530090
0.424927 0.491882 0.535034
0.083923 0.093781 0.111877
0.084259 0.094208 0.112396
0.084595 0.094574 0.112854
0.084808 0.094818 0.113159
0.084900 0.094940 0.113312
0.084717 0.094727 0.113037
0.084503 0.094452 0.112732
0.084137 0.094025 0.112213
0.087402 0.097931 0.117035
0.092529 0.104187 0.124542
0.097198 0.109833 0.131470
0.102325 0.116516 0.138916
0.107819 0.124359 0.146667
0.113281 0.132080 0.154419
0.118774 0.139893 0.162201
0.124420 0.148438 0.169647
0.130463 0.157349 0.177795
0.155548 0.196777 0.209900
0.180328 0.234009 0.244995
0.209564 0.267914 0.286316
0.245605 0.303986 0.336060
0.285675 0.345306 0.390045
0.330139 0.392578 0.442749
0.371246 0.435394 0.484619
0.397797 0.463654 0.510712
0.402069 0.468262 0.514862
0.406799 0.473358 0.519440
0.412048 0.478638 0.523834
0.417358 0.483978 0.528229
0.422516 0.489227 0.532654
0.428131 0.494995 0.537537
0.433746 0.500763 0.542450
0.096893 0.109589 0.131012
0.097321 0.110229 0.131592
0.097656 0.110657 0.132080
0.097778 0.110718 0.132294
0.097809 0.110626 0.132385
0.097534 0.110107 0.132019
0.097321 0.109772 0.131714
0.097046 0.109528 0.131256
0.098450 0.111420 0.133301
0.104095 0.119263 0.141357
0.109680 0.126923 0.149292
0.115387 0.135071 0.157318
0.120880 0.143066 0.164978
0.126648 0.151489 0.172913
0.132416 0.160400 0.180176
0.139191 0.170990 0.188721
0.145874 0.181458 0.197205
0.152344 0.191803 0.205963
0.177307 0.230103 0.240540
0.205475 0.264160 0.280975
0.241608 0.299927 0.330383
0.281158 0.340576 0.384460
0.325531 0.387482 0.437134
0.370789 0.434845 0.484161
0.404602 0.470642 0.516663
0.410736 0.477234 0.522583
0.415375 0.482208 0.527069
0.420624 0.487518 0.531464
0.425873 0.492828 0.535858
0.431152 0.498138 0.540253
0.436890 0.503937 0.545044
0.442627 0.509705 0.549866
0.111572 0.129669 0.152039
0.112000 0.130219 0.152588
0.112366 0.130768 0.153137
0.112640 0.131165 0.153503
0.112885 0.131500 0.153870
0.112701 0.131256 0.153625
0.112518 0.131012 0.153381
0.112152 0.130493 0.152863
0.111694 0.129822 0.152191
0.116760 0.137054 0.159332
0.122742 0.145538 0.167786
0.128662 0.154755 0.175262
0.135162 0.164703 0.183685
0.141693 0.174927 0.191864
0.148376 0.185455 0.200592
0.155060 0.196014 0.209259
0.161377 0.206085 0.218018
0.167664 0.216278 0.226807
0.174225 0.225708 0.236145
0.202515 0.260193 0.276489
0.237488 0.295776 0.324524
0.276611 0.335876 0.378540
0.320465 0.382202 0.431732
0.367859 0.431610 0.481415
0.406647 0.472839 0.518616
0.419647 0.486328 0.530212
0.424316 0.491241 0.534546
0.429535 0.496521 0.538910
0.434753 0.501831 0.543274
0.440063 0.507141 0.547699
0.445770 0.512909 0.552490
0.451508 0.518677 0.557281
0.127319 0.152435 0.173859
0.127716 0.153046 0.174377
0.128052 0.153534 0.174774
0.128204 0.153839 0.174988
0.128448 0.154297 0.175171
0.128418 0.154236 0.175079
0.128296 0.154144 0.174866
0.128052 0.153839 0.174438
0.127625 0.153259 0.173828
0.130585 0.157684 0.177826
0.136963 0.167511 0.185944
0.143951 0.178436 0.194794
0.151062 0.189606 0.203766
0.157379 0.199738 0.212524
0.163757 0.209961 0.221313
0.170044 0.219971 0.230103
0.176910 0.229218 0.240051
0.183655 0.238617 0.249725
0.191101 0.247467 0.260437
0.197876 0.256165 0.270569
0.233307 0.291534 0.318634
0.272095 0.331238 0.372406
0.315399 0.376770 0.425964
0.362610 0.426361 0.475952
0.409058 0.475616 0.521332
0.428650 0.495544 0.538055
0.433380 0.500397 0.542114
0.438507 0.505585 0.546387
0.443665 0.510803 0.550690
0.448761 0.515991 0.554932
0.454437 0.521729 0.559662
0.460144 0.527466 0.564392
0.145386 0.180725 0.196564
0.145782 0.181366 0.197174
0.146118 0.181946 0.197723
0.146393 0.182373 0.198090
0.146729 0.182892 0.198486
0.146790 0.182922 0.198456
0.146606 0.182678 0.198273
0.146271 0.182129 0.197723
0.145935 0.181519 0.197144
0.146149 0.181885 0.197449
0.152374 0.191803 0.205902
0.159424 0.203003 0.215332
0.166046 0.213531 0.224579
0.172760 0.223511 0.234039
0.179321 0.233063 0.243378
0.186462 0.242065 0.253815
0.193512 0.250824 0.264160
0.201569 0.259644 0.275421
0.210266 0.268494 0.287201
0.219360 0.277740 0.299561
0.228790 0.287109 0.312531
0.267059 0.325958 0.366302
0.310242 0.371216 0.419952
0.357239 0.420654 0.470612
0.405579 0.471710 0.517609
0.437744 0.504822 0.545776
0.442505 0.509583 0.549744
0.447510 0.514679 0.553864
0.452637 0.519897 0.558105
0.457764 0.525055 0.562347
0.463318 0.530701 0.566956
0.468903 0.536377 0.571564
0.163544 0.209595 0.221008
0.163971 0.210297 0.221619
0.164398 0.210999 0.222229
0.164703 0.211487 0.222656
0.164978 0.211945 0.223022
0.164948 0.211884 0.222992
0.164917 0.211853 0.222961
0.164612 0.211304 0.222504
0.164154 0.210571 0.221863
0.163635 0.209747 0.221130
0.167145 0.215149 0.226044
0.174347 0.226685 0.236145
0.181732 0.235992 0.246979
0.188965 0.245209 0.257538
0.196411 0.254059 0.268250
0.204865 0.263000 0.279846
0.213440 0.271942 0.291595
0.222809 0.281158 0.304321
0.232239 0.290375 0.316833
0.242188 0.300537 0.331207
0.252075 0.310577 0.345367
0.262634 0.321472 0.359619
0.305206 0.365906 0.413910
0.351807 0.415100 0.465179
0.400787 0.466705 0.513306
0.441650 0.508759 0.549042
0.451569 0.518738 0.557312
0.456512 0.523804 0.561401
0.461578 0.528931 0.565521
0.466614 0.534088 0.569672
0.472137 0.539703 0.574219
0.477661 0.545319 0.578796
0.182129 0.236725 0.247498
0.182617 0.237335 0.248199
0.183014 0.237823 0.248810
0.183350 0.238251 0.249268
0.183685 0.238647 0.249756
0.183777 0.238770 0.249878
0.183716 0.238647 0.249786
0.183380 0.238159 0.249329
0.182983 0.237488 0.248810
0.182404 0.236633 0.247986
0.181732 0.236084 0.246948
0.190735 0.247345 0.260071
0.199158 0.256897 0.272003
0.207458 0.266052 0.283600
0.216858 0.275269 0.296204
0.226166 0.284393 0.308655
0.236145 0.294434 0.322632
0.245941 0.304352 0.336609
0.256195 0.314850 0.350861
0.266479 0.325409 0.364990
0.277191 0.336487 0.379272
0.288147 0.347900 0.393433
0.299713 0.360016 0.407684
0.346313 0.409271 0.459259
0.395020 0.460632 0.507996
0.443756 0.510895 0.550720
0.459564 0.526886 0.563873
0.465546 0.532928 0.568787
0.470581 0.538086 0.572937
0.475555 0.543152 0.577026
0.481049 0.548737 0.581543
0.486511 0.554321 0.586029
0.203064 0.261353 0.277527
0.203766 0.261963 0.278442
0.204437 0.262512 0.279297
0.204987 0.262939 0.279938
0.205292 0.263336 0.280426
0.205170 0.263428 0.280365
0.205322 0.263489 0.280487
0.205048 0.263123 0.280090
0.204224 0.262512 0.279083
0.203339 0.261841 0.278046
0.202332 0.261047 0.276794
0.209290 0.267761 0.286011
0.219421 0.277740 0.299530
0.229584 0.287811 0.313446
0.239624 0.297943 0.327576
0.249725 0.308197 0.341919
0.260040 0.318756 0.356140
0.270386 0.329376 0.370575
0.281281 0.340729 0.384674
0.292450 0.352325 0.399048
0.304260 0.364960 0.412598
0.315979 0.377350 0.426605
0.328217 0.390289 0.439911
0.340363 0.403259 0.453613
0.389313 0.454437 0.502411
0.440460 0.507538 0.548035
0.464539 0.531982 0.567963
0.474426 0.541962 0.576080
0.479492 0.547089 0.580261
0.484528 0.552216 0.584381
0.490021 0.557800 0.588867
0.495514 0.563385 0.593384
0.228699 0.286987 0.312286
0.229340 0.287659 0.313263
0.230011 0.288300 0.314117
0.230347 0.288574 0.314453
0.230743 0.288940 0.314911
0.231049 0.289154 0.315186
0.231201 0.289337 0.315430
0.230804 0.289001 0.315033
0.230377 0.288635 0.314575
0.229614 0.287872 0.313568
0.228760 0.287048 0.312378
0.230560 0.288910 0.315033
0.242065 0.300354 0.330902
0.252991 0.311554 0.346405
0.263336 0.322113 0.361298
0.274475 0.333649 0.375732
0.285461 0.345062 0.390076
0.297211 0.357483 0.404175
0.308685 0.369598 0.418121
0.320618 0.382233 0.431580
0.332703 0.395172 0.445282
0.345062 0.408112 0.458313
0.357819 0.421234 0.471191
0.370544 0.434601 0.483887
0.383270 0.448120 0.496490
0.434021 0.501068 0.542633
0.467957 0.535431 0.570801
0.483459 0.551147 0.583496
0.488525 0.556274 0.587677
0.493561 0.561340 0.591797
0.499084 0.566895 0.596313
0.504608 0.572479 0.600830
0.238251 0.296570 0.325623
0.239685 0.298004 0.327667
0.241119 0.299469 0.329712
0.242523 0.300903 0.331757
0.243927 0.302368 0.333801
0.245300 0.303711 0.335632
0.246735 0.305145 0.337677
0.247650 0.306091 0.339050
0.248657 0.307098 0.340454
0.249115 0.307587 0.341125
0.249664 0.308105 0.341888
0.250214 0.308685 0.342651
0.260864 0.319611 0.357330
0.274048 0.333191 0.375122
0.287018 0.346741 0.391724
0.299896 0.360260 0.407623
0.312927 0.374084 0.423065
0.325043 0.387024 0.436768
0.337372 0.400116 0.450348
0.349945 0.413025 0.463043
0.362762 0.426422 0.476227
0.375275 0.439667 0.488586
0.388184 0.453247 0.501312
0.401001 0.466949 0.513519
0.413849 0.480652 0.525726
0.427917 0.494720 0.537292
0.470734 0.538269 0.573090
0.492493 0.560333 0.590942
0.497620 0.565430 0.595123
0.502686 0.570526 0.599274
0.508240 0.576111 0.603790
0.513824 0.581696 0.608337
0.242188 0.300476 0.331085
0.243622 0.301941 0.333160
0.245056 0.303406 0.335205
0.246460 0.304871 0.337280
0.247894 0.306335 0.339355
0.249329 0.307800 0.341400
0.250732 0.309235 0.343445
0.252167 0.310699 0.345490
0.253540 0.312103 0.347473
0.254913 0.313507 0.349487
0.256165 0.314758 0.351257
0.257324 0.315948 0.352905
0.263641 0.322418 0.361786
0.278503 0.337830 0.381042
0.292511 0.352356 0.399139
0.306976 0.367767 0.416046
0.321838 0.383636 0.433289
0.336456 0.399078 0.449127
0.350983 0.414185 0.464294
0.365997 0.429718 0.479492
0.380981 0.445679 0.494293
0.395630 0.461304 0.508606
0.410461 0.476776 0.522003
0.425232 0.492188 0.535309
0.440735 0.507843 0.548218
0.456177 0.523438 0.561127
0.469696 0.537201 0.572235
0.501068 0.568939 0.597931
0.506256 0.574127 0.602173
0.511414 0.579285 0.606384
0.516968 0.584839 0.610901
0.522552 0.590424 0.615448
0.245972 0.304352 0.336548
0.247498 0.305939 0.338562
0.248932 0.307404 0.340637
0.250366 0.308868 0.342712
0.251801 0.310333 0.344757
0.253204 0.311798 0.346832
0.254791 0.313416 0.348846
0.256226 0.314850 0.350891
0.257629 0.316284 0.352936
0.259033 0.317749 0.354980
0.260468 0.319183 0.357025
0.262024 0.320801 0.359039
0.266663 0.325531 0.365631
0.280273 0.339661 0.383240
0.295349 0.355438 0.402191
0.310577 0.371582 0.420502
0.326233 0.388245 0.437897
