滤镜资源/Professional Luts Collection/Triune-Digital-Cinematic-LUTs/3D LUTs (CUBE)/LOG/BW/Noir 2 - LOG.cube
#Created by Benjamin (IWLTBAP) : http://luts.iwltbap.com
#Copyright: (C) Copyright 2016 Triune Films and IWLTBAP
TITLE "Blockbuster LUTs Pack (LOG)"
#LUT size
LUT_3D_SIZE 8
#LUT data points
DOMAIN_MIN 0.000000 0.000000 0.000000
DOMAIN_MAX 0.903226 0.903226 0.903226
0.000000 0.000000 0.000000
0.000000 0.000000 0.000000
0.000000 0.000000 0.000000
0.000000 0.000000 0.000000
0.000000 0.000000 0.000000
0.000000 0.000000 0.000000
0.000000 0.000000 0.000000
0.000000 0.000000 0.000000
0.000000 0.000000 0.000000
0.000000 0.000000 0.000000
0.000000 0.000000 0.000000
0.000000 0.000000 0.000000
0.000000 0.000000 0.000000
0.000000 0.000000 0.000000
0.000000 0.000000 0.000000
0.000000 0.000000 0.000000
0.000000 0.000000 0.000000
0.000000 0.000000 0.000000
0.000000 0.000000 0.000000
0.000000 0.000000 0.000000
0.000000 0.000000 0.000000
0.000000 0.000000 0.000000
0.000000 0.000000 0.000000
0.000000 0.000000 0.000000
0.000000 0.000000 0.000000
0.000000 0.000000 0.000000
0.000000 0.000000 0.000000
0.000000 0.000000 0.000000
0.000000 0.000000 0.000000
0.000000 0.000000 0.000000
0.000000 0.000000 0.000000
0.000000 0.000000 0.000000
0.000000 0.000000 0.000000
0.000000 0.000000 0.000000
0.000000 0.000000 0.000000
0.000000 0.000000 0.000000
0.000000 0.000000 0.000000
0.000000 0.000000 0.000000
0.000000 0.000000 0.000000
0.000000 0.000000 0.000000
0.000000 0.000000 0.000000
0.000000 0.000000 0.000000
0.000000 0.000000 0.000000
0.000000 0.000000 0.000000
0.000000 0.000000 0.000000
0.000000 0.000000 0.000000
0.000000 0.000000 0.000000
0.000000 0.000000 0.000000
0.000000 0.000000 0.000000
0.000000 0.000000 0.000000
0.000000 0.000000 0.000000
0.000000 0.000000 0.000000
0.000000 0.000000 0.000000
0.000000 0.000000 0.000000
0.000000 0.000000 0.000000
0.000000 0.000000 0.000000
0.000000 0.000000 0.000000
0.000000 0.000000 0.000000
0.000000 0.000000 0.000000
0.000000 0.000000 0.000000
0.000000 0.000000 0.000000
0.000000 0.000000 0.000000
0.000000 0.000000 0.000000
0.000000 0.000000 0.000000
0.000000 0.000000 0.000000
0.000000 0.000000 0.000000
0.000000 0.000000 0.000000
0.000000 0.000000 0.000000
0.000000 0.000000 0.000000
0.000000 0.000000 0.000000
0.000000 0.000000 0.000000
0.000000 0.000000 0.000000
0.000000 0.000000 0.000000
0.084778 0.084778 0.084778
0.067505 0.067505 0.067505
0.045227 0.045227 0.045227
0.025818 0.025818 0.025818
0.025818 0.025818 0.025818
0.025818 0.025818 0.025818
0.025818 0.025818 0.025818
0.000000 0.000000 0.000000
0.025818 0.025818 0.025818
0.025818 0.025818 0.025818
0.025818 0.025818 0.025818
0.025818 0.025818 0.025818
0.025818 0.025818 0.025818
0.025818 0.025818 0.025818
0.025818 0.025818 0.025818
0.000000 0.000000 0.000000
0.025818 0.025818 0.025818
0.025818 0.025818 0.025818
0.025818 0.025818 0.025818
0.025818 0.025818 0.025818
0.025818 0.025818 0.025818
0.025818 0.025818 0.025818
0.025818 0.025818 0.025818
0.000000 0.000000 0.000000
0.025818 0.025818 0.025818
0.025818 0.025818 0.025818
0.025818 0.025818 0.025818
0.025818 0.025818 0.025818
0.025818 0.025818 0.025818
0.025818 0.025818 0.025818
0.025818 0.025818 0.025818
0.000000 0.000000 0.000000
0.025818 0.025818 0.025818
0.025818 0.025818 0.025818
0.025818 0.025818 0.025818
0.025818 0.025818 0.025818
0.025818 0.025818 0.025818
0.025818 0.025818 0.025818
0.025818 0.025818 0.025818
0.000000 0.000000 0.000000
0.025818 0.025818 0.025818
0.025818 0.025818 0.025818
0.025818 0.025818 0.025818
0.025818 0.025818 0.025818
0.025818 0.025818 0.025818
0.025818 0.025818 0.025818
0.025818 0.025818 0.025818
0.000000 0.000000 0.000000
0.025818 0.025818 0.025818
0.025818 0.025818 0.025818
0.025818 0.025818 0.025818
0.025818 0.025818 0.025818
0.025818 0.025818 0.025818
0.025818 0.025818 0.025818
0.025818 0.025818 0.025818
0.000000 0.000000 0.000000
0.000000 0.000000 0.000000
0.000000 0.000000 0.000000
0.000000 0.000000 0.000000
0.000000 0.000000 0.000000
0.000000 0.000000 0.000000
0.000000 0.000000 0.000000
0.000000 0.000000 0.000000
0.000000 0.000000 0.000000
0.079041 0.079041 0.079041
0.061249 0.061249 0.061249
0.038483 0.038483 0.038483
0.025818 0.025818 0.025818
0.025818 0.025818 0.025818
0.025818 0.025818 0.025818
0.025818 0.025818 0.025818
0.000000 0.000000 0.000000
0.025818 0.025818 0.025818
0.215515 0.215515 0.215515
0.197144 0.197144 0.197144
0.176300 0.176300 0.176300
0.153137 0.153137 0.153137
0.128082 0.128082 0.128082
0.117523 0.117523 0.117523
0.000000 0.000000 0.000000
0.025818 0.025818 0.025818
0.152740 0.152740 0.152740
0.134033 0.134033 0.134033
0.112122 0.112122 0.112122
0.086761 0.086761 0.086761
0.057953 0.057953 0.057953
0.051605 0.051605 0.051605
0.000000 0.000000 0.000000
0.025818 0.025818 0.025818
0.077423 0.077423 0.077423
0.056183 0.056183 0.056183
0.051605 0.051605 0.051605
0.051605 0.051605 0.051605
0.051605 0.051605 0.051605
0.051605 0.051605 0.051605
0.000000 0.000000 0.000000
0.025818 0.025818 0.025818
0.051605 0.051605 0.051605
0.051605 0.051605 0.051605
0.051605 0.051605 0.051605
0.051605 0.051605 0.051605
0.051605 0.051605 0.051605
0.051605 0.051605 0.051605
0.000000 0.000000 0.000000
0.025818 0.025818 0.025818
0.051605 0.051605 0.051605
0.051605 0.051605 0.051605
0.051605 0.051605 0.051605
0.051605 0.051605 0.051605
0.051605 0.051605 0.051605
0.051605 0.051605 0.051605
0.000000 0.000000 0.000000
0.025818 0.025818 0.025818
0.051605 0.051605 0.051605
0.051605 0.051605 0.051605
0.051605 0.051605 0.051605
0.051605 0.051605 0.051605
0.051605 0.051605 0.051605
0.051605 0.051605 0.051605
0.000000 0.000000 0.000000
0.000000 0.000000 0.000000
0.000000 0.000000 0.000000
0.000000 0.000000 0.000000
0.000000 0.000000 0.000000
0.000000 0.000000 0.000000
0.000000 0.000000 0.000000
0.000000 0.000000 0.000000
0.000000 0.000000 0.000000
0.071960 0.071960 0.071960
0.053955 0.053955 0.053955
0.028992 0.028992 0.028992
0.025818 0.025818 0.025818
0.025818 0.025818 0.025818
0.025818 0.025818 0.025818
0.025818 0.025818 0.025818
0.000000 0.000000 0.000000
0.025818 0.025818 0.025818
0.209198 0.209198 0.209198
0.190979 0.190979 0.190979
0.169983 0.169983 0.169983
0.146790 0.146790 0.146790
0.121552 0.121552 0.121552
0.110474 0.110474 0.110474
0.000000 0.000000 0.000000
0.025818 0.025818 0.025818
0.146515 0.146515 0.146515
0.357178 0.357178 0.357178
0.337860 0.337860 0.337860
0.316711 0.316711 0.316711
0.293915 0.293915 0.293915
0.281189 0.281189 0.281189
0.000000 0.000000 0.000000
0.025818 0.025818 0.025818
0.069458 0.069458 0.069458
0.291779 0.291779 0.291779
0.272003 0.272003 0.272003
0.250488 0.250488 0.250488
0.227112 0.227112 0.227112
0.211670 0.211670 0.211670
0.000000 0.000000 0.000000
0.025818 0.025818 0.025818
0.051605 0.051605 0.051605
0.218689 0.218689 0.218689
0.198181 0.198181 0.198181
0.175140 0.175140 0.175140
0.149658 0.149658 0.149658
0.130615 0.130615 0.130615
0.000000 0.000000 0.000000
0.025818 0.025818 0.025818
0.051605 0.051605 0.051605
0.134216 0.134216 0.134216
0.112946 0.112946 0.112946
0.093323 0.093323 0.093323
0.077423 0.077423 0.077423
0.077423 0.077423 0.077423
0.000000 0.000000 0.000000
0.025818 0.025818 0.025818
0.051605 0.051605 0.051605
0.077423 0.077423 0.077423
0.077423 0.077423 0.077423
0.077423 0.077423 0.077423
0.077423 0.077423 0.077423
0.077423 0.077423 0.077423
0.000000 0.000000 0.000000
0.000000 0.000000 0.000000
0.000000 0.000000 0.000000
0.000000 0.000000 0.000000
0.000000 0.000000 0.000000
0.000000 0.000000 0.000000
0.000000 0.000000 0.000000
0.000000 0.000000 0.000000
0.000000 0.000000 0.000000
0.063782 0.063782 0.063782
0.045135 0.045135 0.045135
0.025818 0.025818 0.025818
0.025818 0.025818 0.025818
0.025818 0.025818 0.025818
0.025818 0.025818 0.025818
0.025818 0.025818 0.025818
0.000000 0.000000 0.000000
0.025818 0.025818 0.025818
0.202393 0.202393 0.202393
0.183838 0.183838 0.183838
0.162689 0.162689 0.162689
0.139435 0.139435 0.139435
0.113922 0.113922 0.113922
0.102325 0.102325 0.102325
0.000000 0.000000 0.000000
0.025818 0.025818 0.025818
0.139191 0.139191 0.139191
0.350586 0.350586 0.350586
0.331238 0.331238 0.331238
0.309998 0.309998 0.309998
0.287109 0.287109 0.287109
0.274261 0.274261 0.274261
0.000000 0.000000 0.000000
0.025818 0.025818 0.025818
0.060516 0.060516 0.060516
0.284973 0.284973 0.284973
0.506866 0.506866 0.506866
0.486755 0.486755 0.486755
0.465118 0.465118 0.465118
0.450623 0.450623 0.450623
0.000000 0.000000 0.000000
0.025818 0.025818 0.025818
0.051605 0.051605 0.051605
0.211700 0.211700 0.211700
0.438690 0.438690 0.438690
0.418243 0.418243 0.418243
0.396210 0.396210 0.396210
0.379395 0.379395 0.379395
0.000000 0.000000 0.000000
0.025818 0.025818 0.025818
0.051605 0.051605 0.051605
0.126404 0.126404 0.126404
0.364594 0.364594 0.364594
0.343811 0.343811 0.343811
0.321259 0.321259 0.321259
0.301300 0.301300 0.301300
0.000000 0.000000 0.000000
0.025818 0.025818 0.025818
0.051605 0.051605 0.051605
0.077423 0.077423 0.077423
0.297211 0.297211 0.297211
0.273071 0.273071 0.273071
0.247192 0.247192 0.247192
0.221191 0.221191 0.221191
0.000000 0.000000 0.000000
0.000000 0.000000 0.000000
0.000000 0.000000 0.000000
0.000000 0.000000 0.000000
0.000000 0.000000 0.000000
0.000000 0.000000 0.000000
0.000000 0.000000 0.000000
0.000000 0.000000 0.000000
0.000000 0.000000 0.000000
0.054993 0.054993 0.054993
0.034821 0.034821 0.034821
0.025818 0.025818 0.025818
0.025818 0.025818 0.025818
0.025818 0.025818 0.025818
0.025818 0.025818 0.025818
0.025818 0.025818 0.025818
0.000000 0.000000 0.000000
0.025818 0.025818 0.025818
0.194733 0.194733 0.194733
0.176056 0.176056 0.176056
0.154968 0.154968 0.154968
0.131592 0.131592 0.131592
0.105652 0.105652 0.105652
0.093536 0.093536 0.093536
0.000000 0.000000 0.000000
0.025818 0.025818 0.025818
0.131409 0.131409 0.131409
0.343567 0.343567 0.343567
0.324158 0.324158 0.324158
0.302917 0.302917 0.302917
0.279694 0.279694 0.279694
0.266693 0.266693 0.266693
0.000000 0.000000 0.000000
0.025818 0.025818 0.025818
0.053375 0.053375 0.053375
0.277618 0.277618 0.277618
0.500183 0.500183 0.500183
0.480011 0.480011 0.480011
0.458191 0.458191 0.458191
0.443390 0.443390 0.443390
0.000000 0.000000 0.000000
0.025818 0.025818 0.025818
0.051605 0.051605 0.051605
0.204163 0.204163 0.204163
0.431946 0.431946 0.431946
0.663361 0.663361 0.663361
0.642395 0.642395 0.642395
0.625732 0.625732 0.625732
0.000000 0.000000 0.000000
0.025818 0.025818 0.025818
0.051605 0.051605 0.051605
0.118835 0.118835 0.118835
0.357452 0.357452 0.357452
0.592682 0.592682 0.592682
0.571411 0.571411 0.571411
0.552765 0.552765 0.552765
0.000000 0.000000 0.000000
0.025818 0.025818 0.025818
0.051605 0.051605 0.051605
0.077423 0.077423 0.077423
0.289062 0.289062 0.289062
0.526154 0.526154 0.526154
0.502441 0.502441 0.502441
0.479034 0.479034 0.479034
0.000000 0.000000 0.000000
0.000000 0.000000 0.000000
0.000000 0.000000 0.000000
0.000000 0.000000 0.000000
0.000000 0.000000 0.000000
0.000000 0.000000 0.000000
0.000000 0.000000 0.000000
0.000000 0.000000 0.000000
0.000000 0.000000 0.000000
0.046692 0.046692 0.046692
0.025818 0.025818 0.025818
0.025818 0.025818 0.025818
0.025818 0.025818 0.025818
0.025818 0.025818 0.025818
0.025818 0.025818 0.025818
0.025818 0.025818 0.025818
0.000000 0.000000 0.000000
0.025818 0.025818 0.025818
0.187042 0.187042 0.187042
0.168243 0.168243 0.168243
0.146545 0.146545 0.146545
0.122864 0.122864 0.122864
0.096436 0.096436 0.096436
0.083527 0.083527 0.083527
0.000000 0.000000 0.000000
0.025818 0.025818 0.025818
0.122742 0.122742 0.122742
0.335876 0.335876 0.335876
0.316406 0.316406 0.316406
0.295044 0.295044 0.295044
0.271973 0.271973 0.271973
0.258728 0.258728 0.258728
0.000000 0.000000 0.000000
0.025818 0.025818 0.025818
0.051605 0.051605 0.051605
0.269958 0.269958 0.269958
0.492798 0.492798 0.492798
0.472626 0.472626 0.472626
0.450897 0.450897 0.450897
0.435699 0.435699 0.435699
0.000000 0.000000 0.000000
0.025818 0.025818 0.025818
0.051605 0.051605 0.051605
0.195923 0.195923 0.195923
0.424408 0.424408 0.424408
0.656342 0.656342 0.656342
0.635162 0.635162 0.635162
0.618378 0.618378 0.618378
0.000000 0.000000 0.000000
0.025818 0.025818 0.025818
0.051605 0.051605 0.051605
0.110809 0.110809 0.110809
0.350037 0.350037 0.350037
0.585510 0.585510 0.585510
0.825287 0.825287 0.825287
0.806854 0.806854 0.806854
0.000000 0.000000 0.000000
0.025818 0.025818 0.025818
0.051605 0.051605 0.051605
0.077423 0.077423 0.077423
0.280304 0.280304 0.280304
0.518097 0.518097 0.518097
0.758209 0.758209 0.758209
0.735291 0.735291 0.735291
0.000000 0.000000 0.000000
0.000000 0.000000 0.000000
0.000000 0.000000 0.000000
0.000000 0.000000 0.000000
0.000000 0.000000 0.000000
0.000000 0.000000 0.000000
0.000000 0.000000 0.000000
0.000000 0.000000 0.000000
0.000000 0.000000 0.000000
0.043030 0.043030 0.043030
0.025818 0.025818 0.025818
0.025818 0.025818 0.025818
0.025818 0.025818 0.025818
0.025818 0.025818 0.025818
0.025818 0.025818 0.025818
0.025818 0.025818 0.025818
0.000000 0.000000 0.000000
0.025818 0.025818 0.025818
0.183838 0.183838 0.183838
0.164734 0.164734 0.164734
0.143402 0.143402 0.143402
0.119446 0.119446 0.119446
0.092407 0.092407 0.092407
0.078613 0.078613 0.078613
0.000000 0.000000 0.000000
0.025818 0.025818 0.025818
0.119263 0.119263 0.119263
0.332123 0.332123 0.332123
0.312592 0.312592 0.312592
0.290985 0.290985 0.290985
0.267517 0.267517 0.267517
0.253723 0.253723 0.253723
0.000000 0.000000 0.000000
0.025818 0.025818 0.025818
0.051605 0.051605 0.051605
0.265442 0.265442 0.265442
0.488403 0.488403 0.488403
0.467834 0.467834 0.467834
0.445862 0.445862 0.445862
0.430328 0.430328 0.430328
0.000000 0.000000 0.000000
0.025818 0.025818 0.025818
0.051605 0.051605 0.051605
0.190247 0.190247 0.190247
0.419037 0.419037 0.419037
0.650940 0.650940 0.650940
0.629730 0.629730 0.629730
0.612488 0.612488 0.612488
0.000000 0.000000 0.000000
0.025818 0.025818 0.025818
0.051605 0.051605 0.051605
0.105408 0.105408 0.105408
0.343781 0.343781 0.343781
0.579346 0.579346 0.579346
0.819305 0.819305 0.819305
0.800385 0.800385 0.800385
0.000000 0.000000 0.000000
0.025818 0.025818 0.025818
0.051605 0.051605 0.051605
0.077423 0.077423 0.077423
0.272125 0.272125 0.272125
0.510376 0.510376 0.510376
0.750580 0.750580 0.750580
0.978607 0.978607 0.978607
