滤镜资源/Professional Luts Collection/Triune-Digital-Cinematic-LUTs/3D LUTs (CUBE)/LOG/BW/Noir 3 - LOG.cube
#Created by Benjamin (IWLTBAP) : http://luts.iwltbap.com
#Copyright: (C) Copyright 2016 Triune Films and IWLTBAP
TITLE "Blockbuster LUTs Pack (LOG)"
#LUT size
LUT_3D_SIZE 5
#LUT data points
DOMAIN_MIN 0.000000 0.000000 0.000000
DOMAIN_MAX 0.903226 0.903226 0.903226
0.000000 0.000488 0.000244
0.031860 0.034332 0.039062
0.119537 0.141052 0.163208
0.295105 0.355072 0.402496
0.330811 0.393066 0.442871
0.021729 0.023956 0.027069
0.027557 0.029907 0.033936
0.106842 0.122955 0.145325
0.309448 0.370453 0.418823
0.345734 0.408752 0.458923
0.062958 0.068787 0.080292
0.064728 0.070862 0.082977
0.093597 0.105316 0.126221
0.293884 0.353882 0.400604
0.400665 0.466522 0.513062
0.163544 0.209595 0.221008
0.164612 0.211304 0.222504
0.196411 0.254059 0.268250
0.262634 0.321472 0.359619
0.461578 0.528931 0.565521
0.249786 0.308258 0.342072
0.260284 0.319061 0.356323
0.296936 0.357178 0.403992
0.409058 0.475403 0.520874
0.515808 0.583374 0.609772
0.015076 0.016876 0.018982
0.039307 0.042114 0.048096
0.136810 0.167328 0.185699
0.326050 0.388184 0.438110
0.357880 0.421387 0.471313
0.010437 0.011841 0.013184
0.055817 0.060577 0.070251
0.166992 0.214691 0.226105
0.393311 0.458618 0.505585
0.408264 0.473999 0.519104
0.054138 0.058472 0.067474
0.079895 0.088989 0.105865
0.108002 0.124969 0.146820
0.324615 0.386505 0.435974
0.438446 0.505585 0.546234
0.152893 0.192566 0.206329
0.183929 0.237427 0.250031
0.220123 0.278595 0.300964
0.291870 0.352051 0.396759
0.499542 0.566956 0.596466
0.236511 0.294678 0.322876
0.293304 0.353607 0.398468
0.331268 0.393311 0.442657
0.446899 0.514130 0.553284
0.554169 0.618713 0.639160
0.038300 0.040985 0.046722
0.072174 0.079773 0.094299
0.169525 0.218536 0.229523
0.395691 0.461395 0.508667
0.429535 0.496490 0.538910
0.032379 0.034882 0.039703
0.099457 0.113495 0.134552
0.198029 0.254669 0.269928
0.452057 0.519287 0.557587
0.471069 0.538574 0.573303
0.025146 0.027435 0.031128
0.035919 0.038635 0.044098
0.313324 0.374390 0.422424
0.611481 0.666901 0.680145
0.709442 0.744995 0.746002
0.093475 0.105133 0.126007
0.121552 0.144348 0.165497
0.412262 0.478394 0.523132
0.471405 0.538879 0.573608
0.660919 0.705902 0.713379
0.187866 0.243835 0.255920
0.240021 0.298676 0.328278
0.441498 0.508606 0.548737
0.520844 0.587952 0.613617
0.592224 0.651215 0.666748
0.062531 0.068237 0.079651
0.117279 0.137787 0.160095
0.253693 0.312225 0.347595
0.468445 0.535950 0.571228
0.507080 0.574951 0.602844
0.061707 0.067261 0.078369
0.162018 0.207214 0.219086
0.306488 0.367310 0.415222
0.510925 0.578247 0.605652
0.536346 0.602264 0.625549
0.056335 0.060913 0.070374
0.073883 0.081787 0.096741
0.459503 0.526855 0.563843
0.671600 0.714233 0.720490
0.765137 0.793121 0.786072
0.045074 0.048431 0.055542
0.059204 0.064423 0.074951
0.239899 0.298218 0.327637
0.792389 0.817932 0.808563
0.873047 0.889984 0.878265
0.104401 0.119476 0.141815
0.139984 0.172394 0.190308
0.262146 0.320984 0.358826
0.827789 0.849060 0.838013
0.857513 0.875519 0.863525
0.067078 0.073700 0.086548
0.122986 0.146118 0.167908
0.263672 0.322479 0.361420
0.486511 0.554291 0.586029
0.515808 0.583374 0.609772
0.066193 0.072632 0.085205
0.164856 0.211151 0.223175
0.312439 0.373657 0.422119
0.524078 0.591614 0.616486
0.554169 0.618713 0.639160
0.064819 0.071014 0.083160
0.088226 0.099243 0.118164
0.497253 0.564941 0.594757
0.720856 0.754211 0.753571
0.781036 0.807587 0.799042
0.063385 0.069244 0.080902
0.085754 0.096069 0.114594
0.306763 0.367615 0.415466
0.835693 0.856049 0.844696
0.885406 0.902130 0.890778
0.062378 0.068085 0.079376
0.084198 0.094116 0.112244
0.156555 0.198608 0.211975
0.727600 0.760193 0.758484
0.931427 0.950439 0.941803
