滤镜资源/Professional Luts Collection/Triune-Digital-Cinematic-LUTs/3D LUTs (CUBE)/LOG/BW/Noir 3 - LOG.cube
#Created by Benjamin (IWLTBAP) : http://luts.iwltbap.com
#Copyright: (C) Copyright 2016 Triune Films and IWLTBAP
TITLE "Blockbuster LUTs Pack (LOG)"
#LUT size
LUT_3D_SIZE 8
#LUT data points
DOMAIN_MIN 0.000000 0.000000 0.000000
DOMAIN_MAX 0.903226 0.903226 0.903226
0.000000 0.000488 0.000244
0.014618 0.016357 0.018402
0.039154 0.041962 0.047913
0.082001 0.091461 0.109009
0.166809 0.214752 0.225555
0.284363 0.343933 0.388672
0.310272 0.371277 0.419983
0.330811 0.393066 0.442871
0.010223 0.011597 0.012939
0.012543 0.014130 0.015808
0.036102 0.038727 0.044098
0.075409 0.083649 0.099182
0.155853 0.197296 0.210449
0.277374 0.336670 0.379578
0.314819 0.376129 0.425201
0.335480 0.397980 0.447876
0.026184 0.028534 0.032349
0.026306 0.028625 0.032471
0.033295 0.035797 0.040741
0.071228 0.078613 0.092834
0.150238 0.188263 0.202637
0.272949 0.332062 0.373810
0.334351 0.396790 0.446686
0.353516 0.416809 0.466919
0.047943 0.051605 0.059326
0.048401 0.052124 0.059937
0.054443 0.058807 0.067841
0.066101 0.072540 0.085083
0.140991 0.173828 0.191071
0.260834 0.319611 0.357300
0.365479 0.429291 0.478882
0.384613 0.449402 0.497894
0.083923 0.093781 0.111877
0.084900 0.094940 0.113312
0.087402 0.097931 0.117035
0.107819 0.124359 0.146667
0.130463 0.157349 0.177795
0.245605 0.303986 0.336060
0.397797 0.463654 0.510712
0.417358 0.483978 0.528229
0.145386 0.180725 0.196564
0.146729 0.182892 0.198486
0.145935 0.181519 0.197144
0.166046 0.213531 0.224579
0.193512 0.250824 0.264160
0.228790 0.287109 0.312531
0.405579 0.471710 0.517609
0.452637 0.519897 0.558105
0.228699 0.286987 0.312286
0.230743 0.288940 0.314911
0.230377 0.288635 0.314575
0.242065 0.300354 0.330902
0.285461 0.345062 0.390076
0.332703 0.395172 0.445282
0.383270 0.448120 0.496490
0.488525 0.556274 0.587677
0.249786 0.308258 0.342072
0.255707 0.314331 0.350220
0.261688 0.320496 0.358368
0.269012 0.328033 0.368469
0.328033 0.390137 0.439880
0.392456 0.457825 0.505432
0.461395 0.528778 0.565399
0.515808 0.583374 0.609772
0.007233 0.008362 0.009216
0.017334 0.019287 0.021729
0.042267 0.045319 0.051880
0.086761 0.097137 0.116058
0.171021 0.220795 0.231598
0.287781 0.347504 0.392822
0.314819 0.376129 0.425201
0.335480 0.397980 0.447876
0.004913 0.005829 0.006348
0.022247 0.024414 0.027649
0.046539 0.050049 0.057465
0.088593 0.099365 0.118774
0.166046 0.213104 0.224701
0.295380 0.355469 0.402374
0.335663 0.398041 0.447571
0.356750 0.420166 0.469727
0.023956 0.026215 0.029694
0.029419 0.031860 0.036163
0.037079 0.039703 0.045288
0.077911 0.086609 0.102905
0.160004 0.204041 0.216400
0.289978 0.349762 0.395569
0.355225 0.418457 0.468201
0.374481 0.438873 0.487732
0.045685 0.049103 0.056335
0.052948 0.057220 0.066010
0.059265 0.064453 0.074890
0.072174 0.079773 0.094238
0.151794 0.190857 0.205109
0.277527 0.336884 0.379364
0.386414 0.451599 0.499420
0.406036 0.472015 0.517731
0.079651 0.088654 0.105499
0.092743 0.104279 0.124908
0.095398 0.107941 0.128693
0.116943 0.137390 0.159576
0.140808 0.173584 0.190979
0.261749 0.320557 0.358337
0.419983 0.486450 0.530060
0.439575 0.506592 0.547028
0.139160 0.170929 0.188690
0.157471 0.199982 0.212921
0.156616 0.198608 0.211731
0.176788 0.228821 0.239868
0.207123 0.264893 0.282745
0.244293 0.302765 0.334167
0.426208 0.492798 0.535431
0.474548 0.542114 0.576172
0.220306 0.278656 0.300781
0.246765 0.305237 0.337830
0.246307 0.304840 0.337433
0.257965 0.316650 0.353180
0.303741 0.364471 0.411591
0.351959 0.415192 0.465179
0.403107 0.468903 0.514801
0.510284 0.577911 0.605316
0.242218 0.300507 0.331116
0.273987 0.333221 0.374664
0.280243 0.339722 0.382721
0.287598 0.347443 0.391937
0.348450 0.411407 0.461212
0.413788 0.480194 0.524902
0.483002 0.550629 0.583130
0.537750 0.604065 0.626923
0.017822 0.019836 0.022369
0.028198 0.030579 0.034729
0.048645 0.052399 0.060242
0.099854 0.113617 0.135254
0.189545 0.245758 0.258270
0.321991 0.383728 0.433197
0.348358 0.411438 0.461456
0.367523 0.431519 0.480896
0.015594 0.017456 0.019592
0.033325 0.035858 0.040802
0.052429 0.056641 0.065369
0.100189 0.114258 0.135620
0.184448 0.239105 0.250916
0.324432 0.386505 0.436096
0.364319 0.428101 0.477356
0.383545 0.448486 0.496674
0.012360 0.013916 0.015594
0.017273 0.019226 0.021698
0.073608 0.081482 0.096405
0.138947 0.170654 0.188568
0.237335 0.295776 0.324707
0.387573 0.452972 0.500458
0.440887 0.507904 0.548309
0.451874 0.519165 0.557434
0.034149 0.036713 0.041779
0.041107 0.044159 0.050507
0.092377 0.103821 0.124390
0.105042 0.120422 0.142731
0.188446 0.244507 0.256744
0.319427 0.381042 0.430450
0.413086 0.479248 0.523865
0.427490 0.494141 0.536530
0.068939 0.075897 0.089386
0.082062 0.091522 0.109009
0.112061 0.130463 0.152496
0.126953 0.152466 0.172699
0.150238 0.188416 0.203094
0.276611 0.335968 0.377991
0.441315 0.508362 0.548370
0.461212 0.528625 0.565125
0.132172 0.160034 0.179932
0.150787 0.189301 0.203796
0.166443 0.213837 0.225342
0.186737 0.241913 0.254120
0.219940 0.278015 0.300201
0.258636 0.317352 0.354187
0.444855 0.512085 0.551575
0.496155 0.563843 0.593872
0.211029 0.269562 0.288361
0.237183 0.295563 0.324402
0.262115 0.321014 0.358124
0.273132 0.332336 0.373444
0.320862 0.382507 0.430969
0.370178 0.434235 0.483521
0.422272 0.488770 0.531921
0.531616 0.598022 0.621979
0.234619 0.292816 0.320343
0.265869 0.324799 0.363800
0.299683 0.360229 0.406494
0.306335 0.367249 0.414520
0.368622 0.432861 0.481812
0.435211 0.502197 0.543427
0.504181 0.571655 0.600281
0.559601 0.623535 0.643250
0.030487 0.032928 0.037415
0.042328 0.045380 0.051941
0.067810 0.074554 0.087677
0.115417 0.135132 0.157379
0.212219 0.270630 0.289886
0.358673 0.422180 0.472107
0.388245 0.453400 0.501404
0.407837 0.474091 0.519684
0.028046 0.030426 0.034546
0.047302 0.050903 0.058502
0.071899 0.079437 0.093842
0.112183 0.130554 0.152832
0.206635 0.264709 0.282227
0.360809 0.424225 0.473907
0.404816 0.470764 0.516418
0.425079 0.491760 0.534698
0.024475 0.026733 0.030304
0.030121 0.032562 0.037018
0.102509 0.117767 0.138855
0.155853 0.197357 0.210663
0.262207 0.321075 0.358734
0.420074 0.486237 0.529602
0.478241 0.545868 0.579163
0.489044 0.556641 0.588043
0.020447 0.022644 0.025574
0.026062 0.028381 0.032196
0.060577 0.066101 0.077087
0.200775 0.259094 0.274536
0.337433 0.399902 0.449615
0.508789 0.576569 0.604187
0.613800 0.668762 0.681763
0.622589 0.675659 0.687714
0.047089 0.050690 0.058197
0.055481 0.060120 0.069580
0.071350 0.078766 0.093018
0.243347 0.301697 0.332642
0.269012 0.328003 0.368317
0.432556 0.499542 0.541412
0.589111 0.648956 0.664764
0.596649 0.654877 0.669891
0.095428 0.107605 0.128876
0.111511 0.129639 0.151886
0.128540 0.155212 0.174408
0.288391 0.348175 0.393463
0.318359 0.379822 0.428955
0.347778 0.410889 0.460999
0.524475 0.591370 0.616455
0.562256 0.626129 0.645416
0.180511 0.234619 0.245148
0.203644 0.260498 0.277802
0.228821 0.287262 0.313019
0.330688 0.392975 0.442841
0.365143 0.429260 0.478302
0.399353 0.465454 0.512115
0.438904 0.506012 0.546661
0.552612 0.617279 0.637970
0.219147 0.277496 0.299194
0.251251 0.309937 0.344116
0.286957 0.346924 0.390594
0.326477 0.388184 0.437225
0.388611 0.453583 0.500793
0.455963 0.523315 0.560822
0.524628 0.591217 0.616394
0.581329 0.641937 0.658905
0.046906 0.050446 0.057953
0.060760 0.066132 0.076965
0.098877 0.111847 0.133972
0.158936 0.202209 0.214600
0.240143 0.298523 0.328461
0.398041 0.463715 0.510620
0.431732 0.498749 0.540771
0.452148 0.519379 0.557678
0.044067 0.047333 0.054230
0.065216 0.071442 0.083710
0.101318 0.115540 0.137390
0.153900 0.194214 0.207947
0.234222 0.292511 0.320221
0.399078 0.464996 0.511505
0.448822 0.516022 0.554779
0.469269 0.536774 0.571808
0.039825 0.042633 0.048676
0.046631 0.050171 0.057617
0.139954 0.172333 0.190125
0.200989 0.258148 0.274200
0.288879 0.348724 0.393768
0.452087 0.519379 0.557587
0.515686 0.582855 0.609436
0.525848 0.592773 0.617615
0.034790 0.037354 0.042542
0.041779 0.044891 0.051392
0.085815 0.096100 0.114655
0.262299 0.321106 0.359497
0.368988 0.433105 0.482239
0.541412 0.607147 0.629578
0.652435 0.699219 0.707794
0.661346 0.706177 0.713654
0.030151 0.032562 0.036987
0.036621 0.039246 0.044739
0.045471 0.048889 0.056091
0.174652 0.226044 0.236786
0.453766 0.521057 0.558899
0.627991 0.680054 0.691406
0.771057 0.798523 0.791046
0.777527 0.804321 0.795776
0.063293 0.069183 0.080780
0.074829 0.082886 0.098206
0.086884 0.097260 0.116180
0.206512 0.263916 0.281708
0.515533 0.582672 0.609314
0.548920 0.614410 0.635529
0.726044 0.758759 0.757355
0.760712 0.789154 0.782684
0.129120 0.155334 0.175964
0.148926 0.186371 0.201477
0.167480 0.214935 0.226685
0.236084 0.294373 0.322693
0.573792 0.635773 0.653625
0.607971 0.663940 0.677643
0.641296 0.690491 0.700470
0.736816 0.768219 0.765167
0.162720 0.208313 0.219879
0.185242 0.239838 0.252228
0.213501 0.271027 0.291229
0.247864 0.306580 0.338531
0.574738 0.636627 0.654358
0.621155 0.674469 0.686676
0.667480 0.710968 0.717712
0.704102 0.740326 0.742157
0.061890 0.067474 0.078674
0.080017 0.089081 0.105988
0.131165 0.158569 0.178497
0.200928 0.259064 0.274567
0.308441 0.369324 0.417725
0.438293 0.505341 0.546204
0.476898 0.544556 0.578156
0.497314 0.565125 0.594849
0.061371 0.066864 0.077850
0.088104 0.098724 0.117981
0.134308 0.163452 0.182587
0.199768 0.257629 0.272858
0.306183 0.367004 0.414734
0.440002 0.506989 0.547333
0.494781 0.562500 0.592773
0.514832 0.582214 0.608887
0.058868 0.063873 0.074066
0.068787 0.075745 0.089172
0.183655 0.238464 0.249634
0.263275 0.322205 0.359741
0.367340 0.431213 0.480743
0.485596 0.553192 0.585205
0.553955 0.618652 0.639130
0.563446 0.627106 0.646240
0.053833 0.058136 0.067078
0.062775 0.068665 0.080261
0.121490 0.144073 0.165771
0.338104 0.400452 0.449829
0.454315 0.521576 0.559509
0.574860 0.636536 0.654266
0.691772 0.730560 0.734009
0.700104 0.737305 0.739594
0.047638 0.051270 0.058929
0.056152 0.060852 0.070465
0.065338 0.071594 0.083923
0.229431 0.287933 0.313873
0.540802 0.606506 0.629059
0.662964 0.707458 0.714752
0.792511 0.817963 0.808502
0.798767 0.823578 0.813782
0.041901 0.044952 0.051392
0.049255 0.053070 0.061066
0.057159 0.062103 0.072083
0.144897 0.180054 0.196472
0.406586 0.472290 0.517670
0.743317 0.773987 0.769958
0.840515 0.860229 0.848724
0.858307 0.876312 0.864441
0.086639 0.097015 0.115906
0.101624 0.116150 0.137726
0.117218 0.137817 0.159821
0.166260 0.213501 0.225159
0.464447 0.531799 0.567902
0.785095 0.811218 0.802185
0.803131 0.827423 0.817444
0.849396 0.868195 0.856354
0.115112 0.134705 0.157013
0.135651 0.165741 0.183960
0.157806 0.200409 0.213776
0.183167 0.235962 0.248962
0.467407 0.534882 0.570312
0.796387 0.821381 0.811737
0.819946 0.842255 0.831482
0.837616 0.857697 0.846252
0.064423 0.070526 0.082550
0.082092 0.091553 0.109100
0.134338 0.163391 0.182648
0.206543 0.264557 0.282074
0.318085 0.379578 0.428925
0.454926 0.522156 0.560059
0.488800 0.556519 0.587891
0.510895 0.578735 0.605896
0.064148 0.070190 0.082153
0.087891 0.098602 0.117706
0.135498 0.165466 0.183838
0.208954 0.266510 0.285095
0.321655 0.383392 0.432312
0.463470 0.530914 0.567047
0.510895 0.578644 0.605896
0.532898 0.599518 0.623138
0.063446 0.069366 0.081055
0.075592 0.083832 0.099396
0.190674 0.246643 0.260162
0.277893 0.337341 0.379639
0.390869 0.456268 0.503876
0.517944 0.585785 0.611694
0.570801 0.633453 0.651611
0.581573 0.642242 0.659119
0.062683 0.068420 0.079865
0.074524 0.082550 0.097778
0.137177 0.168152 0.185913
0.375610 0.440247 0.488678
0.501373 0.569183 0.598175
0.628845 0.680786 0.691986
0.719025 0.752991 0.752594
0.729218 0.761383 0.759491
0.061859 0.067444 0.078613
0.073364 0.081207 0.096100
0.087280 0.097748 0.116791
0.280182 0.339752 0.382141
0.611084 0.666534 0.679840
0.736725 0.768097 0.765045
0.810822 0.834351 0.823944
0.817871 0.840454 0.829773
0.061005 0.066437 0.077332
0.072205 0.079803 0.094330
0.085266 0.095367 0.113800
0.190216 0.246216 0.259094
0.494690 0.562347 0.592621
0.798767 0.823486 0.813751
0.853760 0.872040 0.860077
0.871521 0.888580 0.876770
0.056122 0.060699 0.070129
0.065338 0.071655 0.084015
0.076782 0.085266 0.101135
0.109650 0.127075 0.149200
0.352142 0.415222 0.464966
0.701904 0.738495 0.740692
0.880524 0.897369 0.885864
0.904327 0.921692 0.910889
0.076294 0.084686 0.100494
0.092133 0.103668 0.123993
0.110657 0.128876 0.150513
0.132507 0.160980 0.179932
0.357971 0.421448 0.470642
0.724915 0.757690 0.756409
0.890442 0.907227 0.896027
0.899048 0.916199 0.905243
0.067078 0.073700 0.086548
0.084961 0.095001 0.113403
0.138275 0.169525 0.187561
0.211456 0.269989 0.288971
0.325348 0.387299 0.436951
0.463409 0.530823 0.567047
0.499176 0.566986 0.596375
0.515808 0.583374 0.609772
0.066803 0.073334 0.086121
0.089996 0.101532 0.120697
0.139557 0.171722 0.189301
0.214447 0.272278 0.292603
0.328979 0.391052 0.440613
0.472015 0.539520 0.574097
0.521179 0.588409 0.613953
0.537750 0.604065 0.626923
0.066010 0.072418 0.084930
0.079132 0.088074 0.104706
0.194366 0.250732 0.265045
0.282196 0.341766 0.385376
0.396576 0.462036 0.508759
0.522919 0.590179 0.615417
0.577606 0.639130 0.656433
0.582336 0.642792 0.659607
0.065247 0.071503 0.083740
0.078064 0.086761 0.103058
0.140045 0.172546 0.189606
0.380371 0.444946 0.493042
0.506073 0.573761 0.601929
0.633118 0.684113 0.694916
0.724762 0.757751 0.756531
0.729645 0.761871 0.759888
0.064453 0.070526 0.082550
0.076874 0.085358 0.101318
0.091278 0.102814 0.122681
0.283020 0.342712 0.385986
0.614655 0.669556 0.682343
0.739685 0.770630 0.767151
0.814453 0.837463 0.826935
0.819458 0.841858 0.831116
0.063599 0.069519 0.081268
0.075684 0.083954 0.099548
0.089874 0.100983 0.120667
0.193848 0.250854 0.264679
0.506897 0.574768 0.602692
0.808502 0.832306 0.822021
0.862061 0.879761 0.867859
0.875702 0.892517 0.880859
0.062683 0.068451 0.079926
0.074493 0.082520 0.097748
0.088470 0.099182 0.118591
0.124420 0.148712 0.169250
0.387604 0.452972 0.500458
0.742828 0.773071 0.769104
0.892761 0.909668 0.898529
0.908844 0.926422 0.915924
0.062378 0.068085 0.079376
0.074005 0.081940 0.097015
0.087860 0.098480 0.117676
0.104065 0.119720 0.141174
0.284180 0.344025 0.387207
0.638763 0.688385 0.698669
0.865631 0.882935 0.870941
0.931427 0.950439 0.941803
