滤镜资源/vsco 137 3dl+cube/VSCO 137 cube/VSCO H3 Polychrome.cube
#Generated by Picture Instruments - Look Converter
LUT_3D_SIZE 5
0.0000 0.0000 0.0980
0.2275 0.0078 0.1137
0.4784 0.0118 0.1137
0.7137 0.0157 0.1176
0.8471 0.0118 0.1137
0.0118 0.2627 0.1098
0.2980 0.2588 0.1098
0.5451 0.2353 0.1216
0.7725 0.2196 0.1255
0.8902 0.2000 0.1137
0.0314 0.6314 0.1333
0.3098 0.6353 0.1294
0.6196 0.6314 0.1255
0.8118 0.6118 0.1333
0.9216 0.5882 0.1294
0.0471 0.8275 0.1451
0.3216 0.8353 0.1373
0.6353 0.8353 0.1373
0.8471 0.8353 0.1412
0.9529 0.8275 0.1373
0.0588 0.9608 0.1529
0.3412 0.9686 0.1451
0.6549 0.9686 0.1529
0.8510 0.9725 0.1490
0.9686 0.9686 0.1490
0.0353 0.0118 0.3804
0.2863 0.0118 0.3765
0.5412 0.0196 0.3608
0.7569 0.0235 0.3412
0.8824 0.0196 0.3255
0.0392 0.2588 0.3804
0.3137 0.2784 0.4000
0.5686 0.2588 0.3804
0.7725 0.2353 0.3569
0.8980 0.2196 0.3373
0.0431 0.6314 0.3961
0.3255 0.6471 0.4157
0.6353 0.6392 0.4157
0.8196 0.6196 0.3961
0.9216 0.6078 0.3725
0.0588 0.8314 0.4157
0.3412 0.8431 0.4275
0.6549 0.8431 0.4314
0.8510 0.8392 0.4392
0.9490 0.8353 0.4118
0.0627 0.9647 0.4235
0.3608 0.9765 0.4471
0.6627 0.9765 0.4471
0.8627 0.9765 0.4510
0.9725 0.9765 0.4510
0.0235 0.0196 0.7098
0.3059 0.0235 0.7137
0.6157 0.0196 0.7098
0.8078 0.0314 0.6980
0.9098 0.0235 0.6745
0.0275 0.2863 0.7098
0.3333 0.3020 0.7255
0.6353 0.2980 0.7255
0.8196 0.2784 0.7098
0.9176 0.2588 0.6902
0.0275 0.6275 0.7059
0.3255 0.6431 0.7176
0.6549 0.6588 0.7412
0.8275 0.6431 0.7255
0.9255 0.6275 0.7098
0.0392 0.8314 0.7216
0.3451 0.8392 0.7373
0.6667 0.8471 0.7490
0.8627 0.8471 0.7490
0.9451 0.8431 0.7373
0.0588 0.9608 0.7373
0.3608 0.9647 0.7490
0.6784 0.9686 0.7608
0.8745 0.9686 0.7686
0.9569 0.9686 0.7686
0.0588 0.0431 0.8902
0.3255 0.0392 0.8863
0.6314 0.0392 0.8863
0.8392 0.0392 0.8902
0.9451 0.0392 0.8745
0.0549 0.2941 0.8902
0.3451 0.3137 0.8980
0.6471 0.3137 0.8980
0.8510 0.3176 0.8980
0.9529 0.2941 0.8863
0.0549 0.6471 0.8980
0.3529 0.6667 0.8980
0.6627 0.6706 0.9059
0.8588 0.6706 0.9098
0.9569 0.6549 0.8980
0.0549 0.8275 0.8902
0.3490 0.8431 0.8941
0.6667 0.8510 0.9059
0.8745 0.8588 0.9098
0.9647 0.8510 0.9059
0.0627 0.9686 0.8902
0.3569 0.9765 0.8980
0.6745 0.9843 0.9059
0.8784 0.9882 0.9176
0.9882 0.9843 0.9137
0.0549 0.0431 0.9765
0.3412 0.0431 0.9804
0.6471 0.0431 0.9765
0.8510 0.0431 0.9804
0.9569 0.0431 0.9647
0.0549 0.3137 0.9765
0.3608 0.3333 0.9765
0.6627 0.3333 0.9765
0.8588 0.3373 0.9765
0.9647 0.3294 0.9725
0.0549 0.6588 0.9765
0.3569 0.6706 0.9765
0.6784 0.6863 0.9882
0.8627 0.6863 0.9843
0.9725 0.6824 0.9843
0.0549 0.8353 0.9725
0.3608 0.8471 0.9882
0.6784 0.8588 0.9843
0.8784 0.8667 0.9882
0.9804 0.8627 0.9843
0.0627 0.9608 0.9686
0.3647 0.9725 0.9804
0.6784 0.9804 0.9882
0.8784 0.9882 0.9882
0.9882 0.9922 0.9882
