滤镜资源/vsco 137 3dl+cube/VSCO 137 cube/VSCO B2Bw Classic.cube
#Generated by Picture Instruments - Look Converter
LUT_3D_SIZE 5
0.1961 0.1961 0.1961
0.1961 0.1961 0.1961
0.2000 0.2000 0.2000
0.2000 0.2000 0.2000
0.2039 0.2039 0.2039
0.2078 0.2078 0.2078
0.2118 0.2118 0.2118
0.2157 0.2157 0.2157
0.2196 0.2196 0.2196
0.2235 0.2235 0.2235
0.2471 0.2471 0.2471
0.2549 0.2549 0.2549
0.2627 0.2627 0.2627
0.2784 0.2784 0.2784
0.2902 0.2902 0.2902
0.3529 0.3529 0.3529
0.3686 0.3686 0.3686
0.3843 0.3843 0.3843
0.3961 0.3961 0.3961
0.4157 0.4157 0.4157
0.5020 0.5020 0.5020
0.5176 0.5176 0.5176
0.5373 0.5373 0.5373
0.5529 0.5529 0.5529
0.5647 0.5647 0.5647
0.1961 0.1961 0.1961
0.2431 0.2431 0.2431
0.2588 0.2588 0.2588
0.2706 0.2706 0.2706
0.2824 0.2824 0.2824
0.2235 0.2235 0.2235
0.2941 0.2941 0.2941
0.3098 0.3098 0.3098
0.3294 0.3294 0.3294
0.3412 0.3412 0.3412
0.2941 0.2941 0.2941
0.4157 0.4157 0.4157
0.4353 0.4353 0.4353
0.4627 0.4627 0.4627
0.4824 0.4824 0.4824
0.4235 0.4235 0.4235
0.5843 0.5843 0.5843
0.6000 0.6000 0.6000
0.6235 0.6235 0.6235
0.6392 0.6392 0.6392
0.5843 0.5843 0.5843
0.7176 0.7176 0.7176
0.7294 0.7294 0.7294
0.7412 0.7412 0.7412
0.7451 0.7451 0.7451
0.1961 0.1961 0.1961
0.2235 0.2235 0.2235
0.4902 0.4902 0.4902
0.5294 0.5294 0.5294
0.5490 0.5490 0.5490
0.2118 0.2118 0.2118
0.2549 0.2549 0.2549
0.5765 0.5765 0.5765
0.6078 0.6078 0.6078
0.6275 0.6275 0.6275
0.3490 0.3490 0.3490
0.4980 0.4980 0.4980
0.6667 0.6667 0.6667
0.6902 0.6902 0.6902
0.6980 0.6980 0.6980
0.5059 0.5059 0.5059
0.6667 0.6667 0.6667
0.7686 0.7686 0.7686
0.7804 0.7804 0.7804
0.7882 0.7882 0.7882
0.6627 0.6627 0.6627
0.7647 0.7647 0.7647
0.8275 0.8275 0.8275
0.8353 0.8353 0.8353
0.8392 0.8392 0.8392
0.1961 0.1961 0.1961
0.2118 0.2118 0.2118
0.4314 0.4314 0.4314
0.7686 0.7686 0.7686
0.7804 0.7804 0.7804
0.2039 0.2039 0.2039
0.2275 0.2275 0.2275
0.5098 0.5098 0.5098
0.8039 0.8039 0.8039
0.8118 0.8118 0.8118
0.3059 0.3059 0.3059
0.4431 0.4431 0.4431
0.6000 0.6000 0.6000
0.8314 0.8314 0.8314
0.8431 0.8431 0.8431
0.5882 0.5882 0.5882
0.7216 0.7216 0.7216
0.8078 0.8078 0.8078
0.8588 0.8588 0.8588
0.8627 0.8627 0.8627
0.7216 0.7216 0.7216
0.8000 0.8000 0.8000
0.8549 0.8549 0.8549
0.8902 0.8902 0.8902
0.8941 0.8941 0.8941
0.1961 0.1961 0.1961
0.2039 0.2039 0.2039
0.3725 0.3725 0.3725
0.7333 0.7333 0.7333
0.8667 0.8667 0.8667
0.2000 0.2000 0.2000
0.2157 0.2157 0.2157
0.4431 0.4431 0.4431
0.7804 0.7804 0.7804
0.8824 0.8824 0.8824
0.2588 0.2588 0.2588
0.3725 0.3725 0.3725
0.5333 0.5333 0.5333
0.8078 0.8078 0.8078
0.8980 0.8980 0.8980
0.5255 0.5255 0.5255
0.6745 0.6745 0.6745
0.7843 0.7843 0.7843
0.8431 0.8431 0.8431
0.9137 0.9137 0.9137
0.7647 0.7647 0.7647
0.8275 0.8275 0.8275
0.8706 0.8706 0.8706
0.9020 0.9020 0.9020
0.9255 0.9255 0.9255
