滤镜资源/vsco 137 3dl+cube/VSCO 137 cube/VSCO S5 Warm.cube
#Generated by Picture Instruments - Look Converter
LUT_3D_SIZE 5
0.0510 0.0314 0.0902
0.2196 0.0392 0.1059
0.6275 0.0588 0.1294
0.8275 0.0706 0.1333
0.9059 0.0706 0.1373
0.0667 0.1961 0.1059
0.2431 0.2118 0.1137
0.6667 0.2196 0.1333
0.8588 0.2118 0.1412
0.9176 0.2431 0.1451
0.0863 0.5529 0.1216
0.2275 0.5647 0.1216
0.6235 0.5608 0.1294
0.8549 0.5490 0.1451
0.9176 0.5725 0.1373
0.0941 0.7490 0.1333
0.2157 0.7725 0.1412
0.5843 0.7686 0.1294
0.8314 0.7608 0.1373
0.9059 0.7843 0.1373
0.1020 0.8941 0.1412
0.2627 0.9059 0.1412
0.6588 0.9020 0.1412
0.8588 0.8941 0.1373
0.9137 0.9020 0.1373
0.0588 0.0510 0.1725
0.2157 0.0353 0.1961
0.6275 0.0588 0.2039
0.8275 0.0706 0.2039
0.9059 0.0784 0.2275
0.0745 0.2000 0.2000
0.2588 0.2275 0.2314
0.6863 0.2314 0.2353
0.8745 0.2157 0.2275
0.9255 0.2627 0.2627
0.0824 0.5569 0.2000
0.2353 0.5765 0.2118
0.6353 0.5608 0.2078
0.8627 0.5529 0.2078
0.9176 0.5843 0.2196
0.0980 0.7608 0.1961
0.2039 0.7961 0.1961
0.5804 0.7882 0.1843
0.8431 0.7765 0.1804
0.9176 0.7961 0.1922
0.1059 0.8941 0.2196
0.2902 0.9098 0.2549
0.6706 0.9059 0.2314
0.8667 0.8980 0.2157
0.9216 0.9059 0.2471
0.0902 0.1294 0.4471
0.1843 0.0863 0.4784
0.6235 0.0549 0.4980
0.8353 0.0745 0.4784
0.9020 0.0706 0.5176
0.1137 0.2863 0.4784
0.2667 0.2824 0.5098
0.6667 0.2235 0.5255
0.8706 0.2078 0.5176
0.9176 0.2549 0.5412
0.0784 0.5490 0.4941
0.2314 0.5686 0.5098
0.6549 0.5765 0.5216
0.8784 0.5647 0.5137
0.9294 0.6039 0.5373
0.0902 0.7608 0.4667
0.2000 0.7922 0.4784
0.5922 0.7922 0.4824
0.8549 0.7804 0.4588
0.9216 0.8078 0.4980
0.0980 0.8980 0.5255
0.2784 0.9020 0.5490
0.6706 0.9176 0.5451
0.8784 0.9098 0.5216
0.9255 0.9176 0.5490
0.1255 0.1882 0.6196
0.1686 0.1333 0.6706
0.6039 0.0667 0.7137
0.8235 0.0706 0.6863
0.9059 0.0745 0.7373
0.1686 0.3451 0.6902
0.2902 0.3412 0.7176
0.6549 0.2235 0.7608
0.8667 0.1961 0.7529
0.9176 0.2431 0.7647
0.0980 0.5569 0.7176
0.2431 0.5922 0.7490
0.6314 0.5961 0.7529
0.8745 0.5686 0.7569
0.9412 0.5882 0.7725
0.1020 0.7529 0.6941
0.1922 0.7804 0.7176
0.5804 0.7961 0.7294
0.8627 0.7961 0.7333
0.9412 0.8078 0.7451
0.1059 0.8941 0.7412
0.2667 0.9098 0.7647
0.6588 0.9294 0.7765
0.8863 0.9255 0.7725
0.9451 0.9294 0.7804
0.1451 0.2275 0.7804
0.1843 0.1451 0.7882
0.6275 0.0706 0.8510
0.8431 0.0667 0.8431
0.9059 0.0706 0.8549
0.1765 0.3843 0.7882
0.3137 0.3765 0.8078
0.6510 0.2471 0.8588
0.8706 0.2196 0.8627
0.9216 0.2588 0.8667
0.1098 0.5961 0.8353
0.2745 0.6235 0.8431
0.6392 0.6275 0.8549
0.8745 0.5686 0.8745
0.9373 0.6000 0.8902
0.0980 0.7686 0.8392
0.2039 0.7922 0.8588
0.6000 0.8039 0.8745
0.8706 0.8000 0.8784
0.9451 0.8196 0.8824
0.1020 0.8941 0.8667
0.2863 0.9059 0.8706
0.6784 0.9294 0.8902
0.8941 0.9333 0.8941
0.9490 0.9373 0.9020
