滤镜资源/vsco 137 3dl+cube/VSCO 137 cube/VSCO Q2 Alchemy.cube
#Generated by Picture Instruments - Look Converter
LUT_3D_SIZE 5
0.0039 0.0039 0.0000
0.0980 0.0078 0.0078
0.4941 0.0039 0.0039
0.9255 0.0118 0.0118
0.9686 0.2000 0.0118
0.0039 0.0902 0.0549
0.0745 0.1412 0.0314
0.5608 0.1922 0.0039
0.9451 0.2118 0.0039
0.9922 0.4235 0.0000
0.0118 0.4510 0.2431
0.0000 0.5098 0.2549
0.5216 0.5843 0.1922
0.9059 0.6588 0.1686
0.9961 0.7686 0.2941
0.0275 0.7843 0.5216
0.2549 0.8039 0.5412
0.6078 0.8431 0.5804
0.8392 0.8784 0.5490
0.9961 0.9294 0.6039
0.6588 0.9804 0.8353
0.7098 0.9843 0.8510
0.8314 0.9843 0.8745
0.9373 0.9922 0.9059
0.9922 0.9922 0.9098
0.0275 0.0078 0.0784
0.1137 0.0078 0.0902
0.4941 0.0039 0.0980
0.9176 0.0118 0.1020
0.9725 0.2902 0.0980
0.0235 0.1098 0.1294
0.1098 0.1608 0.1765
0.5843 0.1922 0.1765
0.9412 0.2667 0.1647
0.9961 0.4745 0.1765
0.0235 0.4510 0.3255
0.0000 0.5020 0.3569
0.5686 0.5804 0.3490
0.9020 0.6706 0.3608
0.9961 0.7725 0.4157
0.0314 0.7765 0.5647
0.3294 0.8000 0.5804
0.6196 0.8431 0.6235
0.8471 0.8784 0.6078
0.9961 0.9255 0.6510
0.6471 0.9843 0.8431
0.6941 0.9843 0.8549
0.8235 0.9882 0.8824
0.9373 0.9922 0.9137
0.9922 0.9882 0.9137
0.0000 0.0196 0.3882
0.0314 0.0000 0.4235
0.6706 0.0000 0.4353
0.9412 0.1294 0.4314
0.9725 0.3765 0.4588
0.0000 0.1529 0.4392
0.1137 0.1882 0.4667
0.6745 0.2314 0.4902
0.9098 0.3490 0.4824
0.9765 0.5059 0.4902
0.0000 0.4745 0.5098
0.1647 0.5059 0.5216
0.6510 0.6118 0.5922
0.8980 0.6667 0.5922
0.9725 0.7569 0.6000
0.2706 0.7569 0.6392
0.4039 0.7765 0.6471
0.6431 0.8275 0.7020
0.8588 0.8824 0.7255
0.9804 0.9333 0.7608
0.5686 0.9765 0.8667
0.6353 0.9725 0.8745
0.7882 0.9725 0.9020
0.9333 0.9765 0.9412
0.9804 0.9843 0.9373
0.0157 0.0196 0.7059
0.1176 0.0118 0.7333
0.7059 0.0157 0.7686
0.9765 0.3255 0.7686
0.9843 0.5843 0.7686
0.0196 0.2078 0.7216
0.2902 0.2196 0.7451
0.7137 0.2706 0.7765
0.9843 0.4863 0.7882
0.9922 0.6510 0.7765
0.0235 0.4706 0.7216
0.3020 0.4941 0.7373
0.6824 0.5961 0.7882
0.9255 0.7137 0.8196
0.9961 0.7608 0.8118
0.2824 0.7765 0.7804
0.4000 0.7843 0.7882
0.6314 0.8157 0.8000
0.8784 0.8902 0.8706
0.9922 0.9137 0.8667
0.5333 0.9804 0.9137
0.5765 0.9843 0.9216
0.7137 0.9843 0.9333
0.9059 0.9922 0.9569
0.9922 0.9922 0.9686
0.5922 0.1686 0.9843
0.6941 0.1922 0.9843
0.8941 0.2824 0.9843
0.9961 0.5255 0.9882
0.9922 0.7569 0.9686
0.6157 0.3451 0.9804
0.6902 0.3647 0.9765
0.8745 0.4353 0.9843
0.9961 0.6196 0.9882
0.9922 0.7961 0.9725
0.5412 0.5843 0.9843
0.6196 0.6039 0.9804
0.8118 0.6588 0.9843
0.9882 0.7569 0.9882
0.9922 0.8667 0.9765
0.4039 0.8549 0.9765
0.4667 0.8510 0.9804
0.6353 0.8392 0.9804
0.9098 0.8784 0.9922
0.9961 0.9451 0.9843
0.6941 0.9882 0.9843
0.7216 0.9882 0.9882
0.7922 0.9882 0.9882
0.9020 0.9882 0.9882
0.9922 0.9882 0.9922
