滤镜资源/vsco 137 3dl+cube/VSCO 137 cube/VSCO K2 Analog.cube
#Generated by Picture Instruments - Look Converter
LUT_3D_SIZE 5
0.0745 0.0706 0.0706
0.2039 0.0784 0.0745
0.5529 0.1373 0.0588
0.8431 0.1529 0.1529
0.9412 0.1725 0.1608
0.0784 0.2353 0.1294
0.1922 0.2118 0.0784
0.5647 0.1686 0.0471
0.8510 0.1451 0.0863
0.9412 0.1686 0.1020
0.1020 0.6196 0.2627
0.1804 0.6039 0.2510
0.5294 0.5922 0.1569
0.8706 0.5216 0.1020
0.9451 0.5176 0.0039
0.2196 0.8314 0.3608
0.2588 0.8314 0.3333
0.4196 0.8118 0.2784
0.8157 0.8627 0.3137
0.9765 0.8824 0.2706
0.3255 0.9255 0.4353
0.3608 0.9412 0.4157
0.4941 0.9608 0.4118
0.6902 0.9569 0.4157
0.7961 0.9529 0.4078
0.0745 0.1255 0.2353
0.2039 0.0745 0.1961
0.5569 0.1098 0.1608
0.8353 0.1490 0.1804
0.9412 0.1765 0.1843
0.0745 0.2118 0.2000
0.2118 0.2118 0.2039
0.5647 0.1882 0.1137
0.8510 0.1490 0.1373
0.9451 0.1725 0.1294
0.0902 0.6039 0.3176
0.1647 0.6078 0.3098
0.5686 0.5882 0.2196
0.8745 0.5137 0.1373
0.9490 0.5216 0.0275
0.2000 0.8196 0.4000
0.2235 0.8275 0.4039
0.4392 0.8118 0.3529
0.8471 0.8706 0.3059
0.9725 0.8667 0.2510
0.3098 0.9176 0.4667
0.3216 0.9255 0.4667
0.4980 0.9451 0.4431
0.7176 0.9608 0.4196
0.8392 0.9569 0.4078
0.0000 0.2549 0.6314
0.0941 0.1882 0.6235
0.5725 0.1137 0.5098
0.8510 0.1529 0.5059
0.9333 0.1765 0.5216
0.0078 0.3412 0.6039
0.1059 0.3294 0.6275
0.5765 0.2235 0.5294
0.8549 0.2039 0.5137
0.9373 0.2000 0.5137
0.0353 0.5725 0.5451
0.1451 0.5725 0.5451
0.5961 0.5804 0.5569
0.8667 0.5569 0.4784
0.9373 0.5569 0.4549
0.1020 0.8118 0.5882
0.1412 0.8118 0.5882
0.5961 0.8196 0.6314
0.8824 0.8353 0.5608
0.9647 0.7882 0.5490
0.2314 0.9137 0.6196
0.2471 0.9137 0.6196
0.6157 0.8863 0.6588
0.7765 0.9098 0.6314
0.8980 0.9294 0.6039
0.0353 0.3608 0.9059
0.0039 0.3020 0.9137
0.5098 0.1804 0.8431
0.8353 0.2039 0.8039
0.9294 0.2157 0.8039
0.0392 0.4275 0.9137
0.0000 0.4157 0.9294
0.5059 0.2706 0.8706
0.8431 0.2235 0.8118
0.9451 0.2157 0.8196
0.0353 0.6627 0.8863
0.0039 0.6588 0.8863
0.5412 0.6235 0.8863
0.8745 0.5922 0.8431
0.9725 0.5882 0.8471
0.0431 0.8118 0.8235
0.0941 0.8078 0.8353
0.5608 0.8235 0.8471
0.8902 0.8314 0.8627
0.9765 0.8314 0.8549
0.1725 0.9255 0.8196
0.1804 0.9294 0.8235
0.5647 0.9098 0.8392
0.8863 0.9216 0.8863
0.9725 0.9333 0.8667
0.0000 0.4078 0.9686
0.0000 0.3569 0.9647
0.4353 0.1922 0.9373
0.8118 0.2118 0.9098
0.9098 0.2235 0.9137
0.0000 0.4706 0.9804
0.0000 0.4588 0.9725
0.4431 0.3098 0.9451
0.8235 0.2353 0.9216
0.9255 0.2275 0.9216
0.0000 0.6824 0.9882
0.0000 0.6784 0.9882
0.5294 0.6549 0.9725
0.8667 0.6000 0.9490
0.9608 0.5922 0.9529
0.0000 0.8431 0.9725
0.0196 0.8431 0.9686
0.5294 0.8510 0.9804
0.8824 0.8392 0.9804
0.9804 0.8392 0.9686
0.1412 0.9255 0.9412
0.1647 0.9255 0.9412
0.5529 0.9216 0.9608
0.9020 0.9529 0.9765
0.9843 0.9804 0.9882
