滤镜资源/vsco 137 3dl+cube/VSCO 137 cube/VSCO S3 Clean.cube
#Generated by Picture Instruments - Look Converter
LUT_3D_SIZE 5
0.0000 0.0000 0.0000
0.2627 0.0039 0.0039
0.6275 0.0078 0.0078
0.8784 0.0118 0.0118
0.9569 0.0118 0.0118
0.0078 0.2706 0.0078
0.2667 0.2627 0.0000
0.6275 0.2667 0.0000
0.8824 0.2667 0.0000
0.9882 0.2667 0.0000
0.0157 0.6314 0.0157
0.2627 0.6314 0.0000
0.6235 0.6353 0.0000
0.8824 0.6353 0.0000
0.9882 0.6314 0.0000
0.0235 0.8824 0.0235
0.2549 0.8824 0.0000
0.6235 0.8863 0.0000
0.8824 0.8824 0.0000
0.9922 0.8863 0.0000
0.0275 0.9765 0.0275
0.2627 0.9922 0.0000
0.6275 0.9922 0.0000
0.8824 0.9922 0.0000
0.9922 0.9922 0.0000
0.0314 0.0118 0.2588
0.2510 0.0039 0.2627
0.6157 0.0078 0.2627
0.8745 0.0118 0.2588
0.9608 0.0118 0.2627
0.0314 0.2588 0.2471
0.2667 0.2667 0.2706
0.6471 0.2549 0.2510
0.9098 0.2431 0.2431
0.9961 0.2667 0.2549
0.0353 0.6314 0.2588
0.2235 0.6745 0.2196
0.6667 0.6706 0.2235
0.9098 0.6275 0.2392
0.9961 0.6353 0.2510
0.0314 0.8784 0.2588
0.1922 0.9647 0.1922
0.6392 0.9608 0.1843
0.9608 0.9608 0.1922
0.9961 0.8902 0.2588
0.0314 0.9804 0.2627
0.2627 0.9961 0.2588
0.6314 0.9961 0.2510
0.8863 0.9961 0.2588
0.9922 0.9922 0.2588
0.0000 0.0000 0.6235
0.2549 0.0000 0.6235
0.6275 0.0000 0.6235
0.8863 0.0000 0.6235
0.9608 0.0078 0.6275
0.0000 0.2784 0.6235
0.2196 0.2275 0.6706
0.6588 0.2275 0.6667
0.9490 0.2000 0.6314
0.9647 0.2667 0.6235
0.0000 0.6275 0.6196
0.2196 0.6706 0.6667
0.6275 0.6353 0.6314
0.8941 0.6235 0.6196
0.9647 0.6353 0.6235
0.0000 0.8863 0.6235
0.1922 0.9647 0.6431
0.5961 0.9216 0.5922
0.9176 0.9176 0.5961
0.9647 0.8941 0.6235
0.0196 0.9725 0.6314
0.2588 0.9765 0.6314
0.6235 0.9765 0.6235
0.8863 0.9765 0.6314
0.9608 0.9765 0.6314
0.0353 0.0196 0.8667
0.2588 0.0196 0.8784
0.6235 0.0196 0.8745
0.8784 0.0196 0.8745
0.9686 0.0196 0.8706
0.0314 0.2627 0.8784
0.1922 0.2000 0.9608
0.6314 0.1922 0.9569
0.9529 0.1961 0.9529
0.9922 0.2627 0.8824
0.0314 0.6314 0.8784
0.1882 0.6510 0.9529
0.5922 0.6039 0.9216
0.9137 0.6039 0.9216
0.9961 0.6235 0.8902
0.0314 0.8784 0.8784
0.1882 0.9569 0.9569
0.5922 0.9137 0.9098
0.8863 0.8824 0.8863
0.9882 0.8824 0.8784
0.0314 0.9804 0.8784
0.2510 0.9961 0.8784
0.6157 0.9961 0.8824
0.8824 0.9922 0.8784
0.9922 0.9922 0.8784
0.0000 0.0000 0.9882
0.2627 0.0000 0.9922
0.6235 0.0000 0.9882
0.8863 0.0000 0.9922
0.9686 0.0078 0.9686
0.0000 0.2706 0.9922
0.2588 0.2667 0.9961
0.6235 0.2627 0.9961
0.8863 0.2706 0.9961
0.9765 0.2627 0.9765
0.0000 0.6314 0.9922
0.2549 0.6314 0.9961
0.6196 0.6235 0.9922
0.8784 0.6275 0.9961
0.9843 0.6275 0.9843
0.0039 0.8824 0.9882
0.2510 0.8902 0.9961
0.6196 0.8863 0.9922
0.8784 0.8863 0.9922
0.9882 0.8784 0.9882
0.0275 0.9765 0.9804
0.2588 0.9843 0.9843
0.6235 0.9882 0.9882
0.8824 0.9922 0.9922
0.9882 0.9922 0.9922
