滤镜资源/vsco 137 3dl+cube/VSCO 137 cube/VSCO D1Distortia.cube
#Generated by Picture Instruments - Look Converter
LUT_3D_SIZE 5
0.0118 0.0039 0.9529
0.2471 0.0039 0.9725
0.4941 0.0039 0.9765
0.7451 0.0078 0.9804
0.9686 0.0118 0.9843
0.0157 0.2510 0.9765
0.2039 0.4235 0.8588
0.5137 0.2431 0.8588
0.7020 0.1647 0.8706
0.8588 0.1216 0.8745
0.0235 0.4941 0.9843
0.1725 0.5804 0.8118
0.4275 0.4980 0.6941
0.7176 0.3373 0.7333
0.8039 0.2471 0.7529
0.0314 0.7490 0.9922
0.1451 0.7020 0.7647
0.2706 0.7412 0.5529
0.6431 0.4784 0.6118
0.8118 0.3686 0.6235
0.0353 0.9765 0.9961
0.1216 0.8706 0.7059
0.2667 0.7451 0.5451
0.4667 0.6157 0.4980
0.6627 0.4980 0.5020
0.0314 0.0118 0.9608
0.2431 0.0039 0.9725
0.4902 0.0078 0.9765
0.7412 0.0118 0.9804
0.9686 0.0118 0.9843
0.0314 0.2392 0.9843
0.2039 0.4353 0.8549
0.5137 0.2275 0.8745
0.7020 0.1529 0.8784
0.8745 0.1176 0.8784
0.0353 0.4941 0.9843
0.1765 0.5569 0.8118
0.4627 0.4588 0.7020
0.7020 0.3098 0.7490
0.8078 0.2275 0.7765
0.0392 0.7490 0.9843
0.1451 0.7098 0.7647
0.2941 0.6902 0.5804
0.6706 0.4627 0.6275
0.8078 0.3333 0.6627
0.0392 0.9765 0.9843
0.1255 0.8667 0.7059
0.2667 0.7451 0.5451
0.4627 0.6118 0.4941
0.7725 0.4431 0.5569
0.0000 0.0000 0.9922
0.2392 0.0000 0.9961
0.4902 0.0000 0.9961
0.7412 0.0000 0.9922
0.9569 0.0078 0.9882
0.0000 0.2510 0.9961
0.2275 0.2627 0.9176
0.4980 0.1843 0.8902
0.6941 0.1294 0.8941
0.8784 0.1059 0.8980
0.0000 0.4980 0.9961
0.1882 0.5020 0.8314
0.5686 0.3725 0.7686
0.6980 0.2549 0.7961
0.8039 0.1961 0.8039
0.0000 0.7529 0.9961
0.1490 0.6863 0.7686
0.3725 0.5608 0.6471
0.7294 0.3882 0.6824
0.7922 0.2824 0.7176
0.0235 0.9765 0.9765
0.1294 0.8706 0.7216
0.2745 0.7373 0.5647
0.5843 0.5176 0.5804
0.8078 0.3804 0.6235
0.0353 0.0196 0.9647
0.2392 0.0196 0.9647
0.4863 0.0196 0.9608
0.7412 0.0118 0.9647
0.9765 0.0118 0.9725
0.0314 0.2471 0.9843
0.2353 0.2118 0.9333
0.4902 0.1569 0.9137
0.7020 0.1176 0.9098
0.8941 0.0902 0.9020
0.0353 0.5020 0.9882
0.2039 0.4431 0.8588
0.5412 0.3137 0.8118
0.6863 0.2275 0.8275
0.8235 0.1608 0.8314
0.0392 0.7451 0.9922
0.1529 0.6471 0.7882
0.4588 0.4667 0.7098
0.7020 0.3098 0.7490
0.8078 0.2392 0.7608
0.0431 0.9725 0.9922
0.1216 0.8745 0.7176
0.3255 0.6314 0.6118
0.7137 0.4314 0.6471
0.8000 0.3020 0.6824
0.0000 0.0000 0.9882
0.2471 0.0000 0.9961
0.4980 0.0000 0.9961
0.7490 0.0000 0.9922
0.9686 0.0039 0.9843
0.0000 0.2510 0.9922
0.2353 0.2039 0.9333
0.4941 0.1490 0.9137
0.7020 0.1176 0.9098
0.8941 0.0863 0.9020
0.0000 0.4980 0.9922
0.2039 0.3882 0.8706
0.5373 0.2902 0.8275
0.6902 0.2118 0.8431
0.8275 0.1569 0.8353
0.0000 0.7490 0.9922
0.1647 0.5843 0.8078
0.5098 0.4196 0.7412
0.6980 0.2941 0.7686
0.8078 0.2118 0.7843
0.0314 0.9725 0.9961
0.1412 0.7725 0.7412
0.3765 0.5608 0.6471
0.7333 0.3765 0.6902
0.8000 0.2431 0.7451
