滤镜资源/vsco 137 3dl+cube/VSCO 137 cube/VSCO Q5 Alchemy.cube
#Generated by Picture Instruments - Look Converter
LUT_3D_SIZE 5
0.0157 0.0314 0.0314
0.2078 0.0235 0.0275
0.6471 0.0078 0.0078
0.9412 0.1373 0.0157
0.9725 0.3725 0.0196
0.0039 0.1647 0.0941
0.1373 0.2078 0.0588
0.6549 0.2784 0.0000
0.9451 0.3686 0.0000
0.9961 0.4667 0.0000
0.0118 0.4941 0.2588
0.0000 0.5294 0.2549
0.4902 0.5804 0.1804
0.8980 0.6353 0.1608
0.9961 0.6549 0.2118
0.0235 0.7373 0.5098
0.0039 0.7451 0.5255
0.3843 0.7686 0.4824
0.7804 0.7804 0.4980
0.9922 0.8275 0.5765
0.2902 0.9255 0.7529
0.4314 0.9333 0.7647
0.6667 0.9333 0.7882
0.7804 0.9569 0.7725
0.9490 0.9765 0.8039
0.0431 0.0392 0.1373
0.2314 0.0431 0.1569
0.6078 0.0078 0.1608
0.9255 0.1216 0.1373
0.9765 0.3725 0.1020
0.0235 0.1843 0.1882
0.2118 0.2392 0.2314
0.6510 0.2667 0.2078
0.9294 0.3647 0.1804
0.9961 0.4745 0.1569
0.0275 0.4941 0.3490
0.0000 0.5294 0.3608
0.5333 0.5804 0.3373
0.9059 0.6392 0.3490
0.9961 0.6549 0.3686
0.0275 0.7373 0.5490
0.0000 0.7412 0.5686
0.4549 0.7608 0.5490
0.7843 0.7804 0.5686
0.9882 0.8275 0.6275
0.2588 0.9255 0.7686
0.4196 0.9333 0.7765
0.6627 0.9333 0.7961
0.7843 0.9608 0.7882
0.9451 0.9725 0.8235
0.0000 0.0588 0.4353
0.3412 0.0039 0.4784
0.6824 0.0471 0.4510
0.9059 0.2510 0.4745
0.9765 0.3647 0.4667
0.0000 0.2510 0.4549
0.2824 0.2588 0.4980
0.6706 0.3216 0.4980
0.8824 0.3922 0.5098
0.9686 0.4667 0.4863
0.0000 0.5176 0.5216
0.1412 0.5412 0.5373
0.6196 0.6078 0.5961
0.8824 0.6157 0.5843
0.9647 0.6431 0.5843
0.0000 0.7333 0.6510
0.1373 0.7333 0.6510
0.5725 0.7529 0.6863
0.8078 0.7843 0.6902
0.9647 0.8314 0.7294
0.0275 0.9255 0.7922
0.2235 0.9255 0.8039
0.6196 0.9294 0.8235
0.8000 0.9569 0.8275
0.9412 0.9725 0.8549
0.2941 0.0902 0.7137
0.4941 0.0314 0.7373
0.8314 0.0196 0.7804
0.9451 0.4118 0.7176
0.9804 0.5529 0.7255
0.2157 0.2863 0.7216
0.4431 0.2941 0.7373
0.7882 0.3412 0.7765
0.9255 0.5059 0.7333
0.9961 0.5961 0.7412
0.0275 0.5569 0.7137
0.1804 0.5686 0.7137
0.6431 0.5961 0.7686
0.8941 0.6549 0.7725
0.9922 0.6706 0.7725
0.0275 0.7294 0.7608
0.2275 0.7333 0.7647
0.5804 0.7451 0.7765
0.8549 0.8039 0.8353
0.9922 0.8078 0.8235
0.0275 0.9294 0.8627
0.0078 0.9333 0.8667
0.4902 0.9294 0.8627
0.8000 0.9569 0.8902
0.9725 0.9804 0.9059
0.6353 0.3373 0.9412
0.7176 0.3451 0.9412
0.8824 0.4000 0.9490
0.9961 0.5412 0.9529
0.9882 0.6824 0.8980
0.5843 0.4510 0.9373
0.6706 0.4588 0.9333
0.8510 0.5020 0.9490
0.9961 0.5882 0.9490
0.9882 0.7059 0.9059
0.3647 0.6196 0.9333
0.5020 0.6235 0.9412
0.7608 0.6431 0.9412
0.9882 0.6824 0.9569
0.9922 0.7647 0.9216
0.2431 0.7843 0.9451
0.3765 0.7882 0.9451
0.5843 0.7843 0.9529
0.8667 0.7922 0.9569
0.9961 0.8588 0.9451
0.3255 0.9412 0.9765
0.4078 0.9412 0.9765
0.5804 0.9490 0.9804
0.7804 0.9608 0.9804
0.9882 0.9882 0.9882
