滤镜资源/vsco 137 3dl+cube/VSCO 137 cube/VSCO B3Bw Classic.cube
#Generated by Picture Instruments - Look Converter
LUT_3D_SIZE 5
0.0000 0.0000 0.0000
0.0745 0.0745 0.0745
0.1686 0.1686 0.1686
0.2902 0.2902 0.2902
0.4157 0.4157 0.4157
0.0745 0.0745 0.0745
0.1176 0.1176 0.1176
0.2275 0.2275 0.2275
0.3569 0.3569 0.3569
0.4863 0.4863 0.4863
0.1686 0.1686 0.1686
0.2275 0.2275 0.2275
0.2902 0.2902 0.2902
0.4235 0.4235 0.4235
0.5529 0.5529 0.5529
0.2902 0.2902 0.2902
0.3569 0.3569 0.3569
0.4275 0.4275 0.4275
0.4941 0.4941 0.4941
0.6196 0.6196 0.6196
0.4196 0.4196 0.4196
0.4902 0.4902 0.4902
0.5569 0.5569 0.5569
0.6196 0.6196 0.6196
0.6706 0.6706 0.6706
0.0078 0.0078 0.0078
0.1608 0.1608 0.1608
0.2863 0.2863 0.2863
0.4157 0.4157 0.4157
0.5569 0.5569 0.5569
0.0863 0.0863 0.0863
0.2275 0.2275 0.2275
0.3569 0.3569 0.3569
0.4941 0.4941 0.4941
0.6157 0.6157 0.6157
0.1843 0.1843 0.1843
0.3529 0.3529 0.3529
0.4196 0.4196 0.4196
0.5569 0.5569 0.5569
0.6706 0.6706 0.6706
0.3059 0.3059 0.3059
0.4902 0.4902 0.4902
0.5569 0.5569 0.5569
0.6235 0.6235 0.6235
0.7255 0.7255 0.7255
0.4392 0.4392 0.4392
0.6196 0.6196 0.6196
0.6745 0.6745 0.6745
0.7294 0.7294 0.7294
0.7686 0.7686 0.7686
0.0196 0.0196 0.0196
0.1765 0.1765 0.1765
0.4157 0.4157 0.4157
0.5608 0.5608 0.5608
0.6745 0.6745 0.6745
0.0980 0.0980 0.0980
0.2431 0.2431 0.2431
0.4863 0.4863 0.4863
0.6196 0.6196 0.6196
0.7255 0.7255 0.7255
0.1961 0.1961 0.1961
0.3686 0.3686 0.3686
0.5647 0.5647 0.5647
0.6863 0.6863 0.6863
0.7765 0.7765 0.7765
0.3216 0.3216 0.3216
0.5098 0.5098 0.5098
0.6784 0.6784 0.6784
0.7333 0.7333 0.7333
0.8157 0.8157 0.8157
0.4549 0.4549 0.4549
0.6314 0.6314 0.6314
0.7725 0.7725 0.7725
0.8196 0.8196 0.8196
0.8549 0.8549 0.8549
0.0275 0.0275 0.0275
0.1922 0.1922 0.1922
0.4392 0.4392 0.4392
0.6824 0.6824 0.6824
0.7765 0.7765 0.7765
0.1059 0.1059 0.1059
0.2588 0.2588 0.2588
0.5020 0.5020 0.5020
0.7294 0.7294 0.7294
0.8157 0.8157 0.8157
0.2157 0.2157 0.2157
0.3922 0.3922 0.3922
0.5765 0.5765 0.5765
0.7765 0.7765 0.7765
0.8588 0.8588 0.8588
0.3412 0.3412 0.3412
0.5216 0.5216 0.5216
0.6902 0.6902 0.6902
0.8275 0.8275 0.8275
0.8941 0.8941 0.8941
0.4745 0.4745 0.4745
0.6471 0.6471 0.6471
0.7843 0.7843 0.7843
0.8980 0.8980 0.8980
0.9216 0.9216 0.9216
0.0353 0.0353 0.0353
0.2039 0.2039 0.2039
0.4510 0.4510 0.4510
0.6902 0.6902 0.6902
0.8510 0.8510 0.8510
0.1176 0.1176 0.1176
0.2706 0.2706 0.2706
0.5176 0.5176 0.5176
0.7412 0.7412 0.7412
0.8902 0.8902 0.8902
0.2235 0.2235 0.2235
0.4039 0.4039 0.4039
0.5882 0.5882 0.5882
0.7843 0.7843 0.7843
0.9216 0.9216 0.9216
0.3529 0.3529 0.3529
0.5412 0.5412 0.5412
0.7059 0.7059 0.7059
0.8314 0.8314 0.8314
0.9569 0.9569 0.9569
0.4863 0.4863 0.4863
0.6549 0.6549 0.6549
0.7961 0.7961 0.7961
0.9020 0.9020 0.9020
0.9882 0.9882 0.9882
