滤镜资源/vsco 137 3dl+cube/VSCO 137 cube/VSCO Q4 Alchemy.cube
#Generated by Picture Instruments - Look Converter
LUT_3D_SIZE 5
0.0157 0.0000 0.0235
0.1529 0.0000 0.0353
0.4627 0.0039 0.0471
0.7725 0.0118 0.0392
0.9569 0.0118 0.0353
0.0039 0.2039 0.1686
0.1098 0.2157 0.1412
0.5804 0.1922 0.0196
0.8588 0.1490 0.0000
0.9922 0.2588 0.0000
0.0157 0.5843 0.4118
0.0000 0.5922 0.4118
0.4118 0.5961 0.3765
0.8667 0.6314 0.2314
0.9961 0.6392 0.0000
0.0235 0.8549 0.6275
0.0118 0.8549 0.6431
0.4510 0.8510 0.6392
0.7490 0.8549 0.6000
0.9922 0.8902 0.5373
0.6157 0.9882 0.8706
0.6784 0.9882 0.8745
0.7647 0.9922 0.8824
0.8627 0.9843 0.8980
0.9451 0.9882 0.8863
0.0314 0.0235 0.2549
0.1686 0.0078 0.2667
0.4353 0.0431 0.2314
0.7529 0.0196 0.2039
0.9647 0.1373 0.1137
0.0314 0.2353 0.3451
0.1765 0.2627 0.3569
0.5294 0.2745 0.3137
0.8196 0.2706 0.2549
0.9961 0.3373 0.1373
0.0314 0.6000 0.4863
0.0000 0.6000 0.5020
0.4706 0.6000 0.4784
0.8706 0.6431 0.4078
0.9961 0.6510 0.2863
0.0314 0.8549 0.6588
0.1020 0.8549 0.6745
0.4980 0.8549 0.6784
0.7608 0.8588 0.6510
0.9804 0.8980 0.6039
0.5922 0.9882 0.8745
0.6588 0.9922 0.8863
0.7725 0.9922 0.8941
0.8627 0.9843 0.9059
0.9529 0.9882 0.8941
0.0039 0.0863 0.5765
0.1451 0.0941 0.5882
0.5961 0.1608 0.5882
0.8000 0.2627 0.5216
0.9451 0.3059 0.4549
0.0000 0.2980 0.5961
0.2118 0.3216 0.6157
0.5922 0.3804 0.6235
0.7686 0.3804 0.5412
0.9529 0.4039 0.4824
0.0039 0.6039 0.6588
0.0392 0.6118 0.6588
0.5804 0.6392 0.6706
0.8235 0.6314 0.6196
0.9647 0.6431 0.5569
0.0000 0.8706 0.7490
0.0078 0.8706 0.7490
0.5843 0.8588 0.7647
0.7961 0.8667 0.7608
0.9529 0.9020 0.7412
0.4196 0.9843 0.8902
0.5569 0.9843 0.8941
0.7608 0.9804 0.9137
0.8706 0.9804 0.9255
0.9451 0.9843 0.9255
0.1294 0.2431 0.8118
0.3451 0.2667 0.8314
0.6902 0.3294 0.8471
0.9216 0.4471 0.8392
0.9843 0.5765 0.8157
0.2000 0.3922 0.8157
0.3725 0.4157 0.8314
0.6784 0.4667 0.8510
0.9098 0.5451 0.8431
0.9961 0.6157 0.8118
0.0314 0.6039 0.8118
0.2745 0.6078 0.8157
0.6275 0.6627 0.8471
0.8745 0.7333 0.8667
0.9804 0.7098 0.8118
0.0314 0.8471 0.8667
0.2627 0.8510 0.8667
0.5765 0.8588 0.8706
0.8353 0.8902 0.8863
0.9765 0.8706 0.8471
0.2706 0.9843 0.9373
0.3882 0.9922 0.9412
0.6196 0.9922 0.9373
0.8627 0.9882 0.9490
0.9647 0.9882 0.9490
0.6314 0.5255 0.9882
0.6941 0.5333 0.9882
0.8353 0.5765 0.9882
0.9765 0.6745 0.9922
0.9882 0.7686 0.9725
0.6196 0.5922 0.9843
0.6745 0.6000 0.9882
0.8235 0.6431 0.9882
0.9647 0.7333 0.9804
0.9922 0.8000 0.9725
0.5490 0.7216 0.9804
0.6118 0.7255 0.9765
0.7765 0.7529 0.9804
0.9294 0.8157 0.9804
0.9922 0.8667 0.9725
0.4549 0.8863 0.9725
0.5216 0.8863 0.9765
0.6510 0.8784 0.9804
0.8706 0.8980 0.9765
0.9804 0.9373 0.9725
0.6510 0.9922 0.9804
0.6745 0.9922 0.9765
0.7569 0.9922 0.9765
0.8667 0.9922 0.9765
0.9843 0.9922 0.9725
