滤镜资源/vsco 137 3dl+cube/VSCO 137 cube/VSCO X1 Bw Fade.cube
#Generated by Picture Instruments - Look Converter
LUT_3D_SIZE 9
0.1961 0.1961 0.1961
0.2000 0.2000 0.2000
0.2000 0.2000 0.2000
0.2039 0.2039 0.2039
0.2118 0.2118 0.2118
0.2275 0.2275 0.2275
0.2510 0.2510 0.2510
0.2902 0.2902 0.2902
0.3412 0.3412 0.3412
0.2000 0.2000 0.2000
0.2000 0.2000 0.2000
0.2039 0.2039 0.2039
0.2078 0.2078 0.2078
0.2196 0.2196 0.2196
0.2353 0.2353 0.2353
0.2706 0.2706 0.2706
0.3176 0.3176 0.3176
0.3843 0.3843 0.3843
0.2000 0.2000 0.2000
0.2039 0.2039 0.2039
0.2039 0.2039 0.2039
0.2118 0.2118 0.2118
0.2275 0.2275 0.2275
0.2510 0.2510 0.2510
0.2902 0.2902 0.2902
0.3490 0.3490 0.3490
0.4196 0.4196 0.4196
0.2039 0.2039 0.2039
0.2078 0.2078 0.2078
0.2118 0.2118 0.2118
0.2196 0.2196 0.2196
0.2353 0.2353 0.2353
0.2706 0.2706 0.2706
0.3176 0.3176 0.3176
0.3882 0.3882 0.3882
0.4627 0.4627 0.4627
0.2118 0.2118 0.2118
0.2196 0.2196 0.2196
0.2275 0.2275 0.2275
0.2353 0.2353 0.2353
0.2510 0.2510 0.2510
0.2902 0.2902 0.2902
0.3490 0.3490 0.3490
0.4275 0.4275 0.4275
0.5098 0.5098 0.5098
0.2275 0.2275 0.2275
0.2353 0.2353 0.2353
0.2510 0.2510 0.2510
0.2706 0.2706 0.2706
0.2902 0.2902 0.2902
0.3176 0.3176 0.3176
0.3922 0.3922 0.3922
0.4706 0.4706 0.4706
0.5569 0.5569 0.5569
0.2510 0.2510 0.2510
0.2706 0.2706 0.2706
0.2902 0.2902 0.2902
0.3176 0.3176 0.3176
0.3529 0.3529 0.3529
0.3882 0.3882 0.3882
0.4275 0.4275 0.4275
0.5137 0.5137 0.5137
0.6118 0.6118 0.6118
0.2902 0.2902 0.2902
0.3176 0.3176 0.3176
0.3490 0.3490 0.3490
0.3922 0.3922 0.3922
0.4275 0.4275 0.4275
0.4706 0.4706 0.4706
0.5176 0.5176 0.5176
0.5686 0.5686 0.5686
0.6549 0.6549 0.6549
0.3451 0.3451 0.3451
0.3843 0.3843 0.3843
0.4235 0.4235 0.4235
0.4667 0.4667 0.4667
0.5137 0.5137 0.5137
0.5608 0.5608 0.5608
0.6118 0.6118 0.6118
0.6588 0.6588 0.6588
0.6980 0.6980 0.6980
0.1961 0.1961 0.1961
0.2000 0.2000 0.2000
0.2039 0.2039 0.2039
0.2118 0.2118 0.2118
0.2275 0.2275 0.2275
0.2510 0.2510 0.2510
0.2902 0.2902 0.2902
0.3451 0.3451 0.3451
0.4157 0.4157 0.4157
0.2000 0.2000 0.2000
0.2039 0.2039 0.2039
0.2078 0.2078 0.2078
0.2196 0.2196 0.2196
0.2353 0.2353 0.2353
0.2706 0.2706 0.2706
0.3137 0.3137 0.3137
0.3882 0.3882 0.3882
0.4627 0.4627 0.4627
0.2039 0.2039 0.2039
0.2078 0.2078 0.2078
0.2118 0.2118 0.2118
0.2275 0.2275 0.2275
0.2510 0.2510 0.2510
0.2902 0.2902 0.2902
0.3451 0.3451 0.3451
0.4275 0.4275 0.4275
0.5059 0.5059 0.5059
0.2078 0.2078 0.2078
0.2196 0.2196 0.2196
0.2275 0.2275 0.2275
0.2353 0.2353 0.2353
0.2706 0.2706 0.2706
0.3137 0.3137 0.3137
0.3843 0.3843 0.3843
0.4706 0.4706 0.4706
0.5569 0.5569 0.5569
0.2196 0.2196 0.2196
0.2353 0.2353 0.2353
0.2471 0.2471 0.2471
0.2706 0.2706 0.2706
0.2941 0.2941 0.2941
0.3412 0.3412 0.3412
0.4235 0.4235 0.4235
0.5098 0.5098 0.5098
0.6078 0.6078 0.6078
0.2353 0.2353 0.2353
0.2706 0.2706 0.2706
0.2902 0.2902 0.2902
0.3137 0.3137 0.3137
0.3451 0.3451 0.3451
0.3882 0.3882 0.3882
0.4706 0.4706 0.4706
0.5608 0.5608 0.5608
0.6510 0.6510 0.6510
0.2706 0.2706 0.2706
0.3137 0.3137 0.3137
0.3451 0.3451 0.3451
0.3922 0.3922 0.3922
0.4235 0.4235 0.4235
0.4706 0.4706 0.4706
0.5137 0.5137 0.5137
0.6157 0.6157 0.6157
0.7020 0.7020 0.7020
0.3216 0.3216 0.3216
0.3843 0.3843 0.3843
0.4275 0.4275 0.4275
0.4667 0.4667 0.4667
0.5176 0.5176 0.5176
0.5686 0.5686 0.5686
0.6157 0.6157 0.6157
0.6667 0.6667 0.6667
0.7373 0.7373 0.7373
0.3843 0.3843 0.3843
0.4588 0.4588 0.4588
0.5059 0.5059 0.5059
0.5569 0.5569 0.5569
0.6039 0.6039 0.6039
0.6549 0.6549 0.6549
0.7020 0.7020 0.7020
0.7412 0.7412 0.7412
0.7725 0.7725 0.7725
0.2000 0.2000 0.2000
0.2039 0.2039 0.2039
0.2118 0.2118 0.2118
0.2275 0.2275 0.2275
0.2471 0.2471 0.2471
0.2902 0.2902 0.2902
0.3412 0.3412 0.3412
0.4235 0.4235 0.4235
0.5098 0.5098 0.5098
0.2000 0.2000 0.2000
0.2039 0.2039 0.2039
0.2196 0.2196 0.2196
0.2353 0.2353 0.2353
0.2667 0.2667 0.2667
0.3137 0.3137 0.3137
0.3882 0.3882 0.3882
0.4667 0.4667 0.4667
0.5529 0.5529 0.5529
0.2039 0.2039 0.2039
0.2118 0.2118 0.2118
0.2275 0.2275 0.2275
0.2471 0.2471 0.2471
0.2902 0.2902 0.2902
0.3451 0.3451 0.3451
0.4275 0.4275 0.4275
0.5137 0.5137 0.5137
0.6078 0.6078 0.6078
0.2118 0.2118 0.2118
0.2275 0.2275 0.2275
0.2471 0.2471 0.2471
0.2706 0.2706 0.2706
0.3137 0.3137 0.3137
0.3843 0.3843 0.3843
0.4706 0.4706 0.4706
0.5608 0.5608 0.5608
0.6510 0.6510 0.6510
0.2275 0.2275 0.2275
0.2510 0.2510 0.2510
0.2863 0.2863 0.2863
0.3176 0.3176 0.3176
0.3451 0.3451 0.3451
0.4235 0.4235 0.4235
0.5137 0.5137 0.5137
0.6118 0.6118 0.6118
0.6941 0.6941 0.6941
0.2510 0.2510 0.2510
0.2863 0.2863 0.2863
0.3490 0.3490 0.3490
0.3843 0.3843 0.3843
0.4235 0.4235 0.4235
0.4745 0.4745 0.4745
0.5569 0.5569 0.5569
0.6588 0.6588 0.6588
0.7451 0.7451 0.7451
0.2902 0.2902 0.2902
0.3490 0.3490 0.3490
0.4275 0.4275 0.4275
0.4706 0.4706 0.4706
0.5137 0.5137 0.5137
0.5608 0.5608 0.5608
0.6196 0.6196 0.6196
0.7098 0.7098 0.7098
0.7765 0.7765 0.7765
0.3451 0.3451 0.3451
0.4275 0.4275 0.4275
0.5137 0.5137 0.5137
0.5608 0.5608 0.5608
0.6196 0.6196 0.6196
0.6588 0.6588 0.6588
0.7098 0.7098 0.7098
0.7451 0.7451 0.7451
0.8078 0.8078 0.8078
0.4235 0.4235 0.4235
0.5098 0.5098 0.5098
0.6078 0.6078 0.6078
0.6510 0.6510 0.6510
0.7020 0.7020 0.7020
0.7373 0.7373 0.7373
0.7804 0.7804 0.7804
0.8118 0.8118 0.8118
0.8275 0.8275 0.8275
0.2000 0.2000 0.2000
0.2039 0.2039 0.2039
0.2196 0.2196 0.2196
0.2471 0.2471 0.2471
0.2902 0.2902 0.2902
0.3451 0.3451 0.3451
0.4235 0.4235 0.4235
0.5137 0.5137 0.5137
0.6078 0.6078 0.6078
0.2039 0.2039 0.2039
0.2078 0.2078 0.2078
0.2275 0.2275 0.2275
0.2667 0.2667 0.2667
0.3176 0.3176 0.3176
0.3843 0.3843 0.3843
0.4706 0.4706 0.4706
0.5569 0.5569 0.5569
0.6549 0.6549 0.6549
0.2078 0.2078 0.2078
0.2196 0.2196 0.2196
0.2353 0.2353 0.2353
0.2902 0.2902 0.2902
0.3451 0.3451 0.3451
0.4235 0.4235 0.4235
0.5137 0.5137 0.5137
0.6157 0.6157 0.6157
0.6941 0.6941 0.6941
0.2196 0.2196 0.2196
0.2353 0.2353 0.2353
0.2706 0.2706 0.2706
0.3176 0.3176 0.3176
0.3843 0.3843 0.3843
0.4745 0.4745 0.4745
0.5608 0.5608 0.5608
0.6627 0.6627 0.6627
0.7412 0.7412 0.7412
0.2353 0.2353 0.2353
0.2706 0.2706 0.2706
0.3176 0.3176 0.3176
0.3843 0.3843 0.3843
0.4275 0.4275 0.4275
0.5098 0.5098 0.5098
0.6118 0.6118 0.6118
0.7098 0.7098 0.7098
0.7804 0.7804 0.7804
0.2706 0.2706 0.2706
0.3176 0.3176 0.3176
0.3922 0.3922 0.3922
0.4667 0.4667 0.4667
0.5176 0.5176 0.5176
0.5608 0.5608 0.5608
0.6588 0.6588 0.6588
0.7451 0.7451 0.7451
0.8118 0.8118 0.8118
0.3176 0.3176 0.3176
0.3882 0.3882 0.3882
0.4667 0.4667 0.4667
0.5647 0.5647 0.5647
0.6118 0.6118 0.6118
0.6627 0.6627 0.6627
0.7137 0.7137 0.7137
0.7804 0.7804 0.7804
0.8314 0.8314 0.8314
0.3882 0.3882 0.3882
0.4706 0.4706 0.4706
0.5647 0.5647 0.5647
0.6627 0.6627 0.6627
0.7098 0.7098 0.7098
0.7451 0.7451 0.7451
0.7804 0.7804 0.7804
0.8157 0.8157 0.8157
0.8510 0.8510 0.8510
0.4627 0.4627 0.4627
0.5569 0.5569 0.5569
0.6549 0.6549 0.6549
0.7412 0.7412 0.7412
0.7725 0.7725 0.7725
0.8118 0.8118 0.8118
0.8353 0.8353 0.8353
0.8510 0.8510 0.8510
0.8627 0.8627 0.8627
0.2000 0.2000 0.2000
0.2078 0.2078 0.2078
0.2275 0.2275 0.2275
0.2667 0.2667 0.2667
0.3412 0.3412 0.3412
0.4275 0.4275 0.4275
0.5176 0.5176 0.5176
0.6118 0.6118 0.6118
0.7020 0.7020 0.7020
0.2039 0.2039 0.2039
0.2118 0.2118 0.2118
0.2353 0.2353 0.2353
0.2902 0.2902 0.2902
0.3843 0.3843 0.3843
0.4706 0.4706 0.4706
0.5608 0.5608 0.5608
0.6588 0.6588 0.6588
0.7373 0.7373 0.7373
0.2118 0.2118 0.2118
0.2275 0.2275 0.2275
0.2510 0.2510 0.2510
0.3137 0.3137 0.3137
0.4196 0.4196 0.4196
0.5176 0.5176 0.5176
0.6118 0.6118 0.6118
0.7098 0.7098 0.7098
0.7765 0.7765 0.7765
0.2275 0.2275 0.2275
0.2510 0.2510 0.2510
0.2902 0.2902 0.2902
0.3490 0.3490 0.3490
0.4667 0.4667 0.4667
0.5608 0.5608 0.5608
0.6588 0.6588 0.6588
0.7451 0.7451 0.7451
0.8118 0.8118 0.8118
0.2510 0.2510 0.2510
0.2902 0.2902 0.2902
0.3451 0.3451 0.3451
0.4275 0.4275 0.4275
0.5216 0.5216 0.5216
0.6118 0.6118 0.6118
0.7137 0.7137 0.7137
0.7804 0.7804 0.7804
0.8353 0.8353 0.8353
0.2902 0.2902 0.2902
0.3490 0.3490 0.3490
0.4275 0.4275 0.4275
0.5137 0.5137 0.5137
0.6118 0.6118 0.6118
0.6667 0.6667 0.6667
0.7412 0.7412 0.7412
0.8157 0.8157 0.8157
0.8510 0.8510 0.8510
0.3490 0.3490 0.3490
0.4235 0.4235 0.4235
0.5176 0.5176 0.5176
0.6196 0.6196 0.6196
0.7059 0.7059 0.7059
0.7490 0.7490 0.7490
0.7843 0.7843 0.7843
0.8392 0.8392 0.8392
0.8667 0.8667 0.8667
0.4314 0.4314 0.4314
0.5137 0.5137 0.5137
0.6157 0.6157 0.6157
0.7059 0.7059 0.7059
0.7843 0.7843 0.7843
0.8118 0.8118 0.8118
0.8392 0.8392 0.8392
0.8627 0.8627 0.8627
0.8824 0.8824 0.8824
0.5137 0.5137 0.5137
0.6039 0.6039 0.6039
0.6980 0.6980 0.6980
0.7765 0.7765 0.7765
0.8314 0.8314 0.8314
0.8549 0.8549 0.8549
0.8706 0.8706 0.8706
0.8824 0.8824 0.8824
0.8902 0.8902 0.8902
0.2039 0.2039 0.2039
0.2118 0.2118 0.2118
0.2353 0.2353 0.2353
0.2902 0.2902 0.2902
0.3882 0.3882 0.3882
0.5216 0.5216 0.5216
0.6118 0.6118 0.6118
0.7098 0.7098 0.7098
0.7804 0.7804 0.7804
0.2078 0.2078 0.2078
0.2196 0.2196 0.2196
0.2510 0.2510 0.2510
0.3137 0.3137 0.3137
0.4235 0.4235 0.4235
0.5529 0.5529 0.5529
0.6627 0.6627 0.6627
0.7490 0.7490 0.7490
0.8118 0.8118 0.8118
0.2196 0.2196 0.2196
0.2353 0.2353 0.2353
0.2706 0.2706 0.2706
0.3451 0.3451 0.3451
0.4745 0.4745 0.4745
0.6078 0.6078 0.6078
0.7098 0.7098 0.7098
0.7804 0.7804 0.7804
0.8353 0.8353 0.8353
0.2353 0.2353 0.2353
0.2706 0.2706 0.2706
0.3137 0.3137 0.3137
0.3882 0.3882 0.3882
0.5098 0.5098 0.5098
0.6549 0.6549 0.6549
0.7490 0.7490 0.7490
0.8118 0.8118 0.8118
0.8510 0.8510 0.8510
0.2706 0.2706 0.2706
0.3176 0.3176 0.3176
0.3843 0.3843 0.3843
0.4706 0.4706 0.4706
0.5647 0.5647 0.5647
0.7059 0.7059 0.7059
0.7843 0.7843 0.7843
0.8353 0.8353 0.8353
0.8667 0.8667 0.8667
0.3176 0.3176 0.3176
0.3843 0.3843 0.3843
0.4706 0.4706 0.4706
0.5608 0.5608 0.5608
0.6667 0.6667 0.6667
0.7529 0.7529 0.7529
0.8118 0.8118 0.8118
0.8588 0.8588 0.8588
0.8824 0.8824 0.8824
0.3922 0.3922 0.3922
0.4706 0.4706 0.4706
0.5686 0.5686 0.5686
0.6627 0.6627 0.6627
0.7490 0.7490 0.7490
0.8118 0.8118 0.8118
0.8392 0.8392 0.8392
0.8706 0.8706 0.8706
0.8941 0.8941 0.8941
0.4706 0.4706 0.4706
0.5647 0.5647 0.5647
0.6588 0.6588 0.6588
0.7490 0.7490 0.7490
0.8196 0.8196 0.8196
0.8588 0.8588 0.8588
0.8745 0.8745 0.8745
0.8863 0.8863 0.8863
0.9020 0.9020 0.9020
0.5569 0.5569 0.5569
0.6549 0.6549 0.6549
0.7451 0.7451 0.7451
0.8118 0.8118 0.8118
0.8549 0.8549 0.8549
0.8824 0.8824 0.8824
0.8941 0.8941 0.8941
0.9020 0.9020 0.9020
0.9059 0.9059 0.9059
0.2039 0.2039 0.2039
0.2196 0.2196 0.2196
0.2510 0.2510 0.2510
0.3137 0.3137 0.3137
0.4235 0.4235 0.4235
0.5608 0.5608 0.5608
0.7059 0.7059 0.7059
0.7843 0.7843 0.7843
0.8353 0.8353 0.8353
0.2118 0.2118 0.2118
0.2275 0.2275 0.2275
0.2667 0.2667 0.2667
0.3490 0.3490 0.3490
0.4706 0.4706 0.4706
0.6196 0.6196 0.6196
0.7529 0.7529 0.7529
0.8118 0.8118 0.8118
0.8510 0.8510 0.8510
0.2275 0.2275 0.2275
0.2510 0.2510 0.2510
0.2902 0.2902 0.2902
0.3843 0.3843 0.3843
0.5098 0.5098 0.5098
0.6588 0.6588 0.6588
0.7765 0.7765 0.7765
0.8392 0.8392 0.8392
0.8667 0.8667 0.8667
0.2510 0.2510 0.2510
0.2902 0.2902 0.2902
0.3490 0.3490 0.3490
0.4314 0.4314 0.4314
0.5608 0.5608 0.5608
0.7137 0.7137 0.7137
0.8118 0.8118 0.8118
0.8588 0.8588 0.8588
0.8824 0.8824 0.8824
0.2941 0.2941 0.2941
0.3451 0.3451 0.3451
0.4275 0.4275 0.4275
0.5137 0.5137 0.5137
0.6157 0.6157 0.6157
0.7412 0.7412 0.7412
0.8353 0.8353 0.8353
0.8745 0.8745 0.8745
0.8941 0.8941 0.8941
0.3490 0.3490 0.3490
0.4275 0.4275 0.4275
0.5176 0.5176 0.5176
0.6118 0.6118 0.6118
0.7098 0.7098 0.7098
0.7843 0.7843 0.7843
0.8588 0.8588 0.8588
0.8863 0.8863 0.8863
0.9020 0.9020 0.9020
0.4275 0.4275 0.4275
0.5216 0.5216 0.5216
0.6118 0.6118 0.6118
0.7137 0.7137 0.7137
0.7804 0.7804 0.7804
0.8392 0.8392 0.8392
0.8745 0.8745 0.8745
0.8980 0.8980 0.8980
0.9098 0.9098 0.9098
0.5176 0.5176 0.5176
0.6196 0.6196 0.6196
0.7098 0.7098 0.7098
0.7843 0.7843 0.7843
0.8392 0.8392 0.8392
0.8745 0.8745 0.8745
0.8980 0.8980 0.8980
0.9059 0.9059 0.9059
0.9176 0.9176 0.9176
0.6078 0.6078 0.6078
0.7020 0.7020 0.7020
0.7765 0.7765 0.7765
0.8353 0.8353 0.8353
0.8667 0.8667 0.8667
0.8941 0.8941 0.8941
0.9098 0.9098 0.9098
0.9176 0.9176 0.9176
0.9216 0.9216 0.9216
0.2078 0.2078 0.2078
0.2275 0.2275 0.2275
0.2667 0.2667 0.2667
0.3490 0.3490 0.3490
0.4627 0.4627 0.4627
0.6157 0.6157 0.6157
0.7490 0.7490 0.7490
0.8353 0.8353 0.8353
0.8706 0.8706 0.8706
0.2196 0.2196 0.2196
0.2353 0.2353 0.2353
0.2863 0.2863 0.2863
0.3882 0.3882 0.3882
0.5137 0.5137 0.5137
0.6588 0.6588 0.6588
0.7843 0.7843 0.7843
0.8588 0.8588 0.8588
0.8824 0.8824 0.8824
0.2353 0.2353 0.2353
0.2667 0.2667 0.2667
0.3216 0.3216 0.3216
0.4235 0.4235 0.4235
0.5686 0.5686 0.5686
0.7137 0.7137 0.7137
0.8157 0.8157 0.8157
0.8745 0.8745 0.8745
0.8941 0.8941 0.8941
0.2706 0.2706 0.2706
0.3176 0.3176 0.3176
0.3882 0.3882 0.3882
0.4706 0.4706 0.4706
0.6118 0.6118 0.6118
0.7451 0.7451 0.7451
0.8392 0.8392 0.8392
0.8824 0.8824 0.8824
0.9020 0.9020 0.9020
0.3176 0.3176 0.3176
0.3882 0.3882 0.3882
0.4667 0.4667 0.4667
0.5647 0.5647 0.5647
0.6667 0.6667 0.6667
0.7804 0.7804 0.7804
0.8588 0.8588 0.8588
0.8980 0.8980 0.8980
0.9098 0.9098 0.9098
0.3922 0.3922 0.3922
0.4706 0.4706 0.4706
0.5608 0.5608 0.5608
0.6627 0.6627 0.6627
0.7451 0.7451 0.7451
0.8157 0.8157 0.8157
0.8706 0.8706 0.8706
0.9059 0.9059 0.9059
0.9176 0.9176 0.9176
0.4706 0.4706 0.4706
0.5608 0.5608 0.5608
0.6627 0.6627 0.6627
0.7490 0.7490 0.7490
0.8157 0.8157 0.8157
0.8588 0.8588 0.8588
0.8863 0.8863 0.8863
0.9137 0.9137 0.9137
0.9255 0.9255 0.9255
0.5686 0.5686 0.5686
0.6627 0.6627 0.6627
0.7529 0.7529 0.7529
0.8118 0.8118 0.8118
0.8588 0.8588 0.8588
0.8863 0.8863 0.8863
0.9059 0.9059 0.9059
0.9216 0.9216 0.9216
0.9294 0.9294 0.9294
0.6588 0.6588 0.6588
0.7412 0.7412 0.7412
0.8118 0.8118 0.8118
0.8510 0.8510 0.8510
0.8824 0.8824 0.8824
0.9020 0.9020 0.9020
0.9176 0.9176 0.9176
0.9294 0.9294 0.9294
0.9333 0.9333 0.9333
0.2118 0.2118 0.2118
0.2314 0.2314 0.2314
0.2824 0.2824 0.2824
0.3804 0.3804 0.3804
0.5098 0.5098 0.5098
0.6549 0.6549 0.6549
0.7765 0.7765 0.7765
0.8549 0.8549 0.8549
0.8902 0.8902 0.8902
0.2235 0.2235 0.2235
0.2431 0.2431 0.2431
0.3137 0.3137 0.3137
0.4157 0.4157 0.4157
0.5569 0.5569 0.5569
0.6980 0.6980 0.6980
0.8118 0.8118 0.8118
0.8667 0.8667 0.8667
0.8980 0.8980 0.8980
0.2471 0.2471 0.2471
0.2824 0.2824 0.2824
0.3412 0.3412 0.3412
0.4627 0.4627 0.4627
0.6000 0.6000 0.6000
0.7412 0.7412 0.7412
0.8353 0.8353 0.8353
0.8824 0.8824 0.8824
0.9059 0.9059 0.9059
0.2863 0.2863 0.2863
0.3451 0.3451 0.3451
0.4196 0.4196 0.4196
0.5137 0.5137 0.5137
0.6549 0.6549 0.6549
0.7804 0.7804 0.7804
0.8549 0.8549 0.8549
0.8941 0.8941 0.8941
0.9137 0.9137 0.9137
0.3451 0.3451 0.3451
0.4157 0.4157 0.4157
0.5098 0.5098 0.5098
0.6039 0.6039 0.6039
0.7020 0.7020 0.7020
0.8118 0.8118 0.8118
0.8667 0.8667 0.8667
0.9020 0.9020 0.9020
0.9216 0.9216 0.9216
0.4235 0.4235 0.4235
0.5098 0.5098 0.5098
0.6078 0.6078 0.6078
0.7020 0.7020 0.7020
0.7765 0.7765 0.7765
0.8353 0.8353 0.8353
0.8824 0.8824 0.8824
0.9098 0.9098 0.9098
0.9255 0.9255 0.9255
0.5137 0.5137 0.5137
0.6078 0.6078 0.6078
0.7020 0.7020 0.7020
0.7765 0.7765 0.7765
0.8353 0.8353 0.8353
0.8706 0.8706 0.8706
0.8941 0.8941 0.8941
0.9176 0.9176 0.9176
0.9333 0.9333 0.9333
0.6118 0.6118 0.6118
0.7059 0.7059 0.7059
0.7765 0.7765 0.7765
0.8353 0.8353 0.8353
0.8706 0.8706 0.8706
0.8941 0.8941 0.8941
0.9098 0.9098 0.9098
0.9255 0.9255 0.9255
0.9373 0.9373 0.9373
0.7020 0.7020 0.7020
0.7725 0.7725 0.7725
0.8275 0.8275 0.8275
0.8667 0.8667 0.8667
0.8902 0.8902 0.8902
0.9059 0.9059 0.9059
0.9216 0.9216 0.9216
0.9333 0.9333 0.9333
0.9412 0.9412 0.9412
