滤镜资源/vsco 137 3dl+cube/VSCO 137 cube/VSCO B1Bw Classic.cube
#Generated by Picture Instruments - Look Converter
LUT_3D_SIZE 5
0.0431 0.0431 0.0431
0.0549 0.0549 0.0549
0.0667 0.0667 0.0667
0.0784 0.0784 0.0784
0.0902 0.0902 0.0902
0.0980 0.0980 0.0980
0.1059 0.1059 0.1059
0.1216 0.1216 0.1216
0.1412 0.1412 0.1412
0.1608 0.1608 0.1608
0.1882 0.1882 0.1882
0.2000 0.2000 0.2000
0.2118 0.2118 0.2118
0.2392 0.2392 0.2392
0.2667 0.2667 0.2667
0.3255 0.3255 0.3255
0.3373 0.3373 0.3373
0.3569 0.3569 0.3569
0.3686 0.3686 0.3686
0.4039 0.4039 0.4039
0.4784 0.4784 0.4784
0.4941 0.4941 0.4941
0.5098 0.5098 0.5098
0.5255 0.5255 0.5255
0.5373 0.5373 0.5373
0.0706 0.0706 0.0706
0.1804 0.1804 0.1804
0.2118 0.2118 0.2118
0.2353 0.2353 0.2353
0.2706 0.2706 0.2706
0.1333 0.1333 0.1333
0.2510 0.2510 0.2510
0.2824 0.2824 0.2824
0.3176 0.3176 0.3176
0.3451 0.3451 0.3451
0.2510 0.2510 0.2510
0.3961 0.3961 0.3961
0.4157 0.4157 0.4157
0.4510 0.4510 0.4510
0.4824 0.4824 0.4824
0.4039 0.4039 0.4039
0.5569 0.5569 0.5569
0.5725 0.5725 0.5725
0.5961 0.5961 0.5961
0.6196 0.6196 0.6196
0.5569 0.5569 0.5569
0.6863 0.6863 0.6863
0.6980 0.6980 0.6980
0.7098 0.7098 0.7098
0.7176 0.7176 0.7176
0.0980 0.0980 0.0980
0.2471 0.2471 0.2471
0.4706 0.4706 0.4706
0.5176 0.5176 0.5176
0.5451 0.5451 0.5451
0.1882 0.1882 0.1882
0.3255 0.3255 0.3255
0.5529 0.5529 0.5529
0.5922 0.5922 0.5922
0.6157 0.6157 0.6157
0.3216 0.3216 0.3216
0.4784 0.4784 0.4784
0.6314 0.6314 0.6314
0.6667 0.6667 0.6667
0.6863 0.6863 0.6863
0.4824 0.4824 0.4824
0.6314 0.6314 0.6314
0.7412 0.7412 0.7412
0.7569 0.7569 0.7569
0.7725 0.7725 0.7725
0.6275 0.6275 0.6275
0.7373 0.7373 0.7373
0.8196 0.8196 0.8196
0.8314 0.8314 0.8314
0.8392 0.8392 0.8392
0.1373 0.1373 0.1373
0.3216 0.3216 0.3216
0.5569 0.5569 0.5569
0.7451 0.7451 0.7451
0.7647 0.7647 0.7647
0.2510 0.2510 0.2510
0.4039 0.4039 0.4039
0.6275 0.6275 0.6275
0.7882 0.7882 0.7882
0.8039 0.8039 0.8039
0.4078 0.4078 0.4078
0.5608 0.5608 0.5608
0.6941 0.6941 0.6941
0.8235 0.8235 0.8235
0.8392 0.8392 0.8392
0.5608 0.5608 0.5608
0.6902 0.6902 0.6902
0.7882 0.7882 0.7882
0.8627 0.8627 0.8627
0.8706 0.8706 0.8706
0.6902 0.6902 0.6902
0.7843 0.7843 0.7843
0.8549 0.8549 0.8549
0.9098 0.9098 0.9098
0.9137 0.9137 0.9137
0.1843 0.1843 0.1843
0.3961 0.3961 0.3961
0.6235 0.6235 0.6235
0.7882 0.7882 0.7882
0.8784 0.8784 0.8784
0.3216 0.3216 0.3216
0.4745 0.4745 0.4745
0.6824 0.6824 0.6824
0.8235 0.8235 0.8235
0.9020 0.9020 0.9020
0.4784 0.4784 0.4784
0.6275 0.6275 0.6275
0.7412 0.7412 0.7412
0.8549 0.8549 0.8549
0.9255 0.9255 0.9255
0.6275 0.6275 0.6275
0.7373 0.7373 0.7373
0.8235 0.8235 0.8235
0.8863 0.8863 0.8863
0.9412 0.9412 0.9412
0.7373 0.7373 0.7373
0.8157 0.8157 0.8157
0.8824 0.8824 0.8824
0.9255 0.9255 0.9255
0.9608 0.9608 0.9608
