滤镜资源/vsco 137 3dl+cube/VSCO 137 cube/VSCOX KP1 Kodak Portra 160.cube
#Generated by Picture Instruments - Look Converter
LUT_3D_SIZE 5
0.0314 0.0039 0.0000
0.1098 0.0118 0.0000
0.5020 0.0549 0.0078
0.7686 0.0941 0.0118
0.8471 0.1137 0.0118
0.0392 0.1686 0.0471
0.1333 0.1882 0.0353
0.5294 0.2275 0.0039
0.8000 0.2627 0.0000
0.8863 0.2784 0.0118
0.0235 0.5255 0.1843
0.1176 0.5490 0.1608
0.4824 0.5922 0.0627
0.8000 0.6353 0.0118
0.9294 0.6314 0.0392
0.0353 0.6706 0.2314
0.1412 0.6941 0.1961
0.4902 0.7529 0.0902
0.7882 0.8039 0.0392
0.9373 0.8235 0.0706
0.2667 0.7765 0.2078
0.4275 0.8118 0.1529
0.6784 0.8588 0.1059
0.8392 0.8902 0.1020
0.9373 0.9098 0.1882
0.0471 0.0196 0.1843
0.1373 0.0392 0.2196
0.5137 0.0627 0.1725
0.7608 0.0941 0.1490
0.8510 0.1294 0.1843
0.0588 0.1922 0.1843
0.2000 0.2275 0.2196
0.5961 0.2549 0.1882
0.8157 0.2784 0.1882
0.8902 0.3137 0.2196
0.0667 0.5529 0.2588
0.2196 0.5765 0.2471
0.6118 0.6157 0.2000
0.8392 0.6353 0.1922
0.9255 0.6471 0.2549
0.1176 0.7020 0.2902
0.2941 0.7333 0.2549
0.6275 0.7804 0.2039
0.8353 0.8118 0.2118
0.9333 0.8235 0.2941
0.4000 0.8118 0.3059
0.5608 0.8431 0.2863
0.7490 0.8784 0.2824
0.8667 0.8980 0.3216
0.9373 0.9059 0.4157
0.0627 0.1216 0.5647
0.1882 0.1373 0.5843
0.5451 0.1412 0.5490
0.7882 0.1608 0.5529
0.8745 0.2078 0.5529
0.0824 0.3294 0.5922
0.2549 0.3412 0.6235
0.6118 0.3529 0.5961
0.8196 0.3647 0.5961
0.8980 0.4078 0.5922
0.1294 0.6078 0.6392
0.3255 0.6314 0.6353
0.6745 0.6667 0.6353
0.8510 0.6745 0.6392
0.9255 0.6824 0.6510
0.2314 0.7529 0.6314
0.4314 0.7765 0.6196
0.7098 0.8118 0.6118
0.8627 0.8235 0.6314
0.9294 0.8314 0.6706
0.5451 0.8588 0.6431
0.6588 0.8745 0.6353
0.8078 0.8902 0.6471
0.8863 0.9059 0.6784
0.9373 0.9098 0.7216
0.1098 0.2941 0.7490
0.2510 0.3059 0.7373
0.5843 0.3137 0.7137
0.8039 0.3294 0.7255
0.9059 0.3804 0.7333
0.1412 0.4784 0.8000
0.3137 0.4902 0.7922
0.6314 0.5020 0.7725
0.8275 0.5059 0.7725
0.9255 0.5412 0.7843
0.2235 0.6941 0.8431
0.4118 0.7098 0.8275
0.7020 0.7294 0.8275
0.8588 0.7333 0.8235
0.9373 0.7451 0.8275
0.3608 0.8039 0.8471
0.5333 0.8196 0.8392
0.7569 0.8353 0.8314
0.8784 0.8431 0.8471
0.9373 0.8471 0.8471
0.6431 0.8863 0.8392
0.7373 0.8941 0.8392
0.8353 0.9098 0.8471
0.8980 0.9176 0.8588
0.9451 0.9176 0.8667
0.2392 0.6275 0.8902
0.4078 0.6314 0.8706
0.6627 0.6392 0.8588
0.8235 0.6588 0.8706
0.9255 0.6902 0.8824
0.2980 0.7098 0.8980
0.4706 0.7137 0.8902
0.6980 0.7255 0.8784
0.8431 0.7373 0.8902
0.9294 0.7608 0.9020
0.4157 0.7961 0.9137
0.5686 0.8000 0.9020
0.7529 0.8118 0.9098
0.8667 0.8235 0.9137
0.9373 0.8353 0.9176
0.5569 0.8510 0.9216
0.6667 0.8627 0.9176
0.8039 0.8706 0.9216
0.8863 0.8745 0.9255
0.9451 0.8824 0.9294
0.7647 0.9059 0.9255
0.8118 0.9098 0.9294
0.8706 0.9137 0.9294
0.9137 0.9216 0.9373
0.9490 0.9255 0.9412
