滤镜资源/vsco 137 3dl+cube/VSCO 137 cube/VSCO X2 Bw Fade.cube
#Generated by Picture Instruments - Look Converter
LUT_3D_SIZE 5
0.2392 0.2392 0.2392
0.2549 0.2549 0.2549
0.2863 0.2863 0.2863
0.3412 0.3412 0.3412
0.4314 0.4314 0.4314
0.2549 0.2549 0.2549
0.2667 0.2667 0.2667
0.3098 0.3098 0.3098
0.3843 0.3843 0.3843
0.4863 0.4863 0.4863
0.2863 0.2863 0.2863
0.3098 0.3098 0.3098
0.3412 0.3412 0.3412
0.4353 0.4353 0.4353
0.5608 0.5608 0.5608
0.3412 0.3412 0.3412
0.3843 0.3843 0.3843
0.4392 0.4392 0.4392
0.4941 0.4941 0.4941
0.6471 0.6471 0.6471
0.4314 0.4314 0.4314
0.4902 0.4902 0.4902
0.5647 0.5647 0.5647
0.6471 0.6471 0.6471
0.7137 0.7137 0.7137
0.2471 0.2471 0.2471
0.2824 0.2824 0.2824
0.3373 0.3373 0.3373
0.4314 0.4314 0.4314
0.5608 0.5608 0.5608
0.2667 0.2667 0.2667
0.3098 0.3098 0.3098
0.3843 0.3843 0.3843
0.4941 0.4941 0.4941
0.6431 0.6431 0.6431
0.3098 0.3098 0.3098
0.3804 0.3804 0.3804
0.4314 0.4314 0.4314
0.5647 0.5647 0.5647
0.7137 0.7137 0.7137
0.3843 0.3843 0.3843
0.4941 0.4941 0.4941
0.5647 0.5647 0.5647
0.6549 0.6549 0.6549
0.7843 0.7843 0.7843
0.4902 0.4902 0.4902
0.6431 0.6431 0.6431
0.7176 0.7176 0.7176
0.7882 0.7882 0.7882
0.8314 0.8314 0.8314
0.2549 0.2549 0.2549
0.3059 0.3059 0.3059
0.4275 0.4275 0.4275
0.5686 0.5686 0.5686
0.7176 0.7176 0.7176
0.2863 0.2863 0.2863
0.3412 0.3412 0.3412
0.4902 0.4902 0.4902
0.6471 0.6471 0.6471
0.7843 0.7843 0.7843
0.3412 0.3412 0.3412
0.4314 0.4314 0.4314
0.5725 0.5725 0.5725
0.7294 0.7294 0.7294
0.8353 0.8353 0.8353
0.4353 0.4353 0.4353
0.5686 0.5686 0.5686
0.7216 0.7216 0.7216
0.7922 0.7922 0.7922
0.8667 0.8667 0.8667
0.5647 0.5647 0.5647
0.7176 0.7176 0.7176
0.8314 0.8314 0.8314
0.8667 0.8667 0.8667
0.8863 0.8863 0.8863
0.2667 0.2667 0.2667
0.3412 0.3412 0.3412
0.4941 0.4941 0.4941
0.7255 0.7255 0.7255
0.8353 0.8353 0.8353
0.3098 0.3098 0.3098
0.3843 0.3843 0.3843
0.5647 0.5647 0.5647
0.7843 0.7843 0.7843
0.8667 0.8667 0.8667
0.3882 0.3882 0.3882
0.4941 0.4941 0.4941
0.6510 0.6510 0.6510
0.8353 0.8353 0.8353
0.8902 0.8902 0.8902
0.4941 0.4941 0.4941
0.6471 0.6471 0.6471
0.7882 0.7882 0.7882
0.8706 0.8706 0.8706
0.9098 0.9098 0.9098
0.6431 0.6431 0.6431
0.7843 0.7843 0.7843
0.8667 0.8667 0.8667
0.9098 0.9098 0.9098
0.9216 0.9216 0.9216
0.2824 0.2824 0.2824
0.3765 0.3765 0.3765
0.5608 0.5608 0.5608
0.7843 0.7843 0.7843
0.8863 0.8863 0.8863
0.3373 0.3373 0.3373
0.4275 0.4275 0.4275
0.6392 0.6392 0.6392
0.8353 0.8353 0.8353
0.9059 0.9059 0.9059
0.4314 0.4314 0.4314
0.5608 0.5608 0.5608
0.7216 0.7216 0.7216
0.8627 0.8627 0.8627
0.9176 0.9176 0.9176
0.5647 0.5647 0.5647
0.7176 0.7176 0.7176
0.8353 0.8353 0.8353
0.8902 0.8902 0.8902
0.9294 0.9294 0.9294
0.7176 0.7176 0.7176
0.8275 0.8275 0.8275
0.8863 0.8863 0.8863
0.9216 0.9216 0.9216
0.9412 0.9412 0.9412
