滤镜资源/vsco 137 3dl+cube/VSCO 137 cube/VSCO X1 Bw Fade.cube
#Generated by Picture Instruments - Look Converter
LUT_3D_SIZE 5
0.1961 0.1961 0.1961
0.2000 0.2000 0.2000
0.2118 0.2118 0.2118
0.2510 0.2510 0.2510
0.3412 0.3412 0.3412
0.2000 0.2000 0.2000
0.2039 0.2039 0.2039
0.2275 0.2275 0.2275
0.2902 0.2902 0.2902
0.4196 0.4196 0.4196
0.2118 0.2118 0.2118
0.2275 0.2275 0.2275
0.2510 0.2510 0.2510
0.3490 0.3490 0.3490
0.5098 0.5098 0.5098
0.2510 0.2510 0.2510
0.2902 0.2902 0.2902
0.3529 0.3529 0.3529
0.4275 0.4275 0.4275
0.6118 0.6118 0.6118
0.3451 0.3451 0.3451
0.4235 0.4235 0.4235
0.5137 0.5137 0.5137
0.6118 0.6118 0.6118
0.6980 0.6980 0.6980
0.2000 0.2000 0.2000
0.2118 0.2118 0.2118
0.2471 0.2471 0.2471
0.3412 0.3412 0.3412
0.5098 0.5098 0.5098
0.2039 0.2039 0.2039
0.2275 0.2275 0.2275
0.2902 0.2902 0.2902
0.4275 0.4275 0.4275
0.6078 0.6078 0.6078
0.2275 0.2275 0.2275
0.2863 0.2863 0.2863
0.3451 0.3451 0.3451
0.5137 0.5137 0.5137
0.6941 0.6941 0.6941
0.2902 0.2902 0.2902
0.4275 0.4275 0.4275
0.5137 0.5137 0.5137
0.6196 0.6196 0.6196
0.7765 0.7765 0.7765
0.4235 0.4235 0.4235
0.6078 0.6078 0.6078
0.7020 0.7020 0.7020
0.7804 0.7804 0.7804
0.8275 0.8275 0.8275
0.2000 0.2000 0.2000
0.2275 0.2275 0.2275
0.3412 0.3412 0.3412
0.5176 0.5176 0.5176
0.7020 0.7020 0.7020
0.2118 0.2118 0.2118
0.2510 0.2510 0.2510
0.4196 0.4196 0.4196
0.6118 0.6118 0.6118
0.7765 0.7765 0.7765
0.2510 0.2510 0.2510
0.3451 0.3451 0.3451
0.5216 0.5216 0.5216
0.7137 0.7137 0.7137
0.8353 0.8353 0.8353
0.3490 0.3490 0.3490
0.5176 0.5176 0.5176
0.7059 0.7059 0.7059
0.7843 0.7843 0.7843
0.8667 0.8667 0.8667
0.5137 0.5137 0.5137
0.6980 0.6980 0.6980
0.8314 0.8314 0.8314
0.8706 0.8706 0.8706
0.8902 0.8902 0.8902
0.2039 0.2039 0.2039
0.2510 0.2510 0.2510
0.4235 0.4235 0.4235
0.7059 0.7059 0.7059
0.8353 0.8353 0.8353
0.2275 0.2275 0.2275
0.2902 0.2902 0.2902
0.5098 0.5098 0.5098
0.7765 0.7765 0.7765
0.8667 0.8667 0.8667
0.2941 0.2941 0.2941
0.4275 0.4275 0.4275
0.6157 0.6157 0.6157
0.8353 0.8353 0.8353
0.8941 0.8941 0.8941
0.4275 0.4275 0.4275
0.6118 0.6118 0.6118
0.7804 0.7804 0.7804
0.8745 0.8745 0.8745
0.9098 0.9098 0.9098
0.6078 0.6078 0.6078
0.7765 0.7765 0.7765
0.8667 0.8667 0.8667
0.9098 0.9098 0.9098
0.9216 0.9216 0.9216
0.2118 0.2118 0.2118
0.2824 0.2824 0.2824
0.5098 0.5098 0.5098
0.7765 0.7765 0.7765
0.8902 0.8902 0.8902
0.2471 0.2471 0.2471
0.3412 0.3412 0.3412
0.6000 0.6000 0.6000
0.8353 0.8353 0.8353
0.9059 0.9059 0.9059
0.3451 0.3451 0.3451
0.5098 0.5098 0.5098
0.7020 0.7020 0.7020
0.8667 0.8667 0.8667
0.9216 0.9216 0.9216
0.5137 0.5137 0.5137
0.7020 0.7020 0.7020
0.8353 0.8353 0.8353
0.8941 0.8941 0.8941
0.9333 0.9333 0.9333
0.7020 0.7020 0.7020
0.8275 0.8275 0.8275
0.8902 0.8902 0.8902
0.9216 0.9216 0.9216
0.9412 0.9412 0.9412
