滤镜资源/vsco 137 3dl+cube/VSCO 137 cube/VSCO X3 Bw Fade.cube
#Generated by Picture Instruments - Look Converter
LUT_3D_SIZE 5
0.1961 0.1961 0.1961
0.1961 0.1961 0.1961
0.2039 0.2039 0.2039
0.2353 0.2353 0.2353
0.3529 0.3529 0.3529
0.1961 0.1961 0.1961
0.2000 0.2000 0.2000
0.2118 0.2118 0.2118
0.2824 0.2824 0.2824
0.4510 0.4510 0.4510
0.2039 0.2039 0.2039
0.2118 0.2118 0.2118
0.2353 0.2353 0.2353
0.3608 0.3608 0.3608
0.5686 0.5686 0.5686
0.2353 0.2353 0.2353
0.2824 0.2824 0.2824
0.3647 0.3647 0.3647
0.4667 0.4667 0.4667
0.6902 0.6902 0.6902
0.3569 0.3569 0.3569
0.4588 0.4588 0.4588
0.5765 0.5765 0.5765
0.6902 0.6902 0.6902
0.7725 0.7725 0.7725
0.1961 0.1961 0.1961
0.2039 0.2039 0.2039
0.2314 0.2314 0.2314
0.3529 0.3529 0.3529
0.5725 0.5725 0.5725
0.2000 0.2000 0.2000
0.2118 0.2118 0.2118
0.2824 0.2824 0.2824
0.4627 0.4627 0.4627
0.6863 0.6863 0.6863
0.2118 0.2118 0.2118
0.2784 0.2784 0.2784
0.3569 0.3569 0.3569
0.5765 0.5765 0.5765
0.7686 0.7686 0.7686
0.2824 0.2824 0.2824
0.4588 0.4588 0.4588
0.5765 0.5765 0.5765
0.6980 0.6980 0.6980
0.8353 0.8353 0.8353
0.4588 0.4588 0.4588
0.6863 0.6863 0.6863
0.7765 0.7765 0.7765
0.8392 0.8392 0.8392
0.8745 0.8745 0.8745
0.1961 0.1961 0.1961
0.2118 0.2118 0.2118
0.3490 0.3490 0.3490
0.5804 0.5804 0.5804
0.7765 0.7765 0.7765
0.2039 0.2039 0.2039
0.2353 0.2353 0.2353
0.4549 0.4549 0.4549
0.6863 0.6863 0.6863
0.8353 0.8353 0.8353
0.2353 0.2353 0.2353
0.3529 0.3529 0.3529
0.5843 0.5843 0.5843
0.7882 0.7882 0.7882
0.8784 0.8784 0.8784
0.3608 0.3608 0.3608
0.5804 0.5804 0.5804
0.7804 0.7804 0.7804
0.8431 0.8431 0.8431
0.9020 0.9020 0.9020
0.5765 0.5765 0.5765
0.7725 0.7725 0.7725
0.8745 0.8745 0.8745
0.9020 0.9020 0.9020
0.9137 0.9137 0.9137
0.2000 0.2000 0.2000
0.2353 0.2353 0.2353
0.4588 0.4588 0.4588
0.7804 0.7804 0.7804
0.8784 0.8784 0.8784
0.2118 0.2118 0.2118
0.2824 0.2824 0.2824
0.5725 0.5725 0.5725
0.8392 0.8392 0.8392
0.9020 0.9020 0.9020
0.2863 0.2863 0.2863
0.4627 0.4627 0.4627
0.6941 0.6941 0.6941
0.8784 0.8784 0.8784
0.9137 0.9137 0.9137
0.4667 0.4667 0.4667
0.6863 0.6863 0.6863
0.8392 0.8392 0.8392
0.9059 0.9059 0.9059
0.9255 0.9255 0.9255
0.6863 0.6863 0.6863
0.8353 0.8353 0.8353
0.9020 0.9020 0.9020
0.9255 0.9255 0.9255
0.9333 0.9333 0.9333
0.2000 0.2000 0.2000
0.2745 0.2745 0.2745
0.5686 0.5686 0.5686
0.8392 0.8392 0.8392
0.9098 0.9098 0.9098
0.2314 0.2314 0.2314
0.3529 0.3529 0.3529
0.6784 0.6784 0.6784
0.8784 0.8784 0.8784
0.9216 0.9216 0.9216
0.3569 0.3569 0.3569
0.5725 0.5725 0.5725
0.7804 0.7804 0.7804
0.8980 0.8980 0.8980
0.9294 0.9294 0.9294
0.5765 0.5765 0.5765
0.7765 0.7765 0.7765
0.8784 0.8784 0.8784
0.9176 0.9176 0.9176
0.9373 0.9373 0.9373
0.7765 0.7765 0.7765
0.8706 0.8706 0.8706
0.9137 0.9137 0.9137
0.9333 0.9333 0.9333
0.9412 0.9412 0.9412
