滤镜资源/vsco 137 3dl+cube/VSCO 137 cube/VSCO X3 Bw Fade.cube
#Generated by Picture Instruments - Look Converter
LUT_3D_SIZE 9
0.1961 0.1961 0.1961
0.1961 0.1961 0.1961
0.1961 0.1961 0.1961
0.2000 0.2000 0.2000
0.2039 0.2039 0.2039
0.2118 0.2118 0.2118
0.2353 0.2353 0.2353
0.2824 0.2824 0.2824
0.3529 0.3529 0.3529
0.1961 0.1961 0.1961
0.1961 0.1961 0.1961
0.2000 0.2000 0.2000
0.2000 0.2000 0.2000
0.2078 0.2078 0.2078
0.2196 0.2196 0.2196
0.2549 0.2549 0.2549
0.3137 0.3137 0.3137
0.4078 0.4078 0.4078
0.1961 0.1961 0.1961
0.2000 0.2000 0.2000
0.2000 0.2000 0.2000
0.2039 0.2039 0.2039
0.2118 0.2118 0.2118
0.2353 0.2353 0.2353
0.2824 0.2824 0.2824
0.3608 0.3608 0.3608
0.4510 0.4510 0.4510
0.2000 0.2000 0.2000
0.2000 0.2000 0.2000
0.2039 0.2039 0.2039
0.2078 0.2078 0.2078
0.2196 0.2196 0.2196
0.2549 0.2549 0.2549
0.3137 0.3137 0.3137
0.4118 0.4118 0.4118
0.5137 0.5137 0.5137
0.2039 0.2039 0.2039
0.2078 0.2078 0.2078
0.2118 0.2118 0.2118
0.2196 0.2196 0.2196
0.2353 0.2353 0.2353
0.2824 0.2824 0.2824
0.3608 0.3608 0.3608
0.4627 0.4627 0.4627
0.5686 0.5686 0.5686
0.2118 0.2118 0.2118
0.2196 0.2196 0.2196
0.2353 0.2353 0.2353
0.2549 0.2549 0.2549
0.2824 0.2824 0.2824
0.3176 0.3176 0.3176
0.4157 0.4157 0.4157
0.5216 0.5216 0.5216
0.6314 0.6314 0.6314
0.2353 0.2353 0.2353
0.2549 0.2549 0.2549
0.2824 0.2824 0.2824
0.3176 0.3176 0.3176
0.3647 0.3647 0.3647
0.4118 0.4118 0.4118
0.4667 0.4667 0.4667
0.5765 0.5765 0.5765
0.6902 0.6902 0.6902
0.2824 0.2824 0.2824
0.3216 0.3216 0.3216
0.3608 0.3608 0.3608
0.4157 0.4157 0.4157
0.4627 0.4627 0.4627
0.5255 0.5255 0.5255
0.5804 0.5804 0.5804
0.6431 0.6431 0.6431
0.7333 0.7333 0.7333
0.3569 0.3569 0.3569
0.4078 0.4078 0.4078
0.4588 0.4588 0.4588
0.5176 0.5176 0.5176
0.5765 0.5765 0.5765
0.6353 0.6353 0.6353
0.6902 0.6902 0.6902
0.7373 0.7373 0.7373
0.7725 0.7725 0.7725
0.1961 0.1961 0.1961
0.1961 0.1961 0.1961
0.2000 0.2000 0.2000
0.2039 0.2039 0.2039
0.2118 0.2118 0.2118
0.2353 0.2353 0.2353
0.2784 0.2784 0.2784
0.3569 0.3569 0.3569
0.4510 0.4510 0.4510
0.1961 0.1961 0.1961
0.2000 0.2000 0.2000
0.2000 0.2000 0.2000
0.2078 0.2078 0.2078
0.2196 0.2196 0.2196
0.2549 0.2549 0.2549
0.3137 0.3137 0.3137
0.4118 0.4118 0.4118
0.5098 0.5098 0.5098
0.2000 0.2000 0.2000
0.2000 0.2000 0.2000
0.2039 0.2039 0.2039
0.2118 0.2118 0.2118
0.2353 0.2353 0.2353
0.2824 0.2824 0.2824
0.3569 0.3569 0.3569
0.4627 0.4627 0.4627
0.5647 0.5647 0.5647
0.2000 0.2000 0.2000
0.2078 0.2078 0.2078
0.2118 0.2118 0.2118
0.2196 0.2196 0.2196
0.2549 0.2549 0.2549
0.3137 0.3137 0.3137
0.4039 0.4039 0.4039
0.5216 0.5216 0.5216
0.6275 0.6275 0.6275
0.2078 0.2078 0.2078
0.2196 0.2196 0.2196
0.2314 0.2314 0.2314
0.2549 0.2549 0.2549
0.2863 0.2863 0.2863
0.3529 0.3529 0.3529
0.4588 0.4588 0.4588
0.5686 0.5686 0.5686
0.6863 0.6863 0.6863
0.2196 0.2196 0.2196
0.2549 0.2549 0.2549
0.2824 0.2824 0.2824
0.3137 0.3137 0.3137
0.3569 0.3569 0.3569
0.4118 0.4118 0.4118
0.5216 0.5216 0.5216
0.6353 0.6353 0.6353
0.7294 0.7294 0.7294
0.2549 0.2549 0.2549
0.3137 0.3137 0.3137
0.3569 0.3569 0.3569
0.4157 0.4157 0.4157
0.4588 0.4588 0.4588
0.5216 0.5216 0.5216
0.5765 0.5765 0.5765
0.6941 0.6941 0.6941
0.7765 0.7765 0.7765
0.3216 0.3216 0.3216
0.4039 0.4039 0.4039
0.4667 0.4667 0.4667
0.5137 0.5137 0.5137
0.5804 0.5804 0.5804
0.6431 0.6431 0.6431
0.6941 0.6941 0.6941
0.7451 0.7451 0.7451
0.8078 0.8078 0.8078
0.4078 0.4078 0.4078
0.5059 0.5059 0.5059
0.5686 0.5686 0.5686
0.6314 0.6314 0.6314
0.6824 0.6824 0.6824
0.7333 0.7333 0.7333
0.7765 0.7765 0.7765
0.8078 0.8078 0.8078
0.8314 0.8314 0.8314
0.1961 0.1961 0.1961
0.2000 0.2000 0.2000
0.2039 0.2039 0.2039
0.2118 0.2118 0.2118
0.2314 0.2314 0.2314
0.2824 0.2824 0.2824
0.3529 0.3529 0.3529
0.4588 0.4588 0.4588
0.5725 0.5725 0.5725
0.1961 0.1961 0.1961
0.2000 0.2000 0.2000
0.2078 0.2078 0.2078
0.2196 0.2196 0.2196
0.2510 0.2510 0.2510
0.3137 0.3137 0.3137
0.4118 0.4118 0.4118
0.5176 0.5176 0.5176
0.6235 0.6235 0.6235
0.2000 0.2000 0.2000
0.2039 0.2039 0.2039
0.2118 0.2118 0.2118
0.2314 0.2314 0.2314
0.2824 0.2824 0.2824
0.3569 0.3569 0.3569
0.4627 0.4627 0.4627
0.5765 0.5765 0.5765
0.6863 0.6863 0.6863
0.2039 0.2039 0.2039
0.2118 0.2118 0.2118
0.2314 0.2314 0.2314
0.2549 0.2549 0.2549
0.3098 0.3098 0.3098
0.4078 0.4078 0.4078
0.5216 0.5216 0.5216
0.6353 0.6353 0.6353
0.7294 0.7294 0.7294
0.2118 0.2118 0.2118
0.2353 0.2353 0.2353
0.2784 0.2784 0.2784
0.3176 0.3176 0.3176
0.3569 0.3569 0.3569
0.4588 0.4588 0.4588
0.5765 0.5765 0.5765
0.6863 0.6863 0.6863
0.7686 0.7686 0.7686
0.2353 0.2353 0.2353
0.2784 0.2784 0.2784
0.3569 0.3569 0.3569
0.4039 0.4039 0.4039
0.4588 0.4588 0.4588
0.5294 0.5294 0.5294
0.6275 0.6275 0.6275
0.7373 0.7373 0.7373
0.8118 0.8118 0.8118
0.2824 0.2824 0.2824
0.3608 0.3608 0.3608
0.4588 0.4588 0.4588
0.5216 0.5216 0.5216
0.5765 0.5765 0.5765
0.6353 0.6353 0.6353
0.6980 0.6980 0.6980
0.7843 0.7843 0.7843
0.8353 0.8353 0.8353
0.3569 0.3569 0.3569
0.4667 0.4667 0.4667
0.5725 0.5725 0.5725
0.6353 0.6353 0.6353
0.6980 0.6980 0.6980
0.7373 0.7373 0.7373
0.7843 0.7843 0.7843
0.8118 0.8118 0.8118
0.8627 0.8627 0.8627
0.4588 0.4588 0.4588
0.5725 0.5725 0.5725
0.6863 0.6863 0.6863
0.7294 0.7294 0.7294
0.7765 0.7765 0.7765
0.8039 0.8039 0.8039
0.8392 0.8392 0.8392
0.8627 0.8627 0.8627
0.8745 0.8745 0.8745
0.1961 0.1961 0.1961
0.2000 0.2000 0.2000
0.2078 0.2078 0.2078
0.2314 0.2314 0.2314
0.2824 0.2824 0.2824
0.3569 0.3569 0.3569
0.4588 0.4588 0.4588
0.5765 0.5765 0.5765
0.6863 0.6863 0.6863
0.2000 0.2000 0.2000
0.2000 0.2000 0.2000
0.2118 0.2118 0.2118
0.2510 0.2510 0.2510
0.3176 0.3176 0.3176
0.4039 0.4039 0.4039
0.5216 0.5216 0.5216
0.6275 0.6275 0.6275
0.7333 0.7333 0.7333
0.2000 0.2000 0.2000
0.2078 0.2078 0.2078
0.2196 0.2196 0.2196
0.2784 0.2784 0.2784
0.3569 0.3569 0.3569
0.4549 0.4549 0.4549
0.5725 0.5725 0.5725
0.6941 0.6941 0.6941
0.7686 0.7686 0.7686
0.2078 0.2078 0.2078
0.2196 0.2196 0.2196
0.2549 0.2549 0.2549
0.3216 0.3216 0.3216
0.4039 0.4039 0.4039
0.5255 0.5255 0.5255
0.6314 0.6314 0.6314
0.7412 0.7412 0.7412
0.8078 0.8078 0.8078
0.2196 0.2196 0.2196
0.2549 0.2549 0.2549
0.3137 0.3137 0.3137
0.4078 0.4078 0.4078
0.4667 0.4667 0.4667
0.5686 0.5686 0.5686
0.6902 0.6902 0.6902
0.7843 0.7843 0.7843
0.8392 0.8392 0.8392
0.2549 0.2549 0.2549
0.3176 0.3176 0.3176
0.4157 0.4157 0.4157
0.5137 0.5137 0.5137
0.5804 0.5804 0.5804
0.6353 0.6353 0.6353
0.7373 0.7373 0.7373
0.8118 0.8118 0.8118
0.8627 0.8627 0.8627
0.3176 0.3176 0.3176
0.4118 0.4118 0.4118
0.5137 0.5137 0.5137
0.6353 0.6353 0.6353
0.6863 0.6863 0.6863
0.7373 0.7373 0.7373
0.7882 0.7882 0.7882
0.8392 0.8392 0.8392
0.8745 0.8745 0.8745
0.4118 0.4118 0.4118
0.5216 0.5216 0.5216
0.6392 0.6392 0.6392
0.7412 0.7412 0.7412
0.7843 0.7843 0.7843
0.8118 0.8118 0.8118
0.8431 0.8431 0.8431
0.8667 0.8667 0.8667
0.8863 0.8863 0.8863
0.5137 0.5137 0.5137
0.6314 0.6314 0.6314
0.7333 0.7333 0.7333
0.8078 0.8078 0.8078
0.8314 0.8314 0.8314
0.8627 0.8627 0.8627
0.8784 0.8784 0.8784
0.8902 0.8902 0.8902
0.8941 0.8941 0.8941
0.1961 0.1961 0.1961
0.2000 0.2000 0.2000
0.2118 0.2118 0.2118
0.2510 0.2510 0.2510
0.3490 0.3490 0.3490
0.4627 0.4627 0.4627
0.5804 0.5804 0.5804
0.6902 0.6902 0.6902
0.7765 0.7765 0.7765
0.2000 0.2000 0.2000
0.2039 0.2039 0.2039
0.2196 0.2196 0.2196
0.2824 0.2824 0.2824
0.4039 0.4039 0.4039
0.5216 0.5216 0.5216
0.6353 0.6353 0.6353
0.7373 0.7373 0.7373
0.8078 0.8078 0.8078
0.2039 0.2039 0.2039
0.2118 0.2118 0.2118
0.2353 0.2353 0.2353
0.3098 0.3098 0.3098
0.4549 0.4549 0.4549
0.5804 0.5804 0.5804
0.6863 0.6863 0.6863
0.7843 0.7843 0.7843
0.8353 0.8353 0.8353
0.2118 0.2118 0.2118
0.2353 0.2353 0.2353
0.2824 0.2824 0.2824
0.3608 0.3608 0.3608
0.5176 0.5176 0.5176
0.6353 0.6353 0.6353
0.7373 0.7373 0.7373
0.8118 0.8118 0.8118
0.8627 0.8627 0.8627
0.2353 0.2353 0.2353
0.2824 0.2824 0.2824
0.3529 0.3529 0.3529
0.4667 0.4667 0.4667
0.5843 0.5843 0.5843
0.6863 0.6863 0.6863
0.7882 0.7882 0.7882
0.8392 0.8392 0.8392
0.8784 0.8784 0.8784
0.2824 0.2824 0.2824
0.3608 0.3608 0.3608
0.4627 0.4627 0.4627
0.5765 0.5765 0.5765
0.6902 0.6902 0.6902
0.7451 0.7451 0.7451
0.8118 0.8118 0.8118
0.8667 0.8667 0.8667
0.8902 0.8902 0.8902
0.3608 0.3608 0.3608
0.4588 0.4588 0.4588
0.5804 0.5804 0.5804
0.6980 0.6980 0.6980
0.7804 0.7804 0.7804
0.8196 0.8196 0.8196
0.8431 0.8431 0.8431
0.8824 0.8824 0.8824
0.9020 0.9020 0.9020
0.4706 0.4706 0.4706
0.5765 0.5765 0.5765
0.6941 0.6941 0.6941
0.7804 0.7804 0.7804
0.8431 0.8431 0.8431
0.8627 0.8627 0.8627
0.8824 0.8824 0.8824
0.8941 0.8941 0.8941
0.9098 0.9098 0.9098
0.5765 0.5765 0.5765
0.6824 0.6824 0.6824
0.7725 0.7725 0.7725
0.8392 0.8392 0.8392
0.8745 0.8745 0.8745
0.8902 0.8902 0.8902
0.9020 0.9020 0.9020
0.9098 0.9098 0.9098
0.9137 0.9137 0.9137
0.2000 0.2000 0.2000
0.2039 0.2039 0.2039
0.2196 0.2196 0.2196
0.2824 0.2824 0.2824
0.4118 0.4118 0.4118
0.5843 0.5843 0.5843
0.6863 0.6863 0.6863
0.7843 0.7843 0.7843
0.8392 0.8392 0.8392
0.2000 0.2000 0.2000
0.2078 0.2078 0.2078
0.2353 0.2353 0.2353
0.3137 0.3137 0.3137
0.4588 0.4588 0.4588
0.6275 0.6275 0.6275
0.7412 0.7412 0.7412
0.8157 0.8157 0.8157
0.8627 0.8627 0.8627
0.2078 0.2078 0.2078
0.2196 0.2196 0.2196
0.2549 0.2549 0.2549
0.3569 0.3569 0.3569
0.5255 0.5255 0.5255
0.6863 0.6863 0.6863
0.7843 0.7843 0.7843
0.8431 0.8431 0.8431
0.8784 0.8784 0.8784
0.2196 0.2196 0.2196
0.2549 0.2549 0.2549
0.3137 0.3137 0.3137
0.4118 0.4118 0.4118
0.5686 0.5686 0.5686
0.7333 0.7333 0.7333
0.8157 0.8157 0.8157
0.8627 0.8627 0.8627
0.8902 0.8902 0.8902
0.2549 0.2549 0.2549
0.3176 0.3176 0.3176
0.4078 0.4078 0.4078
0.5216 0.5216 0.5216
0.6392 0.6392 0.6392
0.7804 0.7804 0.7804
0.8431 0.8431 0.8431
0.8824 0.8824 0.8824
0.8980 0.8980 0.8980
0.3216 0.3216 0.3216
0.4039 0.4039 0.4039
0.5255 0.5255 0.5255
0.6314 0.6314 0.6314
0.7451 0.7451 0.7451
0.8196 0.8196 0.8196
0.8627 0.8627 0.8627
0.8941 0.8941 0.8941
0.9098 0.9098 0.9098
0.4157 0.4157 0.4157
0.5216 0.5216 0.5216
0.6431 0.6431 0.6431
0.7412 0.7412 0.7412
0.8196 0.8196 0.8196
0.8667 0.8667 0.8667
0.8824 0.8824 0.8824
0.9059 0.9059 0.9059
0.9137 0.9137 0.9137
0.5216 0.5216 0.5216
0.6392 0.6392 0.6392
0.7373 0.7373 0.7373
0.8157 0.8157 0.8157
0.8667 0.8667 0.8667
0.8941 0.8941 0.8941
0.9059 0.9059 0.9059
0.9137 0.9137 0.9137
0.9216 0.9216 0.9216
0.6275 0.6275 0.6275
0.7333 0.7333 0.7333
0.8118 0.8118 0.8118
0.8627 0.8627 0.8627
0.8902 0.8902 0.8902
0.9098 0.9098 0.9098
0.9137 0.9137 0.9137
0.9216 0.9216 0.9216
0.9255 0.9255 0.9255
0.2000 0.2000 0.2000
0.2078 0.2078 0.2078
0.2353 0.2353 0.2353
0.3137 0.3137 0.3137
0.4588 0.4588 0.4588
0.6353 0.6353 0.6353
0.7804 0.7804 0.7804
0.8431 0.8431 0.8431
0.8784 0.8784 0.8784
0.2039 0.2039 0.2039
0.2118 0.2118 0.2118
0.2510 0.2510 0.2510
0.3608 0.3608 0.3608
0.5255 0.5255 0.5255
0.6980 0.6980 0.6980
0.8196 0.8196 0.8196
0.8627 0.8627 0.8627
0.8863 0.8863 0.8863
0.2118 0.2118 0.2118
0.2353 0.2353 0.2353
0.2824 0.2824 0.2824
0.4078 0.4078 0.4078
0.5725 0.5725 0.5725
0.7373 0.7373 0.7373
0.8392 0.8392 0.8392
0.8824 0.8824 0.8824
0.9020 0.9020 0.9020
0.2353 0.2353 0.2353
0.2784 0.2784 0.2784
0.3608 0.3608 0.3608
0.4667 0.4667 0.4667
0.6353 0.6353 0.6353
0.7882 0.7882 0.7882
0.8627 0.8627 0.8627
0.8941 0.8941 0.8941
0.9098 0.9098 0.9098
0.2863 0.2863 0.2863
0.3569 0.3569 0.3569
0.4627 0.4627 0.4627
0.5765 0.5765 0.5765
0.6941 0.6941 0.6941
0.8118 0.8118 0.8118
0.8784 0.8784 0.8784
0.9059 0.9059 0.9059
0.9137 0.9137 0.9137
0.3608 0.3608 0.3608
0.4627 0.4627 0.4627
0.5804 0.5804 0.5804
0.6902 0.6902 0.6902
0.7843 0.7843 0.7843
0.8431 0.8431 0.8431
0.8941 0.8941 0.8941
0.9137 0.9137 0.9137
0.9216 0.9216 0.9216
0.4667 0.4667 0.4667
0.5843 0.5843 0.5843
0.6863 0.6863 0.6863
0.7843 0.7843 0.7843
0.8392 0.8392 0.8392
0.8824 0.8824 0.8824
0.9059 0.9059 0.9059
0.9176 0.9176 0.9176
0.9255 0.9255 0.9255
0.5804 0.5804 0.5804
0.6941 0.6941 0.6941
0.7843 0.7843 0.7843
0.8431 0.8431 0.8431
0.8824 0.8824 0.8824
0.9059 0.9059 0.9059
0.9176 0.9176 0.9176
0.9255 0.9255 0.9255
0.9294 0.9294 0.9294
0.6863 0.6863 0.6863
0.7804 0.7804 0.7804
0.8353 0.8353 0.8353
0.8784 0.8784 0.8784
0.9020 0.9020 0.9020
0.9137 0.9137 0.9137
0.9255 0.9255 0.9255
0.9294 0.9294 0.9294
0.9333 0.9333 0.9333
0.2000 0.2000 0.2000
0.2118 0.2118 0.2118
0.2510 0.2510 0.2510
0.3569 0.3569 0.3569
0.5098 0.5098 0.5098
0.6941 0.6941 0.6941
0.8157 0.8157 0.8157
0.8784 0.8784 0.8784
0.9020 0.9020 0.9020
0.2078 0.2078 0.2078
0.2196 0.2196 0.2196
0.2784 0.2784 0.2784
0.4118 0.4118 0.4118
0.5765 0.5765 0.5765
0.7373 0.7373 0.7373
0.8431 0.8431 0.8431
0.8941 0.8941 0.8941
0.9098 0.9098 0.9098
0.2196 0.2196 0.2196
0.2510 0.2510 0.2510
0.3216 0.3216 0.3216
0.4549 0.4549 0.4549
0.6431 0.6431 0.6431
0.7843 0.7843 0.7843
0.8667 0.8667 0.8667
0.9059 0.9059 0.9059
0.9137 0.9137 0.9137
0.2549 0.2549 0.2549
0.3137 0.3137 0.3137
0.4118 0.4118 0.4118
0.5216 0.5216 0.5216
0.6902 0.6902 0.6902
0.8118 0.8118 0.8118
0.8824 0.8824 0.8824
0.9137 0.9137 0.9137
0.9216 0.9216 0.9216
0.3176 0.3176 0.3176
0.4118 0.4118 0.4118
0.5176 0.5176 0.5176
0.6392 0.6392 0.6392
0.7451 0.7451 0.7451
0.8431 0.8431 0.8431
0.8941 0.8941 0.8941
0.9176 0.9176 0.9176
0.9255 0.9255 0.9255
0.4157 0.4157 0.4157
0.5255 0.5255 0.5255
0.6353 0.6353 0.6353
0.7412 0.7412 0.7412
0.8157 0.8157 0.8157
0.8667 0.8667 0.8667
0.9020 0.9020 0.9020
0.9255 0.9255 0.9255
0.9294 0.9294 0.9294
0.5255 0.5255 0.5255
0.6353 0.6353 0.6353
0.7412 0.7412 0.7412
0.8157 0.8157 0.8157
0.8667 0.8667 0.8667
0.8941 0.8941 0.8941
0.9137 0.9137 0.9137
0.9294 0.9294 0.9294
0.9333 0.9333 0.9333
0.6431 0.6431 0.6431
0.7412 0.7412 0.7412
0.8196 0.8196 0.8196
0.8627 0.8627 0.8627
0.8941 0.8941 0.8941
0.9137 0.9137 0.9137
0.9255 0.9255 0.9255
0.9333 0.9333 0.9333
0.9373 0.9373 0.9373
0.7373 0.7373 0.7373
0.8078 0.8078 0.8078
0.8627 0.8627 0.8627
0.8902 0.8902 0.8902
0.9098 0.9098 0.9098
0.9216 0.9216 0.9216
0.9294 0.9294 0.9294
0.9373 0.9373 0.9373
0.9412 0.9412 0.9412
0.2000 0.2000 0.2000
0.2157 0.2157 0.2157
0.2745 0.2745 0.2745
0.4039 0.4039 0.4039
0.5686 0.5686 0.5686
0.7333 0.7333 0.7333
0.8392 0.8392 0.8392
0.8902 0.8902 0.8902
0.9098 0.9098 0.9098
0.2078 0.2078 0.2078
0.2275 0.2275 0.2275
0.3137 0.3137 0.3137
0.4471 0.4471 0.4471
0.6314 0.6314 0.6314
0.7725 0.7725 0.7725
0.8627 0.8627 0.8627
0.9020 0.9020 0.9020
0.9176 0.9176 0.9176
0.2314 0.2314 0.2314
0.2745 0.2745 0.2745
0.3529 0.3529 0.3529
0.5137 0.5137 0.5137
0.6784 0.6784 0.6784
0.8078 0.8078 0.8078
0.8784 0.8784 0.8784
0.9098 0.9098 0.9098
0.9216 0.9216 0.9216
0.2784 0.2784 0.2784
0.3569 0.3569 0.3569
0.4549 0.4549 0.4549
0.5765 0.5765 0.5765
0.7333 0.7333 0.7333
0.8392 0.8392 0.8392
0.8902 0.8902 0.8902
0.9176 0.9176 0.9176
0.9255 0.9255 0.9255
0.3569 0.3569 0.3569
0.4510 0.4510 0.4510
0.5725 0.5725 0.5725
0.6824 0.6824 0.6824
0.7804 0.7804 0.7804
0.8627 0.8627 0.8627
0.8980 0.8980 0.8980
0.9216 0.9216 0.9216
0.9294 0.9294 0.9294
0.4588 0.4588 0.4588
0.5725 0.5725 0.5725
0.6863 0.6863 0.6863
0.7804 0.7804 0.7804
0.8392 0.8392 0.8392
0.8784 0.8784 0.8784
0.9098 0.9098 0.9098
0.9294 0.9294 0.9294
0.9333 0.9333 0.9333
0.5765 0.5765 0.5765
0.6824 0.6824 0.6824
0.7765 0.7765 0.7765
0.8353 0.8353 0.8353
0.8784 0.8784 0.8784
0.9020 0.9020 0.9020
0.9176 0.9176 0.9176
0.9333 0.9333 0.9333
0.9373 0.9373 0.9373
0.6902 0.6902 0.6902
0.7804 0.7804 0.7804
0.8392 0.8392 0.8392
0.8784 0.8784 0.8784
0.9020 0.9020 0.9020
0.9176 0.9176 0.9176
0.9294 0.9294 0.9294
0.9373 0.9373 0.9373
0.9412 0.9412 0.9412
0.7765 0.7765 0.7765
0.8314 0.8314 0.8314
0.8706 0.8706 0.8706
0.8980 0.8980 0.8980
0.9137 0.9137 0.9137
0.9255 0.9255 0.9255
0.9333 0.9333 0.9333
0.9412 0.9412 0.9412
0.9412 0.9412 0.9412
