滤镜资源/vsco 137 3dl+cube/VSCO 137 cube/VSCO E4 Essence.cube
#Generated by Picture Instruments - Look Converter
LUT_3D_SIZE 5
0.0000 0.0000 0.0000
0.1961 0.0078 0.0235
0.6039 0.0039 0.0235
0.9137 0.1569 0.0471
0.9765 0.3843 0.2353
0.0039 0.1882 0.0863
0.1961 0.2314 0.0314
0.6235 0.2392 0.0039
0.9176 0.3176 0.0000
0.9922 0.4431 0.1882
0.0196 0.5373 0.2863
0.2157 0.5333 0.2745
0.6157 0.5961 0.1843
0.9020 0.5961 0.0118
0.9961 0.5922 0.0431
0.4627 0.7686 0.5569
0.5020 0.7725 0.5529
0.6196 0.7725 0.5373
0.8510 0.7961 0.4980
0.9922 0.7843 0.4706
0.8039 0.8745 0.7608
0.8118 0.8706 0.7569
0.8392 0.8706 0.7569
0.8902 0.8784 0.7569
0.9765 0.8863 0.7608
0.0235 0.0235 0.1529
0.1725 0.0235 0.1608
0.5804 0.0510 0.2000
0.8941 0.2510 0.2353
0.9765 0.4118 0.2824
0.0235 0.2039 0.2000
0.2157 0.2431 0.2314
0.6157 0.2863 0.2392
0.9020 0.3647 0.2392
0.9922 0.4745 0.2824
0.2392 0.5490 0.4157
0.3137 0.5490 0.3922
0.6078 0.5922 0.3490
0.8863 0.5882 0.2745
0.9961 0.6039 0.2902
0.5529 0.7686 0.6157
0.5490 0.7686 0.6039
0.6392 0.7686 0.5882
0.8471 0.7961 0.5686
0.9882 0.7882 0.5412
0.8235 0.8706 0.7686
0.8235 0.8745 0.7647
0.8510 0.8706 0.7647
0.8941 0.8824 0.7647
0.9765 0.8863 0.7647
0.0000 0.1176 0.4824
0.1882 0.1373 0.4902
0.6039 0.1725 0.5059
0.8902 0.3725 0.5451
0.9765 0.5569 0.6078
0.0000 0.3333 0.5059
0.2392 0.3294 0.5373
0.6039 0.3647 0.5373
0.8667 0.4745 0.5647
0.9686 0.6000 0.6196
0.2235 0.5647 0.5686
0.3765 0.5686 0.5647
0.6157 0.6000 0.5843
0.8510 0.6275 0.5922
0.9725 0.6667 0.6078
0.5922 0.7765 0.6902
0.6235 0.7804 0.6941
0.6902 0.7804 0.6902
0.8431 0.7961 0.6824
0.9765 0.7922 0.6471
0.8275 0.8745 0.7843
0.8431 0.8706 0.7882
0.8588 0.8745 0.7882
0.9059 0.8784 0.7882
0.9765 0.8863 0.7765
0.0235 0.3059 0.7373
0.3373 0.3333 0.7529
0.6784 0.3922 0.7529
0.8941 0.4863 0.7569
0.9804 0.6549 0.7412
0.2392 0.4706 0.7412
0.3843 0.4627 0.7569
0.6784 0.5137 0.7569
0.8784 0.5725 0.7529
0.9725 0.6980 0.7529
0.3451 0.6588 0.7373
0.4431 0.6627 0.7373
0.6706 0.6706 0.7569
0.8471 0.7059 0.7569
0.9686 0.7529 0.7647
0.6000 0.7882 0.7608
0.6314 0.7843 0.7529
0.7333 0.7922 0.7608
0.8471 0.7922 0.7647
0.9725 0.8000 0.7686
0.8196 0.8784 0.8039
0.8353 0.8784 0.8118
0.8667 0.8824 0.8157
0.9176 0.8824 0.8118
0.9882 0.8863 0.8078
0.5686 0.6078 0.8510
0.6235 0.6118 0.8431
0.7608 0.6431 0.8392
0.9059 0.7020 0.8353
0.9843 0.7255 0.8353
0.6039 0.6627 0.8392
0.6471 0.6627 0.8353
0.7686 0.6941 0.8353
0.9020 0.7294 0.8392
0.9804 0.7490 0.8314
0.6235 0.7451 0.8353
0.6784 0.7569 0.8392
0.7765 0.7608 0.8353
0.8941 0.7765 0.8314
0.9725 0.7922 0.8314
0.6941 0.8235 0.8353
0.7176 0.8235 0.8353
0.7725 0.8235 0.8353
0.8863 0.8235 0.8353
0.9804 0.8431 0.8353
0.8196 0.8824 0.8392
0.8353 0.8784 0.8431
0.8667 0.8824 0.8392
0.9294 0.8863 0.8392
0.9843 0.8902 0.8431
