滤镜资源/vsco 137 3dl+cube/VSCO 137 cube/VSCO D2Distortia.cube
#Generated by Picture Instruments - Look Converter
LUT_3D_SIZE 5
0.4980 0.0118 0.4902
0.9608 0.0157 0.0118
0.9608 0.0157 0.0118
0.9608 0.0157 0.0118
0.9608 0.0157 0.0118
0.4980 0.2471 0.4941
0.9961 0.2431 0.0000
0.9961 0.2471 0.0000
0.9961 0.2510 0.0039
0.9961 0.2510 0.0039
0.4980 0.5020 0.4902
0.9961 0.4980 0.0000
0.9961 0.4980 0.0000
0.9961 0.4980 0.0000
0.9961 0.4980 0.0000
0.4980 0.7490 0.4941
0.9961 0.7529 0.0039
0.9961 0.7569 0.0000
0.9961 0.7529 0.0000
0.9961 0.7529 0.0000
0.5020 0.9843 0.4941
0.9961 0.9922 0.0000
0.9961 0.9922 0.0000
0.9961 0.9922 0.0000
0.9961 0.9922 0.0000
0.0353 0.0157 0.9255
0.4824 0.0078 0.5059
0.9608 0.0157 0.0118
0.9608 0.0157 0.0118
0.9608 0.0157 0.0118
0.0392 0.2471 0.9412
0.4980 0.5020 0.5020
0.9961 0.2471 0.0039
0.9961 0.2510 0.0039
0.9961 0.2314 0.0000
0.0392 0.5020 0.9451
0.5098 0.8118 0.4863
0.9961 0.4980 0.0000
0.9961 0.4980 0.0000
0.9961 0.4510 0.0000
0.0392 0.7490 0.9451
0.4941 0.9843 0.4980
0.9961 0.7529 0.0000
0.9961 0.7529 0.0000
0.9961 0.6706 0.0000
0.0392 0.9765 0.9412
0.5098 0.9922 0.4824
0.9961 0.9922 0.0000
0.9961 0.9922 0.0000
0.9922 0.8863 0.0000
0.0000 0.0000 0.9922
0.0000 0.0000 0.9922
0.5020 0.0000 0.4941
0.9961 0.0039 0.0039
0.9569 0.0118 0.0510
0.0000 0.2549 0.9961
0.0000 0.2510 0.9961
0.4902 0.2510 0.5059
0.9961 0.2157 0.0039
0.9569 0.2078 0.0471
0.0000 0.4980 0.9961
0.0000 0.4980 0.9961
0.5020 0.4980 0.4980
0.9961 0.4157 0.0039
0.9569 0.3922 0.0471
0.0000 0.7529 0.9961
0.0000 0.7529 0.9961
0.5137 0.7529 0.4824
0.9961 0.6235 0.0000
0.9529 0.5608 0.0471
0.0196 0.9765 0.9765
0.0235 0.9765 0.9725
0.5020 0.9765 0.5059
0.9961 0.8353 0.0549
0.9529 0.7529 0.0471
0.0392 0.0235 0.9333
0.0196 0.0196 0.9647
0.0000 0.0118 0.9255
0.5020 0.0118 0.4863
0.9686 0.0118 0.0196
0.0392 0.2471 0.9451
0.0000 0.2510 0.9961
0.0000 0.2157 0.9961
0.4980 0.2000 0.5059
0.9922 0.1843 0.0000
0.0392 0.5020 0.9451
0.0000 0.5059 0.9961
0.0000 0.4196 0.9961
0.4902 0.3608 0.5176
0.9922 0.3294 0.0000
0.0431 0.7490 0.9490
0.0000 0.7451 0.9961
0.0000 0.6275 0.9922
0.4980 0.5020 0.5020
0.9882 0.4706 0.0039
0.0471 0.9725 0.9490
0.0000 0.9922 0.9961
0.0000 0.8431 0.9961
0.4824 0.7020 0.5059
0.9922 0.6196 0.0000
0.0000 0.0000 0.9882
0.0000 0.0000 0.9922
0.0000 0.0000 0.9922
0.0000 0.0000 0.9882
0.4941 0.0000 0.4902
0.0000 0.2510 0.9922
0.0000 0.2314 0.9961
0.0000 0.2039 0.9961
0.0039 0.1882 0.9922
0.4980 0.1804 0.4941
0.0000 0.4980 0.9922
0.0000 0.4510 0.9961
0.0000 0.3922 0.9961
0.0039 0.3373 0.9922
0.4941 0.3137 0.4941
0.0000 0.7490 0.9922
0.0000 0.6667 0.9961
0.0000 0.5608 0.9961
0.0000 0.4706 0.9882
0.5020 0.4235 0.4863
0.0275 0.9765 0.9804
0.0235 0.8824 0.9804
0.0196 0.7490 0.9765
0.0157 0.6157 0.9686
0.4941 0.4980 0.4980
