滤镜资源/vsco 137 3dl+cube/VSCO 137 cube/VSCO 4 Legacy.cube
#Generated by Picture Instruments - Look Converter
LUT_3D_SIZE 5
0.0863 0.0863 0.0824
0.1451 0.0863 0.0863
0.4667 0.0941 0.0902
0.7725 0.0980 0.1098
0.9020 0.1294 0.1255
0.0902 0.1608 0.0902
0.1608 0.1569 0.0902
0.4706 0.1647 0.0941
0.7843 0.1922 0.1059
0.9098 0.2314 0.1294
0.1098 0.4980 0.1137
0.2000 0.5059 0.1137
0.5059 0.5176 0.1216
0.7882 0.5373 0.1373
0.9098 0.5490 0.1647
0.1765 0.7961 0.1804
0.2784 0.7961 0.1647
0.5725 0.7961 0.1882
0.7922 0.8039 0.2039
0.9255 0.8118 0.2471
0.2980 0.9294 0.2902
0.3961 0.9333 0.2941
0.6314 0.9333 0.3059
0.8235 0.9373 0.3333
0.9333 0.9373 0.3608
0.0941 0.0824 0.1412
0.1333 0.0863 0.1373
0.4510 0.0902 0.1608
0.7725 0.0980 0.1765
0.9098 0.1255 0.2118
0.0941 0.1490 0.1412
0.1725 0.1569 0.1647
0.4902 0.1765 0.1686
0.7804 0.1922 0.1882
0.9137 0.2353 0.2235
0.1255 0.5059 0.1843
0.2000 0.5176 0.2078
0.5059 0.5059 0.2078
0.7922 0.5176 0.2275
0.9176 0.5529 0.2627
0.1804 0.7922 0.2706
0.2784 0.7922 0.2902
0.5608 0.8000 0.2902
0.8000 0.8078 0.3255
0.9216 0.8118 0.3490
0.2980 0.9255 0.4157
0.4000 0.9333 0.3922
0.6275 0.9333 0.4039
0.8235 0.9373 0.4235
0.9373 0.9373 0.4510
0.0863 0.0863 0.4549
0.1490 0.0863 0.4667
0.4745 0.0902 0.4706
0.7804 0.0980 0.4824
0.9059 0.1255 0.5098
0.0863 0.1647 0.4549
0.1647 0.1647 0.4863
0.4745 0.1765 0.4745
0.7686 0.1961 0.4980
0.9098 0.2392 0.5216
0.1137 0.4980 0.4941
0.2078 0.5059 0.5176
0.5176 0.5216 0.5098
0.7922 0.5333 0.5255
0.9137 0.5608 0.5451
0.1843 0.7961 0.5686
0.2784 0.8000 0.5686
0.5725 0.8000 0.5647
0.8000 0.8039 0.5765
0.9176 0.8078 0.6039
0.2980 0.9255 0.6275
0.4000 0.9294 0.6275
0.6235 0.9294 0.6235
0.8275 0.9333 0.6431
0.9333 0.9373 0.6627
0.0902 0.0902 0.7373
0.1569 0.0902 0.7686
0.4784 0.1059 0.7647
0.7647 0.1176 0.7569
0.9137 0.1333 0.7765
0.0980 0.1686 0.7529
0.1686 0.1725 0.7804
0.4863 0.1882 0.7725
0.7804 0.2078 0.7804
0.9137 0.2510 0.7686
0.1216 0.5137 0.7725
0.2157 0.5255 0.7804
0.5216 0.5255 0.7922
0.7804 0.5255 0.7961
0.9216 0.5529 0.7961
0.1882 0.7961 0.7922
0.2902 0.8000 0.8039
0.5765 0.7961 0.8000
0.8000 0.8078 0.8078
0.9255 0.8118 0.8000
0.3137 0.9373 0.8078
0.4118 0.9333 0.8118
0.6314 0.9333 0.8078
0.8235 0.9333 0.8275
0.9333 0.9373 0.8235
0.0902 0.0941 0.9059
0.1686 0.0941 0.9098
0.4980 0.0902 0.9137
0.7647 0.1176 0.9176
0.9098 0.1373 0.9137
0.0980 0.1765 0.9137
0.1843 0.1765 0.9176
0.4863 0.1922 0.9137
0.7804 0.2196 0.9137
0.9098 0.2471 0.9216
0.1216 0.5216 0.9216
0.2196 0.5176 0.9176
0.5255 0.5294 0.9176
0.7922 0.5490 0.9176
0.9216 0.5647 0.9176
0.1922 0.8000 0.9216
0.2902 0.8039 0.9216
0.5804 0.7961 0.9255
0.8000 0.8157 0.9255
0.9294 0.8157 0.9333
0.3294 0.9294 0.9294
0.4157 0.9373 0.9255
0.6353 0.9373 0.9216
0.8196 0.9373 0.9333
0.9373 0.9373 0.9333
