滤镜资源/vsco 137 3dl+cube/VSCO 137 cube/VSCO Q8 Alchemy.cube
#Generated by Picture Instruments - Look Converter
LUT_3D_SIZE 5
0.0196 0.1098 0.0510
0.1882 0.1255 0.0392
0.4902 0.1412 0.0157
0.8549 0.0941 0.0118
0.9725 0.1255 0.0118
0.0078 0.2706 0.0980
0.2039 0.2667 0.0745
0.5765 0.3059 0.0000
0.9216 0.3137 0.0039
0.9961 0.3333 0.0000
0.0157 0.5686 0.2196
0.2784 0.5608 0.2314
0.5961 0.5451 0.1294
0.9255 0.5882 0.0000
0.9961 0.6471 0.0000
0.2118 0.8392 0.4667
0.4667 0.8353 0.4863
0.7098 0.8157 0.4627
0.8941 0.8078 0.3176
0.9922 0.8275 0.0157
0.7490 0.9765 0.7804
0.7961 0.9765 0.8039
0.8549 0.9725 0.8039
0.9294 0.9725 0.7882
0.9882 0.9804 0.7412
0.0431 0.1333 0.2157
0.2353 0.1451 0.1961
0.5137 0.1451 0.1294
0.8745 0.1725 0.0157
0.9765 0.2235 0.0157
0.0314 0.2902 0.2667
0.2510 0.2980 0.2627
0.6039 0.2941 0.1804
0.9294 0.3176 0.0039
0.9961 0.3804 0.0000
0.0353 0.5882 0.3765
0.2549 0.5922 0.3686
0.6235 0.5608 0.3098
0.9451 0.6000 0.1529
0.9961 0.6392 0.0000
0.2353 0.8431 0.5294
0.4471 0.8392 0.5490
0.7176 0.8196 0.5412
0.8902 0.8196 0.4431
0.9922 0.8314 0.2941
0.7333 0.9843 0.7922
0.7765 0.9804 0.8078
0.8627 0.9725 0.8196
0.9333 0.9725 0.8118
0.9922 0.9765 0.7647
0.0000 0.1765 0.5686
0.2706 0.1686 0.5569
0.6745 0.0941 0.5137
0.9412 0.0000 0.3686
0.9608 0.1176 0.2510
0.0000 0.3255 0.5922
0.2941 0.3176 0.6000
0.6941 0.3098 0.5608
0.9216 0.2784 0.4275
0.9608 0.3059 0.2706
0.0000 0.6118 0.6588
0.3137 0.6196 0.6471
0.7137 0.6431 0.6510
0.9412 0.6235 0.5569
0.9608 0.6078 0.3686
0.2941 0.8627 0.7255
0.4510 0.8549 0.7216
0.7255 0.8510 0.7176
0.8941 0.8353 0.6667
0.9725 0.8471 0.5961
0.6549 0.9843 0.8314
0.7176 0.9804 0.8314
0.8431 0.9725 0.8588
0.9333 0.9686 0.8706
0.9765 0.9765 0.8314
0.1882 0.2314 0.8471
0.3961 0.2275 0.8588
0.7294 0.2078 0.8510
0.9765 0.2157 0.8118
0.9765 0.3255 0.6745
0.2471 0.3608 0.8510
0.4235 0.3686 0.8588
0.7294 0.3804 0.8588
0.9922 0.4078 0.8235
0.9961 0.4510 0.6941
0.3137 0.6196 0.8588
0.4588 0.6235 0.8588
0.7333 0.6510 0.8588
0.9569 0.6863 0.8471
0.9961 0.6510 0.7451
0.4784 0.8510 0.8784
0.5569 0.8510 0.8784
0.7333 0.8549 0.8784
0.9216 0.8784 0.8863
0.9922 0.8588 0.8235
0.6471 0.9882 0.9216
0.6745 0.9961 0.9216
0.7725 0.9961 0.9137
0.9216 0.9843 0.9255
0.9922 0.9843 0.9098
0.5961 0.4392 0.9922
0.6667 0.4471 0.9922
0.8235 0.4706 0.9922
0.9922 0.5608 0.9922
0.9922 0.6039 0.9569
0.6275 0.5412 0.9922
0.6824 0.5412 0.9882
0.8235 0.5725 0.9882
0.9765 0.6392 0.9882
0.9922 0.6667 0.9569
0.6667 0.7098 0.9922
0.7137 0.7216 0.9922
0.8196 0.7412 0.9922
0.9490 0.7686 0.9843
0.9922 0.7961 0.9608
0.6902 0.8588 0.9922
0.7255 0.8627 0.9922
0.8039 0.8706 0.9922
0.9216 0.8941 0.9843
0.9961 0.9098 0.9765
0.8039 0.9804 0.9882
0.8196 0.9765 0.9882
0.8627 0.9843 0.9882
0.9255 0.9882 0.9922
0.9922 0.9882 0.9922
