滤镜资源/vsco 137 3dl+cube/VSCO 137 cube/VSCO 8 Legacy.cube
#Generated by Picture Instruments - Look Converter
LUT_3D_SIZE 9
0.0314 0.1412 0.0353
0.0863 0.1451 0.0471
0.1647 0.1451 0.0431
0.3137 0.1451 0.0392
0.5255 0.1412 0.0392
0.6980 0.1412 0.0431
0.8039 0.1490 0.0353
0.8824 0.1490 0.0392
0.9412 0.1412 0.0353
0.0353 0.1647 0.0353
0.0902 0.1647 0.0314
0.1686 0.1647 0.0392
0.3176 0.1686 0.0392
0.5216 0.1647 0.0353
0.7020 0.1686 0.0353
0.8118 0.1647 0.0314
0.8863 0.1725 0.0392
0.9647 0.1647 0.0353
0.0353 0.2275 0.0392
0.0902 0.2235 0.0392
0.1725 0.2314 0.0353
0.3059 0.2275 0.0392
0.4980 0.2235 0.0314
0.6863 0.2235 0.0235
0.8078 0.2275 0.0353
0.8980 0.2235 0.0314
0.9608 0.2275 0.0353
0.0392 0.3412 0.0471
0.0863 0.3451 0.0392
0.1686 0.3451 0.0392
0.3176 0.3529 0.0431
0.4980 0.3490 0.0392
0.6902 0.3333 0.0314
0.8078 0.3373 0.0353
0.8863 0.3451 0.0353
0.9569 0.3412 0.0431
0.0431 0.5255 0.0510
0.0902 0.5294 0.0510
0.1686 0.5255 0.0314
0.3176 0.5294 0.0431
0.4980 0.5373 0.0392
0.6941 0.5373 0.0431
0.8078 0.5333 0.0353
0.8824 0.5373 0.0353
0.9608 0.5255 0.0314
0.0353 0.7020 0.0353
0.0824 0.7098 0.0431
0.1686 0.7176 0.0392
0.3098 0.7098 0.0353
0.5216 0.7137 0.0392
0.6902 0.6980 0.0392
0.8118 0.7098 0.0431
0.8902 0.7020 0.0353
0.9569 0.7098 0.0353
0.0431 0.8196 0.0392
0.0902 0.8196 0.0314
0.1647 0.8275 0.0314
0.3098 0.8235 0.0314
0.5255 0.8235 0.0471
0.6902 0.8196 0.0431
0.8118 0.8118 0.0431
0.8902 0.8196 0.0431
0.9608 0.8118 0.0392
0.0471 0.8902 0.0431
0.0902 0.8980 0.0392
0.1647 0.8941 0.0314
0.3176 0.8980 0.0275
0.5098 0.8902 0.0471
0.6863 0.8941 0.0392
0.8118 0.8902 0.0431
0.8902 0.8980 0.0471
0.9569 0.8941 0.0314
0.0431 0.9569 0.0353
0.0863 0.9647 0.0275
0.1686 0.9686 0.0314
0.3020 0.9725 0.0314
0.5176 0.9608 0.0353
0.6980 0.9569 0.0392
0.8078 0.9608 0.0392
0.8824 0.9647 0.0392
0.9647 0.9647 0.0353
0.0471 0.1412 0.0863
0.0863 0.1412 0.0863
0.1686 0.1490 0.0941
0.3059 0.1451 0.0902
0.4980 0.1451 0.0863
0.6902 0.1412 0.0902
0.8157 0.1373 0.0941
0.8745 0.1490 0.0902
0.9451 0.1490 0.0902
0.0510 0.1647 0.0863
0.0902 0.1647 0.0902
0.1686 0.1686 0.0824
0.3176 0.1647 0.0863
0.5176 0.1647 0.0863
0.7020 0.1647 0.0902
0.8118 0.1686 0.0863
0.8784 0.1647 0.0863
0.9608 0.1686 0.0863
0.0510 0.2196 0.0784
0.0941 0.2157 0.0941
0.1804 0.2157 0.0941
0.3098 0.2275 0.0941
0.5098 0.2275 0.0941
0.6941 0.2275 0.0863
0.8157 0.2275 0.0863
0.8863 0.2275 0.0902
0.9569 0.2235 0.0863
0.0471 0.3333 0.0902
0.0902 0.3490 0.0824
0.1765 0.3451 0.0941
0.3137 0.3412 0.0824
0.4980 0.3529 0.0941
0.6980 0.3412 0.0863
0.8078 0.3490 0.0824
0.8941 0.3451 0.0980
0.9608 0.3412 0.0863
0.0549 0.5255 0.0863
0.0902 0.5333 0.0941
0.1686 0.5294 0.0784
0.3176 0.5373 0.0902
0.5137 0.5412 0.0902
0.6902 0.5294 0.0863
0.8118 0.5333 0.0902
0.8902 0.5216 0.0824
0.9647 0.5294 0.0824
0.0510 0.7059 0.0824
0.0863 0.7098 0.0941
0.1647 0.7098 0.0863
0.3098 0.7098 0.0902
0.5255 0.7137 0.0941
0.6980 0.7059 0.0902
0.8118 0.7098 0.0863
0.8941 0.7098 0.0980
0.9569 0.7098 0.0941
0.0510 0.8118 0.0784
0.0902 0.8196 0.0902
0.1647 0.8157 0.0941
0.3098 0.8196 0.1059
0.5098 0.8196 0.0706
0.6863 0.8196 0.0784
0.8157 0.8235 0.0824
0.8902 0.8196 0.0941
0.9569 0.8196 0.0824
0.0549 0.8980 0.0902
0.0863 0.8980 0.0902
0.1647 0.8902 0.0863
0.3020 0.8941 0.0902
0.5137 0.8863 0.0902
0.6941 0.8980 0.0824
0.8078 0.8980 0.0824
0.8784 0.8941 0.0824
0.9529 0.8941 0.0863
0.0549 0.9569 0.0980
0.0824 0.9686 0.0824
0.1725 0.9686 0.0863
0.2980 0.9686 0.0902
0.5020 0.9686 0.0902
0.6941 0.9569 0.0941
0.8039 0.9647 0.0745
0.8824 0.9725 0.0745
0.9569 0.9647 0.0863
0.0510 0.1412 0.1725
0.0784 0.1451 0.1647
0.1647 0.1490 0.1647
0.3020 0.1490 0.1765
0.4941 0.1412 0.1686
0.6980 0.1412 0.1765
0.8157 0.1412 0.1765
0.8706 0.1490 0.1686
0.9490 0.1451 0.1843
0.0510 0.1647 0.1647
0.0863 0.1725 0.1725
0.1647 0.1725 0.1725
0.3176 0.1725 0.1647
0.5059 0.1608 0.1647
0.7059 0.1647 0.1686
0.8157 0.1608 0.1725
0.8784 0.1686 0.1843
0.9569 0.1647 0.1686
0.0510 0.2157 0.1608
0.0902 0.2235 0.1647
0.1804 0.2235 0.1804
0.3098 0.2275 0.1686
0.5176 0.2275 0.1725
0.6980 0.2196 0.1765
0.8118 0.2235 0.1765
0.8902 0.2275 0.1686
0.9529 0.2235 0.1725
0.0431 0.3412 0.1647
0.0863 0.3333 0.1725
0.1725 0.3451 0.1647
0.3137 0.3451 0.1725
0.5059 0.3529 0.1765
0.6980 0.3412 0.1725
0.8157 0.3569 0.1804
0.8824 0.3490 0.1686
0.9608 0.3412 0.1725
0.0549 0.5294 0.1647
0.0824 0.5294 0.1725
0.1686 0.5294 0.1843
0.3176 0.5333 0.1725
0.5020 0.5216 0.1765
0.6941 0.5333 0.1725
0.8118 0.5176 0.1647
0.8863 0.5373 0.1608
0.9608 0.5333 0.1686
0.0471 0.7098 0.1804
0.0824 0.7098 0.1725
0.1686 0.7137 0.1765
0.3098 0.7059 0.1725
0.4980 0.7098 0.1765
0.7059 0.7059 0.1804
0.8078 0.7059 0.1686
0.8863 0.7098 0.1647
0.9608 0.7176 0.1765
0.0471 0.8196 0.1686
0.0863 0.8196 0.1725
0.1647 0.8275 0.1725
0.3020 0.8235 0.1765
0.5059 0.8196 0.1490
0.6941 0.8275 0.1569
0.8078 0.8235 0.1569
0.8784 0.8275 0.1725
0.9569 0.8196 0.1647
0.0471 0.8941 0.1686
0.0902 0.8902 0.1725
0.1686 0.8941 0.1647
0.3020 0.8980 0.1725
0.5137 0.8941 0.1843
0.6902 0.8980 0.1529
0.8118 0.9020 0.1569
0.8863 0.8980 0.1647
0.9569 0.8980 0.1647
0.0471 0.9686 0.1608
0.0902 0.9686 0.1725
0.1725 0.9686 0.1686
0.3059 0.9686 0.1529
0.5137 0.9569 0.1686
0.6902 0.9686 0.1490
0.8078 0.9686 0.1490
0.8824 0.9647 0.1686
0.9569 0.9647 0.1647
0.0314 0.1451 0.3176
0.0902 0.1451 0.3098
0.1765 0.1451 0.3333
0.3059 0.1451 0.3137
0.5294 0.1412 0.3176
0.7020 0.1451 0.3216
0.8118 0.1451 0.3176
0.8824 0.1490 0.3098
0.9451 0.1451 0.3255
0.0353 0.1725 0.3137
0.0863 0.1608 0.3255
0.1686 0.1725 0.3137
0.3098 0.1686 0.3098
0.5137 0.1686 0.3098
0.6941 0.1686 0.3255
0.8157 0.1608 0.3176
0.8824 0.1686 0.3176
0.9451 0.1647 0.3098
0.0353 0.2196 0.3137
0.0902 0.2235 0.3059
0.1804 0.2196 0.3137
0.3020 0.2235 0.3176
0.5059 0.2235 0.3137
0.6902 0.2235 0.2941
0.8078 0.2275 0.3059
0.8863 0.2275 0.3216
0.9412 0.2196 0.3098
0.0392 0.3451 0.3098
0.0902 0.3412 0.3059
0.1765 0.3490 0.3059
0.3255 0.3490 0.3294
0.4980 0.3451 0.3098
0.7059 0.3412 0.3294
0.8078 0.3529 0.3098
0.8863 0.3412 0.3059
0.9451 0.3412 0.3059
0.0314 0.5333 0.3176
0.0824 0.5255 0.3216
0.1686 0.5255 0.3020
0.3137 0.5294 0.3098
0.5098 0.5294 0.3176
0.6980 0.5294 0.3176
0.8118 0.5294 0.3176
0.8824 0.5373 0.3020
0.9451 0.5333 0.3059
0.0314 0.6980 0.3255
0.0941 0.7098 0.3137
0.1686 0.7020 0.3255
0.3176 0.7059 0.3216
0.5216 0.7137 0.3098
0.6980 0.6980 0.3020
0.8078 0.6980 0.3176
0.8902 0.7020 0.3333
0.9412 0.7098 0.3059
0.0275 0.8157 0.3098
0.0863 0.8196 0.3216
0.1647 0.8196 0.3137
0.3255 0.8157 0.3216
0.4941 0.8196 0.3098
0.6941 0.8157 0.3176
0.8078 0.8275 0.3216
0.8863 0.8196 0.3176
0.9412 0.8157 0.3137
0.0314 0.8941 0.3216
0.0863 0.8863 0.3176
0.1686 0.8980 0.3216
0.3137 0.8941 0.3098
0.5176 0.8941 0.3059
0.6902 0.8941 0.3098
0.8039 0.8980 0.2980
0.8784 0.8980 0.3176
0.9412 0.8980 0.3059
0.0471 0.9569 0.3176
0.0902 0.9608 0.3333
0.1725 0.9529 0.3255
0.3216 0.9608 0.3216
0.5059 0.9608 0.3098
0.7020 0.9608 0.3098
0.8118 0.9608 0.3255
0.8863 0.9569 0.3176
0.9373 0.9569 0.3137
0.0431 0.1451 0.5059
0.0863 0.1412 0.5176
0.1608 0.1373 0.5137
0.3059 0.1451 0.5059
0.5020 0.1451 0.4941
0.6941 0.1412 0.5255
0.8157 0.1373 0.5059
0.8784 0.1451 0.5098
0.9451 0.1490 0.5020
0.0353 0.1725 0.4941
0.0902 0.1686 0.5059
0.1725 0.1647 0.5059
0.3176 0.1686 0.5216
0.5059 0.1608 0.5059
0.6941 0.1725 0.4902
0.8157 0.1686 0.4941
0.8784 0.1725 0.5137
0.9451 0.1686 0.5059
0.0314 0.2275 0.4941
0.0902 0.2235 0.5098
0.1725 0.2275 0.5216
0.3059 0.2275 0.5137
0.5098 0.2235 0.5020
0.6863 0.2235 0.5020
0.8039 0.2314 0.5059
0.8863 0.2235 0.5020
0.9490 0.2235 0.5020
0.0353 0.3490 0.5020
0.0902 0.3529 0.5137
0.1804 0.3490 0.5098
0.3098 0.3451 0.5137
0.5059 0.3451 0.5176
0.6980 0.3451 0.5020
0.8039 0.3373 0.4980
0.8863 0.3529 0.4980
0.9451 0.3490 0.5255
0.0275 0.5255 0.4745
0.0863 0.5451 0.4941
0.1686 0.5294 0.4941
0.3137 0.5255 0.5059
0.5098 0.5294 0.5020
0.7020 0.5373 0.5059
0.8118 0.5216 0.5255
0.8745 0.5255 0.5137
0.9451 0.5373 0.5059
0.0314 0.7176 0.5059
0.0863 0.7176 0.5098
0.1725 0.7098 0.4902
0.3098 0.7020 0.5098
0.5098 0.7137 0.5098
0.6902 0.7098 0.5137
0.8078 0.7098 0.4980
0.8863 0.7059 0.5176
0.9412 0.7059 0.5059
0.0353 0.8157 0.5020
0.0902 0.8196 0.5176
0.1608 0.8235 0.5137
0.3294 0.8196 0.5137
0.5020 0.8275 0.5059
0.6980 0.8157 0.5176
0.8078 0.8196 0.5098
0.8784 0.8196 0.4941
0.9451 0.8235 0.5059
0.0353 0.8941 0.5176
0.0863 0.8941 0.5216
0.1725 0.8980 0.5294
0.3137 0.8902 0.4941
0.5176 0.8902 0.5059
0.6863 0.8980 0.5059
0.8039 0.8980 0.4980
0.8863 0.8980 0.5059
0.9451 0.8941 0.5098
0.0431 0.9569 0.5098
0.0902 0.9569 0.5216
0.1804 0.9608 0.5176
0.3255 0.9529 0.5176
0.5059 0.9569 0.5098
0.6980 0.9647 0.5059
0.8118 0.9608 0.5216
0.8863 0.9608 0.5098
0.9412 0.9608 0.5059
0.0353 0.1490 0.6941
0.0863 0.1490 0.6824
0.1686 0.1451 0.6863
0.3176 0.1490 0.6863
0.5098 0.1451 0.6784
0.6980 0.1490 0.6902
0.8118 0.1451 0.6745
0.8824 0.1490 0.6784
0.9490 0.1490 0.6824
0.0392 0.1647 0.6824
0.0902 0.1686 0.7020
0.1686 0.1686 0.7020
0.3137 0.1608 0.7020
0.5059 0.1725 0.7020
0.6902 0.1686 0.6745
0.8118 0.1686 0.6941
0.8824 0.1765 0.6902
0.9608 0.1647 0.6863
0.0392 0.2275 0.6824
0.0902 0.2275 0.6863
0.1843 0.2196 0.7098
0.3098 0.2235 0.6980
0.5098 0.2275 0.6980
0.6941 0.2275 0.6863
0.8118 0.2235 0.6902
0.8863 0.2235 0.6824
0.9725 0.2275 0.6902
0.0392 0.3529 0.6745
0.0902 0.3451 0.6863
0.1725 0.3451 0.6863
0.3137 0.3490 0.6980
0.5020 0.3490 0.6902
0.6824 0.3451 0.6863
0.8118 0.3569 0.6941
0.8863 0.3490 0.6863
0.9608 0.3333 0.6902
0.0353 0.5294 0.6745
0.0824 0.5255 0.7059
0.1686 0.5333 0.6784
0.3098 0.5333 0.6863
0.5059 0.5333 0.6824
0.6863 0.5333 0.6941
0.8196 0.5412 0.6902
0.8824 0.5294 0.6902
0.9608 0.5333 0.6706
0.0471 0.7098 0.6941
0.0863 0.7020 0.6863
0.1765 0.7137 0.6980
0.3255 0.6941 0.6784
0.5255 0.7098 0.6902
0.7020 0.7137 0.6941
0.8157 0.7020 0.6941
0.8902 0.7059 0.6902
0.9608 0.7059 0.6941
0.0471 0.8196 0.6745
0.0863 0.8235 0.6863
0.1608 0.8235 0.6863
0.3216 0.8118 0.6902
0.5098 0.8196 0.6902
0.7020 0.8196 0.6941
0.8039 0.8157 0.6941
0.8824 0.8235 0.6902
0.9647 0.8196 0.6784
0.0431 0.8941 0.6824
0.0824 0.9020 0.6902
0.1686 0.8941 0.6784
0.3255 0.8941 0.6902
0.5216 0.8902 0.6941
0.6902 0.8980 0.6941
0.8118 0.8941 0.6824
0.8863 0.8941 0.6980
0.9529 0.8980 0.6902
0.0471 0.9529 0.6902
0.0902 0.9686 0.6863
0.1725 0.9686 0.6863
0.3137 0.9608 0.6902
0.5098 0.9608 0.6863
0.6941 0.9686 0.6902
0.8078 0.9686 0.6863
0.8824 0.9686 0.6980
0.9569 0.9608 0.6941
0.0549 0.1451 0.7843
0.0824 0.1490 0.7922
0.1686 0.1451 0.7961
0.3059 0.1412 0.8039
0.5176 0.1451 0.8039
0.6941 0.1529 0.7882
0.8039 0.1490 0.7843
0.8824 0.1490 0.7843
0.9529 0.1451 0.8000
0.0510 0.1647 0.8039
0.0902 0.1647 0.8275
0.1765 0.1647 0.8039
0.3098 0.1686 0.8078
0.5098 0.1647 0.8157
0.7059 0.1686 0.8157
0.8118 0.1647 0.8157
0.8902 0.1686 0.8039
0.9569 0.1686 0.8118
0.0549 0.2196 0.8157
0.0902 0.2275 0.8157
0.1725 0.2235 0.8275
0.3137 0.2275 0.8196
0.4980 0.2275 0.8118
0.6941 0.2196 0.8078
0.8039 0.2275 0.8039
0.8824 0.2235 0.8078
0.9529 0.2275 0.7961
0.0549 0.3412 0.8118
0.0902 0.3412 0.8157
0.1647 0.3373 0.8118
0.3137 0.3451 0.8235
0.5020 0.3490 0.8039
0.6980 0.3490 0.8235
0.8157 0.3490 0.8039
0.8941 0.3451 0.8078
0.9569 0.3451 0.8118
0.0510 0.5294 0.8118
0.0863 0.5333 0.8157
0.1686 0.5412 0.8078
0.3098 0.5333 0.8039
0.5098 0.5333 0.8157
0.6863 0.5294 0.8196
0.8078 0.5137 0.8196
0.8863 0.5412 0.8157
0.9608 0.5216 0.8000
0.0471 0.6941 0.8000
0.0863 0.7098 0.8196
0.1647 0.7098 0.8157
0.3059 0.7176 0.8157
0.5020 0.7098 0.8235
0.6902 0.7098 0.8235
0.8196 0.7098 0.8235
0.8824 0.7098 0.8157
0.9529 0.7098 0.8118
0.0510 0.8196 0.8157
0.0941 0.8235 0.8275
0.1686 0.8235 0.8118
0.3294 0.8196 0.8039
0.5137 0.8157 0.8000
0.6980 0.8196 0.8118
0.8039 0.8196 0.8078
0.8902 0.8157 0.8157
0.9529 0.8235 0.8078
0.0471 0.8902 0.7961
0.0863 0.8980 0.8118
0.1686 0.8941 0.8118
0.3216 0.8941 0.8078
0.5098 0.8902 0.8118
0.6902 0.8941 0.8000
0.8000 0.8941 0.8078
0.8824 0.8941 0.8118
0.9529 0.8941 0.8000
0.0471 0.9647 0.8039
0.0863 0.9647 0.8196
0.1647 0.9647 0.8078
0.3020 0.9725 0.8039
0.5059 0.9686 0.8118
0.6941 0.9686 0.8039
0.8118 0.9686 0.8039
0.8706 0.9765 0.8078
0.9608 0.9608 0.8039
0.0510 0.1451 0.8667
0.0863 0.1451 0.8706
0.1569 0.1490 0.8627
0.3098 0.1529 0.8627
0.5020 0.1490 0.8627
0.6902 0.1490 0.8863
0.8000 0.1490 0.8745
0.8745 0.1490 0.8863
0.9490 0.1451 0.8784
0.0510 0.1608 0.8863
0.0902 0.1608 0.8824
0.1725 0.1647 0.8745
0.3176 0.1725 0.8863
0.4980 0.1725 0.8784
0.6902 0.1686 0.8824
0.8118 0.1686 0.8863
0.8824 0.1725 0.8745
0.9569 0.1686 0.8667
0.0510 0.2235 0.8941
0.0902 0.2235 0.8941
0.1804 0.2157 0.8941
0.3059 0.2275 0.8745
0.5098 0.2235 0.8784
0.6902 0.2235 0.8824
0.8118 0.2275 0.8863
0.8902 0.2235 0.8863
0.9608 0.2196 0.8745
0.0471 0.3490 0.8824
0.0863 0.3451 0.8784
0.1765 0.3529 0.8941
0.3098 0.3490 0.8863
0.5059 0.3490 0.8824
0.6824 0.3451 0.8784
0.8118 0.3373 0.8863
0.8863 0.3412 0.8824
0.9608 0.3451 0.8824
0.0471 0.5333 0.8863
0.0863 0.5255 0.8941
0.1686 0.5255 0.8863
0.3098 0.5373 0.8784
0.5216 0.5216 0.8902
0.6941 0.5294 0.8784
0.8196 0.5333 0.8902
0.8902 0.5333 0.8824
0.9569 0.5294 0.8784
0.0471 0.7059 0.8863
0.0863 0.7098 0.8706
0.1686 0.7137 0.8902
0.3020 0.7137 0.8824
0.5098 0.7137 0.8863
0.6941 0.7020 0.8863
0.8039 0.7059 0.8745
0.8863 0.6980 0.8784
0.9608 0.6980 0.8824
0.0510 0.8118 0.8784
0.0863 0.8118 0.8824
0.1647 0.8235 0.8824
0.3137 0.8157 0.8863
0.5020 0.8196 0.8824
0.6863 0.8196 0.8824
0.8039 0.8235 0.8863
0.8863 0.8235 0.8824
0.9569 0.8235 0.8784
0.0471 0.8863 0.8784
0.0863 0.8902 0.8784
0.1725 0.8980 0.8902
0.3216 0.8902 0.8824
0.5137 0.8941 0.8863
0.6941 0.9020 0.8784
0.8078 0.8902 0.8784
0.8784 0.8941 0.8824
0.9608 0.8941 0.8745
0.0471 0.9608 0.8824
0.0824 0.9686 0.8863
0.1686 0.9686 0.8824
0.3098 0.9608 0.8824
0.5059 0.9647 0.8824
0.6980 0.9647 0.8863
0.8039 0.9608 0.8824
0.8784 0.9725 0.8863
0.9529 0.9647 0.8824
0.0314 0.1451 0.9490
0.0902 0.1451 0.9608
0.1725 0.1412 0.9686
0.3216 0.1373 0.9608
0.5020 0.1451 0.9686
0.6980 0.1412 0.9608
0.8078 0.1451 0.9647
0.8863 0.1412 0.9765
0.9451 0.1451 0.9529
0.0314 0.1686 0.9608
0.0784 0.1686 0.9608
0.1725 0.1686 0.9725
0.3059 0.1686 0.9569
0.5059 0.1725 0.9529
0.6941 0.1608 0.9647
0.8078 0.1647 0.9569
0.8784 0.1686 0.9686
0.9490 0.1647 0.9569
0.0353 0.2196 0.9725
0.0863 0.2157 0.9765
0.1765 0.2196 0.9686
0.3137 0.2235 0.9569
0.5020 0.2196 0.9647
0.6863 0.2235 0.9686
0.8118 0.2275 0.9647
0.8824 0.2235 0.9647
0.9608 0.2235 0.9529
0.0275 0.3490 0.9725
0.0863 0.3490 0.9647
0.1725 0.3451 0.9647
0.3216 0.3490 0.9647
0.5137 0.3373 0.9804
0.6941 0.3490 0.9647
0.8039 0.3373 0.9686
0.8902 0.3490 0.9647
0.9569 0.3490 0.9529
0.0353 0.5333 0.9882
0.0784 0.5333 0.9647
0.1647 0.5216 0.9647
0.3020 0.5294 0.9608
0.5059 0.5216 0.9686
0.6863 0.5333 0.9765
0.8078 0.5333 0.9608
0.8745 0.5294 0.9647
0.9529 0.5255 0.9569
0.0353 0.7059 0.9686
0.0863 0.7059 0.9569
0.1647 0.7098 0.9647
0.3098 0.7059 0.9608
0.5020 0.7020 0.9608
0.6941 0.7137 0.9569
0.8196 0.7098 0.9608
0.8902 0.7020 0.9569
0.9529 0.7020 0.9647
0.0314 0.8157 0.9529
0.0863 0.8196 0.9608
0.1569 0.8196 0.9686
0.3176 0.8157 0.9608
0.4980 0.8196 0.9647
0.6941 0.8196 0.9608
0.8000 0.8235 0.9608
0.8745 0.8157 0.9608
0.9569 0.8196 0.9569
0.0392 0.8941 0.9686
0.0824 0.8941 0.9647
0.1647 0.8902 0.9647
0.3216 0.8902 0.9725
0.4980 0.8902 0.9647
0.6902 0.8902 0.9647
0.8039 0.8941 0.9529
0.8745 0.8980 0.9647
0.9569 0.8902 0.9608
0.0431 0.9647 0.9490
0.0824 0.9686 0.9569
0.1725 0.9569 0.9490
0.3176 0.9569 0.9529
0.5176 0.9647 0.9490
0.6902 0.9686 0.9490
0.8000 0.9686 0.9529
0.8784 0.9686 0.9569
0.9608 0.9647 0.9647
