滤镜资源/vsco 137 3dl+cube/VSCO 137 cube/VSCO N2 New Modern.cube
#Generated by Picture Instruments - Look Converter
LUT_3D_SIZE 5
0.0627 0.0627 0.0627
0.2392 0.0667 0.0745
0.4784 0.0745 0.0706
0.6980 0.0745 0.0784
0.8353 0.0706 0.0706
0.0784 0.2157 0.0784
0.2980 0.2118 0.0706
0.5451 0.2039 0.0784
0.7490 0.2078 0.0863
0.8706 0.1961 0.0745
0.0980 0.5922 0.0902
0.3255 0.5961 0.0902
0.6118 0.5922 0.0824
0.7882 0.5804 0.0863
0.9020 0.5647 0.0863
0.1176 0.8784 0.1020
0.3412 0.8784 0.0941
0.6353 0.8824 0.0941
0.8275 0.8784 0.0941
0.9333 0.8745 0.0941
0.1333 0.9647 0.1137
0.3686 0.9725 0.1020
0.6510 0.9725 0.1059
0.8353 0.9725 0.1059
0.9569 0.9725 0.1059
0.0824 0.0667 0.2471
0.2902 0.0667 0.2471
0.5373 0.0784 0.2431
0.7373 0.0784 0.2235
0.8706 0.0784 0.2235
0.0824 0.2118 0.2353
0.3255 0.2392 0.2667
0.5765 0.2353 0.2627
0.7686 0.2235 0.2510
0.8863 0.2157 0.2392
0.0980 0.5882 0.2627
0.3451 0.6275 0.2902
0.6314 0.6196 0.2902
0.8039 0.6078 0.2784
0.9098 0.6000 0.2706
0.1137 0.8784 0.2863
0.3686 0.8941 0.3176
0.6549 0.8980 0.3137
0.8392 0.8980 0.3216
0.9412 0.8902 0.3059
0.1294 0.9686 0.3137
0.4000 0.9843 0.3451
0.6745 0.9843 0.3373
0.8471 0.9804 0.3412
0.9608 0.9804 0.3412
0.0941 0.0784 0.6000
0.3216 0.0784 0.6000
0.6039 0.0824 0.5922
0.7961 0.0863 0.5882
0.8980 0.0824 0.5804
0.0941 0.2471 0.6039
0.3490 0.2627 0.6353
0.6275 0.2627 0.6275
0.8000 0.2549 0.6196
0.9059 0.2471 0.6078
0.0941 0.5882 0.6000
0.3451 0.6196 0.6235
0.6627 0.6627 0.6588
0.8196 0.6471 0.6510
0.9176 0.6353 0.6392
0.1098 0.8824 0.6275
0.3725 0.8941 0.6549
0.6784 0.9098 0.6745
0.8549 0.9059 0.6745
0.9373 0.9020 0.6706
0.1294 0.9647 0.6627
0.3961 0.9686 0.6824
0.6941 0.9725 0.7059
0.8588 0.9725 0.7059
0.9490 0.9725 0.7137
0.1137 0.0902 0.8392
0.3412 0.0941 0.8431
0.6314 0.0941 0.8431
0.8275 0.0941 0.8431
0.9255 0.0941 0.8353
0.1137 0.2627 0.8431
0.3725 0.2863 0.8588
0.6471 0.2902 0.8588
0.8353 0.2863 0.8588
0.9412 0.2784 0.8588
0.1216 0.6314 0.8510
0.3725 0.6627 0.8549
0.6745 0.6902 0.8745
0.8471 0.6902 0.8706
0.9490 0.6784 0.8627
0.1176 0.8745 0.8431
0.3725 0.8980 0.8588
0.6745 0.9098 0.8667
0.8627 0.9176 0.8824
0.9569 0.9098 0.8745
0.1294 0.9725 0.8549
0.3882 0.9804 0.8627
0.6902 0.9882 0.8784
0.8706 0.9882 0.8980
0.9804 0.9882 0.8902
0.1255 0.0980 0.9608
0.3725 0.0941 0.9647
0.6510 0.0980 0.9569
0.8431 0.0941 0.9647
0.9490 0.0980 0.9529
0.1255 0.2863 0.9569
0.3922 0.3098 0.9647
0.6706 0.3098 0.9647
0.8510 0.3176 0.9686
0.9569 0.3098 0.9608
0.1255 0.6549 0.9608
0.3922 0.6824 0.9725
0.6863 0.7137 0.9765
0.8588 0.7137 0.9725
0.9686 0.7137 0.9765
0.1294 0.8902 0.9608
0.3922 0.9059 0.9765
0.6902 0.9137 0.9765
0.8745 0.9255 0.9843
0.9804 0.9255 0.9843
0.1333 0.9686 0.9608
0.4000 0.9765 0.9686
0.6902 0.9804 0.9765
0.8706 0.9882 0.9882
0.9882 0.9922 0.9882
