滤镜资源/vsco 137 3dl+cube/VSCO 137 cube/VSCO 8 Legacy.cube
#Generated by Picture Instruments - Look Converter
LUT_3D_SIZE 5
0.0314 0.1412 0.0353
0.1647 0.1451 0.0431
0.5255 0.1412 0.0392
0.8039 0.1490 0.0353
0.9412 0.1412 0.0353
0.0353 0.2275 0.0392
0.1725 0.2314 0.0353
0.4980 0.2235 0.0314
0.8078 0.2275 0.0353
0.9608 0.2275 0.0353
0.0431 0.5255 0.0510
0.1686 0.5255 0.0314
0.4980 0.5373 0.0392
0.8078 0.5333 0.0353
0.9608 0.5255 0.0314
0.0431 0.8196 0.0392
0.1647 0.8275 0.0314
0.5255 0.8235 0.0471
0.8118 0.8118 0.0431
0.9608 0.8118 0.0392
0.0431 0.9569 0.0353
0.1686 0.9686 0.0314
0.5176 0.9608 0.0353
0.8078 0.9608 0.0392
0.9647 0.9647 0.0353
0.0510 0.1412 0.1725
0.1647 0.1490 0.1647
0.4941 0.1412 0.1686
0.8157 0.1412 0.1765
0.9490 0.1451 0.1843
0.0510 0.2157 0.1608
0.1804 0.2235 0.1804
0.5176 0.2275 0.1725
0.8118 0.2235 0.1765
0.9529 0.2235 0.1725
0.0549 0.5294 0.1647
0.1686 0.5294 0.1843
0.5020 0.5216 0.1765
0.8118 0.5176 0.1647
0.9608 0.5333 0.1686
0.0471 0.8196 0.1686
0.1647 0.8275 0.1725
0.5059 0.8196 0.1490
0.8078 0.8235 0.1569
0.9569 0.8196 0.1647
0.0471 0.9686 0.1608
0.1725 0.9686 0.1686
0.5137 0.9569 0.1686
0.8078 0.9686 0.1490
0.9569 0.9647 0.1647
0.0431 0.1451 0.5059
0.1608 0.1373 0.5137
0.5020 0.1451 0.4941
0.8157 0.1373 0.5059
0.9451 0.1490 0.5020
0.0314 0.2275 0.4941
0.1725 0.2275 0.5216
0.5098 0.2235 0.5020
0.8039 0.2314 0.5059
0.9490 0.2235 0.5020
0.0275 0.5255 0.4745
0.1686 0.5294 0.4941
0.5098 0.5294 0.5020
0.8118 0.5216 0.5255
0.9451 0.5373 0.5059
0.0353 0.8157 0.5020
0.1608 0.8235 0.5137
0.5020 0.8275 0.5059
0.8078 0.8196 0.5098
0.9451 0.8235 0.5059
0.0431 0.9569 0.5098
0.1804 0.9608 0.5176
0.5059 0.9569 0.5098
0.8118 0.9608 0.5216
0.9412 0.9608 0.5059
0.0549 0.1451 0.7843
0.1686 0.1451 0.7961
0.5176 0.1451 0.8039
0.8039 0.1490 0.7843
0.9529 0.1451 0.8000
0.0549 0.2196 0.8157
0.1725 0.2235 0.8275
0.4980 0.2275 0.8118
0.8039 0.2275 0.8039
0.9529 0.2275 0.7961
0.0510 0.5294 0.8118
0.1686 0.5412 0.8078
0.5098 0.5333 0.8157
0.8078 0.5137 0.8196
0.9608 0.5216 0.8000
0.0510 0.8196 0.8157
0.1686 0.8235 0.8118
0.5137 0.8157 0.8000
0.8039 0.8196 0.8078
0.9529 0.8235 0.8078
0.0471 0.9647 0.8039
0.1647 0.9647 0.8078
0.5059 0.9686 0.8118
0.8118 0.9686 0.8039
0.9608 0.9608 0.8039
0.0314 0.1451 0.9490
0.1725 0.1412 0.9686
0.5020 0.1451 0.9686
0.8078 0.1451 0.9647
0.9451 0.1451 0.9529
0.0353 0.2196 0.9725
0.1765 0.2196 0.9686
0.5020 0.2196 0.9647
0.8118 0.2275 0.9647
0.9608 0.2235 0.9529
0.0353 0.5333 0.9882
0.1647 0.5216 0.9647
0.5059 0.5216 0.9686
0.8078 0.5333 0.9608
0.9529 0.5255 0.9569
0.0314 0.8157 0.9529
0.1569 0.8196 0.9686
0.4980 0.8196 0.9647
0.8000 0.8235 0.9608
0.9569 0.8196 0.9569
0.0431 0.9647 0.9490
0.1725 0.9569 0.9490
0.5176 0.9647 0.9490
0.8000 0.9686 0.9529
0.9608 0.9647 0.9647
