滤镜资源/vsco 137 3dl+cube/VSCO 137 cube/VSCOX IH5 IIford Hp5.cube
#Generated by Picture Instruments - Look Converter
LUT_3D_SIZE 5
0.1255 0.1255 0.1255
0.1569 0.1569 0.1569
0.2745 0.2745 0.2745
0.4784 0.4784 0.4784
0.6549 0.6549 0.6549
0.1882 0.1882 0.1882
0.2196 0.2196 0.2196
0.3373 0.3373 0.3373
0.5294 0.5294 0.5294
0.6784 0.6784 0.6784
0.4078 0.4078 0.4078
0.4392 0.4392 0.4392
0.5255 0.5255 0.5255
0.6431 0.6431 0.6431
0.7333 0.7333 0.7333
0.6627 0.6627 0.6627
0.6706 0.6706 0.6706
0.7098 0.7098 0.7098
0.7569 0.7569 0.7569
0.8000 0.8000 0.8000
0.7922 0.7922 0.7922
0.7961 0.7961 0.7961
0.8078 0.8078 0.8078
0.8275 0.8275 0.8275
0.8431 0.8431 0.8431
0.1843 0.1843 0.1843
0.2196 0.2196 0.2196
0.3373 0.3373 0.3373
0.5176 0.5176 0.5176
0.6784 0.6784 0.6784
0.2510 0.2510 0.2510
0.2902 0.2902 0.2902
0.4078 0.4078 0.4078
0.5647 0.5647 0.5647
0.7020 0.7020 0.7020
0.4627 0.4627 0.4627
0.4902 0.4902 0.4902
0.5608 0.5608 0.5608
0.6627 0.6627 0.6627
0.7490 0.7490 0.7490
0.6824 0.6824 0.6824
0.6941 0.6941 0.6941
0.7255 0.7255 0.7255
0.7686 0.7686 0.7686
0.8078 0.8078 0.8078
0.8000 0.8000 0.8000
0.8039 0.8039 0.8039
0.8157 0.8157 0.8157
0.8314 0.8314 0.8314
0.8471 0.8471 0.8471
0.3922 0.3922 0.3922
0.4235 0.4235 0.4235
0.5098 0.5098 0.5098
0.6353 0.6353 0.6353
0.7333 0.7333 0.7333
0.4510 0.4510 0.4510
0.4824 0.4824 0.4824
0.5569 0.5569 0.5569
0.6588 0.6588 0.6588
0.7451 0.7451 0.7451
0.5922 0.5922 0.5922
0.6118 0.6118 0.6118
0.6667 0.6667 0.6667
0.7294 0.7294 0.7294
0.7843 0.7843 0.7843
0.7373 0.7373 0.7373
0.7451 0.7451 0.7451
0.7647 0.7647 0.7647
0.7961 0.7961 0.7961
0.8235 0.8235 0.8235
0.8196 0.8196 0.8196
0.8235 0.8235 0.8235
0.8314 0.8314 0.8314
0.8431 0.8431 0.8431
0.8549 0.8549 0.8549
0.6471 0.6471 0.6471
0.6588 0.6588 0.6588
0.6980 0.6980 0.6980
0.7529 0.7529 0.7529
0.7961 0.7961 0.7961
0.6667 0.6667 0.6667
0.6824 0.6824 0.6824
0.7176 0.7176 0.7176
0.7608 0.7608 0.7608
0.8039 0.8039 0.8039
0.7333 0.7333 0.7333
0.7412 0.7412 0.7412
0.7647 0.7647 0.7647
0.7961 0.7961 0.7961
0.8235 0.8235 0.8235
0.8000 0.8000 0.8000
0.8039 0.8039 0.8039
0.8157 0.8157 0.8157
0.8314 0.8314 0.8314
0.8471 0.8471 0.8471
0.8431 0.8431 0.8431
0.8471 0.8471 0.8471
0.8510 0.8510 0.8510
0.8588 0.8588 0.8588
0.8667 0.8667 0.8667
0.7843 0.7843 0.7843
0.7882 0.7882 0.7882
0.8000 0.8000 0.8000
0.8235 0.8235 0.8235
0.8392 0.8392 0.8392
0.7922 0.7922 0.7922
0.7922 0.7922 0.7922
0.8039 0.8039 0.8039
0.8275 0.8275 0.8275
0.8431 0.8431 0.8431
0.8157 0.8157 0.8157
0.8196 0.8196 0.8196
0.8275 0.8275 0.8275
0.8392 0.8392 0.8392
0.8510 0.8510 0.8510
0.8431 0.8431 0.8431
0.8431 0.8431 0.8431
0.8510 0.8510 0.8510
0.8588 0.8588 0.8588
0.8667 0.8667 0.8667
0.8627 0.8627 0.8627
0.8627 0.8627 0.8627
0.8667 0.8667 0.8667
0.8745 0.8745 0.8745
0.8784 0.8784 0.8784
