滤镜资源/vsco 137 3dl+cube/VSCO 137 cube/VSCO X2 Bw Fade.cube
#Generated by Picture Instruments - Look Converter
LUT_3D_SIZE 9
0.2392 0.2392 0.2392
0.2471 0.2471 0.2471
0.2549 0.2549 0.2549
0.2667 0.2667 0.2667
0.2863 0.2863 0.2863
0.3098 0.3098 0.3098
0.3412 0.3412 0.3412
0.3843 0.3843 0.3843
0.4314 0.4314 0.4314
0.2471 0.2471 0.2471
0.2510 0.2510 0.2510
0.2588 0.2588 0.2588
0.2745 0.2745 0.2745
0.2980 0.2980 0.2980
0.3255 0.3255 0.3255
0.3608 0.3608 0.3608
0.4078 0.4078 0.4078
0.4588 0.4588 0.4588
0.2549 0.2549 0.2549
0.2588 0.2588 0.2588
0.2667 0.2667 0.2667
0.2863 0.2863 0.2863
0.3098 0.3098 0.3098
0.3412 0.3412 0.3412
0.3843 0.3843 0.3843
0.4353 0.4353 0.4353
0.4863 0.4863 0.4863
0.2667 0.2667 0.2667
0.2745 0.2745 0.2745
0.2863 0.2863 0.2863
0.2980 0.2980 0.2980
0.3255 0.3255 0.3255
0.3608 0.3608 0.3608
0.4078 0.4078 0.4078
0.4627 0.4627 0.4627
0.5255 0.5255 0.5255
0.2863 0.2863 0.2863
0.2980 0.2980 0.2980
0.3098 0.3098 0.3098
0.3255 0.3255 0.3255
0.3412 0.3412 0.3412
0.3843 0.3843 0.3843
0.4353 0.4353 0.4353
0.4941 0.4941 0.4941
0.5608 0.5608 0.5608
0.3098 0.3098 0.3098
0.3255 0.3255 0.3255
0.3412 0.3412 0.3412
0.3608 0.3608 0.3608
0.3843 0.3843 0.3843
0.4078 0.4078 0.4078
0.4667 0.4667 0.4667
0.5294 0.5294 0.5294
0.6039 0.6039 0.6039
0.3412 0.3412 0.3412
0.3608 0.3608 0.3608
0.3843 0.3843 0.3843
0.4078 0.4078 0.4078
0.4392 0.4392 0.4392
0.4627 0.4627 0.4627
0.4941 0.4941 0.4941
0.5647 0.5647 0.5647
0.6471 0.6471 0.6471
0.3843 0.3843 0.3843
0.4078 0.4078 0.4078
0.4353 0.4353 0.4353
0.4667 0.4667 0.4667
0.4941 0.4941 0.4941
0.5294 0.5294 0.5294
0.5686 0.5686 0.5686
0.6118 0.6118 0.6118
0.6824 0.6824 0.6824
0.4314 0.4314 0.4314
0.4588 0.4588 0.4588
0.4902 0.4902 0.4902
0.5255 0.5255 0.5255
0.5647 0.5647 0.5647
0.6039 0.6039 0.6039
0.6471 0.6471 0.6471
0.6863 0.6863 0.6863
0.7137 0.7137 0.7137
0.2431 0.2431 0.2431
0.2549 0.2549 0.2549
0.2667 0.2667 0.2667
0.2863 0.2863 0.2863
0.3098 0.3098 0.3098
0.3412 0.3412 0.3412
0.3843 0.3843 0.3843
0.4353 0.4353 0.4353
0.4863 0.4863 0.4863
0.2510 0.2510 0.2510
0.2588 0.2588 0.2588
0.2745 0.2745 0.2745
0.2980 0.2980 0.2980
0.3216 0.3216 0.3216
0.3608 0.3608 0.3608
0.4039 0.4039 0.4039
0.4627 0.4627 0.4627
0.5216 0.5216 0.5216
0.2588 0.2588 0.2588
0.2745 0.2745 0.2745
0.2863 0.2863 0.2863
0.3059 0.3059 0.3059
0.3412 0.3412 0.3412
0.3843 0.3843 0.3843
0.4353 0.4353 0.4353
0.4941 0.4941 0.4941
0.5569 0.5569 0.5569
0.2745 0.2745 0.2745
0.2980 0.2980 0.2980
0.3098 0.3098 0.3098
0.3255 0.3255 0.3255
0.3608 0.3608 0.3608
0.4039 0.4039 0.4039
0.4588 0.4588 0.4588
0.5294 0.5294 0.5294
0.6000 0.6000 0.6000
0.2980 0.2980 0.2980
0.3255 0.3255 0.3255
0.3373 0.3373 0.3373
0.3608 0.3608 0.3608
0.3882 0.3882 0.3882
0.4314 0.4314 0.4314
0.4941 0.4941 0.4941
0.5608 0.5608 0.5608
0.6431 0.6431 0.6431
0.3255 0.3255 0.3255
0.3608 0.3608 0.3608
0.3843 0.3843 0.3843
0.4039 0.4039 0.4039
0.4314 0.4314 0.4314
0.4627 0.4627 0.4627
0.5294 0.5294 0.5294
0.6039 0.6039 0.6039
0.6784 0.6784 0.6784
0.3608 0.3608 0.3608
0.4039 0.4039 0.4039
0.4314 0.4314 0.4314
0.4667 0.4667 0.4667
0.4902 0.4902 0.4902
0.5294 0.5294 0.5294
0.5647 0.5647 0.5647
0.6510 0.6510 0.6510
0.7176 0.7176 0.7176
0.4078 0.4078 0.4078
0.4588 0.4588 0.4588
0.4941 0.4941 0.4941
0.5255 0.5255 0.5255
0.5686 0.5686 0.5686
0.6118 0.6118 0.6118
0.6510 0.6510 0.6510
0.6941 0.6941 0.6941
0.7529 0.7529 0.7529
0.4588 0.4588 0.4588
0.5176 0.5176 0.5176
0.5608 0.5608 0.5608
0.6000 0.6000 0.6000
0.6392 0.6392 0.6392
0.6824 0.6824 0.6824
0.7176 0.7176 0.7176
0.7529 0.7529 0.7529
0.7804 0.7804 0.7804
0.2471 0.2471 0.2471
0.2588 0.2588 0.2588
0.2824 0.2824 0.2824
0.3098 0.3098 0.3098
0.3373 0.3373 0.3373
0.3843 0.3843 0.3843
0.4314 0.4314 0.4314
0.4941 0.4941 0.4941
0.5608 0.5608 0.5608
0.2549 0.2549 0.2549
0.2667 0.2667 0.2667
0.2980 0.2980 0.2980
0.3255 0.3255 0.3255
0.3569 0.3569 0.3569
0.4039 0.4039 0.4039
0.4627 0.4627 0.4627
0.5255 0.5255 0.5255
0.5961 0.5961 0.5961
0.2667 0.2667 0.2667
0.2863 0.2863 0.2863
0.3098 0.3098 0.3098
0.3373 0.3373 0.3373
0.3843 0.3843 0.3843
0.4314 0.4314 0.4314
0.4941 0.4941 0.4941
0.5647 0.5647 0.5647
0.6431 0.6431 0.6431
0.2863 0.2863 0.2863
0.3098 0.3098 0.3098
0.3373 0.3373 0.3373
0.3608 0.3608 0.3608
0.4039 0.4039 0.4039
0.4627 0.4627 0.4627
0.5294 0.5294 0.5294
0.6039 0.6039 0.6039
0.6824 0.6824 0.6824
0.3098 0.3098 0.3098
0.3412 0.3412 0.3412
0.3804 0.3804 0.3804
0.4078 0.4078 0.4078
0.4314 0.4314 0.4314
0.4941 0.4941 0.4941
0.5647 0.5647 0.5647
0.6471 0.6471 0.6471
0.7137 0.7137 0.7137
0.3412 0.3412 0.3412
0.3804 0.3804 0.3804
0.4353 0.4353 0.4353
0.4588 0.4588 0.4588
0.4941 0.4941 0.4941
0.5333 0.5333 0.5333
0.6000 0.6000 0.6000
0.6902 0.6902 0.6902
0.7569 0.7569 0.7569
0.3843 0.3843 0.3843
0.4353 0.4353 0.4353
0.4941 0.4941 0.4941
0.5294 0.5294 0.5294
0.5647 0.5647 0.5647
0.6039 0.6039 0.6039
0.6549 0.6549 0.6549
0.7255 0.7255 0.7255
0.7843 0.7843 0.7843
0.4314 0.4314 0.4314
0.4941 0.4941 0.4941
0.5647 0.5647 0.5647
0.6039 0.6039 0.6039
0.6549 0.6549 0.6549
0.6863 0.6863 0.6863
0.7255 0.7255 0.7255
0.7569 0.7569 0.7569
0.8118 0.8118 0.8118
0.4902 0.4902 0.4902
0.5608 0.5608 0.5608
0.6431 0.6431 0.6431
0.6824 0.6824 0.6824
0.7176 0.7176 0.7176
0.7490 0.7490 0.7490
0.7882 0.7882 0.7882
0.8157 0.8157 0.8157
0.8314 0.8314 0.8314
0.2510 0.2510 0.2510
0.2667 0.2667 0.2667
0.2980 0.2980 0.2980
0.3373 0.3373 0.3373
0.3843 0.3843 0.3843
0.4353 0.4353 0.4353
0.4941 0.4941 0.4941
0.5647 0.5647 0.5647
0.6471 0.6471 0.6471
0.2588 0.2588 0.2588
0.2745 0.2745 0.2745
0.3059 0.3059 0.3059
0.3569 0.3569 0.3569
0.4078 0.4078 0.4078
0.4588 0.4588 0.4588
0.5294 0.5294 0.5294
0.6000 0.6000 0.6000
0.6863 0.6863 0.6863
0.2745 0.2745 0.2745
0.2980 0.2980 0.2980
0.3255 0.3255 0.3255
0.3804 0.3804 0.3804
0.4353 0.4353 0.4353
0.4902 0.4902 0.4902
0.5647 0.5647 0.5647
0.6510 0.6510 0.6510
0.7137 0.7137 0.7137
0.2980 0.2980 0.2980
0.3216 0.3216 0.3216
0.3608 0.3608 0.3608
0.4078 0.4078 0.4078
0.4588 0.4588 0.4588
0.5333 0.5333 0.5333
0.6039 0.6039 0.6039
0.6902 0.6902 0.6902
0.7529 0.7529 0.7529
0.3255 0.3255 0.3255
0.3608 0.3608 0.3608
0.4078 0.4078 0.4078
0.4588 0.4588 0.4588
0.4941 0.4941 0.4941
0.5608 0.5608 0.5608
0.6471 0.6471 0.6471
0.7255 0.7255 0.7255
0.7882 0.7882 0.7882
0.3608 0.3608 0.3608
0.4078 0.4078 0.4078
0.4667 0.4667 0.4667
0.5255 0.5255 0.5255
0.5686 0.5686 0.5686
0.6039 0.6039 0.6039
0.6902 0.6902 0.6902
0.7569 0.7569 0.7569
0.8157 0.8157 0.8157
0.4078 0.4078 0.4078
0.4627 0.4627 0.4627
0.5255 0.5255 0.5255
0.6078 0.6078 0.6078
0.6471 0.6471 0.6471
0.6902 0.6902 0.6902
0.7294 0.7294 0.7294
0.7882 0.7882 0.7882
0.8314 0.8314 0.8314
0.4627 0.4627 0.4627
0.5294 0.5294 0.5294
0.6078 0.6078 0.6078
0.6902 0.6902 0.6902
0.7255 0.7255 0.7255
0.7569 0.7569 0.7569
0.7882 0.7882 0.7882
0.8196 0.8196 0.8196
0.8510 0.8510 0.8510
0.5255 0.5255 0.5255
0.6000 0.6000 0.6000
0.6824 0.6824 0.6824
0.7529 0.7529 0.7529
0.7804 0.7804 0.7804
0.8157 0.8157 0.8157
0.8353 0.8353 0.8353
0.8510 0.8510 0.8510
0.8627 0.8627 0.8627
0.2549 0.2549 0.2549
0.2745 0.2745 0.2745
0.3059 0.3059 0.3059
0.3608 0.3608 0.3608
0.4275 0.4275 0.4275
0.4941 0.4941 0.4941
0.5686 0.5686 0.5686
0.6471 0.6471 0.6471
0.7176 0.7176 0.7176
0.2667 0.2667 0.2667
0.2863 0.2863 0.2863
0.3255 0.3255 0.3255
0.3843 0.3843 0.3843
0.4588 0.4588 0.4588
0.5294 0.5294 0.5294
0.6039 0.6039 0.6039
0.6902 0.6902 0.6902
0.7529 0.7529 0.7529
0.2863 0.2863 0.2863
0.3098 0.3098 0.3098
0.3412 0.3412 0.3412
0.4039 0.4039 0.4039
0.4902 0.4902 0.4902
0.5686 0.5686 0.5686
0.6471 0.6471 0.6471
0.7255 0.7255 0.7255
0.7843 0.7843 0.7843
0.3098 0.3098 0.3098
0.3412 0.3412 0.3412
0.3843 0.3843 0.3843
0.4353 0.4353 0.4353
0.5255 0.5255 0.5255
0.6039 0.6039 0.6039
0.6863 0.6863 0.6863
0.7569 0.7569 0.7569
0.8157 0.8157 0.8157
0.3412 0.3412 0.3412
0.3843 0.3843 0.3843
0.4314 0.4314 0.4314
0.4941 0.4941 0.4941
0.5725 0.5725 0.5725
0.6471 0.6471 0.6471
0.7294 0.7294 0.7294
0.7882 0.7882 0.7882
0.8353 0.8353 0.8353
0.3843 0.3843 0.3843
0.4353 0.4353 0.4353
0.4941 0.4941 0.4941
0.5647 0.5647 0.5647
0.6471 0.6471 0.6471
0.6902 0.6902 0.6902
0.7569 0.7569 0.7569
0.8196 0.8196 0.8196
0.8510 0.8510 0.8510
0.4353 0.4353 0.4353
0.4902 0.4902 0.4902
0.5686 0.5686 0.5686
0.6549 0.6549 0.6549
0.7216 0.7216 0.7216
0.7608 0.7608 0.7608
0.7922 0.7922 0.7922
0.8392 0.8392 0.8392
0.8667 0.8667 0.8667
0.4980 0.4980 0.4980
0.5647 0.5647 0.5647
0.6510 0.6510 0.6510
0.7216 0.7216 0.7216
0.7922 0.7922 0.7922
0.8157 0.8157 0.8157
0.8392 0.8392 0.8392
0.8588 0.8588 0.8588
0.8784 0.8784 0.8784
0.5647 0.5647 0.5647
0.6392 0.6392 0.6392
0.7176 0.7176 0.7176
0.7843 0.7843 0.7843
0.8314 0.8314 0.8314
0.8549 0.8549 0.8549
0.8667 0.8667 0.8667
0.8824 0.8824 0.8824
0.8863 0.8863 0.8863
0.2588 0.2588 0.2588
0.2863 0.2863 0.2863
0.3255 0.3255 0.3255
0.3843 0.3843 0.3843
0.4627 0.4627 0.4627
0.5725 0.5725 0.5725
0.6471 0.6471 0.6471
0.7255 0.7255 0.7255
0.7882 0.7882 0.7882
0.2745 0.2745 0.2745
0.2980 0.2980 0.2980
0.3412 0.3412 0.3412
0.4039 0.4039 0.4039
0.4902 0.4902 0.4902
0.6000 0.6000 0.6000
0.6902 0.6902 0.6902
0.7608 0.7608 0.7608
0.8157 0.8157 0.8157
0.2980 0.2980 0.2980
0.3255 0.3255 0.3255
0.3608 0.3608 0.3608
0.4314 0.4314 0.4314
0.5333 0.5333 0.5333
0.6471 0.6471 0.6471
0.7255 0.7255 0.7255
0.7882 0.7882 0.7882
0.8353 0.8353 0.8353
0.3255 0.3255 0.3255
0.3608 0.3608 0.3608
0.4039 0.4039 0.4039
0.4627 0.4627 0.4627
0.5608 0.5608 0.5608
0.6824 0.6824 0.6824
0.7608 0.7608 0.7608
0.8157 0.8157 0.8157
0.8510 0.8510 0.8510
0.3608 0.3608 0.3608
0.4078 0.4078 0.4078
0.4627 0.4627 0.4627
0.5294 0.5294 0.5294
0.6078 0.6078 0.6078
0.7255 0.7255 0.7255
0.7922 0.7922 0.7922
0.8392 0.8392 0.8392
0.8627 0.8627 0.8627
0.4078 0.4078 0.4078
0.4588 0.4588 0.4588
0.5294 0.5294 0.5294
0.6039 0.6039 0.6039
0.6902 0.6902 0.6902
0.7647 0.7647 0.7647
0.8157 0.8157 0.8157
0.8588 0.8588 0.8588
0.8824 0.8824 0.8824
0.4667 0.4667 0.4667
0.5294 0.5294 0.5294
0.6118 0.6118 0.6118
0.6902 0.6902 0.6902
0.7608 0.7608 0.7608
0.8157 0.8157 0.8157
0.8392 0.8392 0.8392
0.8706 0.8706 0.8706
0.8902 0.8902 0.8902
0.5294 0.5294 0.5294
0.6078 0.6078 0.6078
0.6863 0.6863 0.6863
0.7608 0.7608 0.7608
0.8235 0.8235 0.8235
0.8588 0.8588 0.8588
0.8706 0.8706 0.8706
0.8863 0.8863 0.8863
0.9020 0.9020 0.9020
0.6000 0.6000 0.6000
0.6824 0.6824 0.6824
0.7569 0.7569 0.7569
0.8157 0.8157 0.8157
0.8549 0.8549 0.8549
0.8824 0.8824 0.8824
0.8902 0.8902 0.8902
0.9020 0.9020 0.9020
0.9059 0.9059 0.9059
0.2667 0.2667 0.2667
0.2980 0.2980 0.2980
0.3412 0.3412 0.3412
0.4039 0.4039 0.4039
0.4941 0.4941 0.4941
0.6039 0.6039 0.6039
0.7255 0.7255 0.7255
0.7922 0.7922 0.7922
0.8353 0.8353 0.8353
0.2863 0.2863 0.2863
0.3098 0.3098 0.3098
0.3569 0.3569 0.3569
0.4353 0.4353 0.4353
0.5294 0.5294 0.5294
0.6549 0.6549 0.6549
0.7647 0.7647 0.7647
0.8157 0.8157 0.8157
0.8510 0.8510 0.8510
0.3098 0.3098 0.3098
0.3412 0.3412 0.3412
0.3843 0.3843 0.3843
0.4627 0.4627 0.4627
0.5647 0.5647 0.5647
0.6863 0.6863 0.6863
0.7843 0.7843 0.7843
0.8392 0.8392 0.8392
0.8667 0.8667 0.8667
0.3412 0.3412 0.3412
0.3843 0.3843 0.3843
0.4353 0.4353 0.4353
0.4980 0.4980 0.4980
0.6039 0.6039 0.6039
0.7294 0.7294 0.7294
0.8157 0.8157 0.8157
0.8588 0.8588 0.8588
0.8824 0.8824 0.8824
0.3882 0.3882 0.3882
0.4314 0.4314 0.4314
0.4941 0.4941 0.4941
0.5647 0.5647 0.5647
0.6510 0.6510 0.6510
0.7569 0.7569 0.7569
0.8353 0.8353 0.8353
0.8706 0.8706 0.8706
0.8902 0.8902 0.8902
0.4353 0.4353 0.4353
0.4941 0.4941 0.4941
0.5686 0.5686 0.5686
0.6471 0.6471 0.6471
0.7255 0.7255 0.7255
0.7922 0.7922 0.7922
0.8588 0.8588 0.8588
0.8863 0.8863 0.8863
0.9020 0.9020 0.9020
0.4941 0.4941 0.4941
0.5725 0.5725 0.5725
0.6471 0.6471 0.6471
0.7294 0.7294 0.7294
0.7882 0.7882 0.7882
0.8392 0.8392 0.8392
0.8706 0.8706 0.8706
0.8941 0.8941 0.8941
0.9098 0.9098 0.9098
0.5686 0.5686 0.5686
0.6510 0.6510 0.6510
0.7255 0.7255 0.7255
0.7922 0.7922 0.7922
0.8392 0.8392 0.8392
0.8706 0.8706 0.8706
0.8941 0.8941 0.8941
0.9059 0.9059 0.9059
0.9176 0.9176 0.9176
0.6431 0.6431 0.6431
0.7216 0.7216 0.7216
0.7843 0.7843 0.7843
0.8353 0.8353 0.8353
0.8667 0.8667 0.8667
0.8902 0.8902 0.8902
0.9098 0.9098 0.9098
0.9176 0.9176 0.9176
0.9216 0.9216 0.9216
0.2745 0.2745 0.2745
0.3098 0.3098 0.3098
0.3569 0.3569 0.3569
0.4314 0.4314 0.4314
0.5216 0.5216 0.5216
0.6510 0.6510 0.6510
0.7608 0.7608 0.7608
0.8353 0.8353 0.8353
0.8667 0.8667 0.8667
0.2980 0.2980 0.2980
0.3255 0.3255 0.3255
0.3804 0.3804 0.3804
0.4627 0.4627 0.4627
0.5647 0.5647 0.5647
0.6902 0.6902 0.6902
0.7922 0.7922 0.7922
0.8588 0.8588 0.8588
0.8784 0.8784 0.8784
0.3255 0.3255 0.3255
0.3569 0.3569 0.3569
0.4078 0.4078 0.4078
0.4902 0.4902 0.4902
0.6118 0.6118 0.6118
0.7294 0.7294 0.7294
0.8196 0.8196 0.8196
0.8706 0.8706 0.8706
0.8902 0.8902 0.8902
0.3608 0.3608 0.3608
0.4078 0.4078 0.4078
0.4627 0.4627 0.4627
0.5294 0.5294 0.5294
0.6471 0.6471 0.6471
0.7569 0.7569 0.7569
0.8392 0.8392 0.8392
0.8824 0.8824 0.8824
0.9020 0.9020 0.9020
0.4078 0.4078 0.4078
0.4627 0.4627 0.4627
0.5294 0.5294 0.5294
0.6078 0.6078 0.6078
0.6941 0.6941 0.6941
0.7882 0.7882 0.7882
0.8588 0.8588 0.8588
0.8941 0.8941 0.8941
0.9098 0.9098 0.9098
0.4667 0.4667 0.4667
0.5294 0.5294 0.5294
0.6039 0.6039 0.6039
0.6902 0.6902 0.6902
0.7569 0.7569 0.7569
0.8196 0.8196 0.8196
0.8706 0.8706 0.8706
0.9059 0.9059 0.9059
0.9176 0.9176 0.9176
0.5294 0.5294 0.5294
0.6039 0.6039 0.6039
0.6902 0.6902 0.6902
0.7608 0.7608 0.7608
0.8196 0.8196 0.8196
0.8588 0.8588 0.8588
0.8863 0.8863 0.8863
0.9137 0.9137 0.9137
0.9216 0.9216 0.9216
0.6118 0.6118 0.6118
0.6902 0.6902 0.6902
0.7647 0.7647 0.7647
0.8157 0.8157 0.8157
0.8588 0.8588 0.8588
0.8863 0.8863 0.8863
0.9059 0.9059 0.9059
0.9216 0.9216 0.9216
0.9294 0.9294 0.9294
0.6863 0.6863 0.6863
0.7529 0.7529 0.7529
0.8157 0.8157 0.8157
0.8510 0.8510 0.8510
0.8824 0.8824 0.8824
0.9020 0.9020 0.9020
0.9176 0.9176 0.9176
0.9294 0.9294 0.9294
0.9333 0.9333 0.9333
0.2824 0.2824 0.2824
0.3216 0.3216 0.3216
0.3765 0.3765 0.3765
0.4549 0.4549 0.4549
0.5608 0.5608 0.5608
0.6824 0.6824 0.6824
0.7843 0.7843 0.7843
0.8549 0.8549 0.8549
0.8863 0.8863 0.8863
0.3059 0.3059 0.3059
0.3333 0.3333 0.3333
0.4039 0.4039 0.4039
0.4824 0.4824 0.4824
0.6000 0.6000 0.6000
0.7137 0.7137 0.7137
0.8157 0.8157 0.8157
0.8667 0.8667 0.8667
0.8941 0.8941 0.8941
0.3373 0.3373 0.3373
0.3765 0.3765 0.3765
0.4275 0.4275 0.4275
0.5216 0.5216 0.5216
0.6392 0.6392 0.6392
0.7529 0.7529 0.7529
0.8353 0.8353 0.8353
0.8824 0.8824 0.8824
0.9059 0.9059 0.9059
0.3804 0.3804 0.3804
0.4314 0.4314 0.4314
0.4863 0.4863 0.4863
0.5647 0.5647 0.5647
0.6824 0.6824 0.6824
0.7882 0.7882 0.7882
0.8549 0.8549 0.8549
0.8902 0.8902 0.8902
0.9137 0.9137 0.9137
0.4314 0.4314 0.4314
0.4863 0.4863 0.4863
0.5608 0.5608 0.5608
0.6392 0.6392 0.6392
0.7216 0.7216 0.7216
0.8157 0.8157 0.8157
0.8627 0.8627 0.8627
0.9020 0.9020 0.9020
0.9176 0.9176 0.9176
0.4902 0.4902 0.4902
0.5608 0.5608 0.5608
0.6431 0.6431 0.6431
0.7216 0.7216 0.7216
0.7843 0.7843 0.7843
0.8353 0.8353 0.8353
0.8824 0.8824 0.8824
0.9098 0.9098 0.9098
0.9255 0.9255 0.9255
0.5647 0.5647 0.5647
0.6431 0.6431 0.6431
0.7176 0.7176 0.7176
0.7843 0.7843 0.7843
0.8353 0.8353 0.8353
0.8667 0.8667 0.8667
0.8902 0.8902 0.8902
0.9176 0.9176 0.9176
0.9294 0.9294 0.9294
0.6471 0.6471 0.6471
0.7216 0.7216 0.7216
0.7843 0.7843 0.7843
0.8353 0.8353 0.8353
0.8667 0.8667 0.8667
0.8902 0.8902 0.8902
0.9098 0.9098 0.9098
0.9255 0.9255 0.9255
0.9373 0.9373 0.9373
0.7176 0.7176 0.7176
0.7804 0.7804 0.7804
0.8275 0.8275 0.8275
0.8627 0.8627 0.8627
0.8863 0.8863 0.8863
0.9059 0.9059 0.9059
0.9216 0.9216 0.9216
0.9333 0.9333 0.9333
0.9412 0.9412 0.9412
