滤镜资源/vsco 137 3dl+cube/VSCO 137 cube/VSCO S1 Clean.cube
#Generated by Picture Instruments - Look Converter
LUT_3D_SIZE 5
0.1608 0.1020 0.1294
0.3490 0.1059 0.1373
0.6196 0.1137 0.1451
0.8118 0.1176 0.1451
0.9647 0.1059 0.1373
0.1647 0.3020 0.1373
0.3373 0.2863 0.1255
0.6118 0.3020 0.1333
0.8118 0.2980 0.1255
0.9843 0.2902 0.1255
0.1882 0.6000 0.1490
0.3647 0.5922 0.1333
0.6275 0.6000 0.1255
0.8353 0.5961 0.1294
0.9882 0.5922 0.1451
0.1804 0.8039 0.1529
0.3451 0.8000 0.1255
0.6157 0.8157 0.1137
0.8196 0.8000 0.1020
0.9922 0.7922 0.1216
0.1647 0.9765 0.1333
0.3373 0.9922 0.1137
0.6118 0.9922 0.1333
0.8078 0.9922 0.1059
0.9843 0.9922 0.0706
0.1608 0.0902 0.2706
0.3451 0.1059 0.2902
0.6157 0.1176 0.3059
0.8000 0.1137 0.2941
0.9647 0.1020 0.2941
0.1608 0.2824 0.2706
0.3529 0.2980 0.2980
0.6196 0.3176 0.3020
0.8157 0.3059 0.2980
0.9843 0.3020 0.2863
0.1843 0.6000 0.3059
0.3725 0.6039 0.3059
0.6353 0.6078 0.3137
0.8314 0.5961 0.3020
0.9922 0.6000 0.3216
0.1725 0.8000 0.2941
0.3608 0.8039 0.2980
0.6196 0.8118 0.2941
0.8196 0.8078 0.2863
0.9922 0.8000 0.3020
0.1608 0.9843 0.2784
0.3490 0.9922 0.2863
0.6235 0.9922 0.3098
0.8078 0.9922 0.2902
0.9843 0.9922 0.2471
0.1255 0.0588 0.5569
0.3294 0.0784 0.5725
0.6196 0.1176 0.5922
0.8196 0.1137 0.5961
0.9647 0.1098 0.5882
0.1294 0.2824 0.5647
0.3294 0.2863 0.5725
0.6235 0.3176 0.6000
0.8118 0.3098 0.5882
0.9647 0.3098 0.5804
0.1569 0.5961 0.5961
0.3608 0.6000 0.5961
0.6549 0.6235 0.6314
0.8471 0.6196 0.6235
0.9686 0.6275 0.6275
0.1490 0.8039 0.5804
0.3529 0.8039 0.5922
0.6314 0.8235 0.6118
0.8275 0.8157 0.6000
0.9647 0.8118 0.6235
0.1490 0.9765 0.5843
0.3451 0.9765 0.5804
0.6471 0.9725 0.6314
0.8235 0.9765 0.6314
0.9608 0.9725 0.6235
0.0980 0.0431 0.7725
0.3098 0.0627 0.7804
0.6078 0.0980 0.8039
0.8078 0.1176 0.8000
0.9686 0.1098 0.7922
0.1098 0.2510 0.7804
0.3176 0.2627 0.7843
0.6078 0.2980 0.8078
0.8078 0.3098 0.8000
0.9882 0.3020 0.7961
0.1412 0.5804 0.8157
0.3451 0.5922 0.8157
0.6353 0.6118 0.8392
0.8353 0.6118 0.8314
0.9882 0.6235 0.8196
0.1373 0.7922 0.8039
0.3373 0.8000 0.8000
0.6314 0.8196 0.8275
0.8275 0.8196 0.8235
0.9922 0.8118 0.8157
0.1255 0.9804 0.7843
0.3294 0.9922 0.7882
0.6353 0.9922 0.8118
0.8235 0.9922 0.8196
0.9882 0.9882 0.8118
0.0706 0.0157 0.9843
0.2941 0.0353 0.9843
0.6000 0.0784 0.9882
0.8078 0.0941 0.9882
0.9686 0.1020 0.9686
0.0784 0.2314 0.9804
0.2941 0.2431 0.9765
0.6000 0.2863 0.9882
0.8078 0.2980 0.9843
0.9725 0.3020 0.9725
0.1333 0.5686 0.9922
0.3412 0.5765 0.9922
0.6275 0.6039 0.9922
0.8196 0.6118 0.9843
0.9843 0.6196 0.9804
0.1216 0.7882 0.9882
0.3255 0.7922 0.9922
0.6314 0.8118 0.9882
0.8235 0.8157 0.9843
0.9882 0.8118 0.9804
0.1059 0.9765 0.9765
0.3137 0.9843 0.9804
0.6431 0.9882 0.9882
0.8235 0.9882 0.9882
0.9843 0.9922 0.9882
