滤镜资源/vsco 137 3dl+cube/VSCO 137 cube/VSCO B6Bw Moody.cube
#Generated by Picture Instruments - Look Converter
LUT_3D_SIZE 5
0.1020 0.1020 0.1020
0.1059 0.1059 0.1059
0.1098 0.1098 0.1098
0.1216 0.1216 0.1216
0.1490 0.1490 0.1490
0.1098 0.1098 0.1098
0.1216 0.1216 0.1216
0.1490 0.1490 0.1490
0.2196 0.2196 0.2196
0.3373 0.3373 0.3373
0.1490 0.1490 0.1490
0.2118 0.2118 0.2118
0.3373 0.3373 0.3373
0.5059 0.5059 0.5059
0.6510 0.6510 0.6510
0.3373 0.3373 0.3373
0.5020 0.5020 0.5020
0.6549 0.6549 0.6549
0.7569 0.7569 0.7569
0.8196 0.8196 0.8196
0.6431 0.6431 0.6431
0.7529 0.7529 0.7529
0.8196 0.8196 0.8196
0.8588 0.8588 0.8588
0.8745 0.8745 0.8745
0.1020 0.1020 0.1020
0.1059 0.1059 0.1059
0.1137 0.1137 0.1137
0.1294 0.1294 0.1294
0.1647 0.1647 0.1647
0.1137 0.1137 0.1137
0.1294 0.1294 0.1294
0.1686 0.1686 0.1686
0.2549 0.2549 0.2549
0.4039 0.4039 0.4039
0.1686 0.1686 0.1686
0.2510 0.2510 0.2510
0.3961 0.3961 0.3961
0.5647 0.5647 0.5647
0.6941 0.6941 0.6941
0.3961 0.3961 0.3961
0.5608 0.5608 0.5608
0.6980 0.6980 0.6980
0.7882 0.7882 0.7882
0.8392 0.8392 0.8392
0.6902 0.6902 0.6902
0.7804 0.7804 0.7804
0.8353 0.8353 0.8353
0.8667 0.8667 0.8667
0.8824 0.8824 0.8824
0.1020 0.1020 0.1020
0.1098 0.1098 0.1098
0.1176 0.1176 0.1176
0.1412 0.1412 0.1412
0.1922 0.1922 0.1922
0.1176 0.1176 0.1176
0.1412 0.1412 0.1412
0.1922 0.1922 0.1922
0.3020 0.3020 0.3020
0.4588 0.4588 0.4588
0.1922 0.1922 0.1922
0.2941 0.2941 0.2941
0.4667 0.4667 0.4667
0.6235 0.6235 0.6235
0.7373 0.7373 0.7373
0.4588 0.4588 0.4588
0.6157 0.6157 0.6157
0.7333 0.7333 0.7333
0.8118 0.8118 0.8118
0.8510 0.8510 0.8510
0.7255 0.7255 0.7255
0.8000 0.8000 0.8000
0.8510 0.8510 0.8510
0.8745 0.8745 0.8745
0.8863 0.8863 0.8863
0.1059 0.1059 0.1059
0.1098 0.1098 0.1098
0.1255 0.1255 0.1255
0.1569 0.1569 0.1569
0.2235 0.2235 0.2235
0.1255 0.1255 0.1255
0.1569 0.1569 0.1569
0.2235 0.2235 0.2235
0.3569 0.3569 0.3569
0.5216 0.5216 0.5216
0.2275 0.2275 0.2275
0.3569 0.3569 0.3569
0.5255 0.5255 0.5255
0.6706 0.6706 0.6706
0.7647 0.7647 0.7647
0.5216 0.5216 0.5216
0.6627 0.6627 0.6627
0.7647 0.7647 0.7647
0.8314 0.8314 0.8314
0.8627 0.8627 0.8627
0.7608 0.7608 0.7608
0.8235 0.8235 0.8235
0.8627 0.8627 0.8627
0.8824 0.8824 0.8824
0.8902 0.8902 0.8902
0.1059 0.1059 0.1059
0.1137 0.1137 0.1137
0.1294 0.1294 0.1294
0.1725 0.1725 0.1725
0.2588 0.2588 0.2588
0.1294 0.1294 0.1294
0.1725 0.1725 0.1725
0.2588 0.2588 0.2588
0.4196 0.4196 0.4196
0.5725 0.5725 0.5725
0.2627 0.2627 0.2627
0.4118 0.4118 0.4118
0.5804 0.5804 0.5804
0.7059 0.7059 0.7059
0.7882 0.7882 0.7882
0.5725 0.5725 0.5725
0.7020 0.7020 0.7020
0.7922 0.7922 0.7922
0.8431 0.8431 0.8431
0.8667 0.8667 0.8667
0.7843 0.7843 0.7843
0.8353 0.8353 0.8353
0.8667 0.8667 0.8667
0.8863 0.8863 0.8863
0.8941 0.8941 0.8941
